P3
400 225
255
204 226 255
204 226 255
204 226 255
204 226 255
204 226 255
204 226 255
204 226 255
204 226 255
204 226 255
204 226 255
204 226 255
204 226 255
204 226 255
204 226 255
204 226 255
203 226 255
203 226 255
203 226 255
203 226 255
203 226 255
203 226 255
203 226 255
203 226 255
203 225 255
203 225 255
203 225 255
203 225 255
203 225 255
203 225 255
203 225 255
203 225 255
203 225 255
202 225 255
202 225 255
202 225 255
202 225 255
202 225 255
202 225 255
202 225 255
202 225 255
202 225 255
202 225 255
202 225 255
202 225 255
202 225 255
202 225 255
202 225 255
202 225 255
201 225 255
201 225 255
201 225 255
201 225 255
201 225 255
201 224 255
201 224 255
201 224 255
201 224 255
201 224 255
201 224 255
201 224 255
201 224 255
201 224 255
201 224 255
200 224 255
200 224 255
200 224 255
200 224 255
200 224 255
200 224 255
200 224 255
200 224 255
200 224 255
200 224 255
200 224 255
200 224 255
200 224 255
200 224 255
199 224 255
199 224 255
199 224 255
199 223 255
199 223 255
199 223 255
199 223 255
199 223 255
199 223 255
199 223 255
199 223 255
199 223 255
199 223 255
199 223 255
199 223 255
198 223 255
198 223 255
198 223 255
198 223 255
198 223 255
198 223 255
198 223 255
198 223 255
198 223 255
198 223 255
198 223 255
198 223 255
198 223 255
198 223 255
197 223 255
197 222 255
197 222 255
197 222 255
197 222 255
197 222 255
197 222 255
197 222 255
197 222 255
197 222 255
197 222 255
197 222 255
197 222 255
197 222 255
197 222 255
196 222 255
196 222 255
196 222 255
196 222 255
196 222 255
196 222 255
196 222 255
196 222 255
196 222 255
196 222 255
196 222 255
196 222 255
196 222 255
196 222 255
196 221 255
196 221 255
195 221 255
195 221 255
195 221 255
195 221 255
195 221 255
195 221 255
195 221 255
195 221 255
195 221 255
195 221 255
195 221 255
195 221 255
195 221 255
195 221 255
195 221 255
195 221 255
195 221 255
195 221 255
194 221 255
194 221 255
194 221 255
194 221 255
194 221 255
194 221 255
194 221 255
194 221 255
194 221 255
194 221 255
194 221 255
194 221 255
194 221 255
194 221 255
194 221 255
194 221 255
194 221 255
194 221 255
194 221 255
194 221 255
194 221 255
194 221 255
194 220 255
194 220 255
194 220 255
194 220 255
194 220 255
194 220 255
194 220 255
194 220 255
194 220 255
193 220 255
193 220 255
193 220 255
193 220 255
193 220 255
193 220 255
193 220 255
193 220 255
193 220 255
193 220 255
193 220 255
193 220 255
193 220 255
193 220 255
193 220 255
193 220 255
193 220 255
193 220 255
193 220 255
193 220 255
193 220 255
193 220 255
193 220 255
193 220 255
193 220 255
193 220 255
193 220 255
193 220 255
194 220 255
194 220 255
194 220 255
194 220 255
194 220 255
194 220 255
194 220 255
194 220 255
194 220 255
194 221 255
194 221 255
194 221 255
194 221 255
194 221 255
194 221 255
194 221 255
194 221 255
194 221 255
194 221 255
194 221 255
194 221 255
194 221 255
194 221 255
194 221 255
194 221 255
194 221 255
194 221 255
194 221 255
194 221 255
194 221 255
194 221 255
195 221 255
195 221 255
195 221 255
195 221 255
195 221 255
195 221 255
195 221 255
195 221 255
195 221 255
195 221 255
195 221 255
195 221 255
195 221 255
195 221 255
195 221 255
195 221 255
195 221 255
195 221 255
196 221 255
196 221 255
196 222 255
196 222 255
196 222 255
196 222 255
196 222 255
196 222 255
196 222 255
196 222 255
196 222 255
196 222 255
196 222 255
196 222 255
196 222 255
196 222 255
197 222 255
197 222 255
197 222 255
197 222 255
197 222 255
197 222 255
197 222 255
197 222 255
197 222 255
197 222 255
197 222 255
197 222 255
197 222 255
197 222 255
197 223 255
198 223 255
198 223 255
198 223 255
198 223 255
198 223 255
198 223 255
198 223 255
198 223 255
198 223 255
198 223 255
198 223 255
198 223 255
198 223 255
198 223 255
199 223 255
199 223 255
199 223 255
199 223 255
199 223 255
199 223 255
199 223 255
199 223 255
199 223 255
199 223 255
199 223 255
199 223 255
199 224 255
199 224 255
199 224 255
200 224 255
200 224 255
200 224 255
200 224 255
200 224 255
200 224 255
200 224 255
200 224 255
200 224 255
200 224 255
200 224 255
200 224 255
200 224 255
200 224 255
201 224 255
201 224 255
201 224 255
201 224 255
201 224 255
201 224 255
201 224 255
201 224 255
201 224 255
201 224 255
201 224 255
201 225 255
201 225 255
201 225 255
201 225 255
202 225 255
202 225 255
202 225 255
202 225 255
202 225 255
202 225 255
202 225 255
202 225 255
202 225 255
202 225 255
202 225 255
202 225 255
202 225 255
202 225 255
202 225 255
202 225 255
203 225 255
203 225 255
203 225 255
203 225 255
203 225 255
203 225 255
203 225 255
203 225 255
203 225 255
203 226 255
203 226 255
203 226 255
203 226 255
203 226 255
203 226 255
203 226 255
203 226 255
204 226 255
204 226 255
204 226 255
204 226 255
204 226 255
204 226 255
204 226 255
204 226 255
204 226 255
204 226 255
204 226 255
204 226 255
204 226 255
204 226 255
204 226 255
204 226 255
204 226 255
204 226 255
204 226 255
204 226 255
204 226 255
204 226 255
204 226 255
204 226 255
204 226 255
204 226 255
204 226 255
204 226 255
204 226 255
204 226 255
204 226 255
204 226 255
204 226 255
203 226 255
203 226 255
203 226 255
203 226 255
203 226 255
203 226 255
203 226 255
203 225 255
203 225 255
203 225 255
203 225 255
203 225 255
203 225 255
203 225 255
203 225 255
203 225 255
202 225 255
202 225 255
202 225 255
202 225 255
202 225 255
202 225 255
202 225 255
202 225 255
202 225 255
202 225 255
202 225 255
202 225 255
202 225 255
202 225 255
202 225 255
202 225 255
201 225 255
201 225 255
201 225 255
201 225 255
201 225 255
201 224 255
201 224 255
201 224 255
201 224 255
201 224 255
201 224 255
201 224 255
201 224 255
201 224 255
201 224 255
200 224 255
200 224 255
200 224 255
200 224 255
200 224 255
200 224 255
200 224 255
200 224 255
200 224 255
200 224 255
200 224 255
200 224 255
200 224 255
200 224 255
200 224 255
199 224 255
199 224 255
199 223 255
199 223 255
199 223 255
199 223 255
199 223 255
199 223 255
199 223 255
199 223 255
199 223 255
199 223 255
199 223 255
199 223 255
198 223 255
198 223 255
198 223 255
198 223 255
198 223 255
198 223 255
198 223 255
198 223 255
198 223 255
198 223 255
198 223 255
198 223 255
198 223 255
198 223 255
197 223 255
197 222 255
197 222 255
197 222 255
197 222 255
197 222 255
197 222 255
197 222 255
197 222 255
197 222 255
197 222 255
197 222 255
197 222 255
197 222 255
197 222 255
196 222 255
196 222 255
196 222 255
196 222 255
196 222 255
196 222 255
196 222 255
196 222 255
196 222 255
196 222 255
196 222 255
196 222 255
196 222 255
196 222 255
196 222 255
196 221 255
195 221 255
195 221 255
195 221 255
195 221 255
195 221 255
195 221 255
195 221 255
195 221 255
195 221 255
195 221 255
195 221 255
195 221 255
195 221 255
195 221 255
195 221 255
195 221 255
195 221 255
195 221 255
195 221 255
194 221 255
194 221 255
194 221 255
194 221 255
194 221 255
194 221 255
194 221 255
194 221 255
194 221 255
194 221 255
194 221 255
194 221 255
194 221 255
194 221 255
194 221 255
194 221 255
194 221 255
194 221 255
194 221 255
194 221 255
194 221 255
194 221 255
194 221 255
194 221 255
194 221 255
194 220 255
194 220 255
194 220 255
194 220 255
194 220 255
194 220 255
194 220 255
194 220 255
194 220 255
194 220 255
194 220 255
194 220 255
194 220 255
194 220 255
194 220 255
194 220 255
194 220 255
194 220 255
194 220 255
194 220 255
194 220 255
194 220 255
194 220 255
194 220 255
194 220 255
194 220 255
194 220 255
194 220 255
194 220 255
194 220 255
194 220 255
194 220 255
194 220 255
194 220 255
194 221 255
194 221 255
194 221 255
194 221 255
194 221 255
194 221 255
194 221 255
194 221 255
194 221 255
194 221 255
194 221 255
194 221 255
194 221 255
194 221 255
194 221 255
194 221 255
194 221 255
194 221 255
194 221 255
194 221 255
194 221 255
194 221 255
194 221 255
194 221 255
194 221 255
195 221 255
195 221 255
195 221 255
195 221 255
195 221 255
195 221 255
195 221 255
195 221 255
195 221 255
195 221 255
195 221 255
195 221 255
195 221 255
195 221 255
195 221 255
195 221 255
195 221 255
195 221 255
195 221 255
196 221 255
196 222 255
196 222 255
196 222 255
196 222 255
196 222 255
196 222 255
196 222 255
196 222 255
196 222 255
196 222 255
196 222 255
196 222 255
196 222 255
196 222 255
196 222 255
197 222 255
197 222 255
197 222 255
197 222 255
197 222 255
197 222 255
197 222 255
197 222 255
197 222 255
197 222 255
197 222 255
197 222 255
197 222 255
197 222 255
197 223 255
198 223 255
198 223 255
198 223 255
198 223 255
198 223 255
198 223 255
198 223 255
198 223 255
198 223 255
198 223 255
198 223 255
198 223 255
198 223 255
198 223 255
199 223 255
199 223 255
199 223 255
199 223 255
199 223 255
199 223 255
199 223 255
199 223 255
199 223 255
199 223 255
199 223 255
199 223 255
199 224 255
199 224 255
200 224 255
200 224 255
200 224 255
200 224 255
200 224 255
200 224 255
200 224 255
200 224 255
200 224 255
200 224 255
200 224 255
200 224 255
200 224 255
200 224 255
200 224 255
201 224 255
201 224 255
201 224 255
201 224 255
201 224 255
201 224 255
201 224 255
201 224 255
201 224 255
201 224 255
201 225 255
201 225 255
201 225 255
201 225 255
201 225 255
202 225 255
202 225 255
202 225 255
202 225 255
202 225 255
202 225 255
202 225 255
202 225 255
202 225 255
202 225 255
202 225 255
202 225 255
202 225 255
202 225 255
202 225 255
202 225 255
203 225 255
203 225 255
203 225 255
203 225 255
203 225 255
203 225 255
203 225 255
203 225 255
203 225 255
203 226 255
203 226 255
203 226 255
203 226 255
203 226 255
203 226 255
203 226 255
204 226 255
204 226 255
204 226 255
204 226 255
204 226 255
204 226 255
204 226 255
204 226 255
204 226 255
204 226 255
204 226 255
204 226 255
204 226 255
204 226 255
204 226 255
204 226 255
204 226 255
204 226 255
205 226 255
205 226 255
204 226 255
204 226 255
204 226 255
204 226 255
204 226 255
204 226 255
204 226 255
204 226 255
204 226 255
204 226 255
204 226 255
204 226 255
204 226 255
204 226 255
204 226 255
204 226 255
204 226 255
204 226 255
203 226 255
203 226 255
203 226 255
203 226 255
203 226 255
203 226 255
203 226 255
203 225 255
203 225 255
203 225 255
203 225 255
203 225 255
203 225 255
203 225 255
203 225 255
203 225 255
202 225 255
202 225 255
202 225 255
202 225 255
202 225 255
202 225 255
202 225 255
202 225 255
202 225 255
202 225 255
202 225 255
202 225 255
202 225 255
202 225 255
202 225 255
202 225 255
201 225 255
201 225 255
201 225 255
201 225 255
201 225 255
201 224 255
201 224 255
201 224 255
201 224 255
201 224 255
201 224 255
201 224 255
201 224 255
201 224 255
201 224 255
200 224 255
200 224 255
200 224 255
200 224 255
200 224 255
200 224 255
200 224 255
200 224 255
200 224 255
200 224 255
200 224 255
200 224 255
200 224 255
200 224 255
200 224 255
199 224 255
199 224 255
199 223 255
199 223 255
199 223 255
199 223 255
199 223 255
199 223 255
199 223 255
199 223 255
199 223 255
199 223 255
199 223 255
199 223 255
198 223 255
198 223 255
198 223 255
198 223 255
198 223 255
198 223 255
198 223 255
198 223 255
198 223 255
198 223 255
198 223 255
198 223 255
198 223 255
198 223 255
197 223 255
197 222 255
197 222 255
197 222 255
197 222 255
197 222 255
197 222 255
197 222 255
197 222 255
197 222 255
197 222 255
197 222 255
197 222 255
197 222 255
197 222 255
196 222 255
196 222 255
196 222 255
196 222 255
196 222 255
196 222 255
196 222 255
196 222 255
196 222 255
196 222 255
196 222 255
196 222 255
196 222 255
196 222 255
196 222 255
196 221 255
196 221 255
195 221 255
195 221 255
195 221 255
195 221 255
195 221 255
195 221 255
195 221 255
195 221 255
195 221 255
195 221 255
195 221 255
195 221 255
195 221 255
195 221 255
195 221 255
195 221 255
195 221 255
195 221 255
195 221 255
195 221 255
194 221 255
194 221 255
194 221 255
194 221 255
194 221 255
194 221 255
194 221 255
194 221 255
194 221 255
194 221 255
194 221 255
194 221 255
194 221 255
194 221 255
194 221 255
194 221 255
194 221 255
194 221 255
194 221 255
194 221 255
194 221 255
194 221 255
194 221 255
194 221 255
194 221 255
194 221 255
194 221 255
194 221 255
194 221 255
194 221 255
194 220 255
194 220 255
194 220 255
194 220 255
194 220 255
194 220 255
194 220 255
194 220 255
194 220 255
194 220 255
194 220 255
194 220 255
194 220 255
194 220 255
194 220 255
194 221 255
194 221 255
194 221 255
194 221 255
194 221 255
194 221 255
194 221 255
194 221 255
194 221 255
194 221 255
194 221 255
194 221 255
194 221 255
194 221 255
194 221 255
194 221 255
194 221 255
194 221 255
194 221 255
194 221 255
194 221 255
194 221 255
194 221 255
194 221 255
194 221 255
194 221 255
194 221 255
194 221 255
194 221 255
194 221 255
194 221 255
194 221 255
195 221 255
195 221 255
195 221 255
195 221 255
195 221 255
195 221 255
195 221 255
195 221 255
195 221 255
195 221 255
195 221 255
195 221 255
195 221 255
195 221 255
195 221 255
195 221 255
195 221 255
195 221 255
195 221 255
196 221 255
196 221 255
196 222 255
196 222 255
196 222 255
196 222 255
196 222 255
196 222 255
196 222 255
196 222 255
196 222 255
196 222 255
196 222 255
196 222 255
196 222 255
196 222 255
196 222 255
197 222 255
197 222 255
197 222 255
197 222 255
197 222 255
197 222 255
197 222 255
197 222 255
197 222 255
197 222 255
197 222 255
197 222 255
197 222 255
197 222 255
197 223 255
198 223 255
198 223 255
198 223 255
198 223 255
198 223 255
198 223 255
198 223 255
198 223 255
198 223 255
198 223 255
198 223 255
198 223 255
198 223 255
198 223 255
199 223 255
199 223 255
199 223 255
199 223 255
199 223 255
199 223 255
199 223 255
199 223 255
199 223 255
199 223 255
199 223 255
199 223 255
199 224 255
199 224 255
200 224 255
200 224 255
200 224 255
200 224 255
200 224 255
200 224 255
200 224 255
200 224 255
200 224 255
200 224 255
200 224 255
200 224 255
200 224 255
200 224 255
200 224 255
201 224 255
201 224 255
201 224 255
201 224 255
201 224 255
201 224 255
201 224 255
201 224 255
201 224 255
201 224 255
201 225 255
201 225 255
201 225 255
201 225 255
201 225 255
202 225 255
202 225 255
202 225 255
202 225 255
202 225 255
202 225 255
202 225 255
202 225 255
202 225 255
202 225 255
202 225 255
202 225 255
202 225 255
202 225 255
202 225 255
203 225 255
203 225 255
203 225 255
203 225 255
203 225 255
203 225 255
203 225 255
203 225 255
203 225 255
203 225 255
203 226 255
203 226 255
203 226 255
203 226 255
203 226 255
203 226 255
203 226 255
204 226 255
204 226 255
204 226 255
204 226 255
204 226 255
204 226 255
204 226 255
204 226 255
204 226 255
204 226 255
204 226 255
204 226 255
204 226 255
204 226 255
204 226 255
204 226 255
204 226 255
204 226 255
205 226 255
205 226 255
205 226 255
205 226 255
205 226 255
205 226 255
204 226 255
204 226 255
204 226 255
204 226 255
204 226 255
204 226 255
204 226 255
204 226 255
204 226 255
204 226 255
204 226 255
204 226 255
204 226 255
204 226 255
204 226 255
204 226 255
204 226 255
204 226 255
203 226 255
203 226 255
203 226 255
203 226 255
203 226 255
203 226 255
203 226 255
203 226 255
203 225 255
203 225 255
203 225 255
203 225 255
203 225 255
203 225 255
203 225 255
203 225 255
203 225 255
202 225 255
202 225 255
202 225 255
202 225 255
202 225 255
202 225 255
202 225 255
202 225 255
202 225 255
202 225 255
202 225 255
202 225 255
202 225 255
202 225 255
202 225 255
201 225 255
201 225 255
201 225 255
201 225 255
201 225 255
201 224 255
201 224 255
201 224 255
201 224 255
201 224 255
201 224 255
201 224 255
201 224 255
201 224 255
201 224 255
200 224 255
200 224 255
200 224 255
200 224 255
200 224 255
200 224 255
200 224 255
200 224 255
200 224 255
200 224 255
200 224 255
200 224 255
200 224 255
200 224 255
200 224 255
199 224 255
199 224 255
199 223 255
199 223 255
199 223 255
199 223 255
199 223 255
199 223 255
199 223 255
199 223 255
199 223 255
199 223 255
199 223 255
199 223 255
198 223 255
198 223 255
198 223 255
198 223 255
198 223 255
198 223 255
198 223 255
198 223 255
198 223 255
198 223 255
198 223 255
198 223 255
198 223 255
198 223 255
197 223 255
197 222 255
197 222 255
197 222 255
197 222 255
197 222 255
197 222 255
197 222 255
197 222 255
197 222 255
197 222 255
197 222 255
197 222 255
197 222 255
197 222 255
196 222 255
196 222 255
196 222 255
196 222 255
196 222 255
196 222 255
196 222 255
196 222 255
196 222 255
196 222 255
196 222 255
196 222 255
196 222 255
196 222 255
196 222 255
196 222 255
196 221 255
195 221 255
195 221 255
195 221 255
195 221 255
195 221 255
195 221 255
195 221 255
195 221 255
195 221 255
195 221 255
195 221 255
195 221 255
195 221 255
195 221 255
195 221 255
195 221 255
195 221 255
195 221 255
195 221 255
195 221 255
195 221 255
194 221 255
194 221 255
194 221 255
194 221 255
194 221 255
194 221 255
194 221 255
194 221 255
194 221 255
194 221 255
194 221 255
194 221 255
194 221 255
194 221 255
194 221 255
194 221 255
194 221 255
194 221 255
194 221 255
194 221 255
194 221 255
194 221 255
194 221 255
194 221 255
194 221 255
194 221 255
194 221 255
194 221 255
194 221 255
194 221 255
194 221 255
194 221 255
194 221 255
194 221 255
194 221 255
194 221 255
194 221 255
194 221 255
194 221 255
194 221 255
194 221 255
194 221 255
194 221 255
194 221 255
194 221 255
194 221 255
194 221 255
194 221 255
194 221 255
194 221 255
194 221 255
194 221 255
194 221 255
194 221 255
194 221 255
194 221 255
194 221 255
194 221 255
194 221 255
194 221 255
194 221 255
194 221 255
194 221 255
194 221 255
194 221 255
194 221 255
194 221 255
194 221 255
194 221 255
194 221 255
195 221 255
195 221 255
195 221 255
195 221 255
195 221 255
195 221 255
195 221 255
195 221 255
195 221 255
195 221 255
195 221 255
195 221 255
195 221 255
195 221 255
195 221 255
195 221 255
195 221 255
195 221 255
195 221 255
195 221 255
195 221 255
196 221 255
196 222 255
196 222 255
196 222 255
196 222 255
196 222 255
196 222 255
196 222 255
196 222 255
196 222 255
196 222 255
196 222 255
196 222 255
196 222 255
196 222 255
196 222 255
196 222 255
197 222 255
197 222 255
197 222 255
197 222 255
197 222 255
197 222 255
197 222 255
197 222 255
197 222 255
197 222 255
197 222 255
197 222 255
197 222 255
197 222 255
197 223 255
198 223 255
198 223 255
198 223 255
198 223 255
198 223 255
198 223 255
198 223 255
198 223 255
198 223 255
198 223 255
198 223 255
198 223 255
198 223 255
198 223 255
199 223 255
199 223 255
199 223 255
199 223 255
199 223 255
199 223 255
199 223 255
199 223 255
199 223 255
199 223 255
199 223 255
199 223 255
199 224 255
199 224 255
200 224 255
200 224 255
200 224 255
200 224 255
200 224 255
200 224 255
200 224 255
200 224 255
200 224 255
200 224 255
200 224 255
200 224 255
200 224 255
200 224 255
200 224 255
201 224 255
201 224 255
201 224 255
201 224 255
201 224 255
201 224 255
201 224 255
201 224 255
201 224 255
201 224 255
201 225 255
201 225 255
201 225 255
201 225 255
201 225 255
202 225 255
202 225 255
202 225 255
202 225 255
202 225 255
202 225 255
202 225 255
202 225 255
202 225 255
202 225 255
202 225 255
202 225 255
202 225 255
202 225 255
202 225 255
203 225 255
203 225 255
203 225 255
203 225 255
203 225 255
203 225 255
203 225 255
203 225 255
203 225 255
203 226 255
203 226 255
203 226 255
203 226 255
203 226 255
203 226 255
203 226 255
203 226 255
204 226 255
204 226 255
204 226 255
204 226 255
204 226 255
204 226 255
204 226 255
204 226 255
204 226 255
204 226 255
204 226 255
204 226 255
204 226 255
204 226 255
204 226 255
204 226 255
204 226 255
204 226 255
205 226 255
205 226 255
205 226 255
205 226 255
205 226 255
205 226 255
205 226 255
205 226 255
205 226 255
205 226 255
205 226 255
204 226 255
204 226 255
204 226 255
204 226 255
204 226 255
204 226 255
204 226 255
204 226 255
204 226 255
204 226 255
204 226 255
204 226 255
204 226 255
204 226 255
204 226 255
204 226 255
204 226 255
203 226 255
203 226 255
203 226 255
203 226 255
203 226 255
203 226 255
203 226 255
203 226 255
203 225 255
203 225 255
203 225 255
203 225 255
203 225 255
203 225 255
203 225 255
203 225 255
203 225 255
202 225 255
202 225 255
202 225 255
202 225 255
202 225 255
202 225 255
202 225 255
202 225 255
202 225 255
202 225 255
202 225 255
202 225 255
202 225 255
202 225 255
202 225 255
202 225 255
201 225 255
201 225 255
201 225 255
201 225 255
201 224 255
201 224 255
201 224 255
201 224 255
201 224 255
201 224 255
201 224 255
201 224 255
201 224 255
201 224 255
200 224 255
200 224 255
200 224 255
200 224 255
200 224 255
200 224 255
200 224 255
200 224 255
200 224 255
200 224 255
200 224 255
200 224 255
200 224 255
200 224 255
200 224 255
199 224 255
199 224 255
199 223 255
199 223 255
199 223 255
199 223 255
199 223 255
199 223 255
199 223 255
199 223 255
199 223 255
199 223 255
199 223 255
199 223 255
198 223 255
198 223 255
198 223 255
198 223 255
198 223 255
198 223 255
198 223 255
198 223 255
198 223 255
198 223 255
198 223 255
198 223 255
198 223 255
198 223 255
197 223 255
197 222 255
197 222 255
197 222 255
197 222 255
197 222 255
197 222 255
197 222 255
197 222 255
197 222 255
197 222 255
197 222 255
197 222 255
197 222 255
197 222 255
197 222 255
196 222 255
196 222 255
196 222 255
196 222 255
196 222 255
196 222 255
196 222 255
196 222 255
196 222 255
196 222 255
196 222 255
196 222 255
196 222 255
196 222 255
196 222 255
196 221 255
196 221 255
195 221 255
195 221 255
195 221 255
195 221 255
195 221 255
195 221 255
195 221 255
195 221 255
195 221 255
195 221 255
195 221 255
195 221 255
195 221 255
195 221 255
195 221 255
195 221 255
195 221 255
195 221 255
195 221 255
195 221 255
195 221 255
195 221 255
194 221 255
194 221 255
194 221 255
194 221 255
194 221 255
194 221 255
194 221 255
194 221 255
194 221 255
194 221 255
194 221 255
194 221 255
194 221 255
194 221 255
194 221 255
194 221 255
194 221 255
194 221 255
194 221 255
194 221 255
194 221 255
194 221 255
194 221 255
194 221 255
194 221 255
194 221 255
194 221 255
194 221 255
194 221 255
194 221 255
194 221 255
194 221 255
194 221 255
194 221 255
194 221 255
194 221 255
194 221 255
194 221 255
194 221 255
194 221 255
194 221 255
194 221 255
194 221 255
194 221 255
194 221 255
194 221 255
194 221 255
194 221 255
194 221 255
194 221 255
194 221 255
194 221 255
194 221 255
194 221 255
194 221 255
194 221 255
194 221 255
194 221 255
194 221 255
194 221 255
194 221 255
194 221 255
195 221 255
195 221 255
195 221 255
195 221 255
195 221 255
195 221 255
195 221 255
195 221 255
195 221 255
195 221 255
195 221 255
195 221 255
195 221 255
195 221 255
195 221 255
195 221 255
195 221 255
195 221 255
195 221 255
195 221 255
195 221 255
195 221 255
196 221 255
196 221 255
196 222 255
196 222 255
196 222 255
196 222 255
196 222 255
196 222 255
196 222 255
196 222 255
196 222 255
196 222 255
196 222 255
196 222 255
196 222 255
196 222 255
196 222 255
197 222 255
197 222 255
197 222 255
197 222 255
197 222 255
197 222 255
197 222 255
197 222 255
197 222 255
197 222 255
197 222 255
197 222 255
197 222 255
197 222 255
197 222 255
197 223 255
198 223 255
198 223 255
198 223 255
198 223 255
198 223 255
198 223 255
198 223 255
198 223 255
198 223 255
198 223 255
198 223 255
198 223 255
198 223 255
198 223 255
199 223 255
199 223 255
199 223 255
199 223 255
199 223 255
199 223 255
199 223 255
199 223 255
199 223 255
199 223 255
199 223 255
199 223 255
199 224 255
199 224 255
200 224 255
200 224 255
200 224 255
200 224 255
200 224 255
200 224 255
200 224 255
200 224 255
200 224 255
200 224 255
200 224 255
200 224 255
200 224 255
200 224 255
200 224 255
201 224 255
201 224 255
201 224 255
201 224 255
201 224 255
201 224 255
201 224 255
201 224 255
201 224 255
201 224 255
201 225 255
201 225 255
201 225 255
201 225 255
201 225 255
202 225 255
202 225 255
202 225 255
202 225 255
202 225 255
202 225 255
202 225 255
202 225 255
202 225 255
202 225 255
202 225 255
202 225 255
202 225 255
202 225 255
202 225 255
203 225 255
203 225 255
203 225 255
203 225 255
203 225 255
203 225 255
203 225 255
203 225 255
203 225 255
203 226 255
203 226 255
203 226 255
203 226 255
203 226 255
203 226 255
203 226 255
203 226 255
204 226 255
204 226 255
204 226 255
204 226 255
204 226 255
204 226 255
204 226 255
204 226 255
204 226 255
204 226 255
204 226 255
204 226 255
204 226 255
204 226 255
204 226 255
204 226 255
204 226 255
205 226 255
205 226 255
205 226 255
205 226 255
205 226 255
205 226 255
205 226 255
205 227 255
205 227 255
205 226 255
205 226 255
205 226 255
205 226 255
205 226 255
205 226 255
205 226 255
204 226 255
204 226 255
204 226 255
204 226 255
204 226 255
204 226 255
204 226 255
204 226 255
204 226 255
204 226 255
204 226 255
204 226 255
204 226 255
204 226 255
204 226 255
204 226 255
204 226 255
204 226 255
203 226 255
203 226 255
203 226 255
203 226 255
203 226 255
203 226 255
203 226 255
203 225 255
203 225 255
203 225 255
203 225 255
203 225 255
203 225 255
203 225 255
203 225 255
203 225 255
202 225 255
202 225 255
202 225 255
202 225 255
202 225 255
202 225 255
202 225 255
202 225 255
202 225 255
202 225 255
202 225 255
202 225 255
202 225 255
202 225 255
202 225 255
202 225 255
201 225 255
201 225 255
201 225 255
201 225 255
201 224 255
201 224 255
201 224 255
201 224 255
201 224 255
201 224 255
201 224 255
201 224 255
201 224 255
201 224 255
200 224 255
200 224 255
200 224 255
200 224 255
200 224 255
200 224 255
200 224 255
200 224 255
200 224 255
200 224 255
200 224 255
200 224 255
200 224 255
200 224 255
200 224 255
199 224 255
199 224 255
199 223 255
199 223 255
199 223 255
199 223 255
199 223 255
199 223 255
199 223 255
199 223 255
199 223 255
199 223 255
199 223 255
199 223 255
198 223 255
198 223 255
198 223 255
198 223 255
198 223 255
198 223 255
198 223 255
198 223 255
198 223 255
198 223 255
198 223 255
198 223 255
198 223 255
198 223 255
198 223 255
197 222 255
197 222 255
197 222 255
197 222 255
197 222 255
197 222 255
197 222 255
197 222 255
197 222 255
197 222 255
197 222 255
197 222 255
197 222 255
197 222 255
197 222 255
196 222 255
196 222 255
196 222 255
196 222 255
196 222 255
196 222 255
196 222 255
196 222 255
196 222 255
196 222 255
196 222 255
196 222 255
196 222 255
196 222 255
196 222 255
196 222 255
196 221 255
195 221 255
195 221 255
195 221 255
195 221 255
195 221 255
195 221 255
195 221 255
195 221 255
195 221 255
195 221 255
195 221 255
195 221 255
195 221 255
195 221 255
195 221 255
195 221 255
195 221 255
195 221 255
195 221 255
195 221 255
195 221 255
195 221 255
195 221 255
195 221 255
194 221 255
194 221 255
194 221 255
194 221 255
194 221 255
194 221 255
194 221 255
194 221 255
194 221 255
194 221 255
194 221 255
194 221 255
194 221 255
194 221 255
194 221 255
194 221 255
194 221 255
194 221 255
194 221 255
194 221 255
194 221 255
194 221 255
194 221 255
194 221 255
194 221 255
194 221 255
194 221 255
194 221 255
194 221 255
194 221 255
194 221 255
194 221 255
194 221 255
194 221 255
194 221 255
194 221 255
194 221 255
194 221 255
194 221 255
194 221 255
194 221 255
194 221 255
194 221 255
194 221 255
194 221 255
194 221 255
194 221 255
194 221 255
194 221 255
194 221 255
194 221 255
194 221 255
194 221 255
194 221 255
195 221 255
195 221 255
195 221 255
195 221 255
195 221 255
195 221 255
195 221 255
195 221 255
195 221 255
195 221 255
195 221 255
195 221 255
195 221 255
195 221 255
195 221 255
195 221 255
195 221 255
195 221 255
195 221 255
195 221 255
195 221 255
195 221 255
195 221 255
195 221 255
196 221 255
196 222 255
196 222 255
196 222 255
196 222 255
196 222 255
196 222 255
196 222 255
196 222 255
196 222 255
196 222 255
196 222 255
196 222 255
196 222 255
196 222 255
196 222 255
196 222 255
197 222 255
197 222 255
197 222 255
197 222 255
197 222 255
197 222 255
197 222 255
197 222 255
197 222 255
197 222 255
197 222 255
197 222 255
197 222 255
197 222 255
197 222 255
198 223 255
198 223 255
198 223 255
198 223 255
198 223 255
198 223 255
198 223 255
198 223 255
198 223 255
198 223 255
198 223 255
198 223 255
198 223 255
198 223 255
198 223 255
199 223 255
199 223 255
199 223 255
199 223 255
199 223 255
199 223 255
199 223 255
199 223 255
199 223 255
199 223 255
199 223 255
199 223 255
199 224 255
199 224 255
200 224 255
200 224 255
200 224 255
200 224 255
200 224 255
200 224 255
200 224 255
200 224 255
200 224 255
200 224 255
200 224 255
200 224 255
200 224 255
200 224 255
200 224 255
201 224 255
201 224 255
201 224 255
201 224 255
201 224 255
201 224 255
201 224 255
201 224 255
201 224 255
201 224 255
201 225 255
201 225 255
201 225 255
201 225 255
202 225 255
202 225 255
202 225 255
202 225 255
202 225 255
202 225 255
202 225 255
202 225 255
202 225 255
202 225 255
202 225 255
202 225 255
202 225 255
202 225 255
202 225 255
202 225 255
203 225 255
203 225 255
203 225 255
203 225 255
203 225 255
203 225 255
203 225 255
203 225 255
203 225 255
203 226 255
203 226 255
203 226 255
203 226 255
203 226 255
203 226 255
203 226 255
204 226 255
204 226 255
204 226 255
204 226 255
204 226 255
204 226 255
204 226 255
204 226 255
204 226 255
204 226 255
204 226 255
204 226 255
204 226 255
204 226 255
204 226 255
204 226 255
204 226 255
204 226 255
205 226 255
205 226 255
205 226 255
205 226 255
205 226 255
205 226 255
205 226 255
205 227 255
205 227 255
205 227 255
205 227 255
205 227 255
205 227 255
205 226 255
205 226 255
205 226 255
205 226 255
205 226 255
205 226 255
205 226 255
205 226 255
204 226 255
204 226 255
204 226 255
204 226 255
204 226 255
204 226 255
204 226 255
204 226 255
204 226 255
204 226 255
204 226 255
204 226 255
204 226 255
204 226 255
204 226 255
204 226 255
204 226 255
203 226 255
203 226 255
203 226 255
203 226 255
203 226 255
203 226 255
203 226 255
203 225 255
203 225 255
203 225 255
203 225 255
203 225 255
203 225 255
203 225 255
203 225 255
203 225 255
202 225 255
202 225 255
202 225 255
202 225 255
202 225 255
202 225 255
202 225 255
202 225 255
202 225 255
202 225 255
202 225 255
202 225 255
202 225 255
202 225 255
202 225 255
202 225 255
201 225 255
201 225 255
201 225 255
201 225 255
201 224 255
201 224 255
201 224 255
201 224 255
201 224 255
201 224 255
201 224 255
201 224 255
201 224 255
201 224 255
201 224 255
200 224 255
200 224 255
200 224 255
200 224 255
200 224 255
200 224 255
200 224 255
200 224 255
200 224 255
200 224 255
200 224 255
200 224 255
200 224 255
200 224 255
199 224 255
199 224 255
199 223 255
199 223 255
199 223 255
199 223 255
199 223 255
199 223 255
199 223 255
199 223 255
199 223 255
199 223 255
199 223 255
199 223 255
198 223 255
198 223 255
198 223 255
198 223 255
198 223 255
198 223 255
198 223 255
198 223 255
198 223 255
198 223 255
198 223 255
198 223 255
198 223 255
198 223 255
198 223 255
197 222 255
197 222 255
197 222 255
197 222 255
197 222 255
197 222 255
197 222 255
197 222 255
197 222 255
197 222 255
197 222 255
197 222 255
197 222 255
197 222 255
197 222 255
196 222 255
196 222 255
196 222 255
196 222 255
196 222 255
196 222 255
196 222 255
196 222 255
196 222 255
196 222 255
196 222 255
196 222 255
196 222 255
196 222 255
196 222 255
196 222 255
196 221 255
196 221 255
195 221 255
195 221 255
195 221 255
195 221 255
195 221 255
195 221 255
195 221 255
195 221 255
195 221 255
195 221 255
195 221 255
195 221 255
195 221 255
195 221 255
195 221 255
195 221 255
195 221 255
195 221 255
195 221 255
195 221 255
195 221 255
195 221 255
195 221 255
195 221 255
195 221 255
195 221 255
195 221 255
194 221 255
194 221 255
194 221 255
194 221 255
194 221 255
194 221 255
194 221 255
194 221 255
194 221 255
194 221 255
194 221 255
194 221 255
194 221 255
194 221 255
194 221 255
194 221 255
194 221 255
194 221 255
194 221 255
194 221 255
194 221 255
194 221 255
194 221 255
194 221 255
194 221 255
194 221 255
194 221 255
194 221 255
194 221 255
194 221 255
194 221 255
194 221 255
194 221 255
194 221 255
194 221 255
194 221 255
194 221 255
194 221 255
194 221 255
194 221 255
194 221 255
194 221 255
194 221 255
195 221 255
195 221 255
195 221 255
195 221 255
195 221 255
195 221 255
195 221 255
195 221 255
195 221 255
195 221 255
195 221 255
195 221 255
195 221 255
195 221 255
195 221 255
195 221 255
195 221 255
195 221 255
195 221 255
195 221 255
195 221 255
195 221 255
195 221 255
195 221 255
195 221 255
195 221 255
196 221 255
196 222 255
196 222 255
196 222 255
196 222 255
196 222 255
196 222 255
196 222 255
196 222 255
196 222 255
196 222 255
196 222 255
196 222 255
196 222 255
196 222 255
196 222 255
196 222 255
197 222 255
197 222 255
197 222 255
197 222 255
197 222 255
197 222 255
197 222 255
197 222 255
197 222 255
197 222 255
197 222 255
197 222 255
197 222 255
197 222 255
197 222 255
197 222 255
198 223 255
198 223 255
198 223 255
198 223 255
198 223 255
198 223 255
198 223 255
198 223 255
198 223 255
198 223 255
198 223 255
198 223 255
198 223 255
198 223 255
198 223 255
199 223 255
199 223 255
199 223 255
199 223 255
199 223 255
199 223 255
199 223 255
199 223 255
199 223 255
199 223 255
199 223 255
199 223 255
199 224 255
199 224 255
200 224 255
200 224 255
200 224 255
200 224 255
200 224 255
200 224 255
200 224 255
200 224 255
200 224 255
200 224 255
200 224 255
200 224 255
200 224 255
200 224 255
200 224 255
201 224 255
201 224 255
201 224 255
201 224 255
201 224 255
201 224 255
201 224 255
201 224 255
201 224 255
201 224 255
201 225 255
201 225 255
201 225 255
201 225 255
202 225 255
202 225 255
202 225 255
202 225 255
202 225 255
202 225 255
202 225 255
202 225 255
202 225 255
202 225 255
202 225 255
202 225 255
202 225 255
202 225 255
202 225 255
202 225 255
203 225 255
203 225 255
203 225 255
203 225 255
203 225 255
203 225 255
203 225 255
203 225 255
203 225 255
203 226 255
203 226 255
203 226 255
203 226 255
203 226 255
203 226 255
203 226 255
204 226 255
204 226 255
204 226 255
204 226 255
204 226 255
204 226 255
204 226 255
204 226 255
204 226 255
204 226 255
204 226 255
204 226 255
204 226 255
204 226 255
204 226 255
204 226 255
204 226 255
205 226 255
205 226 255
205 226 255
205 226 255
205 226 255
205 226 255
205 226 255
205 226 255
205 227 255
205 227 255
205 227 255
205 227 255
205 227 255
205 227 255
205 227 255
205 227 255
205 227 255
205 227 255
205 227 255
205 226 255
205 226 255
205 226 255
205 226 255
205 226 255
205 226 255
205 226 255
204 226 255
204 226 255
204 226 255
204 226 255
204 226 255
204 226 255
204 226 255
204 226 255
204 226 255
204 226 255
204 226 255
204 226 255
204 226 255
204 226 255
204 226 255
204 226 255
204 226 255
203 226 255
203 226 255
203 226 255
203 226 255
203 226 255
203 226 255
203 226 255
203 226 255
203 225 255
203 225 255
203 225 255
203 225 255
203 225 255
203 225 255
203 225 255
203 225 255
203 225 255
202 225 255
202 225 255
202 225 255
202 225 255
202 225 255
202 225 255
202 225 255
202 225 255
202 225 255
202 225 255
202 225 255
202 225 255
202 225 255
202 225 255
202 225 255
201 225 255
201 225 255
201 225 255
201 225 255
201 224 255
201 224 255
201 224 255
201 224 255
201 224 255
201 224 255
201 224 255
201 224 255
201 224 255
201 224 255
201 224 255
200 224 255
200 224 255
200 224 255
200 224 255
200 224 255
200 224 255
200 224 255
200 224 255
200 224 255
200 224 255
200 224 255
200 224 255
200 224 255
200 224 255
199 224 255
199 224 255
199 223 255
199 223 255
199 223 255
199 223 255
199 223 255
199 223 255
199 223 255
199 223 255
199 223 255
199 223 255
199 223 255
199 223 255
198 223 255
198 223 255
198 223 255
198 223 255
198 223 255
198 223 255
198 223 255
198 223 255
198 223 255
198 223 255
198 223 255
198 223 255
198 223 255
198 223 255
198 223 255
197 223 255
197 222 255
197 222 255
197 222 255
197 222 255
197 222 255
197 222 255
197 222 255
197 222 255
197 222 255
197 222 255
197 222 255
197 222 255
197 222 255
197 222 255
197 222 255
196 222 255
196 222 255
196 222 255
196 222 255
196 222 255
196 222 255
196 222 255
196 222 255
196 222 255
196 222 255
196 222 255
196 222 255
196 222 255
196 222 255
196 222 255
196 222 255
196 222 255
196 221 255
195 221 255
195 221 255
195 221 255
195 221 255
195 221 255
195 221 255
195 221 255
195 221 255
195 221 255
195 221 255
195 221 255
195 221 255
195 221 255
195 221 255
195 221 255
195 221 255
195 221 255
195 221 255
195 221 255
195 221 255
195 221 255
195 221 255
195 221 255
195 221 255
195 221 255
195 221 255
195 221 255
195 221 255
195 221 255
195 221 255
194 221 255
194 221 255
194 221 255
194 221 255
194 221 255
194 221 255
194 221 255
194 221 255
194 221 255
194 221 255
194 221 255
194 221 255
194 221 255
194 221 255
194 221 255
194 221 255
194 221 255
194 221 255
194 221 255
194 221 255
194 221 255
194 221 255
194 221 255
194 221 255
194 221 255
194 221 255
194 221 255
194 221 255
194 221 255
194 221 255
195 221 255
195 221 255
195 221 255
195 221 255
195 221 255
195 221 255
195 221 255
195 221 255
195 221 255
195 221 255
195 221 255
195 221 255
195 221 255
195 221 255
195 221 255
195 221 255
195 221 255
195 221 255
195 221 255
195 221 255
195 221 255
195 221 255
195 221 255
195 221 255
195 221 255
195 221 255
195 221 255
195 221 255
195 221 255
195 221 255
196 221 255
196 222 255
196 222 255
196 222 255
196 222 255
196 222 255
196 222 255
196 222 255
196 222 255
196 222 255
196 222 255
196 222 255
196 222 255
196 222 255
196 222 255
196 222 255
196 222 255
196 222 255
197 222 255
197 222 255
197 222 255
197 222 255
197 222 255
197 222 255
197 222 255
197 222 255
197 222 255
197 222 255
197 222 255
197 222 255
197 222 255
197 222 255
197 222 255
197 223 255
198 223 255
198 223 255
198 223 255
198 223 255
198 223 255
198 223 255
198 223 255
198 223 255
198 223 255
198 223 255
198 223 255
198 223 255
198 223 255
198 223 255
199 223 255
199 223 255
199 223 255
199 223 255
199 223 255
199 223 255
199 223 255
199 223 255
199 223 255
199 223 255
199 223 255
199 223 255
199 223 255
199 224 255
199 224 255
200 224 255
200 224 255
200 224 255
200 224 255
200 224 255
200 224 255
200 224 255
200 224 255
200 224 255
200 224 255
200 224 255
200 224 255
200 224 255
200 224 255
201 224 255
201 224 255
201 224 255
201 224 255
201 224 255
201 224 255
201 224 255
201 224 255
201 224 255
201 224 255
201 224 255
201 225 255
201 225 255
201 225 255
201 225 255
202 225 255
202 225 255
202 225 255
202 225 255
202 225 255
202 225 255
202 225 255
202 225 255
202 225 255
202 225 255
202 225 255
202 225 255
202 225 255
202 225 255
202 225 255
203 225 255
203 225 255
203 225 255
203 225 255
203 225 255
203 225 255
203 225 255
203 225 255
203 225 255
203 226 255
203 226 255
203 226 255
203 226 255
203 226 255
203 226 255
203 226 255
203 226 255
204 226 255
204 226 255
204 226 255
204 226 255
204 226 255
204 226 255
204 226 255
204 226 255
204 226 255
204 226 255
204 226 255
204 226 255
204 226 255
204 226 255
204 226 255
204 226 255
204 226 255
205 226 255
205 226 255
205 226 255
205 226 255
205 226 255
205 226 255
205 226 255
205 226 255
205 227 255
205 227 255
205 227 255
205 227 255
205 227 255
205 227 255
205 227 255
205 227 255
205 227 255
205 227 255
205 227 255
205 227 255
205 227 255
205 227 255
205 227 255
205 226 255
205 226 255
205 226 255
205 226 255
205 226 255
205 226 255
205 226 255
204 226 255
204 226 255
204 226 255
204 226 255
204 226 255
204 226 255
204 226 255
204 226 255
204 226 255
204 226 255
204 226 255
204 226 255
204 226 255
204 226 255
204 226 255
204 226 255
204 226 255
204 226 255
203 226 255
203 226 255
203 226 255
203 226 255
203 226 255
203 226 255
203 226 255
203 225 255
203 225 255
203 225 255
203 225 255
203 225 255
203 225 255
203 225 255
203 225 255
203 225 255
202 225 255
202 225 255
202 225 255
202 225 255
202 225 255
202 225 255
202 225 255
202 225 255
202 225 255
202 225 255
202 225 255
202 225 255
202 225 255
202 225 255
202 225 255
201 225 255
201 225 255
201 225 255
201 225 255
201 225 255
201 224 255
201 224 255
201 224 255
201 224 255
201 224 255
201 224 255
201 224 255
201 224 255
201 224 255
201 224 255
200 224 255
200 224 255
200 224 255
200 224 255
200 224 255
200 224 255
200 224 255
200 224 255
200 224 255
200 224 255
200 224 255
200 224 255
200 224 255
200 224 255
199 224 255
199 224 255
199 223 255
199 223 255
199 223 255
199 223 255
199 223 255
199 223 255
199 223 255
199 223 255
199 223 255
199 223 255
199 223 255
199 223 255
199 223 255
198 223 255
198 223 255
198 223 255
198 223 255
198 223 255
198 223 255
198 223 255
198 223 255
198 223 255
198 223 255
198 223 255
198 223 255
198 223 255
198 223 255
197 223 255
197 222 255
197 222 255
197 222 255
197 222 255
197 222 255
197 222 255
197 222 255
197 222 255
197 222 255
197 222 255
197 222 255
197 222 255
197 222 255
197 222 255
197 222 255
196 222 255
196 222 255
196 222 255
196 222 255
196 222 255
196 222 255
196 222 255
196 222 255
196 222 255
196 222 255
196 222 255
196 222 255
196 222 255
196 222 255
196 222 255
196 222 255
196 222 255
196 222 255
196 221 255
196 221 255
195 221 255
195 221 255
195 221 255
195 221 255
195 221 255
195 221 255
195 221 255
195 221 255
195 221 255
195 221 255
195 221 255
195 221 255
195 221 255
195 221 255
195 221 255
195 221 255
195 221 255
195 221 255
195 221 255
195 221 255
195 221 255
195 221 255
195 221 255
195 221 255
195 221 255
195 221 255
195 221 255
195 221 255
195 221 255
195 221 255
195 221 255
195 221 255
195 221 255
195 221 255
195 221 255
195 221 255
195 221 255
195 221 255
195 221 255
195 221 255
195 221 255
195 221 255
195 221 255
195 221 255
195 221 255
195 221 255
195 221 255
195 221 255
195 221 255
195 221 255
195 221 255
195 221 255
195 221 255
195 221 255
195 221 255
195 221 255
195 221 255
195 221 255
195 221 255
195 221 255
195 221 255
195 221 255
195 221 255
195 221 255
195 221 255
195 221 255
195 221 255
195 221 255
195 221 255
195 221 255
195 221 255
195 221 255
195 221 255
195 221 255
195 221 255
195 221 255
195 221 255
195 221 255
195 221 255
195 221 255
195 221 255
195 221 255
196 221 255
196 221 255
196 222 255
196 222 255
196 222 255
196 222 255
196 222 255
196 222 255
196 222 255
196 222 255
196 222 255
196 222 255
196 222 255
196 222 255
196 222 255
196 222 255
196 222 255
196 222 255
196 222 255
196 222 255
197 222 255
197 222 255
197 222 255
197 222 255
197 222 255
197 222 255
197 222 255
197 222 255
197 222 255
197 222 255
197 222 255
197 222 255
197 222 255
197 222 255
197 222 255
197 223 255
198 223 255
198 223 255
198 223 255
198 223 255
198 223 255
198 223 255
198 223 255
198 223 255
198 223 255
198 223 255
198 223 255
198 223 255
198 223 255
198 223 255
199 223 255
199 223 255
199 223 255
199 223 255
199 223 255
199 223 255
199 223 255
199 223 255
199 223 255
199 223 255
199 223 255
199 223 255
199 223 255
199 224 255
199 224 255
200 224 255
200 224 255
200 224 255
200 224 255
200 224 255
200 224 255
200 224 255
200 224 255
200 224 255
200 224 255
200 224 255
200 224 255
200 224 255
200 224 255
201 224 255
201 224 255
201 224 255
201 224 255
201 224 255
201 224 255
201 224 255
201 224 255
201 224 255
201 224 255
201 225 255
201 225 255
201 225 255
201 225 255
201 225 255
202 225 255
202 225 255
202 225 255
202 225 255
202 225 255
202 225 255
202 225 255
202 225 255
202 225 255
202 225 255
202 225 255
202 225 255
202 225 255
202 225 255
202 225 255
203 225 255
203 225 255
203 225 255
203 225 255
203 225 255
203 225 255
203 225 255
203 225 255
203 225 255
203 226 255
203 226 255
203 226 255
203 226 255
203 226 255
203 226 255
203 226 255
204 226 255
204 226 255
204 226 255
204 226 255
204 226 255
204 226 255
204 226 255
204 226 255
204 226 255
204 226 255
204 226 255
204 226 255
204 226 255
204 226 255
204 226 255
204 226 255
204 226 255
204 226 255
205 226 255
205 226 255
205 226 255
205 226 255
205 226 255
205 226 255
205 226 255
205 227 255
205 227 255
205 227 255
205 227 255
205 227 255
205 227 255
205 227 255
205 227 255
205 227 255
205 227 255
205 227 255
205 227 255
205 227 255
205 227 255
205 227 255
205 227 255
205 227 255
205 227 255
205 227 255
205 227 255
205 227 255
205 226 255
205 226 255
205 226 255
205 226 255
205 226 255
205 226 255
205 226 255
204 226 255
204 226 255
204 226 255
204 226 255
204 226 255
204 226 255
204 226 255
204 226 255
204 226 255
204 226 255
204 226 255
204 226 255
204 226 255
204 226 255
204 226 255
204 226 255
204 226 255
203 226 255
203 226 255
203 226 255
203 226 255
203 226 255
203 226 255
203 226 255
203 225 255
203 225 255
203 225 255
203 225 255
203 225 255
203 225 255
203 225 255
203 225 255
203 225 255
202 225 255
202 225 255
202 225 255
202 225 255
202 225 255
202 225 255
202 225 255
202 225 255
202 225 255
202 225 255
202 225 255
202 225 255
202 225 255
202 225 255
202 225 255
201 225 255
201 225 255
201 225 255
201 225 255
201 225 255
201 224 255
201 224 255
201 224 255
201 224 255
201 224 255
201 224 255
201 224 255
201 224 255
201 224 255
201 224 255
200 224 255
200 224 255
200 224 255
200 224 255
200 224 255
200 224 255
200 224 255
200 224 255
200 224 255
200 224 255
200 224 255
200 224 255
200 224 255
200 224 255
199 224 255
199 224 255
199 224 255
199 223 255
199 223 255
199 223 255
199 223 255
199 223 255
199 223 255
199 223 255
199 223 255
199 223 255
199 223 255
199 223 255
199 223 255
198 223 255
198 223 255
198 223 255
198 223 255
198 223 255
198 223 255
198 223 255
198 223 255
198 223 255
198 223 255
198 223 255
198 223 255
198 223 255
198 223 255
198 223 255
197 222 255
197 222 255
197 222 255
197 222 255
197 222 255
197 222 255
197 222 255
197 222 255
197 222 255
197 222 255
197 222 255
197 222 255
197 222 255
197 222 255
197 222 255
197 222 255
196 222 255
196 222 255
196 222 255
196 222 255
196 222 255
196 222 255
196 222 255
196 222 255
196 222 255
196 222 255
196 222 255
196 222 255
196 222 255
196 222 255
196 222 255
196 222 255
196 222 255
196 222 255
196 221 255
196 221 255
195 221 255
195 221 255
195 221 255
195 221 255
195 221 255
195 221 255
195 221 255
195 221 255
195 221 255
195 221 255
195 221 255
195 221 255
195 221 255
195 221 255
195 221 255
195 221 255
195 221 255
195 221 255
195 221 255
195 221 255
195 221 255
195 221 255
195 221 255
195 221 255
195 221 255
195 221 255
195 221 255
195 221 255
195 221 255
195 221 255
195 221 255
195 221 255
195 221 255
195 221 255
195 221 255
195 221 255
195 221 255
195 221 255
195 221 255
195 221 255
195 221 255
195 221 255
195 221 255
195 221 255
195 221 255
195 221 255
195 221 255
195 221 255
195 221 255
195 221 255
195 221 255
195 221 255
195 221 255
195 221 255
195 221 255
195 221 255
195 221 255
195 221 255
195 221 255
195 221 255
195 221 255
195 221 255
195 221 255
195 221 255
195 221 255
195 221 255
195 221 255
195 221 255
195 221 255
195 221 255
195 221 255
195 221 255
195 221 255
195 221 255
195 221 255
195 221 255
196 221 255
196 221 255
196 222 255
196 222 255
196 222 255
196 222 255
196 222 255
196 222 255
196 222 255
196 222 255
196 222 255
196 222 255
196 222 255
196 222 255
196 222 255
196 222 255
196 222 255
196 222 255
196 222 255
196 222 255
197 222 255
197 222 255
197 222 255
197 222 255
197 222 255
197 222 255
197 222 255
197 222 255
197 222 255
197 222 255
197 222 255
197 222 255
197 222 255
197 222 255
197 222 255
197 222 255
198 223 255
198 223 255
198 223 255
198 223 255
198 223 255
198 223 255
198 223 255
198 223 255
198 223 255
198 223 255
198 223 255
198 223 255
198 223 255
198 223 255
198 223 255
199 223 255
199 223 255
199 223 255
199 223 255
199 223 255
199 223 255
199 223 255
199 223 255
199 223 255
199 223 255
199 223 255
199 223 255
199 224 255
199 224 255
199 224 255
200 224 255
200 224 255
200 224 255
200 224 255
200 224 255
200 224 255
200 224 255
200 224 255
200 224 255
200 224 255
200 224 255
200 224 255
200 224 255
200 224 255
201 224 255
201 224 255
201 224 255
201 224 255
201 224 255
201 224 255
201 224 255
201 224 255
201 224 255
201 224 255
201 225 255
201 225 255
201 225 255
201 225 255
201 225 255
202 225 255
202 225 255
202 225 255
202 225 255
202 225 255
202 225 255
202 225 255
202 225 255
202 225 255
202 225 255
202 225 255
202 225 255
202 225 255
202 225 255
202 225 255
203 225 255
203 225 255
203 225 255
203 225 255
203 225 255
203 225 255
203 225 255
203 225 255
203 225 255
203 226 255
203 226 255
203 226 255
203 226 255
203 226 255
203 226 255
203 226 255
204 226 255
204 226 255
204 226 255
204 226 255
204 226 255
204 226 255
204 226 255
204 226 255
204 226 255
204 226 255
204 226 255
204 226 255
204 226 255
204 226 255
204 226 255
204 226 255
204 226 255
205 226 255
205 226 255
205 226 255
205 226 255
205 226 255
205 226 255
205 226 255
205 227 255
205 227 255
205 227 255
205 227 255
205 227 255
205 227 255
205 227 255
205 227 255
205 227 255
205 227 255
205 227 255
205 227 255
206 227 255
206 227 255
206 227 255
205 227 255
205 227 255
205 227 255
205 227 255
205 227 255
205 227 255
205 227 255
205 227 255
205 227 255
205 227 255
205 227 255
205 226 255
205 226 255
205 226 255
205 226 255
205 226 255
205 226 255
205 226 255
204 226 255
204 226 255
204 226 255
204 226 255
204 226 255
204 226 255
204 226 255
204 226 255
204 226 255
204 226 255
204 226 255
204 226 255
204 226 255
204 226 255
204 226 255
204 226 255
204 226 255
204 226 255
203 226 255
203 226 255
203 226 255
203 226 255
203 226 255
203 226 255
203 226 255
203 225 255
203 225 255
203 225 255
203 225 255
203 225 255
203 225 255
203 225 255
203 225 255
202 225 255
202 225 255
202 225 255
202 225 255
202 225 255
202 225 255
202 225 255
202 225 255
202 225 255
202 225 255
202 225 255
202 225 255
202 225 255
202 225 255
202 225 255
201 225 255
201 225 255
201 225 255
201 225 255
201 225 255
201 224 255
201 224 255
201 224 255
201 224 255
201 224 255
201 224 255
201 224 255
201 224 255
201 224 255
201 224 255
200 224 255
200 224 255
200 224 255
200 224 255
200 224 255
200 224 255
200 224 255
200 224 255
200 224 255
200 224 255
200 224 255
200 224 255
200 224 255
200 224 255
200 224 255
199 224 255
199 224 255
199 223 255
199 223 255
199 223 255
199 223 255
199 223 255
199 223 255
199 223 255
199 223 255
199 223 255
199 223 255
199 223 255
199 223 255
198 223 255
198 223 255
198 223 255
198 223 255
198 223 255
198 223 255
198 223 255
198 223 255
198 223 255
198 223 255
198 223 255
198 223 255
198 223 255
198 223 255
198 223 255
197 223 255
197 222 255
197 222 255
197 222 255
197 222 255
197 222 255
197 222 255
197 222 255
197 222 255
197 222 255
197 222 255
197 222 255
197 222 255
197 222 255
197 222 255
197 222 255
197 222 255
196 222 255
196 222 255
196 222 255
196 222 255
196 222 255
196 222 255
196 222 255
196 222 255
196 222 255
196 222 255
196 222 255
196 222 255
196 222 255
196 222 255
196 222 255
196 222 255
196 222 255
196 222 255
196 222 255
196 221 255
196 221 255
195 221 255
195 221 255
195 221 255
195 221 255
195 221 255
195 221 255
195 221 255
195 221 255
195 221 255
195 221 255
195 221 255
195 221 255
195 221 255
195 221 255
195 221 255
195 221 255
195 221 255
195 221 255
195 221 255
195 221 255
195 221 255
195 221 255
195 221 255
195 221 255
195 221 255
195 221 255
195 221 255
195 221 255
195 221 255
195 221 255
195 221 255
195 221 255
195 221 255
195 221 255
195 221 255
195 221 255
195 221 255
195 221 255
195 221 255
195 221 255
195 221 255
195 221 255
195 221 255
195 221 255
195 221 255
195 221 255
195 221 255
195 221 255
195 221 255
195 221 255
195 221 255
195 221 255
195 221 255
195 221 255
195 221 255
195 221 255
195 221 255
195 221 255
195 221 255
195 221 255
195 221 255
195 221 255
195 221 255
195 221 255
195 221 255
195 221 255
195 221 255
195 221 255
196 221 255
196 221 255
196 222 255
196 222 255
196 222 255
196 222 255
196 222 255
196 222 255
196 222 255
196 222 255
196 222 255
196 222 255
196 222 255
196 222 255
196 222 255
196 222 255
196 222 255
196 222 255
196 222 255
196 222 255
196 222 255
197 222 255
197 222 255
197 222 255
197 222 255
197 222 255
197 222 255
197 222 255
197 222 255
197 222 255
197 222 255
197 222 255
197 222 255
197 222 255
197 222 255
197 222 255
197 222 255
197 223 255
198 223 255
198 223 255
198 223 255
198 223 255
198 223 255
198 223 255
198 223 255
198 223 255
198 223 255
198 223 255
198 223 255
198 223 255
198 223 255
198 223 255
198 223 255
199 223 255
199 223 255
199 223 255
199 223 255
199 223 255
199 223 255
199 223 255
199 223 255
199 223 255
199 223 255
199 223 255
199 223 255
199 224 255
199 224 255
200 224 255
200 224 255
200 224 255
200 224 255
200 224 255
200 224 255
200 224 255
200 224 255
200 224 255
200 224 255
200 224 255
200 224 255
200 224 255
200 224 255
200 224 255
201 224 255
201 224 255
201 224 255
201 224 255
201 224 255
201 224 255
201 224 255
201 224 255
201 224 255
201 224 255
201 225 255
201 225 255
201 225 255
201 225 255
201 225 255
202 225 255
202 225 255
202 225 255
202 225 255
202 225 255
202 225 255
202 225 255
202 225 255
202 225 255
202 225 255
202 225 255
202 225 255
202 225 255
202 225 255
202 225 255
203 225 255
203 225 255
203 225 255
203 225 255
203 225 255
203 225 255
203 225 255
203 225 255
203 226 255
203 226 255
203 226 255
203 226 255
203 226 255
203 226 255
203 226 255
203 226 255
204 226 255
204 226 255
204 226 255
204 226 255
204 226 255
204 226 255
204 226 255
204 226 255
204 226 255
204 226 255
204 226 255
204 226 255
204 226 255
204 226 255
204 226 255
204 226 255
204 226 255
205 226 255
205 226 255
205 226 255
205 226 255
205 226 255
205 226 255
205 226 255
205 227 255
205 227 255
205 227 255
205 227 255
205 227 255
205 227 255
205 227 255
205 227 255
205 227 255
205 227 255
205 227 255
206 227 255
206 227 255
206 227 255
206 227 255
206 227 255
206 227 255
206 227 255
206 227 255
206 227 255
205 227 255
205 227 255
205 227 255
205 227 255
205 227 255
205 227 255
205 227 255
205 227 255
205 227 255
205 227 255
205 227 255
205 226 255
205 226 255
205 226 255
205 226 255
205 226 255
205 226 255
205 226 255
204 226 255
204 226 255
204 226 255
204 226 255
204 226 255
204 226 255
204 226 255
204 226 255
204 226 255
204 226 255
204 226 255
204 226 255
204 226 255
204 226 255
204 226 255
204 226 255
204 226 255
203 226 255
203 226 255
203 226 255
203 226 255
203 226 255
203 226 255
203 226 255
203 225 255
203 225 255
203 225 255
203 225 255
203 225 255
203 225 255
203 225 255
203 225 255
203 225 255
202 225 255
202 225 255
202 225 255
202 225 255
202 225 255
202 225 255
202 225 255
202 225 255
202 225 255
202 225 255
202 225 255
202 225 255
202 225 255
202 225 255
202 225 255
201 225 255
201 225 255
201 225 255
201 225 255
201 224 255
201 224 255
201 224 255
201 224 255
201 224 255
201 224 255
201 224 255
201 224 255
201 224 255
201 224 255
200 224 255
200 224 255
200 224 255
200 224 255
200 224 255
200 224 255
200 224 255
200 224 255
200 224 255
200 224 255
200 224 255
200 224 255
200 224 255
200 224 255
200 224 255
199 224 255
199 224 255
199 223 255
199 223 255
199 223 255
199 223 255
199 223 255
199 223 255
199 223 255
199 223 255
199 223 255
199 223 255
199 223 255
199 223 255
198 223 255
198 223 255
198 223 255
198 223 255
198 223 255
198 223 255
198 223 255
198 223 255
198 223 255
198 223 255
198 223 255
198 223 255
198 223 255
198 223 255
198 223 255
198 223 255
197 222 255
197 222 255
197 222 255
197 222 255
197 222 255
197 222 255
197 222 255
197 222 255
197 222 255
197 222 255
197 222 255
197 222 255
197 222 255
197 222 255
197 222 255
197 222 255
197 222 255
196 222 255
196 222 255
196 222 255
196 222 255
196 222 255
196 222 255
196 222 255
196 222 255
196 222 255
196 222 255
196 222 255
196 222 255
196 222 255
196 222 255
196 222 255
196 222 255
196 222 255
196 222 255
196 222 255
196 222 255
196 221 255
196 221 255
195 221 255
195 221 255
195 221 255
195 221 255
195 221 255
195 221 255
195 221 255
195 221 255
195 221 255
195 221 255
195 221 255
195 221 255
195 221 255
195 221 255
195 221 255
195 221 255
195 221 255
195 221 255
195 221 255
195 221 255
195 221 255
195 221 255
195 221 255
195 221 255
195 221 255
195 221 255
195 221 255
195 221 255
195 221 255
195 221 255
195 221 255
195 221 255
195 221 255
195 221 255
195 221 255
195 221 255
195 221 255
195 221 255
195 221 255
195 221 255
195 221 255
195 221 255
195 221 255
195 221 255
195 221 255
195 221 255
195 221 255
195 221 255
195 221 255
195 221 255
195 221 255
195 221 255
195 221 255
195 221 255
195 221 255
195 221 255
195 221 255
195 221 255
195 221 255
195 221 255
196 221 255
196 221 255
196 222 255
196 222 255
196 222 255
196 222 255
196 222 255
196 222 255
196 222 255
196 222 255
196 222 255
196 222 255
196 222 255
196 222 255
196 222 255
196 222 255
196 222 255
196 222 255
196 222 255
196 222 255
196 222 255
196 222 255
197 222 255
197 222 255
197 222 255
197 222 255
197 222 255
197 222 255
197 222 255
197 222 255
197 222 255
197 222 255
197 222 255
197 222 255
197 222 255
197 222 255
197 222 255
197 222 255
197 222 255
198 223 255
198 223 255
198 223 255
198 223 255
198 223 255
198 223 255
198 223 255
198 223 255
198 223 255
198 223 255
198 223 255
198 223 255
198 223 255
198 223 255
198 223 255
198 223 255
199 223 255
199 223 255
199 223 255
199 223 255
199 223 255
199 223 255
199 223 255
199 223 255
199 223 255
199 223 255
199 223 255
199 223 255
199 224 255
199 224 255
200 224 255
200 224 255
200 224 255
200 224 255
200 224 255
200 224 255
200 224 255
200 224 255
200 224 255
200 224 255
200 224 255
200 224 255
200 224 255
200 224 255
200 224 255
201 224 255
201 224 255
201 224 255
201 224 255
201 224 255
201 224 255
201 224 255
201 224 255
201 224 255
201 224 255
201 225 255
201 225 255
201 225 255
201 225 255
202 225 255
202 225 255
202 225 255
202 225 255
202 225 255
202 225 255
202 225 255
202 225 255
202 225 255
202 225 255
202 225 255
202 225 255
202 225 255
202 225 255
202 225 255
203 225 255
203 225 255
203 225 255
203 225 255
203 225 255
203 225 255
203 225 255
203 225 255
203 225 255
203 226 255
203 226 255
203 226 255
203 226 255
203 226 255
203 226 255
203 226 255
204 226 255
204 226 255
204 226 255
204 226 255
204 226 255
204 226 255
204 226 255
204 226 255
204 226 255
204 226 255
204 226 255
204 226 255
204 226 255
204 226 255
204 226 255
204 226 255
204 226 255
205 226 255
205 226 255
205 226 255
205 226 255
205 226 255
205 226 255
205 226 255
205 226 255
205 227 255
205 227 255
205 227 255
205 227 255
205 227 255
205 227 255
205 227 255
205 227 255
205 227 255
205 227 255
206 227 255
206 227 255
206 227 255
206 227 255
206 227 255
206 227 255
206 227 255
206 227 255
206 227 255
206 227 255
206 227 255
206 227 255
206 227 255
206 227 255
205 227 255
205 227 255
205 227 255
205 227 255
205 227 255
205 227 255
205 227 255
205 227 255
205 227 255
205 227 255
205 227 255
205 226 255
205 226 255
205 226 255
205 226 255
205 226 255
205 226 255
205 226 255
204 226 255
204 226 255
204 226 255
204 226 255
204 226 255
204 226 255
204 226 255
204 226 255
204 226 255
204 226 255
204 226 255
204 226 255
204 226 255
204 226 255
204 226 255
204 226 255
204 226 255
203 226 255
203 226 255
203 226 255
203 226 255
203 226 255
203 226 255
203 226 255
203 225 255
203 225 255
203 225 255
203 225 255
203 225 255
203 225 255
203 225 255
203 225 255
203 225 255
202 225 255
202 225 255
202 225 255
202 225 255
202 225 255
202 225 255
202 225 255
202 225 255
202 225 255
202 225 255
202 225 255
202 225 255
202 225 255
202 225 255
202 225 255
201 225 255
201 225 255
201 225 255
201 225 255
201 224 255
201 224 255
201 224 255
201 224 255
201 224 255
201 224 255
201 224 255
201 224 255
201 224 255
201 224 255
201 224 255
200 224 255
200 224 255
200 224 255
200 224 255
200 224 255
200 224 255
200 224 255
200 224 255
200 224 255
200 224 255
200 224 255
200 224 255
200 224 255
200 224 255
199 224 255
199 224 255
199 223 255
199 223 255
199 223 255
199 223 255
199 223 255
199 223 255
199 223 255
199 223 255
199 223 255
199 223 255
199 223 255
199 223 255
199 223 255
198 223 255
198 223 255
198 223 255
198 223 255
198 223 255
198 223 255
198 223 255
198 223 255
198 223 255
198 223 255
198 223 255
198 223 255
198 223 255
198 223 255
198 223 255
197 223 255
197 222 255
197 222 255
197 222 255
197 222 255
197 222 255
197 222 255
197 222 255
197 222 255
197 222 255
197 222 255
197 222 255
197 222 255
197 222 255
197 222 255
197 222 255
197 222 255
197 222 255
196 222 255
196 222 255
196 222 255
196 222 255
196 222 255
196 222 255
196 222 255
196 222 255
196 222 255
196 222 255
196 222 255
196 222 255
196 222 255
196 222 255
196 222 255
196 222 255
196 222 255
196 222 255
196 222 255
196 222 255
196 222 255
196 221 255
196 221 255
196 221 255
195 221 255
195 221 255
195 221 255
195 221 255
195 221 255
195 221 255
195 221 255
195 221 255
195 221 255
195 221 255
195 221 255
195 221 255
195 221 255
195 221 255
195 221 255
195 221 255
195 221 255
195 221 255
195 221 255
195 221 255
195 221 255
195 221 255
195 221 255
195 221 255
195 221 255
195 221 255
195 221 255
195 221 255
195 221 255
195 221 255
195 221 255
195 221 255
195 221 255
195 221 255
195 221 255
195 221 255
195 221 255
195 221 255
195 221 255
195 221 255
195 221 255
195 221 255
195 221 255
195 221 255
195 221 255
195 221 255
195 221 255
195 221 255
195 221 255
195 221 255
196 221 255
196 221 255
196 221 255
196 222 255
196 222 255
196 222 255
196 222 255
196 222 255
196 222 255
196 222 255
196 222 255
196 222 255
196 222 255
196 222 255
196 222 255
196 222 255
196 222 255
196 222 255
196 222 255
196 222 255
196 222 255
196 222 255
196 222 255
196 222 255
197 222 255
197 222 255
197 222 255
197 222 255
197 222 255
197 222 255
197 222 255
197 222 255
197 222 255
197 222 255
197 222 255
197 222 255
197 222 255
197 222 255
197 222 255
197 222 255
197 222 255
197 223 255
198 223 255
198 223 255
198 223 255
198 223 255
198 223 255
198 223 255
198 223 255
198 223 255
198 223 255
198 223 255
198 223 255
198 223 255
198 223 255
198 223 255
198 223 255
199 223 255
199 223 255
199 223 255
199 223 255
199 223 255
199 223 255
199 223 255
199 223 255
199 223 255
199 223 255
199 223 255
199 223 255
199 223 255
199 224 255
199 224 255
200 224 255
200 224 255
200 224 255
200 224 255
200 224 255
200 224 255
200 224 255
200 224 255
200 224 255
200 224 255
200 224 255
200 224 255
200 224 255
200 224 255
201 224 255
201 224 255
201 224 255
201 224 255
201 224 255
201 224 255
201 224 255
201 224 255
201 224 255
201 224 255
201 224 255
201 225 255
201 225 255
201 225 255
201 225 255
202 225 255
202 225 255
202 225 255
202 225 255
202 225 255
202 225 255
202 225 255
202 225 255
202 225 255
202 225 255
202 225 255
202 225 255
202 225 255
202 225 255
202 225 255
203 225 255
203 225 255
203 225 255
203 225 255
203 225 255
203 225 255
203 225 255
203 225 255
203 225 255
203 226 255
203 226 255
203 226 255
203 226 255
203 226 255
203 226 255
203 226 255
204 226 255
204 226 255
204 226 255
204 226 255
204 226 255
204 226 255
204 226 255
204 226 255
204 226 255
204 226 255
204 226 255
204 226 255
204 226 255
204 226 255
204 226 255
204 226 255
204 226 255
205 226 255
205 226 255
205 226 255
205 226 255
205 226 255
205 226 255
205 226 255
205 227 255
205 227 255
205 227 255
205 227 255
205 227 255
205 227 255
205 227 255
205 227 255
205 227 255
205 227 255
205 227 255
206 227 255
206 227 255
206 227 255
206 227 255
206 227 255
206 227 255
206 227 255
206 227 255
206 227 255
206 227 255
206 227 255
206 227 255
206 227 255
206 227 255
206 227 255
206 227 255
206 227 255
206 227 255
206 227 255
205 227 255
205 227 255
205 227 255
205 227 255
205 227 255
205 227 255
205 227 255
205 227 255
205 227 255
205 227 255
205 227 255
205 226 255
205 226 255
205 226 255
205 226 255
205 226 255
205 226 255
205 226 255
204 226 255
204 226 255
204 226 255
204 226 255
204 226 255
204 226 255
204 226 255
204 226 255
204 226 255
204 226 255
204 226 255
204 226 255
204 226 255
204 226 255
204 226 255
204 226 255
203 226 255
203 226 255
203 226 255
203 226 255
203 226 255
203 226 255
203 226 255
203 226 255
203 225 255
203 225 255
203 225 255
203 225 255
203 225 255
203 225 255
203 225 255
203 225 255
202 225 255
202 225 255
202 225 255
202 225 255
202 225 255
202 225 255
202 225 255
202 225 255
202 225 255
202 225 255
202 225 255
202 225 255
202 225 255
202 225 255
202 225 255
201 225 255
201 225 255
201 225 255
201 225 255
201 225 255
201 224 255
201 224 255
201 224 255
201 224 255
201 224 255
201 224 255
201 224 255
201 224 255
201 224 255
201 224 255
200 224 255
200 224 255
200 224 255
200 224 255
200 224 255
200 224 255
200 224 255
200 224 255
200 224 255
200 224 255
200 224 255
200 224 255
200 224 255
200 224 255
199 224 255
199 224 255
199 224 255
199 223 255
199 223 255
199 223 255
199 223 255
199 223 255
199 223 255
199 223 255
199 223 255
199 223 255
199 223 255
199 223 255
199 223 255
198 223 255
198 223 255
198 223 255
198 223 255
198 223 255
198 223 255
198 223 255
198 223 255
198 223 255
198 223 255
198 223 255
198 223 255
198 223 255
198 223 255
198 223 255
198 223 255
197 222 255
197 222 255
197 222 255
197 222 255
197 222 255
197 222 255
197 222 255
197 222 255
197 222 255
197 222 255
197 222 255
197 222 255
197 222 255
197 222 255
197 222 255
197 222 255
197 222 255
197 222 255
196 222 255
196 222 255
196 222 255
196 222 255
196 222 255
196 222 255
196 222 255
196 222 255
196 222 255
196 222 255
196 222 255
196 222 255
196 222 255
196 222 255
196 222 255
196 222 255
196 222 255
196 222 255
196 222 255
196 222 255
196 222 255
196 222 255
196 222 255
196 222 255
196 221 255
196 221 255
196 221 255
195 221 255
195 221 255
195 221 255
195 221 255
195 221 255
195 221 255
195 221 255
195 221 255
195 221 255
195 221 255
195 221 255
195 221 255
195 221 255
195 221 255
195 221 255
195 221 255
195 221 255
195 221 255
195 221 255
195 221 255
195 221 255
195 221 255
195 221 255
195 221 255
195 221 255
195 221 255
195 221 255
195 221 255
195 221 255
195 221 255
195 221 255
195 221 255
195 221 255
195 221 255
195 221 255
195 221 255
195 221 255
195 221 255
196 221 255
196 221 255
196 221 255
196 222 255
196 222 255
196 222 255
196 222 255
196 222 255
196 222 255
196 222 255
196 222 255
196 222 255
196 222 255
196 222 255
196 222 255
196 222 255
196 222 255
196 222 255
196 222 255
196 222 255
196 222 255
196 222 255
196 222 255
196 222 255
196 222 255
196 222 255
196 222 255
197 222 255
197 222 255
197 222 255
197 222 255
197 222 255
197 222 255
197 222 255
197 222 255
197 222 255
197 222 255
197 222 255
197 222 255
197 222 255
197 222 255
197 222 255
197 222 255
197 222 255
197 222 255
198 223 255
198 223 255
198 223 255
198 223 255
198 223 255
198 223 255
198 223 255
198 223 255
198 223 255
198 223 255
198 223 255
198 223 255
198 223 255
198 223 255
198 223 255
198 223 255
199 223 255
199 223 255
199 223 255
199 223 255
199 223 255
199 223 255
199 223 255
199 223 255
199 223 255
199 223 255
199 223 255
199 223 255
199 224 255
199 224 255
199 224 255
200 224 255
200 224 255
200 224 255
200 224 255
200 224 255
200 224 255
200 224 255
200 224 255
200 224 255
200 224 255
200 224 255
200 224 255
200 224 255
200 224 255
201 224 255
201 224 255
201 224 255
201 224 255
201 224 255
201 224 255
201 224 255
201 224 255
201 224 255
201 224 255
201 225 255
201 225 255
201 225 255
201 225 255
201 225 255
202 225 255
202 225 255
202 225 255
202 225 255
202 225 255
202 225 255
202 225 255
202 225 255
202 225 255
202 225 255
202 225 255
202 225 255
202 225 255
202 225 255
202 225 255
203 225 255
203 225 255
203 225 255
203 225 255
203 225 255
203 225 255
203 225 255
203 225 255
203 226 255
203 226 255
203 226 255
203 226 255
203 226 255
203 226 255
203 226 255
203 226 255
204 226 255
204 226 255
204 226 255
204 226 255
204 226 255
204 226 255
204 226 255
204 226 255
204 226 255
204 226 255
204 226 255
204 226 255
204 226 255
204 226 255
204 226 255
204 226 255
205 226 255
205 226 255
205 226 255
205 226 255
205 226 255
205 226 255
205 226 255
205 226 255
205 227 255
205 227 255
205 227 255
205 227 255
205 227 255
205 227 255
205 227 255
205 227 255
205 227 255
205 227 255
206 227 255
206 227 255
206 227 255
206 227 255
206 227 255
206 227 255
206 227 255
206 227 255
206 227 255
206 227 255
206 227 255
206 227 255
206 227 255
206 227 255
206 227 255
206 227 255
206 227 255
206 227 255
206 227 255
206 227 255
206 227 255
206 227 255
206 227 255
206 227 255
205 227 255
205 227 255
205 227 255
205 227 255
205 227 255
205 227 255
205 227 255
205 227 255
205 227 255
205 227 255
205 227 255
205 226 255
205 226 255
205 226 255
205 226 255
205 226 255
205 226 255
205 226 255
204 226 255
204 226 255
204 226 255
204 226 255
204 226 255
204 226 255
204 226 255
204 226 255
204 226 255
204 226 255
204 226 255
204 226 255
204 226 255
204 226 255
204 226 255
204 226 255
204 226 255
203 226 255
203 226 255
203 226 255
203 226 255
203 226 255
203 226 255
203 226 255
203 225 255
203 225 255
203 225 255
203 225 255
203 225 255
203 225 255
203 225 255
203 225 255
203 225 255
202 225 255
202 225 255
202 225 255
202 225 255
202 225 255
202 225 255
202 225 255
202 225 255
202 225 255
202 225 255
202 225 255
202 225 255
202 225 255
202 225 255
202 225 255
201 225 255
201 225 255
201 225 255
201 225 255
201 224 255
201 224 255
201 224 255
201 224 255
201 224 255
201 224 255
201 224 255
201 224 255
201 224 255
201 224 255
200 224 255
200 224 255
200 224 255
200 224 255
200 224 255
200 224 255
200 224 255
200 224 255
200 224 255
200 224 255
200 224 255
200 224 255
200 224 255
200 224 255
200 224 255
199 224 255
199 224 255
199 223 255
199 223 255
199 223 255
199 223 255
199 223 255
199 223 255
199 223 255
199 223 255
199 223 255
199 223 255
199 223 255
199 223 255
198 223 255
198 223 255
198 223 255
198 223 255
198 223 255
198 223 255
198 223 255
198 223 255
198 223 255
198 223 255
198 223 255
198 223 255
198 223 255
198 223 255
198 223 255
198 223 255
197 223 255
197 222 255
197 222 255
197 222 255
197 222 255
197 222 255
197 222 255
197 222 255
197 222 255
197 222 255
197 222 255
197 222 255
197 222 255
197 222 255
197 222 255
197 222 255
197 222 255
197 222 255
197 222 255
196 222 255
196 222 255
196 222 255
196 222 255
196 222 255
196 222 255
196 222 255
196 222 255
196 222 255
196 222 255
196 222 255
196 222 255
196 222 255
196 222 255
196 222 255
196 222 255
196 222 255
196 222 255
196 222 255
196 222 255
196 222 255
196 222 255
196 222 255
196 222 255
196 222 255
196 222 255
196 222 255
196 221 255
196 221 255
196 221 255
196 221 255
196 221 255
195 221 255
195 221 255
195 221 255
195 221 255
195 221 255
195 221 255
195 221 255
195 221 255
195 221 255
195 221 255
195 221 255
195 221 255
195 221 255
195 221 255
195 221 255
195 221 255
195 221 255
195 221 255
195 221 255
195 221 255
195 221 255
196 221 255
196 221 255
196 221 255
196 221 255
196 221 255
196 221 255
196 222 255
196 222 255
196 222 255
196 222 255
196 222 255
196 222 255
196 222 255
196 222 255
196 222 255
196 222 255
196 222 255
196 222 255
196 222 255
196 222 255
196 222 255
196 222 255
196 222 255
196 222 255
196 222 255
196 222 255
196 222 255
196 222 255
196 222 255
196 222 255
196 222 255
196 222 255
196 222 255
197 222 255
197 222 255
197 222 255
197 222 255
197 222 255
197 222 255
197 222 255
197 222 255
197 222 255
197 222 255
197 222 255
197 222 255
197 222 255
197 222 255
197 222 255
197 222 255
197 222 255
197 222 255
197 223 255
198 223 255
198 223 255
198 223 255
198 223 255
198 223 255
198 223 255
198 223 255
198 223 255
198 223 255
198 223 255
198 223 255
198 223 255
198 223 255
198 223 255
198 223 255
199 223 255
199 223 255
199 223 255
199 223 255
199 223 255
199 223 255
199 223 255
199 223 255
199 223 255
199 223 255
199 223 255
199 223 255
199 223 255
199 224 255
199 224 255
200 224 255
200 224 255
200 224 255
200 224 255
200 224 255
200 224 255
200 224 255
200 224 255
200 224 255
200 224 255
200 224 255
200 224 255
200 224 255
200 224 255
200 224 255
201 224 255
201 224 255
201 224 255
201 224 255
201 224 255
201 224 255
201 224 255
201 224 255
201 224 255
201 224 255
201 225 255
201 225 255
201 225 255
201 225 255
202 225 255
202 225 255
202 225 255
202 225 255
202 225 255
202 225 255
202 225 255
202 225 255
202 225 255
202 225 255
202 225 255
202 225 255
202 225 255
202 225 255
202 225 255
203 225 255
203 225 255
203 225 255
203 225 255
203 225 255
203 225 255
203 225 255
203 225 255
203 225 255
203 226 255
203 226 255
203 226 255
203 226 255
203 226 255
203 226 255
203 226 255
204 226 255
204 226 255
204 226 255
204 226 255
204 226 255
204 226 255
204 226 255
204 226 255
204 226 255
204 226 255
204 226 255
204 226 255
204 226 255
204 226 255
204 226 255
204 226 255
204 226 255
205 226 255
205 226 255
205 226 255
205 226 255
205 226 255
205 226 255
205 226 255
205 227 255
205 227 255
205 227 255
205 227 255
205 227 255
205 227 255
205 227 255
205 227 255
205 227 255
205 227 255
205 227 255
206 227 255
206 227 255
206 227 255
206 227 255
206 227 255
206 227 255
206 227 255
206 227 255
206 227 255
206 227 255
206 227 255
206 227 255
206 227 255
206 227 255
206 227 255
206 227 255
206 227 255
206 227 255
206 227 255
206 227 255
206 227 255
206 227 255
206 227 255
206 227 255
206 227 255
206 227 255
206 227 255
206 227 255
206 227 255
205 227 255
205 227 255
205 227 255
205 227 255
205 227 255
205 227 255
205 227 255
205 227 255
205 227 255
205 227 255
205 227 255
205 226 255
205 226 255
205 226 255
205 226 255
205 226 255
205 226 255
205 226 255
204 226 255
204 226 255
204 226 255
204 226 255
204 226 255
204 226 255
204 226 255
204 226 255
204 226 255
204 226 255
204 226 255
204 226 255
204 226 255
204 226 255
204 226 255
204 226 255
203 226 255
203 226 255
203 226 255
203 226 255
203 226 255
203 226 255
203 226 255
203 225 255
203 225 255
203 225 255
203 225 255
203 225 255
203 225 255
203 225 255
203 225 255
203 225 255
202 225 255
202 225 255
202 225 255
202 225 255
202 225 255
202 225 255
202 225 255
202 225 255
202 225 255
202 225 255
202 225 255
202 225 255
202 225 255
202 225 255
202 225 255
201 225 255
201 225 255
201 225 255
201 225 255
201 224 255
201 224 255
201 224 255
201 224 255
201 224 255
201 224 255
201 224 255
201 224 255
201 224 255
201 224 255
201 224 255
200 224 255
200 224 255
200 224 255
200 224 255
200 224 255
200 224 255
200 224 255
200 224 255
200 224 255
200 224 255
200 224 255
200 224 255
200 224 255
200 224 255
199 224 255
199 224 255
199 223 255
199 223 255
199 223 255
199 223 255
199 223 255
199 223 255
199 223 255
199 223 255
199 223 255
199 223 255
199 223 255
199 223 255
199 223 255
198 223 255
198 223 255
198 223 255
198 223 255
198 223 255
198 223 255
198 223 255
198 223 255
198 223 255
198 223 255
198 223 255
198 223 255
198 223 255
198 223 255
198 223 255
198 223 255
197 223 255
197 222 255
197 222 255
197 222 255
197 222 255
197 222 255
197 222 255
197 222 255
197 222 255
197 222 255
197 222 255
197 222 255
197 222 255
197 222 255
197 222 255
197 222 255
197 222 255
197 222 255
197 222 255
197 222 255
196 222 255
196 222 255
196 222 255
196 222 255
196 222 255
196 222 255
196 222 255
196 222 255
196 222 255
196 222 255
196 222 255
196 222 255
196 222 255
196 222 255
196 222 255
196 222 255
196 222 255
196 222 255
196 222 255
196 222 255
196 222 255
196 222 255
196 222 255
196 222 255
196 222 255
196 222 255
196 222 255
196 222 255
196 222 255
196 222 255
196 222 255
196 222 255
196 222 255
196 222 255
196 222 255
196 222 255
196 222 255
196 222 255
196 222 255
196 222 255
196 222 255
196 222 255
196 222 255
196 222 255
196 222 255
196 222 255
196 222 255
196 222 255
196 222 255
196 222 255
196 222 255
196 222 255
196 222 255
196 222 255
196 222 255
196 222 255
196 222 255
196 222 255
196 222 255
196 222 255
196 222 255
196 222 255
196 222 255
196 222 255
196 222 255
196 222 255
196 222 255
196 222 255
196 222 255
196 222 255
196 222 255
196 222 255
196 222 255
196 222 255
196 222 255
196 222 255
196 222 255
196 222 255
197 222 255
197 222 255
197 222 255
197 222 255
197 222 255
197 222 255
197 222 255
197 222 255
197 222 255
197 222 255
197 222 255
197 222 255
197 222 255
197 222 255
197 222 255
197 222 255
197 222 255
197 222 255
197 222 255
197 223 255
198 223 255
198 223 255
198 223 255
198 223 255
198 223 255
198 223 255
198 223 255
198 223 255
198 223 255
198 223 255
198 223 255
198 223 255
198 223 255
198 223 255
198 223 255
198 223 255
199 223 255
199 223 255
199 223 255
199 223 255
199 223 255
199 223 255
199 223 255
199 223 255
199 223 255
199 223 255
199 223 255
199 223 255
199 223 255
199 224 255
199 224 255
200 224 255
200 224 255
200 224 255
200 224 255
200 224 255
200 224 255
200 224 255
200 224 255
200 224 255
200 224 255
200 224 255
200 224 255
200 224 255
200 224 255
201 224 255
201 224 255
201 224 255
201 224 255
201 224 255
201 224 255
201 224 255
201 224 255
201 224 255
201 224 255
201 224 255
201 225 255
201 225 255
201 225 255
201 225 255
202 225 255
202 225 255
202 225 255
202 225 255
202 225 255
202 225 255
202 225 255
202 225 255
202 225 255
202 225 255
202 225 255
202 225 255
202 225 255
202 225 255
202 225 255
203 225 255
203 225 255
203 225 255
203 225 255
203 225 255
203 225 255
203 225 255
203 225 255
203 225 255
203 226 255
203 226 255
203 226 255
203 226 255
203 226 255
203 226 255
203 226 255
204 226 255
204 226 255
204 226 255
204 226 255
204 226 255
204 226 255
204 226 255
204 226 255
204 226 255
204 226 255
204 226 255
204 226 255
204 226 255
204 226 255
204 226 255
204 226 255
205 226 255
205 226 255
205 226 255
205 226 255
205 226 255
205 226 255
205 226 255
205 226 255
205 227 255
205 227 255
205 227 255
205 227 255
205 227 255
205 227 255
205 227 255
205 227 255
205 227 255
205 227 255
206 227 255
206 227 255
206 227 255
206 227 255
206 227 255
206 227 255
206 227 255
206 227 255
206 227 255
206 227 255
206 227 255
206 227 255
206 227 255
206 227 255
206 227 255
206 227 255
206 227 255
206 227 255
206 227 255
206 227 255
206 227 255
206 227 255
206 227 255
206 227 255
206 227 255
206 227 255
206 227 255
206 227 255
206 227 255
206 227 255
206 227 255
206 227 255
206 227 255
206 227 255
205 227 255
205 227 255
205 227 255
205 227 255
205 227 255
205 227 255
205 227 255
205 227 255
205 227 255
205 227 255
205 227 255
205 226 255
205 226 255
205 226 255
205 226 255
205 226 255
205 226 255
205 226 255
204 226 255
204 226 255
204 226 255
204 226 255
204 226 255
204 226 255
204 226 255
204 226 255
204 226 255
204 226 255
204 226 255
204 226 255
204 226 255
204 226 255
204 226 255
204 226 255
204 226 255
203 226 255
203 226 255
203 226 255
203 226 255
203 226 255
203 226 255
203 226 255
203 225 255
203 225 255
203 225 255
203 225 255
203 225 255
203 225 255
203 225 255
203 225 255
202 225 255
202 225 255
202 225 255
202 225 255
202 225 255
202 225 255
202 225 255
202 225 255
202 225 255
202 225 255
202 225 255
202 225 255
202 225 255
202 225 255
202 225 255
201 225 255
201 225 255
201 225 255
201 225 255
201 225 255
201 224 255
201 224 255
201 224 255
201 224 255
201 224 255
201 224 255
201 224 255
201 224 255
201 224 255
201 224 255
200 224 255
200 224 255
200 224 255
200 224 255
200 224 255
200 224 255
200 224 255
200 224 255
200 224 255
200 224 255
200 224 255
200 224 255
200 224 255
200 224 255
199 224 255
199 224 255
199 224 255
199 223 255
199 223 255
199 223 255
199 223 255
199 223 255
199 223 255
199 223 255
199 223 255
199 223 255
199 223 255
199 223 255
199 223 255
199 223 255
198 223 255
198 223 255
198 223 255
198 223 255
198 223 255
198 223 255
198 223 255
198 223 255
198 223 255
198 223 255
198 223 255
198 223 255
198 223 255
198 223 255
198 223 255
198 223 255
197 223 255
197 222 255
197 222 255
197 222 255
197 222 255
197 222 255
197 222 255
197 222 255
197 222 255
197 222 255
197 222 255
197 222 255
197 222 255
197 222 255
197 222 255
197 222 255
197 222 255
197 222 255
197 222 255
197 222 255
197 222 255
196 222 255
196 222 255
196 222 255
196 222 255
196 222 255
196 222 255
196 222 255
196 222 255
196 222 255
196 222 255
196 222 255
196 222 255
196 222 255
196 222 255
196 222 255
196 222 255
196 222 255
196 222 255
196 222 255
196 222 255
196 222 255
196 222 255
196 222 255
196 222 255
196 222 255
196 222 255
196 222 255
196 222 255
196 222 255
196 222 255
196 222 255
196 222 255
196 222 255
196 222 255
196 222 255
196 222 255
196 222 255
196 222 255
196 222 255
196 222 255
196 222 255
196 222 255
196 222 255
196 222 255
196 222 255
196 222 255
196 222 255
196 222 255
196 222 255
196 222 255
196 222 255
196 222 255
196 222 255
196 222 255
196 222 255
196 222 255
196 222 255
196 222 255
196 222 255
196 222 255
196 222 255
196 222 255
196 222 255
196 222 255
196 222 255
196 222 255
196 222 255
196 222 255
196 222 255
196 222 255
197 222 255
197 222 255
197 222 255
197 222 255
197 222 255
197 222 255
197 222 255
197 222 255
197 222 255
197 222 255
197 222 255
197 222 255
197 222 255
197 222 255
197 222 255
197 222 255
197 222 255
197 222 255
197 222 255
197 222 255
197 222 255
198 223 255
198 223 255
198 223 255
198 223 255
198 223 255
198 223 255
198 223 255
198 223 255
198 223 255
198 223 255
198 223 255
198 223 255
198 223 255
198 223 255
198 223 255
198 223 255
199 223 255
199 223 255
199 223 255
199 223 255
199 223 255
199 223 255
199 223 255
199 223 255
199 223 255
199 223 255
199 223 255
199 223 255
199 223 255
199 224 255
199 224 255
199 224 255
200 224 255
200 224 255
200 224 255
200 224 255
200 224 255
200 224 255
200 224 255
200 224 255
200 224 255
200 224 255
200 224 255
200 224 255
200 224 255
200 224 255
201 224 255
201 224 255
201 224 255
201 224 255
201 224 255
201 224 255
201 224 255
201 224 255
201 224 255
201 224 255
201 225 255
201 225 255
201 225 255
201 225 255
201 225 255
202 225 255
202 225 255
202 225 255
202 225 255
202 225 255
202 225 255
202 225 255
202 225 255
202 225 255
202 225 255
202 225 255
202 225 255
202 225 255
202 225 255
202 225 255
203 225 255
203 225 255
203 225 255
203 225 255
203 225 255
203 225 255
203 225 255
203 225 255
203 226 255
203 226 255
203 226 255
203 226 255
203 226 255
203 226 255
203 226 255
204 226 255
204 226 255
204 226 255
204 226 255
204 226 255
204 226 255
204 226 255
204 226 255
204 226 255
204 226 255
204 226 255
204 226 255
204 226 255
204 226 255
204 226 255
204 226 255
204 226 255
205 226 255
205 226 255
205 226 255
205 226 255
205 226 255
205 226 255
205 226 255
205 227 255
205 227 255
205 227 255
205 227 255
205 227 255
205 227 255
205 227 255
205 227 255
205 227 255
205 227 255
205 227 255
206 227 255
206 227 255
206 227 255
206 227 255
206 227 255
206 227 255
206 227 255
206 227 255
206 227 255
206 227 255
206 227 255
206 227 255
206 227 255
206 227 255
206 227 255
206 227 255
206 227 255
206 227 255
207 227 255
207 227 255
206 227 255
206 227 255
206 227 255
206 227 255
206 227 255
206 227 255
206 227 255
206 227 255
206 227 255
206 227 255
206 227 255
206 227 255
206 227 255
206 227 255
206 227 255
206 227 255
206 227 255
206 227 255
206 227 255
205 227 255
205 227 255
205 227 255
205 227 255
205 227 255
205 227 255
205 227 255
205 227 255
205 227 255
205 227 255
205 227 255
205 226 255
205 226 255
205 226 255
205 226 255
205 226 255
205 226 255
205 226 255
204 226 255
204 226 255
204 226 255
204 226 255
204 226 255
204 226 255
204 226 255
204 226 255
204 226 255
204 226 255
204 226 255
204 226 255
204 226 255
204 226 255
204 226 255
204 226 255
203 226 255
203 226 255
203 226 255
203 226 255
203 226 255
203 226 255
203 226 255
203 225 255
203 225 255
203 225 255
203 225 255
203 225 255
203 225 255
203 225 255
203 225 255
203 225 255
202 225 255
202 225 255
202 225 255
202 225 255
202 225 255
202 225 255
202 225 255
202 225 255
202 225 255
202 225 255
202 225 255
202 225 255
202 225 255
202 225 255
202 225 255
201 225 255
201 225 255
201 225 255
201 225 255
201 224 255
201 224 255
201 224 255
201 224 255
201 224 255
201 224 255
201 224 255
201 224 255
201 224 255
201 224 255
200 224 255
200 224 255
200 224 255
200 224 255
200 224 255
200 224 255
200 224 255
200 224 255
200 224 255
200 224 255
200 224 255
200 224 255
200 224 255
200 224 255
200 224 255
199 224 255
199 224 255
199 223 255
199 223 255
199 223 255
199 223 255
199 223 255
199 223 255
199 223 255
199 223 255
199 223 255
199 223 255
199 223 255
199 223 255
199 223 255
198 223 255
198 223 255
198 223 255
198 223 255
198 223 255
198 223 255
198 223 255
198 223 255
198 223 255
198 223 255
198 223 255
198 223 255
198 223 255
198 223 255
198 223 255
198 223 255
198 223 255
197 223 255
197 222 255
197 222 255
197 222 255
197 222 255
197 222 255
197 222 255
197 222 255
197 222 255
197 222 255
197 222 255
197 222 255
197 222 255
197 222 255
197 222 255
197 222 255
197 222 255
197 222 255
197 222 255
197 222 255
197 222 255
197 222 255
196 222 255
196 222 255
196 222 255
196 222 255
196 222 255
196 222 255
196 222 255
196 222 255
196 222 255
196 222 255
196 222 255
196 222 255
196 222 255
196 222 255
196 222 255
196 222 255
196 222 255
196 222 255
196 222 255
196 222 255
196 222 255
196 222 255
196 222 255
196 222 255
196 222 255
196 222 255
196 222 255
196 222 255
196 222 255
196 222 255
196 222 255
196 222 255
196 222 255
196 222 255
196 222 255
196 222 255
196 222 255
196 222 255
196 222 255
196 222 255
196 222 255
196 222 255
196 222 255
196 222 255
196 222 255
196 222 255
196 222 255
196 222 255
196 222 255
196 222 255
196 222 255
196 222 255
196 222 255
196 222 255
196 222 255
196 222 255
196 222 255
196 222 255
196 222 255
196 222 255
196 222 255
196 222 255
197 222 255
197 222 255
197 222 255
197 222 255
197 222 255
197 222 255
197 222 255
197 222 255
197 222 255
197 222 255
197 222 255
197 222 255
197 222 255
197 222 255
197 222 255
197 222 255
197 222 255
197 222 255
197 222 255
197 222 255
197 222 255
197 223 255
198 223 255
198 223 255
198 223 255
198 223 255
198 223 255
198 223 255
198 223 255
198 223 255
198 223 255
198 223 255
198 223 255
198 223 255
198 223 255
198 223 255
198 223 255
198 223 255
198 223 255
199 223 255
199 223 255
199 223 255
199 223 255
199 223 255
199 223 255
199 223 255
199 223 255
199 223 255
199 223 255
199 223 255
199 223 255
199 223 255
199 224 255
199 224 255
200 224 255
200 224 255
200 224 255
200 224 255
200 224 255
200 224 255
200 224 255
200 224 255
200 224 255
200 224 255
200 224 255
200 224 255
200 224 255
200 224 255
200 224 255
201 224 255
201 224 255
201 224 255
201 224 255
201 224 255
201 224 255
201 224 255
201 224 255
201 224 255
201 224 255
201 225 255
201 225 255
201 225 255
201 225 255
202 225 255
202 225 255
202 225 255
202 225 255
202 225 255
202 225 255
202 225 255
202 225 255
202 225 255
202 225 255
202 225 255
202 225 255
202 225 255
202 225 255
202 225 255
203 225 255
203 225 255
203 225 255
203 225 255
203 225 255
203 225 255
203 225 255
203 225 255
203 225 255
203 226 255
203 226 255
203 226 255
203 226 255
203 226 255
203 226 255
203 226 255
204 226 255
204 226 255
204 226 255
204 226 255
204 226 255
204 226 255
204 226 255
204 226 255
204 226 255
204 226 255
204 226 255
204 226 255
204 226 255
204 226 255
204 226 255
204 226 255
205 226 255
205 226 255
205 226 255
205 226 255
205 226 255
205 226 255
205 226 255
205 227 255
205 227 255
205 227 255
205 227 255
205 227 255
205 227 255
205 227 255
205 227 255
205 227 255
205 227 255
205 227 255
206 227 255
206 227 255
206 227 255
206 227 255
206 227 255
206 227 255
206 227 255
206 227 255
206 227 255
206 227 255
206 227 255
206 227 255
206 227 255
206 227 255
206 227 255
206 227 255
206 227 255
206 227 255
206 227 255
207 227 255
207 227 255
207 227 255
207 227 255
207 227 255
207 227 255
207 227 255
206 227 255
206 227 255
206 227 255
206 227 255
206 227 255
206 227 255
206 227 255
206 227 255
206 227 255
206 227 255
206 227 255
206 227 255
206 227 255
206 227 255
206 227 255
206 227 255
206 227 255
206 227 255
206 227 255
205 227 255
205 227 255
205 227 255
205 227 255
205 227 255
205 227 255
205 227 255
205 227 255
205 227 255
205 227 255
205 226 255
205 226 255
205 226 255
205 226 255
205 226 255
205 226 255
205 226 255
204 226 255
204 226 255
204 226 255
204 226 255
204 226 255
204 226 255
204 226 255
204 226 255
204 226 255
204 226 255
204 226 255
204 226 255
204 226 255
204 226 255
204 226 255
204 226 255
204 226 255
203 226 255
203 226 255
203 226 255
203 226 255
203 226 255
203 226 255
203 225 255
203 225 255
203 225 255
203 225 255
203 225 255
203 225 255
203 225 255
203 225 255
203 225 255
202 225 255
202 225 255
202 225 255
202 225 255
202 225 255
202 225 255
202 225 255
202 225 255
202 225 255
202 225 255
202 225 255
202 225 255
202 225 255
202 225 255
202 225 255
201 225 255
201 225 255
201 225 255
201 225 255
201 224 255
201 224 255
201 224 255
201 224 255
201 224 255
201 224 255
201 224 255
201 224 255
201 224 255
201 224 255
201 224 255
200 224 255
200 224 255
200 224 255
200 224 255
200 224 255
200 224 255
200 224 255
200 224 255
200 224 255
200 224 255
200 224 255
200 224 255
200 224 255
200 224 255
199 224 255
199 224 255
199 224 255
199 223 255
199 223 255
199 223 255
199 223 255
199 223 255
199 223 255
199 223 255
199 223 255
199 223 255
199 223 255
199 223 255
199 223 255
199 223 255
198 223 255
198 223 255
198 223 255
198 223 255
198 223 255
198 223 255
198 223 255
198 223 255
198 223 255
198 223 255
198 223 255
198 223 255
198 223 255
198 223 255
198 223 255
198 223 255
198 223 255
197 223 255
197 222 255
197 222 255
197 222 255
197 222 255
197 222 255
197 222 255
197 222 255
197 222 255
197 222 255
197 222 255
197 222 255
197 222 255
197 222 255
197 222 255
197 222 255
197 222 255
197 222 255
197 222 255
197 222 255
197 222 255
197 222 255
197 222 255
197 222 255
196 222 255
196 222 255
196 222 255
196 222 255
196 222 255
196 222 255
196 222 255
196 222 255
196 222 255
196 222 255
196 222 255
196 222 255
196 222 255
196 222 255
196 222 255
196 222 255
196 222 255
196 222 255
196 222 255
196 222 255
196 222 255
196 222 255
196 222 255
196 222 255
196 222 255
196 222 255
196 222 255
196 222 255
196 222 255
196 222 255
196 222 255
196 222 255
196 222 255
196 222 255
196 222 255
196 222 255
196 222 255
196 222 255
196 222 255
196 222 255
196 222 255
196 222 255
196 222 255
196 222 255
196 222 255
196 222 255
196 222 255
196 222 255
196 222 255
196 222 255
196 222 255
196 222 255
197 222 255
197 222 255
197 222 255
197 222 255
197 222 255
197 222 255
197 222 255
197 222 255
197 222 255
197 222 255
197 222 255
197 222 255
197 222 255
197 222 255
197 222 255
197 222 255
197 222 255
197 222 255
197 222 255
197 222 255
197 222 255
197 222 255
197 222 255
197 223 255
198 223 255
198 223 255
198 223 255
198 223 255
198 223 255
198 223 255
198 223 255
198 223 255
198 223 255
198 223 255
198 223 255
198 223 255
198 223 255
198 223 255
198 223 255
198 223 255
198 223 255
199 223 255
199 223 255
199 223 255
199 223 255
199 223 255
199 223 255
199 223 255
199 223 255
199 223 255
199 223 255
199 223 255
199 223 255
199 223 255
199 224 255
199 224 255
199 224 255
200 224 255
200 224 255
200 224 255
200 224 255
200 224 255
200 224 255
200 224 255
200 224 255
200 224 255
200 224 255
200 224 255
200 224 255
200 224 255
200 224 255
201 224 255
201 224 255
201 224 255
201 224 255
201 224 255
201 224 255
201 224 255
201 224 255
201 224 255
201 224 255
201 224 255
201 225 255
201 225 255
201 225 255
201 225 255
202 225 255
202 225 255
202 225 255
202 225 255
202 225 255
202 225 255
202 225 255
202 225 255
202 225 255
202 225 255
202 225 255
202 225 255
202 225 255
202 225 255
202 225 255
203 225 255
203 225 255
203 225 255
203 225 255
203 225 255
203 225 255
203 225 255
203 225 255
203 226 255
203 226 255
203 226 255
203 226 255
203 226 255
203 226 255
203 226 255
204 226 255
204 226 255
204 226 255
204 226 255
204 226 255
204 226 255
204 226 255
204 226 255
204 226 255
204 226 255
204 226 255
204 226 255
204 226 255
204 226 255
204 226 255
204 226 255
204 226 255
205 226 255
205 226 255
205 226 255
205 226 255
205 226 255
205 226 255
205 226 255
205 227 255
205 227 255
205 227 255
205 227 255
205 227 255
205 227 255
205 227 255
205 227 255
205 227 255
205 227 255
206 227 255
206 227 255
206 227 255
206 227 255
206 227 255
206 227 255
206 227 255
206 227 255
206 227 255
206 227 255
206 227 255
206 227 255
206 227 255
206 227 255
206 227 255
206 227 255
206 227 255
206 227 255
206 227 255
206 227 255
207 227 255
207 227 255
207 227 255
207 227 255
207 228 255
207 228 255
207 227 255
207 227 255
207 227 255
207 227 255
207 227 255
206 227 255
206 227 255
206 227 255
206 227 255
206 227 255
206 227 255
206 227 255
206 227 255
206 227 255
206 227 255
206 227 255
206 227 255
206 227 255
206 227 255
206 227 255
206 227 255
206 227 255
206 227 255
206 227 255
205 227 255
205 227 255
205 227 255
205 227 255
205 227 255
205 227 255
205 227 255
205 227 255
205 227 255
205 227 255
205 227 255
205 226 255
205 226 255
205 226 255
205 226 255
205 226 255
205 226 255
205 226 255
204 226 255
204 226 255
204 226 255
204 226 255
204 226 255
204 226 255
204 226 255
204 226 255
204 226 255
204 226 255
204 226 255
204 226 255
204 226 255
204 226 255
204 226 255
204 226 255
203 226 255
203 226 255
203 226 255
203 226 255
203 226 255
203 226 255
203 226 255
203 225 255
203 225 255
203 225 255
203 225 255
203 225 255
203 225 255
203 225 255
203 225 255
202 225 255
202 225 255
202 225 255
202 225 255
202 225 255
202 225 255
202 225 255
202 225 255
202 225 255
202 225 255
202 225 255
202 225 255
202 225 255
202 225 255
202 225 255
201 225 255
201 225 255
201 225 255
201 225 255
201 225 255
201 224 255
201 224 255
201 224 255
201 224 255
201 224 255
201 224 255
201 224 255
201 224 255
201 224 255
201 224 255
200 224 255
200 224 255
200 224 255
200 224 255
200 224 255
200 224 255
200 224 255
200 224 255
200 224 255
200 224 255
200 224 255
200 224 255
200 224 255
200 224 255
200 224 255
199 224 255
199 224 255
199 223 255
199 223 255
199 223 255
199 223 255
199 223 255
199 223 255
199 223 255
199 223 255
199 223 255
199 223 255
199 223 255
199 223 255
199 223 255
199 223 255
198 223 255
198 223 255
198 223 255
198 223 255
198 223 255
198 223 255
198 223 255
198 223 255
198 223 255
198 223 255
198 223 255
198 223 255
198 223 255
198 223 255
198 223 255
198 223 255
198 223 255
198 223 255
197 222 255
197 222 255
197 222 255
197 222 255
197 222 255
197 222 255
197 222 255
197 222 255
197 222 255
197 222 255
197 222 255
197 222 255
197 222 255
197 222 255
197 222 255
197 222 255
197 222 255
197 222 255
197 222 255
197 222 255
197 222 255
197 222 255
197 222 255
197 222 255
197 222 255
197 222 255
196 222 255
196 222 255
196 222 255
196 222 255
196 222 255
196 222 255
196 222 255
196 222 255
196 222 255
196 222 255
196 222 255
196 222 255
196 222 255
196 222 255
196 222 255
196 222 255
196 222 255
196 222 255
196 222 255
196 222 255
196 222 255
196 222 255
196 222 255
196 222 255
196 222 255
196 222 255
196 222 255
196 222 255
196 222 255
196 222 255
196 222 255
196 222 255
196 222 255
196 222 255
196 222 255
196 222 255
196 222 255
196 222 255
196 222 255
196 222 255
197 222 255
197 222 255
197 222 255
197 222 255
197 222 255
197 222 255
197 222 255
197 222 255
197 222 255
197 222 255
197 222 255
197 222 255
197 222 255
197 222 255
197 222 255
197 222 255
197 222 255
197 222 255
197 222 255
197 222 255
197 222 255
197 222 255
197 222 255
197 222 255
197 222 255
197 222 255
198 223 255
198 223 255
198 223 255
198 223 255
198 223 255
198 223 255
198 223 255
198 223 255
198 223 255
198 223 255
198 223 255
198 223 255
198 223 255
198 223 255
198 223 255
198 223 255
198 223 255
198 223 255
199 223 255
199 223 255
199 223 255
199 223 255
199 223 255
199 223 255
199 223 255
199 223 255
199 223 255
199 223 255
199 223 255
199 223 255
199 223 255
199 223 255
199 224 255
199 224 255
200 224 255
200 224 255
200 224 255
200 224 255
200 224 255
200 224 255
200 224 255
200 224 255
200 224 255
200 224 255
200 224 255
200 224 255
200 224 255
200 224 255
200 224 255
201 224 255
201 224 255
201 224 255
201 224 255
201 224 255
201 224 255
201 224 255
201 224 255
201 224 255
201 224 255
201 225 255
201 225 255
201 225 255
201 225 255
201 225 255
202 225 255
202 225 255
202 225 255
202 225 255
202 225 255
202 225 255
202 225 255
202 225 255
202 225 255
202 225 255
202 225 255
202 225 255
202 225 255
202 225 255
202 225 255
203 225 255
203 225 255
203 225 255
203 225 255
203 225 255
203 225 255
203 225 255
203 225 255
203 226 255
203 226 255
203 226 255
203 226 255
203 226 255
203 226 255
203 226 255
204 226 255
204 226 255
204 226 255
204 226 255
204 226 255
204 226 255
204 226 255
204 226 255
204 226 255
204 226 255
204 226 255
204 226 255
204 226 255
204 226 255
204 226 255
204 226 255
205 226 255
205 226 255
205 226 255
205 226 255
205 226 255
205 226 255
205 226 255
205 227 255
205 227 255
205 227 255
205 227 255
205 227 255
205 227 255
205 227 255
205 227 255
205 227 255
205 227 255
205 227 255
206 227 255
206 227 255
206 227 255
206 227 255
206 227 255
206 227 255
206 227 255
206 227 255
206 227 255
206 227 255
206 227 255
206 227 255
206 227 255
206 227 255
206 227 255
206 227 255
206 227 255
206 227 255
206 227 255
207 227 255
207 227 255
207 227 255
207 227 255
207 228 255
207 228 255
207 228 255
207 228 255
207 228 255
207 228 255
207 228 255
207 228 255
207 227 255
207 227 255
207 227 255
207 227 255
207 227 255
206 227 255
206 227 255
206 227 255
206 227 255
206 227 255
206 227 255
206 227 255
206 227 255
206 227 255
206 227 255
206 227 255
206 227 255
206 227 255
206 227 255
206 227 255
206 227 255
206 227 255
206 227 255
206 227 255
205 227 255
205 227 255
205 227 255
205 227 255
205 227 255
205 227 255
205 227 255
205 227 255
205 227 255
205 227 255
205 227 255
205 226 255
205 226 255
205 226 255
205 226 255
205 226 255
205 226 255
204 226 255
204 226 255
204 226 255
204 226 255
204 226 255
204 226 255
204 226 255
204 226 255
204 226 255
204 226 255
204 226 255
204 226 255
204 226 255
204 226 255
204 226 255
204 226 255
203 226 255
203 226 255
203 226 255
203 226 255
203 226 255
203 226 255
203 226 255
203 225 255
203 225 255
203 225 255
203 225 255
203 225 255
203 225 255
203 225 255
203 225 255
203 225 255
202 225 255
202 225 255
202 225 255
202 225 255
202 225 255
202 225 255
202 225 255
202 225 255
202 225 255
202 225 255
202 225 255
202 225 255
202 225 255
202 225 255
202 225 255
201 225 255
201 225 255
201 225 255
201 225 255
201 224 255
201 224 255
201 224 255
201 224 255
201 224 255
201 224 255
201 224 255
201 224 255
201 224 255
201 224 255
201 224 255
200 224 255
200 224 255
200 224 255
200 224 255
200 224 255
200 224 255
200 224 255
200 224 255
200 224 255
200 224 255
200 224 255
200 224 255
200 224 255
200 224 255
199 224 255
199 224 255
199 224 255
199 223 255
199 223 255
199 223 255
199 223 255
199 223 255
199 223 255
199 223 255
199 223 255
199 223 255
199 223 255
199 223 255
199 223 255
199 223 255
198 223 255
198 223 255
198 223 255
198 223 255
198 223 255
198 223 255
198 223 255
198 223 255
198 223 255
198 223 255
198 223 255
198 223 255
198 223 255
198 223 255
198 223 255
198 223 255
198 223 255
198 223 255
198 223 255
197 223 255
197 222 255
197 222 255
197 222 255
197 222 255
197 222 255
197 222 255
197 222 255
197 222 255
197 222 255
197 222 255
197 222 255
197 222 255
197 222 255
197 222 255
197 222 255
197 222 255
197 222 255
197 222 255
197 222 255
197 222 255
197 222 255
197 222 255
197 222 255
197 222 255
197 222 255
197 222 255
197 222 255
197 222 255
197 222 255
197 222 255
197 222 255
196 222 255
196 222 255
196 222 255
196 222 255
196 222 255
196 222 255
196 222 255
196 222 255
196 222 255
196 222 255
196 222 255
196 222 255
196 222 255
196 222 255
196 222 255
196 222 255
196 222 255
196 222 255
196 222 255
196 222 255
196 222 255
196 222 255
197 222 255
197 222 255
197 222 255
197 222 255
197 222 255
197 222 255
197 222 255
197 222 255
197 222 255
197 222 255
197 222 255
197 222 255
197 222 255
197 222 255
197 222 255
197 222 255
197 222 255
197 222 255
197 222 255
197 222 255
197 222 255
197 222 255
197 222 255
197 222 255
197 222 255
197 222 255
197 222 255
197 222 255
197 222 255
197 222 255
197 222 255
197 223 255
198 223 255
198 223 255
198 223 255
198 223 255
198 223 255
198 223 255
198 223 255
198 223 255
198 223 255
198 223 255
198 223 255
198 223 255
198 223 255
198 223 255
198 223 255
198 223 255
198 223 255
198 223 255
198 223 255
199 223 255
199 223 255
199 223 255
199 223 255
199 223 255
199 223 255
199 223 255
199 223 255
199 223 255
199 223 255
199 223 255
199 223 255
199 223 255
199 224 255
199 224 255
200 224 255
200 224 255
200 224 255
200 224 255
200 224 255
200 224 255
200 224 255
200 224 255
200 224 255
200 224 255
200 224 255
200 224 255
200 224 255
200 224 255
200 224 255
200 224 255
201 224 255
201 224 255
201 224 255
201 224 255
201 224 255
201 224 255
201 224 255
201 224 255
201 224 255
201 224 255
201 225 255
201 225 255
201 225 255
201 225 255
202 225 255
202 225 255
202 225 255
202 225 255
202 225 255
202 225 255
202 225 255
202 225 255
202 225 255
202 225 255
202 225 255
202 225 255
202 225 255
202 225 255
202 225 255
203 225 255
203 225 255
203 225 255
203 225 255
203 225 255
203 225 255
203 225 255
203 225 255
203 226 255
203 226 255
203 226 255
203 226 255
203 226 255
203 226 255
203 226 255
203 226 255
204 226 255
204 226 255
204 226 255
204 226 255
204 226 255
204 226 255
204 226 255
204 226 255
204 226 255
204 226 255
204 226 255
204 226 255
204 226 255
204 226 255
204 226 255
204 226 255
205 226 255
205 226 255
205 226 255
205 226 255
205 226 255
205 226 255
205 226 255
205 227 255
205 227 255
205 227 255
205 227 255
205 227 255
205 227 255
205 227 255
205 227 255
205 227 255
205 227 255
206 227 255
206 227 255
206 227 255
206 227 255
206 227 255
206 227 255
206 227 255
206 227 255
206 227 255
206 227 255
206 227 255
206 227 255
206 227 255
206 227 255
206 227 255
206 227 255
206 227 255
206 227 255
206 227 255
207 227 255
207 227 255
207 227 255
207 227 255
207 227 255
207 228 255
207 228 255
207 228 255
207 228 255
207 228 255
207 228 255
207 228 255
207 228 255
207 228 255
207 228 255
207 228 255
207 228 255
207 228 255
207 227 255
207 227 255
207 227 255
207 227 255
207 227 255
206 227 255
206 227 255
206 227 255
206 227 255
206 227 255
206 227 255
206 227 255
206 227 255
206 227 255
206 227 255
206 227 255
206 227 255
206 227 255
206 227 255
206 227 255
206 227 255
206 227 255
206 227 255
206 227 255
205 227 255
205 227 255
205 227 255
205 227 255
205 227 255
205 227 255
205 227 255
205 227 255
205 227 255
205 227 255
205 226 255
205 226 255
205 226 255
205 226 255
205 226 255
205 226 255
205 226 255
204 226 255
204 226 255
204 226 255
204 226 255
204 226 255
204 226 255
204 226 255
204 226 255
204 226 255
204 226 255
204 226 255
204 226 255
204 226 255
204 226 255
204 226 255
204 226 255
203 226 255
203 226 255
203 226 255
203 226 255
203 226 255
203 226 255
203 226 255
203 225 255
203 225 255
203 225 255
203 225 255
203 225 255
203 225 255
203 225 255
203 225 255
202 225 255
202 225 255
202 225 255
202 225 255
202 225 255
202 225 255
202 225 255
202 225 255
202 225 255
202 225 255
202 225 255
202 225 255
202 225 255
202 225 255
202 225 255
201 225 255
201 225 255
201 225 255
201 225 255
201 225 255
201 224 255
201 224 255
201 224 255
201 224 255
201 224 255
201 224 255
201 224 255
201 224 255
201 224 255
201 224 255
200 224 255
200 224 255
200 224 255
200 224 255
200 224 255
200 224 255
200 224 255
200 224 255
200 224 255
200 224 255
200 224 255
200 224 255
200 224 255
200 224 255
200 224 255
199 224 255
199 224 255
199 224 255
199 223 255
199 223 255
199 223 255
199 223 255
199 223 255
199 223 255
199 223 255
199 223 255
199 223 255
199 223 255
199 223 255
199 223 255
199 223 255
198 223 255
198 223 255
198 223 255
198 223 255
198 223 255
198 223 255
198 223 255
198 223 255
198 223 255
198 223 255
198 223 255
198 223 255
198 223 255
198 223 255
198 223 255
198 223 255
198 223 255
198 223 255
198 223 255
198 223 255
197 223 255
197 222 255
197 222 255
197 222 255
197 222 255
197 222 255
197 222 255
197 222 255
197 222 255
197 222 255
197 222 255
197 222 255
197 222 255
197 222 255
197 222 255
197 222 255
197 222 255
197 222 255
197 222 255
197 222 255
197 222 255
197 222 255
197 222 255
197 222 255
197 222 255
197 222 255
197 222 255
197 222 255
197 222 255
197 222 255
197 222 255
197 222 255
197 222 255
197 222 255
197 222 255
197 222 255
197 222 255
197 222 255
197 222 255
197 222 255
197 222 255
197 222 255
197 222 255
197 222 255
197 222 255
197 222 255
197 222 255
197 222 255
197 222 255
197 222 255
197 222 255
197 222 255
197 222 255
197 222 255
197 222 255
197 222 255
197 222 255
197 222 255
197 222 255
197 222 255
197 222 255
197 222 255
197 222 255
197 222 255
197 222 255
197 222 255
197 222 255
197 222 255
197 222 255
197 222 255
197 222 255
197 222 255
197 222 255
197 222 255
197 222 255
197 222 255
197 222 255
197 223 255
198 223 255
198 223 255
198 223 255
198 223 255
198 223 255
198 223 255
198 223 255
198 223 255
198 223 255
198 223 255
198 223 255
198 223 255
198 223 255
198 223 255
198 223 255
198 223 255
198 223 255
198 223 255
198 223 255
198 223 255
199 223 255
199 223 255
199 223 255
199 223 255
199 223 255
199 223 255
199 223 255
199 223 255
199 223 255
199 223 255
199 223 255
199 223 255
199 223 255
199 224 255
199 224 255
199 224 255
200 224 255
200 224 255
200 224 255
200 224 255
200 224 255
200 224 255
200 224 255
200 224 255
200 224 255
200 224 255
200 224 255
200 224 255
200 224 255
200 224 255
200 224 255
201 224 255
201 224 255
201 224 255
201 224 255
201 224 255
201 224 255
201 224 255
201 224 255
201 224 255
201 224 255
201 225 255
201 225 255
201 225 255
201 225 255
201 225 255
202 225 255
202 225 255
202 225 255
202 225 255
202 225 255
202 225 255
202 225 255
202 225 255
202 225 255
202 225 255
202 225 255
202 225 255
202 225 255
202 225 255
202 225 255
203 225 255
203 225 255
203 225 255
203 225 255
203 225 255
203 225 255
203 225 255
203 225 255
203 226 255
203 226 255
203 226 255
203 226 255
203 226 255
203 226 255
203 226 255
204 226 255
204 226 255
204 226 255
204 226 255
204 226 255
204 226 255
204 226 255
204 226 255
204 226 255
204 226 255
204 226 255
204 226 255
204 226 255
204 226 255
204 226 255
204 226 255
205 226 255
205 226 255
205 226 255
205 226 255
205 226 255
205 226 255
205 226 255
205 227 255
205 227 255
205 227 255
205 227 255
205 227 255
205 227 255
205 227 255
205 227 255
205 227 255
205 227 255
206 227 255
206 227 255
206 227 255
206 227 255
206 227 255
206 227 255
206 227 255
206 227 255
206 227 255
206 227 255
206 227 255
206 227 255
206 227 255
206 227 255
206 227 255
206 227 255
206 227 255
206 227 255
206 227 255
207 227 255
207 227 255
207 227 255
207 227 255
207 227 255
207 228 255
207 228 255
207 228 255
207 228 255
207 228 255
207 228 255
207 228 255
207 228 255
207 228 255
207 228 255
207 228 255
207 228 255
207 228 255
207 228 255
207 228 255
207 228 255
207 228 255
207 228 255
207 228 255
207 227 255
207 227 255
207 227 255
207 227 255
207 227 255
206 227 255
206 227 255
206 227 255
206 227 255
206 227 255
206 227 255
206 227 255
206 227 255
206 227 255
206 227 255
206 227 255
206 227 255
206 227 255
206 227 255
206 227 255
206 227 255
206 227 255
206 227 255
205 227 255
205 227 255
205 227 255
205 227 255
205 227 255
205 227 255
205 227 255
205 227 255
205 227 255
205 227 255
205 227 255
205 226 255
205 226 255
205 226 255
205 226 255
205 226 255
205 226 255
205 226 255
204 226 255
204 226 255
204 226 255
204 226 255
204 226 255
204 226 255
204 226 255
204 226 255
204 226 255
204 226 255
204 226 255
204 226 255
204 226 255
204 226 255
204 226 255
204 226 255
203 226 255
203 226 255
203 226 255
203 226 255
203 226 255
203 226 255
203 225 255
203 225 255
203 225 255
203 225 255
203 225 255
203 225 255
203 225 255
203 225 255
203 225 255
202 225 255
202 225 255
202 225 255
202 225 255
202 225 255
202 225 255
202 225 255
202 225 255
202 225 255
202 225 255
202 225 255
202 225 255
202 225 255
202 225 255
202 225 255
201 225 255
201 225 255
201 225 255
201 225 255
201 224 255
201 224 255
201 224 255
201 224 255
201 224 255
201 224 255
201 224 255
201 224 255
201 224 255
201 224 255
201 224 255
200 224 255
200 224 255
200 224 255
200 224 255
200 224 255
200 224 255
200 224 255
200 224 255
200 224 255
200 224 255
200 224 255
200 224 255
200 224 255
200 224 255
200 224 255
199 224 255
199 224 255
199 223 255
199 223 255
199 223 255
199 223 255
199 223 255
199 223 255
199 223 255
199 223 255
199 223 255
199 223 255
199 223 255
199 223 255
199 223 255
199 223 255
199 223 255
198 223 255
198 223 255
198 223 255
198 223 255
198 223 255
198 223 255
198 223 255
198 223 255
198 223 255
198 223 255
198 223 255
198 223 255
198 223 255
198 223 255
198 223 255
198 223 255
198 223 255
198 223 255
198 223 255
198 223 255
197 223 255
197 222 255
197 222 255
197 222 255
197 222 255
197 222 255
197 222 255
197 222 255
197 222 255
197 222 255
197 222 255
197 222 255
197 222 255
197 222 255
197 222 255
197 222 255
197 222 255
197 222 255
197 222 255
197 222 255
197 222 255
197 222 255
197 222 255
197 222 255
197 222 255
197 222 255
197 222 255
197 222 255
197 222 255
197 222 255
197 222 255
197 222 255
197 222 255
197 222 255
197 222 255
197 222 255
197 222 255
197 222 255
197 222 255
197 222 255
197 222 255
197 222 255
197 222 255
197 222 255
197 222 255
197 222 255
197 222 255
197 222 255
197 222 255
197 222 255
197 222 255
197 222 255
197 222 255
197 222 255
197 222 255
197 222 255
197 222 255
197 222 255
197 222 255
197 222 255
197 222 255
197 222 255
197 222 255
197 222 255
197 222 255
197 222 255
197 222 255
197 222 255
197 222 255
197 223 255
198 223 255
198 223 255
198 223 255
198 223 255
198 223 255
198 223 255
198 223 255
198 223 255
198 223 255
198 223 255
198 223 255
198 223 255
198 223 255
198 223 255
198 223 255
198 223 255
198 223 255
198 223 255
198 223 255
198 223 255
199 223 255
199 223 255
199 223 255
199 223 255
199 223 255
199 223 255
199 223 255
199 223 255
199 223 255
199 223 255
199 223 255
199 223 255
199 223 255
199 223 255
199 223 255
199 224 255
199 224 255
200 224 255
200 224 255
200 224 255
200 224 255
200 224 255
200 224 255
200 224 255
200 224 255
200 224 255
200 224 255
200 224 255
200 224 255
200 224 255
200 224 255
200 224 255
201 224 255
201 224 255
201 224 255
201 224 255
201 224 255
201 224 255
201 224 255
201 224 255
201 224 255
201 224 255
201 224 255
201 225 255
201 225 255
201 225 255
201 225 255
202 225 255
202 225 255
202 225 255
202 225 255
202 225 255
202 225 255
202 225 255
202 225 255
202 225 255
202 225 255
202 225 255
202 225 255
202 225 255
202 225 255
202 225 255
203 225 255
203 225 255
203 225 255
203 225 255
203 225 255
203 225 255
203 225 255
203 225 255
203 225 255
203 226 255
203 226 255
203 226 255
203 226 255
203 226 255
203 226 255
204 226 255
204 226 255
204 226 255
204 226 255
204 226 255
204 226 255
204 226 255
204 226 255
204 226 255
204 226 255
204 226 255
204 226 255
204 226 255
204 226 255
204 226 255
204 226 255
204 226 255
205 226 255
205 226 255
205 226 255
205 226 255
205 226 255
205 226 255
205 227 255
205 227 255
205 227 255
205 227 255
205 227 255
205 227 255
205 227 255
205 227 255
205 227 255
205 227 255
205 227 255
206 227 255
206 227 255
206 227 255
206 227 255
206 227 255
206 227 255
206 227 255
206 227 255
206 227 255
206 227 255
206 227 255
206 227 255
206 227 255
206 227 255
206 227 255
206 227 255
206 227 255
206 227 255
207 227 255
207 227 255
207 227 255
207 227 255
207 227 255
207 228 255
207 228 255
207 228 255
207 228 255
207 228 255
207 228 255
207 228 255
207 228 255
207 228 255
207 228 255
207 228 255
207 228 255
207 228 255
207 228 255
207 228 255
207 228 255
207 228 255
207 228 255
207 228 255
207 228 255
207 228 255
207 228 255
207 228 255
207 228 255
207 228 255
207 227 255
207 227 255
207 227 255
207 227 255
206 227 255
206 227 255
206 227 255
206 227 255
206 227 255
206 227 255
206 227 255
206 227 255
206 227 255
206 227 255
206 227 255
206 227 255
206 227 255
206 227 255
206 227 255
206 227 255
206 227 255
206 227 255
206 227 255
205 227 255
205 227 255
205 227 255
205 227 255
205 227 255
205 227 255
205 227 255
205 227 255
205 227 255
205 227 255
205 226 255
205 226 255
205 226 255
205 226 255
205 226 255
205 226 255
205 226 255
204 226 255
204 226 255
204 226 255
204 226 255
204 226 255
204 226 255
204 226 255
204 226 255
204 226 255
204 226 255
204 226 255
204 226 255
204 226 255
204 226 255
204 226 255
204 226 255
203 226 255
203 226 255
203 226 255
203 226 255
203 226 255
203 226 255
203 226 255
203 225 255
203 225 255
203 225 255
203 225 255
203 225 255
203 225 255
203 225 255
203 225 255
202 225 255
202 225 255
202 225 255
202 225 255
202 225 255
202 225 255
202 225 255
202 225 255
202 225 255
202 225 255
202 225 255
202 225 255
202 225 255
202 225 255
202 225 255
201 225 255
201 225 255
201 225 255
201 225 255
201 225 255
201 224 255
201 224 255
201 224 255
201 224 255
201 224 255
201 224 255
201 224 255
201 224 255
201 224 255
201 224 255
200 224 255
200 224 255
200 224 255
200 224 255
200 224 255
200 224 255
200 224 255
200 224 255
200 224 255
200 224 255
200 224 255
200 224 255
200 224 255
200 224 255
200 224 255
200 224 255
199 224 255
199 224 255
199 223 255
199 223 255
199 223 255
199 223 255
199 223 255
199 223 255
199 223 255
199 223 255
199 223 255
199 223 255
199 223 255
199 223 255
199 223 255
199 223 255
199 223 255
198 223 255
198 223 255
198 223 255
198 223 255
198 223 255
198 223 255
198 223 255
198 223 255
198 223 255
198 223 255
198 223 255
198 223 255
198 223 255
198 223 255
198 223 255
198 223 255
198 223 255
198 223 255
198 223 255
198 223 255
198 223 255
198 223 255
197 223 255
197 222 255
197 222 255
197 222 255
197 222 255
197 222 255
197 222 255
197 222 255
197 222 255
197 222 255
197 222 255
197 222 255
197 222 255
197 222 255
197 222 255
197 222 255
197 222 255
197 222 255
197 222 255
197 222 255
197 222 255
197 222 255
197 222 255
197 222 255
197 222 255
197 222 255
197 222 255
197 222 255
197 222 255
197 222 255
197 222 255
197 222 255
197 222 255
197 222 255
197 222 255
197 222 255
197 222 255
197 222 255
197 222 255
197 222 255
197 222 255
197 222 255
197 222 255
197 222 255
197 222 255
197 222 255
197 222 255
197 222 255
197 222 255
197 222 255
197 222 255
197 222 255
197 222 255
197 222 255
197 222 255
197 222 255
197 222 255
197 222 255
197 222 255
197 223 255
198 223 255
198 223 255
198 223 255
198 223 255
198 223 255
198 223 255
198 223 255
198 223 255
198 223 255
198 223 255
198 223 255
198 223 255
198 223 255
198 223 255
198 223 255
198 223 255
198 223 255
198 223 255
198 223 255
198 223 255
198 223 255
198 223 255
199 223 255
199 223 255
199 223 255
199 223 255
199 223 255
199 223 255
199 223 255
199 223 255
199 223 255
199 223 255
199 223 255
199 223 255
199 223 255
199 223 255
199 223 255
199 224 255
199 224 255
200 224 255
200 224 255
200 224 255
200 224 255
200 224 255
200 224 255
200 224 255
200 224 255
200 224 255
200 224 255
200 224 255
200 224 255
200 224 255
200 224 255
200 224 255
200 224 255
201 224 255
201 224 255
201 224 255
201 224 255
201 224 255
201 224 255
201 224 255
201 224 255
201 224 255
201 224 255
201 225 255
201 225 255
201 225 255
201 225 255
201 225 255
202 225 255
202 225 255
202 225 255
202 225 255
202 225 255
202 225 255
202 225 255
202 225 255
202 225 255
202 225 255
202 225 255
202 225 255
202 225 255
202 225 255
202 225 255
203 225 255
203 225 255
203 225 255
203 225 255
203 225 255
203 225 255
203 225 255
203 225 255
203 226 255
203 226 255
203 226 255
203 226 255
203 226 255
203 226 255
203 226 255
204 226 255
204 226 255
204 226 255
204 226 255
204 226 255
204 226 255
204 226 255
204 226 255
204 226 255
204 226 255
204 226 255
204 226 255
204 226 255
204 226 255
204 226 255
204 226 255
205 226 255
205 226 255
205 226 255
205 226 255
205 226 255
205 226 255
205 226 255
205 227 255
205 227 255
205 227 255
205 227 255
205 227 255
205 227 255
205 227 255
205 227 255
205 227 255
205 227 255
206 227 255
206 227 255
206 227 255
206 227 255
206 227 255
206 227 255
206 227 255
206 227 255
206 227 255
206 227 255
206 227 255
206 227 255
206 227 255
206 227 255
206 227 255
206 227 255
206 227 255
206 227 255
207 227 255
207 227 255
207 227 255
207 227 255
207 227 255
207 228 255
207 228 255
207 228 255
207 228 255
207 228 255
207 228 255
207 228 255
207 228 255
207 228 255
207 228 255
207 228 255
207 228 255
207 228 255
207 228 255
208 228 255
207 228 255
207 228 255
207 228 255
207 228 255
207 228 255
207 228 255
207 228 255
207 228 255
207 228 255
207 228 255
207 228 255
207 228 255
207 228 255
207 228 255
207 228 255
207 228 255
207 227 255
207 227 255
207 227 255
207 227 255
206 227 255
206 227 255
206 227 255
206 227 255
206 227 255
206 227 255
206 227 255
206 227 255
206 227 255
206 227 255
206 227 255
206 227 255
206 227 255
206 227 255
206 227 255
206 227 255
206 227 255
206 227 255
206 227 255
205 227 255
205 227 255
205 227 255
205 227 255
205 227 255
205 227 255
205 227 255
205 227 255
205 227 255
205 227 255
205 226 255
205 226 255
205 226 255
205 226 255
205 226 255
205 226 255
205 226 255
204 226 255
204 226 255
204 226 255
204 226 255
204 226 255
204 226 255
204 226 255
204 226 255
204 226 255
204 226 255
204 226 255
204 226 255
204 226 255
204 226 255
204 226 255
204 226 255
203 226 255
203 226 255
203 226 255
203 226 255
203 226 255
203 226 255
203 225 255
203 225 255
203 225 255
203 225 255
203 225 255
203 225 255
203 225 255
203 225 255
203 225 255
202 225 255
202 225 255
202 225 255
202 225 255
202 225 255
202 225 255
202 225 255
202 225 255
202 225 255
202 225 255
202 225 255
202 225 255
202 225 255
202 225 255
202 225 255
201 225 255
201 225 255
201 225 255
201 225 255
201 224 255
201 224 255
201 224 255
201 224 255
201 224 255
201 224 255
201 224 255
201 224 255
201 224 255
201 224 255
201 224 255
200 224 255
200 224 255
200 224 255
200 224 255
200 224 255
200 224 255
200 224 255
200 224 255
200 224 255
200 224 255
200 224 255
200 224 255
200 224 255
200 224 255
200 224 255
199 224 255
199 224 255
199 224 255
199 223 255
199 223 255
199 223 255
199 223 255
199 223 255
199 223 255
199 223 255
199 223 255
199 223 255
199 223 255
199 223 255
199 223 255
199 223 255
199 223 255
199 223 255
198 223 255
198 223 255
198 223 255
198 223 255
198 223 255
198 223 255
198 223 255
198 223 255
198 223 255
198 223 255
198 223 255
198 223 255
198 223 255
198 223 255
198 223 255
198 223 255
198 223 255
198 223 255
198 223 255
198 223 255
198 223 255
198 223 255
198 223 255
198 223 255
197 223 255
197 223 255
197 222 255
197 222 255
197 222 255
197 222 255
197 222 255
197 222 255
197 222 255
197 222 255
197 222 255
197 222 255
197 222 255
197 222 255
197 222 255
197 222 255
197 222 255
197 222 255
197 222 255
197 222 255
197 222 255
197 222 255
197 222 255
197 222 255
197 222 255
197 222 255
197 222 255
197 222 255
197 222 255
197 222 255
197 222 255
197 222 255
197 222 255
197 222 255
197 222 255
197 222 255
197 222 255
197 222 255
197 222 255
197 222 255
197 222 255
197 222 255
197 222 255
197 222 255
197 222 255
197 222 255
197 222 255
197 222 255
197 223 255
197 223 255
198 223 255
198 223 255
198 223 255
198 223 255
198 223 255
198 223 255
198 223 255
198 223 255
198 223 255
198 223 255
198 223 255
198 223 255
198 223 255
198 223 255
198 223 255
198 223 255
198 223 255
198 223 255
198 223 255
198 223 255
198 223 255
198 223 255
198 223 255
198 223 255
199 223 255
199 223 255
199 223 255
199 223 255
199 223 255
199 223 255
199 223 255
199 223 255
199 223 255
199 223 255
199 223 255
199 223 255
199 223 255
199 223 255
199 223 255
199 224 255
199 224 255
200 224 255
200 224 255
200 224 255
200 224 255
200 224 255
200 224 255
200 224 255
200 224 255
200 224 255
200 224 255
200 224 255
200 224 255
200 224 255
200 224 255
200 224 255
200 224 255
201 224 255
201 224 255
201 224 255
201 224 255
201 224 255
201 224 255
201 224 255
201 224 255
201 224 255
201 224 255
201 224 255
201 225 255
201 225 255
201 225 255
201 225 255
202 225 255
202 225 255
202 225 255
202 225 255
202 225 255
202 225 255
202 225 255
202 225 255
202 225 255
202 225 255
202 225 255
202 225 255
202 225 255
202 225 255
202 225 255
203 225 255
203 225 255
203 225 255
203 225 255
203 225 255
203 225 255
203 225 255
203 225 255
203 225 255
203 226 255
203 226 255
203 226 255
203 226 255
203 226 255
203 226 255
204 226 255
204 226 255
204 226 255
204 226 255
204 226 255
204 226 255
204 226 255
204 226 255
204 226 255
204 226 255
204 226 255
204 226 255
204 226 255
204 226 255
204 226 255
204 226 255
205 226 255
205 226 255
205 226 255
205 226 255
205 226 255
205 226 255
205 226 255
205 227 255
205 227 255
205 227 255
205 227 255
205 227 255
205 227 255
205 227 255
205 227 255
205 227 255
205 227 255
206 227 255
206 227 255
206 227 255
206 227 255
206 227 255
206 227 255
206 227 255
206 227 255
206 227 255
206 227 255
206 227 255
206 227 255
206 227 255
206 227 255
206 227 255
206 227 255
206 227 255
206 227 255
206 227 255
207 227 255
207 227 255
207 227 255
207 227 255
207 228 255
207 228 255
207 228 255
207 228 255
207 228 255
207 228 255
207 228 255
207 228 255
207 228 255
207 228 255
207 228 255
207 228 255
207 228 255
207 228 255
207 228 255
207 228 255
208 228 255
208 228 255
208 228 255
208 228 255
208 228 255
207 228 255
207 228 255
207 228 255
207 228 255
207 228 255
207 228 255
207 228 255
207 228 255
207 228 255
207 228 255
207 228 255
207 228 255
207 228 255
207 228 255
207 228 255
207 228 255
207 227 255
207 227 255
207 227 255
207 227 255
206 227 255
206 227 255
206 227 255
206 227 255
206 227 255
206 227 255
206 227 255
206 227 255
206 227 255
206 227 255
206 227 255
206 227 255
206 227 255
206 227 255
206 227 255
206 227 255
206 227 255
206 227 255
205 227 255
205 227 255
205 227 255
205 227 255
205 227 255
205 227 255
205 227 255
205 227 255
205 227 255
205 227 255
205 227 255
205 226 255
205 226 255
205 226 255
205 226 255
205 226 255
205 226 255
204 226 255
204 226 255
204 226 255
204 226 255
204 226 255
204 226 255
204 226 255
204 226 255
204 226 255
204 226 255
204 226 255
204 226 255
204 226 255
204 226 255
204 226 255
204 226 255
203 226 255
203 226 255
203 226 255
203 226 255
203 226 255
203 226 255
203 226 255
203 225 255
203 225 255
203 225 255
203 225 255
203 225 255
203 225 255
203 225 255
203 225 255
203 225 255
202 225 255
202 225 255
202 225 255
202 225 255
202 225 255
202 225 255
202 225 255
202 225 255
202 225 255
202 225 255
202 225 255
202 225 255
202 225 255
202 225 255
202 225 255
201 225 255
201 225 255
201 225 255
201 225 255
201 224 255
201 224 255
201 224 255
201 224 255
201 224 255
201 224 255
201 224 255
201 224 255
201 224 255
201 224 255
201 224 255
200 224 255
200 224 255
200 224 255
200 224 255
200 224 255
200 224 255
200 224 255
200 224 255
200 224 255
200 224 255
200 224 255
200 224 255
200 224 255
200 224 255
200 224 255
199 224 255
199 224 255
199 224 255
199 223 255
199 223 255
199 223 255
199 223 255
199 223 255
199 223 255
199 223 255
199 223 255
199 223 255
199 223 255
199 223 255
199 223 255
199 223 255
199 223 255
199 223 255
199 223 255
198 223 255
198 223 255
198 223 255
198 223 255
198 223 255
198 223 255
198 223 255
198 223 255
198 223 255
198 223 255
198 223 255
198 223 255
198 223 255
198 223 255
198 223 255
198 223 255
198 223 255
198 223 255
198 223 255
198 223 255
198 223 255
198 223 255
198 223 255
198 223 255
198 223 255
198 223 255
198 223 255
198 223 255
197 223 255
197 222 255
197 222 255
197 222 255
197 222 255
197 222 255
197 222 255
197 222 255
197 222 255
197 222 255
197 222 255
197 222 255
197 222 255
197 222 255
197 222 255
197 222 255
197 222 255
197 222 255
197 222 255
197 222 255
197 222 255
197 222 255
197 222 255
197 222 255
197 222 255
197 222 255
197 222 255
197 222 255
197 222 255
197 222 255
197 222 255
197 222 255
197 222 255
197 223 255
198 223 255
198 223 255
198 223 255
198 223 255
198 223 255
198 223 255
198 223 255
198 223 255
198 223 255
198 223 255
198 223 255
198 223 255
198 223 255
198 223 255
198 223 255
198 223 255
198 223 255
198 223 255
198 223 255
198 223 255
198 223 255
198 223 255
198 223 255
198 223 255
198 223 255
198 223 255
198 223 255
198 223 255
199 223 255
199 223 255
199 223 255
199 223 255
199 223 255
199 223 255
199 223 255
199 223 255
199 223 255
199 223 255
199 223 255
199 223 255
199 223 255
199 223 255
199 223 255
199 223 255
199 224 255
199 224 255
199 224 255
200 224 255
200 224 255
200 224 255
200 224 255
200 224 255
200 224 255
200 224 255
200 224 255
200 224 255
200 224 255
200 224 255
200 224 255
200 224 255
200 224 255
200 224 255
201 224 255
201 224 255
201 224 255
201 224 255
201 224 255
201 224 255
201 224 255
201 224 255
201 224 255
201 224 255
201 224 255
201 225 255
201 225 255
201 225 255
201 225 255
201 225 255
202 225 255
202 225 255
202 225 255
202 225 255
202 225 255
202 225 255
202 225 255
202 225 255
202 225 255
202 225 255
202 225 255
202 225 255
202 225 255
202 225 255
203 225 255
203 225 255
203 225 255
203 225 255
203 225 255
203 225 255
203 225 255
203 225 255
203 225 255
203 226 255
203 226 255
203 226 255
203 226 255
203 226 255
203 226 255
203 226 255
204 226 255
204 226 255
204 226 255
204 226 255
204 226 255
204 226 255
204 226 255
204 226 255
204 226 255
204 226 255
204 226 255
204 226 255
204 226 255
204 226 255
204 226 255
204 226 255
205 226 255
205 226 255
205 226 255
205 226 255
205 226 255
205 226 255
205 227 255
205 227 255
205 227 255
205 227 255
205 227 255
205 227 255
205 227 255
205 227 255
205 227 255
205 227 255
206 227 255
206 227 255
206 227 255
206 227 255
206 227 255
206 227 255
206 227 255
206 227 255
206 227 255
206 227 255
206 227 255
206 227 255
206 227 255
206 227 255
206 227 255
206 227 255
206 227 255
206 227 255
206 227 255
207 227 255
207 227 255
207 227 255
207 227 255
207 227 255
207 228 255
207 228 255
207 228 255
207 228 255
207 228 255
207 228 255
207 228 255
207 228 255
207 228 255
207 228 255
207 228 255
207 228 255
207 228 255
207 228 255
207 228 255
208 228 255
208 228 255
208 228 255
208 228 255
208 228 255
208 228 255
208 228 255
208 228 255
208 228 255
208 228 255
208 228 255
207 228 255
207 228 255
207 228 255
207 228 255
207 228 255
207 228 255
207 228 255
207 228 255
207 228 255
207 228 255
207 228 255
207 228 255
207 228 255
207 228 255
207 228 255
207 227 255
207 227 255
207 227 255
207 227 255
207 227 255
206 227 255
206 227 255
206 227 255
206 227 255
206 227 255
206 227 255
206 227 255
206 227 255
206 227 255
206 227 255
206 227 255
206 227 255
206 227 255
206 227 255
206 227 255
206 227 255
206 227 255
206 227 255
205 227 255
205 227 255
205 227 255
205 227 255
205 227 255
205 227 255
205 227 255
205 227 255
205 227 255
205 227 255
205 226 255
205 226 255
205 226 255
205 226 255
205 226 255
205 226 255
205 226 255
204 226 255
204 226 255
204 226 255
204 226 255
204 226 255
204 226 255
204 226 255
204 226 255
204 226 255
204 226 255
204 226 255
204 226 255
204 226 255
204 226 255
204 226 255
204 226 255
203 226 255
203 226 255
203 226 255
203 226 255
203 226 255
203 226 255
203 226 255
203 225 255
203 225 255
203 225 255
203 225 255
203 225 255
203 225 255
203 225 255
203 225 255
202 225 255
202 225 255
202 225 255
202 225 255
202 225 255
202 225 255
202 225 255
202 225 255
202 225 255
202 225 255
202 225 255
202 225 255
202 225 255
202 225 255
202 225 255
201 225 255
201 225 255
201 225 255
201 225 255
201 225 255
201 224 255
201 224 255
201 224 255
201 224 255
201 224 255
201 224 255
201 224 255
201 224 255
201 224 255
201 224 255
200 224 255
200 224 255
200 224 255
200 224 255
200 224 255
200 224 255
200 224 255
200 224 255
200 224 255
200 224 255
200 224 255
200 224 255
200 224 255
200 224 255
200 224 255
200 224 255
200 224 255
199 224 255
199 224 255
199 223 255
199 223 255
199 223 255
199 223 255
199 223 255
199 223 255
199 223 255
199 223 255
199 223 255
199 223 255
199 223 255
199 223 255
199 223 255
199 223 255
199 223 255
199 223 255
199 223 255
198 223 255
198 223 255
198 223 255
198 223 255
198 223 255
198 223 255
198 223 255
198 223 255
198 223 255
198 223 255
198 223 255
198 223 255
198 223 255
198 223 255
198 223 255
198 223 255
198 223 255
198 223 255
198 223 255
198 223 255
198 223 255
198 223 255
198 223 255
198 223 255
198 223 255
198 223 255
198 223 255
198 223 255
198 223 255
198 223 255
198 223 255
198 223 255
198 223 255
198 223 255
198 223 255
198 223 255
198 223 255
198 223 255
197 223 255
197 223 255
197 223 255
197 223 255
197 223 255
197 223 255
197 223 255
197 223 255
198 223 255
198 223 255
198 223 255
198 223 255
198 223 255
198 223 255
198 223 255
198 223 255
198 223 255
198 223 255
198 223 255
198 223 255
198 223 255
198 223 255
198 223 255
198 223 255
198 223 255
198 223 255
198 223 255
198 223 255
198 223 255
198 223 255
198 223 255
198 223 255
198 223 255
198 223 255
198 223 255
198 223 255
198 223 255
198 223 255
198 223 255
198 223 255
198 223 255
198 223 255
198 223 255
198 223 255
199 223 255
199 223 255
199 223 255
199 223 255
199 223 255
199 223 255
199 223 255
199 223 255
199 223 255
199 223 255
199 223 255
199 223 255
199 223 255
199 223 255
199 223 255
199 223 255
199 223 255
199 224 255
199 224 255
200 224 255
200 224 255
200 224 255
200 224 255
200 224 255
200 224 255
200 224 255
200 224 255
200 224 255
200 224 255
200 224 255
200 224 255
200 224 255
200 224 255
200 224 255
200 224 255
200 224 255
201 224 255
201 224 255
201 224 255
201 224 255
201 224 255
201 224 255
201 224 255
201 224 255
201 224 255
201 224 255
201 225 255
201 225 255
201 225 255
201 225 255
201 225 255
202 225 255
202 225 255
202 225 255
202 225 255
202 225 255
202 225 255
202 225 255
202 225 255
202 225 255
202 225 255
202 225 255
202 225 255
202 225 255
202 225 255
202 225 255
203 225 255
203 225 255
203 225 255
203 225 255
203 225 255
203 225 255
203 225 255
203 225 255
203 226 255
203 226 255
203 226 255
203 226 255
203 226 255
203 226 255
203 226 255
204 226 255
204 226 255
204 226 255
204 226 255
204 226 255
204 226 255
204 226 255
204 226 255
204 226 255
204 226 255
204 226 255
204 226 255
204 226 255
204 226 255
204 226 255
204 226 255
205 226 255
205 226 255
205 226 255
205 226 255
205 226 255
205 226 255
205 226 255
205 227 255
205 227 255
205 227 255
205 227 255
205 227 255
205 227 255
205 227 255
205 227 255
205 227 255
205 227 255
206 227 255
206 227 255
206 227 255
206 227 255
206 227 255
206 227 255
206 227 255
206 227 255
206 227 255
206 227 255
206 227 255
206 227 255
206 227 255
206 227 255
206 227 255
206 227 255
206 227 255
206 227 255
207 227 255
207 227 255
207 227 255
207 227 255
207 227 255
207 228 255
207 228 255
207 228 255
207 228 255
207 228 255
207 228 255
207 228 255
207 228 255
207 228 255
207 228 255
207 228 255
207 228 255
207 228 255
207 228 255
207 228 255
208 228 255
208 228 255
208 228 255
208 228 255
208 228 255
208 228 255
208 228 255
208 228 255
208 228 255
208 228 255
208 228 255
208 228 255
208 228 255
208 228 255
208 228 255
208 228 255
208 228 255
207 228 255
207 228 255
207 228 255
207 228 255
207 228 255
207 228 255
207 228 255
207 228 255
207 228 255
207 228 255
207 228 255
207 228 255
207 228 255
207 228 255
207 228 255
207 227 255
207 227 255
207 227 255
207 227 255
207 227 255
206 227 255
206 227 255
206 227 255
206 227 255
206 227 255
206 227 255
206 227 255
206 227 255
206 227 255
206 227 255
206 227 255
206 227 255
206 227 255
206 227 255
206 227 255
206 227 255
206 227 255
206 227 255
205 227 255
205 227 255
205 227 255
205 227 255
205 227 255
205 227 255
205 227 255
205 227 255
205 227 255
205 227 255
205 226 255
205 226 255
205 226 255
205 226 255
205 226 255
205 226 255
205 226 255
204 226 255
204 226 255
204 226 255
204 226 255
204 226 255
204 226 255
204 226 255
204 226 255
204 226 255
204 226 255
204 226 255
204 226 255
204 226 255
204 226 255
204 226 255
204 226 255
203 226 255
203 226 255
203 226 255
203 226 255
203 226 255
203 226 255
203 225 255
203 225 255
203 225 255
203 225 255
203 225 255
203 225 255
203 225 255
203 225 255
203 225 255
202 225 255
202 225 255
202 225 255
202 225 255
202 225 255
202 225 255
202 225 255
202 225 255
202 225 255
202 225 255
202 225 255
202 225 255
202 225 255
202 225 255
202 225 255
201 225 255
201 225 255
201 225 255
201 225 255
201 224 255
201 224 255
201 224 255
201 224 255
201 224 255
201 224 255
201 224 255
201 224 255
201 224 255
201 224 255
201 224 255
200 224 255
200 224 255
200 224 255
200 224 255
200 224 255
200 224 255
200 224 255
200 224 255
200 224 255
200 224 255
200 224 255
200 224 255
200 224 255
200 224 255
200 224 255
200 224 255
200 224 255
199 224 255
199 224 255
199 223 255
199 223 255
199 223 255
199 223 255
199 223 255
199 223 255
199 223 255
199 223 255
199 223 255
199 223 255
199 223 255
199 223 255
199 223 255
199 223 255
199 223 255
199 223 255
199 223 255
199 223 255
198 223 255
198 223 255
198 223 255
198 223 255
198 223 255
198 223 255
198 223 255
198 223 255
198 223 255
198 223 255
198 223 255
198 223 255
198 223 255
198 223 255
198 223 255
198 223 255
198 223 255
198 223 255
198 223 255
198 223 255
198 223 255
198 223 255
198 223 255
198 223 255
198 223 255
198 223 255
198 223 255
198 223 255
198 223 255
198 223 255
198 223 255
198 223 255
198 223 255
198 223 255
198 223 255
198 223 255
198 223 255
198 223 255
198 223 255
198 223 255
198 223 255
198 223 255
198 223 255
198 223 255
198 223 255
198 223 255
198 223 255
198 223 255
198 223 255
198 223 255
198 223 255
198 223 255
198 223 255
198 223 255
198 223 255
198 223 255
198 223 255
198 223 255
198 223 255
198 223 255
198 223 255
198 223 255
198 223 255
198 223 255
198 223 255
198 223 255
198 223 255
198 223 255
198 223 255
198 223 255
198 223 255
198 223 255
198 223 255
198 223 255
199 223 255
199 223 255
199 223 255
199 223 255
199 223 255
199 223 255
199 223 255
199 223 255
199 223 255
199 223 255
199 223 255
199 223 255
199 223 255
199 223 255
199 223 255
199 223 255
199 223 255
199 224 255
199 224 255
199 224 255
200 224 255
200 224 255
200 224 255
200 224 255
200 224 255
200 224 255
200 224 255
200 224 255
200 224 255
200 224 255
200 224 255
200 224 255
200 224 255
200 224 255
200 224 255
200 224 255
200 224 255
201 224 255
201 224 255
201 224 255
201 224 255
201 224 255
201 224 255
201 224 255
201 224 255
201 224 255
201 224 255
201 224 255
201 225 255
201 225 255
201 225 255
201 225 255
202 225 255
202 225 255
202 225 255
202 225 255
202 225 255
202 225 255
202 225 255
202 225 255
202 225 255
202 225 255
202 225 255
202 225 255
202 225 255
202 225 255
202 225 255
203 225 255
203 225 255
203 225 255
203 225 255
203 225 255
203 225 255
203 225 255
203 225 255
203 225 255
203 226 255
203 226 255
203 226 255
203 226 255
203 226 255
203 226 255
204 226 255
204 226 255
204 226 255
204 226 255
204 226 255
204 226 255
204 226 255
204 226 255
204 226 255
204 226 255
204 226 255
204 226 255
204 226 255
204 226 255
204 226 255
204 226 255
205 226 255
205 226 255
205 226 255
205 226 255
205 226 255
205 226 255
205 226 255
205 227 255
205 227 255
205 227 255
205 227 255
205 227 255
205 227 255
205 227 255
205 227 255
205 227 255
205 227 255
206 227 255
206 227 255
206 227 255
206 227 255
206 227 255
206 227 255
206 227 255
206 227 255
206 227 255
206 227 255
206 227 255
206 227 255
206 227 255
206 227 255
206 227 255
206 227 255
206 227 255
206 227 255
207 227 255
207 227 255
207 227 255
207 227 255
207 227 255
207 228 255
207 228 255
207 228 255
207 228 255
207 228 255
207 228 255
207 228 255
207 228 255
207 228 255
207 228 255
207 228 255
207 228 255
207 228 255
207 228 255
207 228 255
208 228 255
208 228 255
208 228 255
208 228 255
208 228 255
208 228 255
208 228 255
208 228 255
208 228 255
208 228 255
208 228 255
208 228 255
208 228 255
208 228 255
208 228 255
208 228 255
208 228 255
208 228 255
208 228 255
208 228 255
208 228 255
208 228 255
208 228 255
207 228 255
207 228 255
207 228 255
207 228 255
207 228 255
207 228 255
207 228 255
207 228 255
207 228 255
207 228 255
207 228 255
207 228 255
207 228 255
207 228 255
207 228 255
207 227 255
207 227 255
207 227 255
207 227 255
207 227 255
206 227 255
206 227 255
206 227 255
206 227 255
206 227 255
206 227 255
206 227 255
206 227 255
206 227 255
206 227 255
206 227 255
206 227 255
206 227 255
206 227 255
206 227 255
206 227 255
206 227 255
206 227 255
205 227 255
205 227 255
205 227 255
205 227 255
205 227 255
205 227 255
205 227 255
205 227 255
205 227 255
205 227 255
205 226 255
205 226 255
205 226 255
205 226 255
205 226 255
205 226 255
204 226 255
204 226 255
204 226 255
204 226 255
204 226 255
204 226 255
204 226 255
204 226 255
204 226 255
204 226 255
204 226 255
204 226 255
204 226 255
204 226 255
204 226 255
204 226 255
203 226 255
203 226 255
203 226 255
203 226 255
203 226 255
203 226 255
203 226 255
203 225 255
203 225 255
203 225 255
203 225 255
203 225 255
203 225 255
203 225 255
203 225 255
203 225 255
202 225 255
202 225 255
202 225 255
202 225 255
202 225 255
202 225 255
202 225 255
202 225 255
202 225 255
202 225 255
202 225 255
202 225 255
202 225 255
202 225 255
201 225 255
201 225 255
201 225 255
201 225 255
201 225 255
201 224 255
201 224 255
201 224 255
201 224 255
201 224 255
201 224 255
201 224 255
201 224 255
201 224 255
201 224 255
201 224 255
200 224 255
200 224 255
200 224 255
200 224 255
200 224 255
200 224 255
200 224 255
200 224 255
200 224 255
200 224 255
200 224 255
200 224 255
200 224 255
200 224 255
200 224 255
200 224 255
200 224 255
199 224 255
199 224 255
199 224 255
199 223 255
199 223 255
199 223 255
199 223 255
199 223 255
199 223 255
199 223 255
199 223 255
199 223 255
199 223 255
199 223 255
199 223 255
199 223 255
199 223 255
199 223 255
199 223 255
199 223 255
199 223 255
198 223 255
198 223 255
198 223 255
198 223 255
198 223 255
198 223 255
198 223 255
198 223 255
198 223 255
198 223 255
198 223 255
198 223 255
198 223 255
198 223 255
198 223 255
198 223 255
198 223 255
198 223 255
198 223 255
198 223 255
198 223 255
198 223 255
198 223 255
198 223 255
198 223 255
198 223 255
198 223 255
198 223 255
198 223 255
198 223 255
198 223 255
198 223 255
198 223 255
198 223 255
198 223 255
198 223 255
198 223 255
198 223 255
198 223 255
198 223 255
198 223 255
198 223 255
198 223 255
198 223 255
198 223 255
198 223 255
198 223 255
198 223 255
198 223 255
198 223 255
198 223 255
198 223 255
198 223 255
198 223 255
198 223 255
198 223 255
198 223 255
198 223 255
198 223 255
198 223 255
198 223 255
198 223 255
198 223 255
198 223 255
198 223 255
199 223 255
199 223 255
199 223 255
199 223 255
199 223 255
199 223 255
199 223 255
199 223 255
199 223 255
199 223 255
199 223 255
199 223 255
199 223 255
199 223 255
199 223 255
199 223 255
199 223 255
199 223 255
199 223 255
199 224 255
199 224 255
199 224 255
200 224 255
200 224 255
200 224 255
200 224 255
200 224 255
200 224 255
200 224 255
200 224 255
200 224 255
200 224 255
200 224 255
200 224 255
200 224 255
200 224 255
200 224 255
200 224 255
200 224 255
201 224 255
201 224 255
201 224 255
201 224 255
201 224 255
201 224 255
201 224 255
201 224 255
201 224 255
201 224 255
201 224 255
201 225 255
201 225 255
201 225 255
201 225 255
202 225 255
202 225 255
202 225 255
202 225 255
202 225 255
202 225 255
202 225 255
202 225 255
202 225 255
202 225 255
202 225 255
202 225 255
202 225 255
202 225 255
202 225 255
202 225 255
203 225 255
203 225 255
203 225 255
203 225 255
203 225 255
203 225 255
203 225 255
203 225 255
203 226 255
203 226 255
203 226 255
203 226 255
203 226 255
203 226 255
203 226 255
204 226 255
204 226 255
204 226 255
204 226 255
204 226 255
204 226 255
204 226 255
204 226 255
204 226 255
204 226 255
204 226 255
204 226 255
204 226 255
204 226 255
204 226 255
204 226 255
205 226 255
205 226 255
205 226 255
205 226 255
205 226 255
205 226 255
205 227 255
205 227 255
205 227 255
205 227 255
205 227 255
205 227 255
205 227 255
205 227 255
205 227 255
205 227 255
206 227 255
206 227 255
206 227 255
206 227 255
206 227 255
206 227 255
206 227 255
206 227 255
206 227 255
206 227 255
206 227 255
206 227 255
206 227 255
206 227 255
206 227 255
206 227 255
206 227 255
206 227 255
207 227 255
207 227 255
207 227 255
207 227 255
207 227 255
207 228 255
207 228 255
207 228 255
207 228 255
207 228 255
207 228 255
207 228 255
207 228 255
207 228 255
207 228 255
207 228 255
207 228 255
207 228 255
207 228 255
207 228 255
208 228 255
208 228 255
208 228 255
208 228 255
208 228 255
208 228 255
208 228 255
208 228 255
208 228 255
208 228 255
208 228 255
208 228 255
208 228 255
208 228 255
208 228 255
208 228 255
208 228 255
208 228 255
208 228 255
208 228 255
208 228 255
208 228 255
208 228 255
208 228 255
208 228 255
208 228 255
208 228 255
208 228 255
208 228 255
207 228 255
207 228 255
207 228 255
207 228 255
207 228 255
207 228 255
207 228 255
207 228 255
207 228 255
207 228 255
207 228 255
207 228 255
207 228 255
207 228 255
207 228 255
207 227 255
207 227 255
207 227 255
207 227 255
207 227 255
206 227 255
206 227 255
206 227 255
206 227 255
206 227 255
206 227 255
206 227 255
206 227 255
206 227 255
206 227 255
206 227 255
206 227 255
206 227 255
206 227 255
206 227 255
206 227 255
206 227 255
206 227 255
205 227 255
205 227 255
205 227 255
205 227 255
205 227 255
205 227 255
205 227 255
205 227 255
205 227 255
205 227 255
205 226 255
205 226 255
205 226 255
205 226 255
205 226 255
205 226 255
204 226 255
204 226 255
204 226 255
204 226 255
204 226 255
204 226 255
204 226 255
204 226 255
204 226 255
204 226 255
204 226 255
204 226 255
204 226 255
204 226 255
204 226 255
204 226 255
203 226 255
203 226 255
203 226 255
203 226 255
203 226 255
203 226 255
203 226 255
203 225 255
203 225 255
203 225 255
203 225 255
203 225 255
203 225 255
203 225 255
203 225 255
202 225 255
202 225 255
202 225 255
202 225 255
202 225 255
202 225 255
202 225 255
202 225 255
202 225 255
202 225 255
202 225 255
202 225 255
202 225 255
202 225 255
202 225 255
202 225 255
201 225 255
201 225 255
201 225 255
201 225 255
201 224 255
201 224 255
201 224 255
201 224 255
201 224 255
201 224 255
201 224 255
201 224 255
201 224 255
201 224 255
201 224 255
200 224 255
200 224 255
200 224 255
200 224 255
200 224 255
200 224 255
200 224 255
200 224 255
200 224 255
200 224 255
200 224 255
200 224 255
200 224 255
200 224 255
200 224 255
200 224 255
200 224 255
199 224 255
199 224 255
199 224 255
199 224 255
199 223 255
199 223 255
199 223 255
199 223 255
199 223 255
199 223 255
199 223 255
199 223 255
199 223 255
199 223 255
199 223 255
199 223 255
199 223 255
199 223 255
199 223 255
199 223 255
199 223 255
199 223 255
199 223 255
199 223 255
198 223 255
198 223 255
198 223 255
198 223 255
198 223 255
198 223 255
198 223 255
198 223 255
198 223 255
198 223 255
198 223 255
198 223 255
198 223 255
198 223 255
198 223 255
198 223 255
198 223 255
198 223 255
198 223 255
198 223 255
198 223 255
198 223 255
198 223 255
198 223 255
198 223 255
198 223 255
198 223 255
198 223 255
198 223 255
198 223 255
198 223 255
198 223 255
198 223 255
198 223 255
198 223 255
198 223 255
198 223 255
198 223 255
198 223 255
198 223 255
198 223 255
198 223 255
198 223 255
198 223 255
198 223 255
198 223 255
198 223 255
198 223 255
198 223 255
198 223 255
198 223 255
198 223 255
198 223 255
198 223 255
199 223 255
199 223 255
199 223 255
199 223 255
199 223 255
199 223 255
199 223 255
199 223 255
199 223 255
199 223 255
199 223 255
199 223 255
199 223 255
199 223 255
199 223 255
199 223 255
199 223 255
199 223 255
199 223 255
199 223 255
199 224 255
199 224 255
199 224 255
200 224 255
200 224 255
200 224 255
200 224 255
200 224 255
200 224 255
200 224 255
200 224 255
200 224 255
200 224 255
200 224 255
200 224 255
200 224 255
200 224 255
200 224 255
200 224 255
200 224 255
200 224 255
201 224 255
201 224 255
201 224 255
201 224 255
201 224 255
201 224 255
201 224 255
201 224 255
201 224 255
201 224 255
201 224 255
201 225 255
201 225 255
201 225 255
201 225 255
201 225 255
202 225 255
202 225 255
202 225 255
202 225 255
202 225 255
202 225 255
202 225 255
202 225 255
202 225 255
202 225 255
202 225 255
202 225 255
202 225 255
202 225 255
202 225 255
203 225 255
203 225 255
203 225 255
203 225 255
203 225 255
203 225 255
203 225 255
203 225 255
203 226 255
203 226 255
203 226 255
203 226 255
203 226 255
203 226 255
203 226 255
204 226 255
204 226 255
204 226 255
204 226 255
204 226 255
204 226 255
204 226 255
204 226 255
204 226 255
204 226 255
204 226 255
204 226 255
204 226 255
204 226 255
204 226 255
204 226 255
205 226 255
205 226 255
205 226 255
205 226 255
205 226 255
205 226 255
205 227 255
205 227 255
205 227 255
205 227 255
205 227 255
205 227 255
205 227 255
205 227 255
205 227 255
205 227 255
206 227 255
206 227 255
206 227 255
206 227 255
206 227 255
206 227 255
206 227 255
206 227 255
206 227 255
206 227 255
206 227 255
206 227 255
206 227 255
206 227 255
206 227 255
206 227 255
206 227 255
206 227 255
207 227 255
207 227 255
207 227 255
207 227 255
207 227 255
207 228 255
207 228 255
207 228 255
207 228 255
207 228 255
207 228 255
207 228 255
207 228 255
207 228 255
207 228 255
207 228 255
207 228 255
207 228 255
207 228 255
207 228 255
208 228 255
208 228 255
208 228 255
208 228 255
208 228 255
208 228 255
208 228 255
208 228 255
208 228 255
208 228 255
208 228 255
208 228 255
208 228 255
208 228 255
208 228 255
208 228 255
208 228 255
208 228 255
208 228 255
208 228 255
208 228 255
208 228 255
208 228 255
208 228 255
208 228 255
208 228 255
208 228 255
208 228 255
208 228 255
208 228 255
208 228 255
208 228 255
208 228 255
208 228 255
208 228 255
207 228 255
207 228 255
207 228 255
207 228 255
207 228 255
207 228 255
207 228 255
207 228 255
207 228 255
207 228 255
207 228 255
207 228 255
207 228 255
207 228 255
207 228 255
207 227 255
207 227 255
207 227 255
207 227 255
207 227 255
206 227 255
206 227 255
206 227 255
206 227 255
206 227 255
206 227 255
206 227 255
206 227 255
206 227 255
206 227 255
206 227 255
206 227 255
206 227 255
206 227 255
206 227 255
206 227 255
206 227 255
205 227 255
205 227 255
205 227 255
205 227 255
205 227 255
205 227 255
205 227 255
205 227 255
205 227 255
205 227 255
205 226 255
205 226 255
205 226 255
205 226 255
205 226 255
205 226 255
205 226 255
204 226 255
204 226 255
204 226 255
204 226 255
204 226 255
204 226 255
204 226 255
204 226 255
204 226 255
204 226 255
204 226 255
204 226 255
204 226 255
204 226 255
204 226 255
204 226 255
203 226 255
203 226 255
203 226 255
203 226 255
203 226 255
203 226 255
203 225 255
203 225 255
203 225 255
203 225 255
203 225 255
203 225 255
203 225 255
203 225 255
203 225 255
202 225 255
202 225 255
202 225 255
202 225 255
202 225 255
202 225 255
202 225 255
202 225 255
202 225 255
202 225 255
202 225 255
202 225 255
202 225 255
202 225 255
202 225 255
201 225 255
201 225 255
201 225 255
201 225 255
201 225 255
201 224 255
201 224 255
201 224 255
201 224 255
201 224 255
201 224 255
201 224 255
201 224 255
201 224 255
201 224 255
201 224 255
200 224 255
200 224 255
200 224 255
200 224 255
200 224 255
200 224 255
200 224 255
200 224 255
200 224 255
200 224 255
200 224 255
200 224 255
200 224 255
200 224 255
200 224 255
200 224 255
200 224 255
200 224 255
199 224 255
199 224 255
199 224 255
199 224 255
199 223 255
199 223 255
199 223 255
199 223 255
199 223 255
199 223 255
199 223 255
199 223 255
199 223 255
199 223 255
199 223 255
199 223 255
199 223 255
199 223 255
199 223 255
199 223 255
199 223 255
199 223 255
199 223 255
199 223 255
199 223 255
199 223 255
199 223 255
198 223 255
198 223 255
198 223 255
198 223 255
198 223 255
198 223 255
198 223 255
198 223 255
198 223 255
198 223 255
198 223 255
198 223 255
198 223 255
198 223 255
198 223 255
198 223 255
198 223 255
198 223 255
198 223 255
198 223 255
198 223 255
198 223 255
198 223 255
198 223 255
198 223 255
198 223 255
198 223 255
198 223 255
198 223 255
198 223 255
198 223 255
198 223 255
198 223 255
198 223 255
198 223 255
198 223 255
198 223 255
198 223 255
198 223 255
198 223 255
199 223 255
199 223 255
199 223 255
199 223 255
199 223 255
199 223 255
199 223 255
199 223 255
199 223 255
199 223 255
199 223 255
199 223 255
199 223 255
199 223 255
199 223 255
199 223 255
199 223 255
199 223 255
199 223 255
199 223 255
199 223 255
199 223 255
199 223 255
199 224 255
199 224 255
199 224 255
199 224 255
200 224 255
200 224 255
200 224 255
200 224 255
200 224 255
200 224 255
200 224 255
200 224 255
200 224 255
200 224 255
200 224 255
200 224 255
200 224 255
200 224 255
200 224 255
200 224 255
200 224 255
200 224 255
201 224 255
201 224 255
201 224 255
201 224 255
201 224 255
201 224 255
201 224 255
201 224 255
201 224 255
201 224 255
201 224 255
201 225 255
201 225 255
201 225 255
201 225 255
201 225 255
202 225 255
202 225 255
202 225 255
202 225 255
202 225 255
202 225 255
202 225 255
202 225 255
202 225 255
202 225 255
202 225 255
202 225 255
202 225 255
202 225 255
202 225 255
203 225 255
203 225 255
203 225 255
203 225 255
203 225 255
203 225 255
203 225 255
203 225 255
203 226 255
203 226 255
203 226 255
203 226 255
203 226 255
203 226 255
203 226 255
204 226 255
204 226 255
204 226 255
204 226 255
204 226 255
204 226 255
204 226 255
204 226 255
204 226 255
204 226 255
204 226 255
204 226 255
204 226 255
204 226 255
204 226 255
204 226 255
205 226 255
205 226 255
205 226 255
205 226 255
205 226 255
205 226 255
205 226 255
205 227 255
205 227 255
205 227 255
205 227 255
205 227 255
205 227 255
205 227 255
205 227 255
205 227 255
205 227 255
206 227 255
206 227 255
206 227 255
206 227 255
206 227 255
206 227 255
206 227 255
206 227 255
206 227 255
206 227 255
206 227 255
206 227 255
206 227 255
206 227 255
206 227 255
206 227 255
206 227 255
206 227 255
207 227 255
207 227 255
207 227 255
207 227 255
207 228 255
207 228 255
207 228 255
207 228 255
207 228 255
207 228 255
207 228 255
207 228 255
207 228 255
207 228 255
207 228 255
207 228 255
207 228 255
207 228 255
207 228 255
208 228 255
208 228 255
208 228 255
208 228 255
208 228 255
208 228 255
208 228 255
208 228 255
208 228 255
208 228 255
208 228 255
208 228 255
208 228 255
208 228 255
208 228 255
208 228 255
208 228 255
208 228 255
208 228 255
209 228 255
208 228 255
208 228 255
208 228 255
208 228 255
208 228 255
208 228 255
208 228 255
208 228 255
208 228 255
208 228 255
208 228 255
208 228 255
208 228 255
208 228 255
208 228 255
208 228 255
208 228 255
208 228 255
208 228 255
208 228 255
208 228 255
207 228 255
207 228 255
207 228 255
207 228 255
207 228 255
207 228 255
207 228 255
207 228 255
207 228 255
207 228 255
207 228 255
207 228 255
207 228 255
207 228 255
207 228 255
207 227 255
207 227 255
207 227 255
207 227 255
207 227 255
206 227 255
206 227 255
206 227 255
206 227 255
206 227 255
206 227 255
206 227 255
206 227 255
206 227 255
206 227 255
206 227 255
206 227 255
206 227 255
206 227 255
206 227 255
206 227 255
206 227 255
205 227 255
205 227 255
205 227 255
205 227 255
205 227 255
205 227 255
205 227 255
205 227 255
205 227 255
205 227 255
205 226 255
205 226 255
205 226 255
205 226 255
205 226 255
205 226 255
205 226 255
204 226 255
204 226 255
204 226 255
204 226 255
204 226 255
204 226 255
204 226 255
204 226 255
204 226 255
204 226 255
204 226 255
204 226 255
204 226 255
204 226 255
204 226 255
203 226 255
203 226 255
203 226 255
203 226 255
203 226 255
203 226 255
203 226 255
203 225 255
203 225 255
203 225 255
203 225 255
203 225 255
203 225 255
203 225 255
203 225 255
203 225 255
202 225 255
202 225 255
202 225 255
202 225 255
202 225 255
202 225 255
202 225 255
202 225 255
202 225 255
202 225 255
202 225 255
202 225 255
202 225 255
202 225 255
202 225 255
201 225 255
201 225 255
201 225 255
201 225 255
201 225 255
201 224 255
201 224 255
201 224 255
201 224 255
201 224 255
201 224 255
201 224 255
201 224 255
201 224 255
201 224 255
201 224 255
200 224 255
200 224 255
200 224 255
200 224 255
200 224 255
200 224 255
200 224 255
200 224 255
200 224 255
200 224 255
200 224 255
200 224 255
200 224 255
200 224 255
200 224 255
200 224 255
200 224 255
200 224 255
200 224 255
199 224 255
199 224 255
199 224 255
199 224 255
199 223 255
199 223 255
199 223 255
199 223 255
199 223 255
199 223 255
199 223 255
199 223 255
199 223 255
199 223 255
199 223 255
199 223 255
199 223 255
199 223 255
199 223 255
199 223 255
199 223 255
199 223 255
199 223 255
199 223 255
199 223 255
199 223 255
199 223 255
199 223 255
199 223 255
199 223 255
199 223 255
199 223 255
199 223 255
198 223 255
198 223 255
198 223 255
198 223 255
198 223 255
198 223 255
198 223 255
198 223 255
198 223 255
198 223 255
198 223 255
198 223 255
198 223 255
198 223 255
198 223 255
198 223 255
198 223 255
198 223 255
198 223 255
199 223 255
199 223 255
199 223 255
199 223 255
199 223 255
199 223 255
199 223 255
199 223 255
199 223 255
199 223 255
199 223 255
199 223 255
199 223 255
199 223 255
199 223 255
199 223 255
199 223 255
199 223 255
199 223 255
199 223 255
199 223 255
199 223 255
199 223 255
199 223 255
199 223 255
199 223 255
199 223 255
199 223 255
199 223 255
199 223 255
199 224 255
199 224 255
199 224 255
199 224 255
200 224 255
200 224 255
200 224 255
200 224 255
200 224 255
200 224 255
200 224 255
200 224 255
200 224 255
200 224 255
200 224 255
200 224 255
200 224 255
200 224 255
200 224 255
200 224 255
200 224 255
200 224 255
201 224 255
201 224 255
201 224 255
201 224 255
201 224 255
201 224 255
201 224 255
201 224 255
201 224 255
201 224 255
201 224 255
201 224 255
201 225 255
201 225 255
201 225 255
201 225 255
201 225 255
202 225 255
202 225 255
202 225 255
202 225 255
202 225 255
202 225 255
202 225 255
202 225 255
202 225 255
202 225 255
202 225 255
202 225 255
202 225 255
202 225 255
202 225 255
203 225 255
203 225 255
203 225 255
203 225 255
203 225 255
203 225 255
203 225 255
203 225 255
203 225 255
203 226 255
203 226 255
203 226 255
203 226 255
203 226 255
203 226 255
203 226 255
204 226 255
204 226 255
204 226 255
204 226 255
204 226 255
204 226 255
204 226 255
204 226 255
204 226 255
204 226 255
204 226 255
204 226 255
204 226 255
204 226 255
204 226 255
205 226 255
205 226 255
205 226 255
205 226 255
205 226 255
205 226 255
205 226 255
205 227 255
205 227 255
205 227 255
205 227 255
205 227 255
205 227 255
205 227 255
205 227 255
205 227 255
205 227 255
206 227 255
206 227 255
206 227 255
206 227 255
206 227 255
206 227 255
206 227 255
206 227 255
206 227 255
206 227 255
206 227 255
206 227 255
206 227 255
206 227 255
206 227 255
206 227 255
206 227 255
206 227 255
207 227 255
207 227 255
207 227 255
207 227 255
207 228 255
207 228 255
207 228 255
207 228 255
207 228 255
207 228 255
207 228 255
207 228 255
207 228 255
207 228 255
207 228 255
207 228 255
207 228 255
207 228 255
207 228 255
208 228 255
208 228 255
208 228 255
208 228 255
208 228 255
208 228 255
208 228 255
208 228 255
208 228 255
208 228 255
208 228 255
208 228 255
208 228 255
208 228 255
208 228 255
208 228 255
208 228 255
208 228 255
208 228 255
208 228 255
208 228 255
209 228 255
209 229 255
209 229 255
209 229 255
209 228 255
208 228 255
208 228 255
208 228 255
208 228 255
208 228 255
208 228 255
208 228 255
208 228 255
208 228 255
208 228 255
208 228 255
208 228 255
208 228 255
208 228 255
208 228 255
208 228 255
208 228 255
208 228 255
208 228 255
208 228 255
208 228 255
207 228 255
207 228 255
207 228 255
207 228 255
207 228 255
207 228 255
207 228 255
207 228 255
207 228 255
207 228 255
207 228 255
207 228 255
207 228 255
207 228 255
207 228 255
207 227 255
207 227 255
207 227 255
207 227 255
206 227 255
206 227 255
206 227 255
206 227 255
206 227 255
206 227 255
206 227 255
206 227 255
206 227 255
206 227 255
206 227 255
206 227 255
206 227 255
206 227 255
206 227 255
206 227 255
206 227 255
206 227 255
205 227 255
205 227 255
205 227 255
205 227 255
205 227 255
205 227 255
205 227 255
205 227 255
205 227 255
205 227 255
205 226 255
205 226 255
205 226 255
205 226 255
205 226 255
205 226 255
204 226 255
204 226 255
204 226 255
204 226 255
204 226 255
204 226 255
204 226 255
204 226 255
204 226 255
204 226 255
204 226 255
204 226 255
204 226 255
204 226 255
204 226 255
204 226 255
203 226 255
203 226 255
203 226 255
203 226 255
203 226 255
203 226 255
203 226 255
203 225 255
203 225 255
203 225 255
203 225 255
203 225 255
203 225 255
203 225 255
203 225 255
202 225 255
202 225 255
202 225 255
202 225 255
202 225 255
202 225 255
202 225 255
202 225 255
202 225 255
202 225 255
202 225 255
202 225 255
202 225 255
202 225 255
202 225 255
202 225 255
201 225 255
201 225 255
201 225 255
201 225 255
201 225 255
201 224 255
201 224 255
201 224 255
201 224 255
201 224 255
201 224 255
201 224 255
201 224 255
201 224 255
201 224 255
201 224 255
201 224 255
200 224 255
200 224 255
200 224 255
200 224 255
200 224 255
200 224 255
200 224 255
200 224 255
200 224 255
200 224 255
200 224 255
200 224 255
200 224 255
200 224 255
200 224 255
200 224 255
200 224 255
200 224 255
200 224 255
200 224 255
199 224 255
199 224 255
199 224 255
199 224 255
199 223 255
199 223 255
199 223 255
199 223 255
199 223 255
199 223 255
199 223 255
199 223 255
199 223 255
199 223 255
199 223 255
199 223 255
199 223 255
199 223 255
199 223 255
199 223 255
199 223 255
199 223 255
199 223 255
199 223 255
199 223 255
199 223 255
199 223 255
199 223 255
199 223 255
199 223 255
199 223 255
199 223 255
199 223 255
199 223 255
199 223 255
199 223 255
199 223 255
199 223 255
199 223 255
199 223 255
199 223 255
199 223 255
199 223 255
199 223 255
199 223 255
199 223 255
199 223 255
199 223 255
199 223 255
199 223 255
199 223 255
199 223 255
199 223 255
199 223 255
199 223 255
199 223 255
199 223 255
199 223 255
199 223 255
199 223 255
199 223 255
199 223 255
199 223 255
199 223 255
199 223 255
199 223 255
199 223 255
199 223 255
199 223 255
199 223 255
199 223 255
199 223 255
199 224 255
199 224 255
199 224 255
199 224 255
200 224 255
200 224 255
200 224 255
200 224 255
200 224 255
200 224 255
200 224 255
200 224 255
200 224 255
200 224 255
200 224 255
200 224 255
200 224 255
200 224 255
200 224 255
200 224 255
200 224 255
200 224 255
200 224 255
200 224 255
201 224 255
201 224 255
201 224 255
201 224 255
201 224 255
201 224 255
201 224 255
201 224 255
201 224 255
201 224 255
201 224 255
201 224 255
201 225 255
201 225 255
201 225 255
201 225 255
201 225 255
202 225 255
202 225 255
202 225 255
202 225 255
202 225 255
202 225 255
202 225 255
202 225 255
202 225 255
202 225 255
202 225 255
202 225 255
202 225 255
202 225 255
202 225 255
203 225 255
203 225 255
203 225 255
203 225 255
203 225 255
203 225 255
203 225 255
203 225 255
203 225 255
203 226 255
203 226 255
203 226 255
203 226 255
203 226 255
203 226 255
203 226 255
204 226 255
204 226 255
204 226 255
204 226 255
204 226 255
204 226 255
204 226 255
204 226 255
204 226 255
204 226 255
204 226 255
204 226 255
204 226 255
204 226 255
204 226 255
205 226 255
205 226 255
205 226 255
205 226 255
205 226 255
205 226 255
205 226 255
205 227 255
205 227 255
205 227 255
205 227 255
205 227 255
205 227 255
205 227 255
205 227 255
205 227 255
205 227 255
206 227 255
206 227 255
206 227 255
206 227 255
206 227 255
206 227 255
206 227 255
206 227 255
206 227 255
206 227 255
206 227 255
206 227 255
206 227 255
206 227 255
206 227 255
206 227 255
206 227 255
207 227 255
207 227 255
207 227 255
207 227 255
207 227 255
207 228 255
207 228 255
207 228 255
207 228 255
207 228 255
207 228 255
207 228 255
207 228 255
207 228 255
207 228 255
207 228 255
207 228 255
207 228 255
207 228 255
208 228 255
208 228 255
208 228 255
208 228 255
208 228 255
208 228 255
208 228 255
208 228 255
208 228 255
208 228 255
208 228 255
208 228 255
208 228 255
208 228 255
208 228 255
208 228 255
208 228 255
208 228 255
208 228 255
208 228 255
208 228 255
208 228 255
209 228 255
209 229 255
209 229 255
209 229 255
209 229 255
209 229 255
209 229 255
209 229 255
209 229 255
209 229 255
209 228 255
208 228 255
208 228 255
208 228 255
208 228 255
208 228 255
208 228 255
208 228 255
208 228 255
208 228 255
208 228 255
208 228 255
208 228 255
208 228 255
208 228 255
208 228 255
208 228 255
208 228 255
208 228 255
208 228 255
208 228 255
208 228 255
207 228 255
207 228 255
207 228 255
207 228 255
207 228 255
207 228 255
207 228 255
207 228 255
207 228 255
207 228 255
207 228 255
207 228 255
207 228 255
207 228 255
207 228 255
207 227 255
207 227 255
207 227 255
207 227 255
206 227 255
206 227 255
206 227 255
206 227 255
206 227 255
206 227 255
206 227 255
206 227 255
206 227 255
206 227 255
206 227 255
206 227 255
206 227 255
206 227 255
206 227 255
206 227 255
206 227 255
206 227 255
205 227 255
205 227 255
205 227 255
205 227 255
205 227 255
205 227 255
205 227 255
205 227 255
205 227 255
205 227 255
205 226 255
205 226 255
205 226 255
205 226 255
205 226 255
205 226 255
204 226 255
204 226 255
204 226 255
204 226 255
204 226 255
204 226 255
204 226 255
204 226 255
204 226 255
204 226 255
204 226 255
204 226 255
204 226 255
204 226 255
204 226 255
204 226 255
203 226 255
203 226 255
203 226 255
203 226 255
203 226 255
203 226 255
203 226 255
203 225 255
203 225 255
203 225 255
203 225 255
203 225 255
203 225 255
203 225 255
203 225 255
202 225 255
202 225 255
202 225 255
202 225 255
202 225 255
202 225 255
202 225 255
202 225 255
202 225 255
202 225 255
202 225 255
202 225 255
202 225 255
202 225 255
202 225 255
202 225 255
201 225 255
201 225 255
201 225 255
201 225 255
201 225 255
201 224 255
201 224 255
201 224 255
201 224 255
201 224 255
201 224 255
201 224 255
201 224 255
201 224 255
201 224 255
201 224 255
201 224 255
200 224 255
200 224 255
200 224 255
200 224 255
200 224 255
200 224 255
200 224 255
200 224 255
200 224 255
200 224 255
200 224 255
200 224 255
200 224 255
200 224 255
200 224 255
200 224 255
200 224 255
200 224 255
200 224 255
200 224 255
200 224 255
200 224 255
199 224 255
199 224 255
199 224 255
199 224 255
199 223 255
199 223 255
199 223 255
199 223 255
199 223 255
199 223 255
199 223 255
199 223 255
199 223 255
199 223 255
199 223 255
199 223 255
199 223 255
199 223 255
199 223 255
199 223 255
199 223 255
199 223 255
199 223 255
199 223 255
199 223 255
199 223 255
199 223 255
199 223 255
199 223 255
199 223 255
199 223 255
199 223 255
199 223 255
199 223 255
199 223 255
199 223 255
199 223 255
199 223 255
199 223 255
199 223 255
199 223 255
199 223 255
199 223 255
199 223 255
199 223 255
199 223 255
199 223 255
199 223 255
199 223 255
199 223 255
199 223 255
199 223 255
199 223 255
199 223 255
199 223 255
199 223 255
199 223 255
199 223 255
199 223 255
199 223 255
199 223 255
199 223 255
199 224 255
199 224 255
199 224 255
199 224 255
200 224 255
200 224 255
200 224 255
200 224 255
200 224 255
200 224 255
200 224 255
200 224 255
200 224 255
200 224 255
200 224 255
200 224 255
200 224 255
200 224 255
200 224 255
200 224 255
200 224 255
200 224 255
200 224 255
200 224 255
200 224 255
200 224 255
201 224 255
201 224 255
201 224 255
201 224 255
201 224 255
201 224 255
201 224 255
201 224 255
201 224 255
201 224 255
201 224 255
201 224 255
201 225 255
201 225 255
201 225 255
201 225 255
201 225 255
202 225 255
202 225 255
202 225 255
202 225 255
202 225 255
202 225 255
202 225 255
202 225 255
202 225 255
202 225 255
202 225 255
202 225 255
202 225 255
202 225 255
202 225 255
203 225 255
203 225 255
203 225 255
203 225 255
203 225 255
203 225 255
203 225 255
203 225 255
203 225 255
203 226 255
203 226 255
203 226 255
203 226 255
203 226 255
203 226 255
203 226 255
204 226 255
204 226 255
204 226 255
204 226 255
204 226 255
204 226 255
204 226 255
204 226 255
204 226 255
204 226 255
204 226 255
204 226 255
204 226 255
204 226 255
204 226 255
204 226 255
205 226 255
205 226 255
205 226 255
205 226 255
205 226 255
205 226 255
205 227 255
205 227 255
205 227 255
205 227 255
205 227 255
205 227 255
205 227 255
205 227 255
205 227 255
205 227 255
206 227 255
206 227 255
206 227 255
206 227 255
206 227 255
206 227 255
206 227 255
206 227 255
206 227 255
206 227 255
206 227 255
206 227 255
206 227 255
206 227 255
206 227 255
206 227 255
206 227 255
206 227 255
207 227 255
207 227 255
207 227 255
207 227 255
207 228 255
207 228 255
207 228 255
207 228 255
207 228 255
207 228 255
207 228 255
207 228 255
207 228 255
207 228 255
207 228 255
207 228 255
207 228 255
207 228 255
208 228 255
208 228 255
208 228 255
208 228 255
208 228 255
208 228 255
208 228 255
208 228 255
208 228 255
208 228 255
208 228 255
208 228 255
208 228 255
208 228 255
208 228 255
208 228 255
208 228 255
208 228 255
208 228 255
208 228 255
208 228 255
208 228 255
209 228 255
209 229 255
209 229 255
209 229 255
209 229 255
209 229 255
209 229 255
209 229 255
209 229 255
209 229 255
209 229 255
209 229 255
209 229 255
209 229 255
209 229 255
209 229 255
209 228 255
209 228 255
208 228 255
208 228 255
208 228 255
208 228 255
208 228 255
208 228 255
208 228 255
208 228 255
208 228 255
208 228 255
208 228 255
208 228 255
208 228 255
208 228 255
208 228 255
208 228 255
208 228 255
208 228 255
208 228 255
208 228 255
208 228 255
207 228 255
207 228 255
207 228 255
207 228 255
207 228 255
207 228 255
207 228 255
207 228 255
207 228 255
207 228 255
207 228 255
207 228 255
207 228 255
207 228 255
207 227 255
207 227 255
207 227 255
207 227 255
206 227 255
206 227 255
206 227 255
206 227 255
206 227 255
206 227 255
206 227 255
206 227 255
206 227 255
206 227 255
206 227 255
206 227 255
206 227 255
206 227 255
206 227 255
206 227 255
206 227 255
206 227 255
205 227 255
205 227 255
205 227 255
205 227 255
205 227 255
205 227 255
205 227 255
205 227 255
205 227 255
205 227 255
205 226 255
205 226 255
205 226 255
205 226 255
205 226 255
205 226 255
204 226 255
204 226 255
204 226 255
204 226 255
204 226 255
204 226 255
204 226 255
204 226 255
204 226 255
204 226 255
204 226 255
204 226 255
204 226 255
204 226 255
204 226 255
204 226 255
203 226 255
203 226 255
203 226 255
203 226 255
203 226 255
203 226 255
203 226 255
203 225 255
203 225 255
203 225 255
203 225 255
203 225 255
203 225 255
203 225 255
203 225 255
202 225 255
202 225 255
202 225 255
202 225 255
202 225 255
202 225 255
202 225 255
202 225 255
202 225 255
202 225 255
202 225 255
202 225 255
202 225 255
202 225 255
202 225 255
202 225 255
202 225 255
201 225 255
201 225 255
201 225 255
201 225 255
201 225 255
201 224 255
201 224 255
201 224 255
201 224 255
201 224 255
201 224 255
201 224 255
201 224 255
201 224 255
201 224 255
201 224 255
201 224 255
200 224 255
200 224 255
200 224 255
200 224 255
200 224 255
200 224 255
200 224 255
200 224 255
200 224 255
200 224 255
200 224 255
200 224 255
200 224 255
200 224 255
200 224 255
200 224 255
200 224 255
200 224 255
200 224 255
200 224 255
200 224 255
200 224 255
200 224 255
200 224 255
199 224 255
199 224 255
199 224 255
199 224 255
199 224 255
199 223 255
199 223 255
199 223 255
199 223 255
199 223 255
199 223 255
199 223 255
199 223 255
199 223 255
199 223 255
199 223 255
199 223 255
199 223 255
199 223 255
199 223 255
199 223 255
199 223 255
199 223 255
199 223 255
199 223 255
199 223 255
199 223 255
199 223 255
199 223 255
199 223 255
199 223 255
199 223 255
199 223 255
199 223 255
199 223 255
199 223 255
199 223 255
199 223 255
199 223 255
199 223 255
199 223 255
199 223 255
199 223 255
199 223 255
199 223 255
199 223 255
199 223 255
199 223 255
199 223 255
199 224 255
199 224 255
199 224 255
199 224 255
199 224 255
200 224 255
200 224 255
200 224 255
200 224 255
200 224 255
200 224 255
200 224 255
200 224 255
200 224 255
200 224 255
200 224 255
200 224 255
200 224 255
200 224 255
200 224 255
200 224 255
200 224 255
200 224 255
200 224 255
200 224 255
200 224 255
200 224 255
200 224 255
200 224 255
201 224 255
201 224 255
201 224 255
201 224 255
201 224 255
201 224 255
201 224 255
201 224 255
201 224 255
201 224 255
201 224 255
201 224 255
201 224 255
201 225 255
201 225 255
201 225 255
201 225 255
202 225 255
202 225 255
202 225 255
202 225 255
202 225 255
202 225 255
202 225 255
202 225 255
202 225 255
202 225 255
202 225 255
202 225 255
202 225 255
202 225 255
202 225 255
202 225 255
202 225 255
203 225 255
203 225 255
203 225 255
203 225 255
203 225 255
203 225 255
203 225 255
203 225 255
203 226 255
203 226 255
203 226 255
203 226 255
203 226 255
203 226 255
203 226 255
204 226 255
204 226 255
204 226 255
204 226 255
204 226 255
204 226 255
204 226 255
204 226 255
204 226 255
204 226 255
204 226 255
204 226 255
204 226 255
204 226 255
204 226 255
204 226 255
205 226 255
205 226 255
205 226 255
205 226 255
205 226 255
205 226 255
205 227 255
205 227 255
205 227 255
205 227 255
205 227 255
205 227 255
205 227 255
205 227 255
205 227 255
205 227 255
206 227 255
206 227 255
206 227 255
206 227 255
206 227 255
206 227 255
206 227 255
206 227 255
206 227 255
206 227 255
206 227 255
206 227 255
206 227 255
206 227 255
206 227 255
206 227 255
206 227 255
206 227 255
207 227 255
207 227 255
207 227 255
207 227 255
207 228 255
207 228 255
207 228 255
207 228 255
207 228 255
207 228 255
207 228 255
207 228 255
207 228 255
207 228 255
207 228 255
207 228 255
207 228 255
207 228 255
207 228 255
208 228 255
208 228 255
208 228 255
208 228 255
208 228 255
208 228 255
208 228 255
208 228 255
208 228 255
208 228 255
208 228 255
208 228 255
208 228 255
208 228 255
208 228 255
208 228 255
208 228 255
208 228 255
208 228 255
208 228 255
209 228 255
209 228 255
209 229 255
209 229 255
209 229 255
209 229 255
209 229 255
209 229 255
209 229 255
209 229 255
209 229 255
209 229 255
209 229 255
209 229 255
209 229 255
209 229 255
209 229 255
209 229 255
209 229 255
209 229 255
209 229 255
209 229 255
209 229 255
209 229 255
209 228 255
208 228 255
208 228 255
208 228 255
208 228 255
208 228 255
208 228 255
208 228 255
208 228 255
208 228 255
208 228 255
208 228 255
208 228 255
208 228 255
208 228 255
208 228 255
208 228 255
208 228 255
208 228 255
208 228 255
208 228 255
208 228 255
207 228 255
207 228 255
207 228 255
207 228 255
207 228 255
207 228 255
207 228 255
207 228 255
207 228 255
207 228 255
207 228 255
207 228 255
207 228 255
207 228 255
207 227 255
207 227 255
207 227 255
207 227 255
206 227 255
206 227 255
206 227 255
206 227 255
206 227 255
206 227 255
206 227 255
206 227 255
206 227 255
206 227 255
206 227 255
206 227 255
206 227 255
206 227 255
206 227 255
206 227 255
206 227 255
206 227 255
205 227 255
205 227 255
205 227 255
205 227 255
205 227 255
205 227 255
205 227 255
205 227 255
205 227 255
205 227 255
205 226 255
205 226 255
205 226 255
205 226 255
205 226 255
205 226 255
204 226 255
204 226 255
204 226 255
204 226 255
204 226 255
204 226 255
204 226 255
204 226 255
204 226 255
204 226 255
204 226 255
204 226 255
204 226 255
204 226 255
204 226 255
204 226 255
203 226 255
203 226 255
203 226 255
203 226 255
203 226 255
203 226 255
203 226 255
203 225 255
203 225 255
203 225 255
203 225 255
203 225 255
203 225 255
203 225 255
203 225 255
203 225 255
202 225 255
202 225 255
202 225 255
202 225 255
202 225 255
202 225 255
202 225 255
202 225 255
202 225 255
202 225 255
202 225 255
202 225 255
202 225 255
202 225 255
202 225 255
202 225 255
201 225 255
201 225 255
201 225 255
201 225 255
201 225 255
201 224 255
201 224 255
201 224 255
201 224 255
201 224 255
201 224 255
201 224 255
201 224 255
201 224 255
201 224 255
201 224 255
201 224 255
201 224 255
200 224 255
200 224 255
200 224 255
200 224 255
200 224 255
200 224 255
200 224 255
200 224 255
200 224 255
200 224 255
200 224 255
200 224 255
200 224 255
200 224 255
200 224 255
200 224 255
200 224 255
200 224 255
200 224 255
200 224 255
200 224 255
200 224 255
200 224 255
200 224 255
200 224 255
200 224 255
200 224 255
199 224 255
199 224 255
199 224 255
199 224 255
199 224 255
199 224 255
199 224 255
199 223 255
199 223 255
199 223 255
199 223 255
199 223 255
199 223 255
199 223 255
199 223 255
199 223 255
199 223 255
199 223 255
199 223 255
199 223 255
199 223 255
199 223 255
199 223 255
199 223 255
199 223 255
199 223 255
199 223 255
199 223 255
199 223 255
199 223 255
199 223 255
199 223 255
199 224 255
199 224 255
199 224 255
199 224 255
199 224 255
199 224 255
199 224 255
199 224 255
200 224 255
200 224 255
200 224 255
200 224 255
200 224 255
200 224 255
200 224 255
200 224 255
200 224 255
200 224 255
200 224 255
200 224 255
200 224 255
200 224 255
200 224 255
200 224 255
200 224 255
200 224 255
200 224 255
200 224 255
200 224 255
200 224 255
200 224 255
200 224 255
200 224 255
200 224 255
200 224 255
201 224 255
201 224 255
201 224 255
201 224 255
201 224 255
201 224 255
201 224 255
201 224 255
201 224 255
201 224 255
201 224 255
201 224 255
201 224 255
201 225 255
201 225 255
201 225 255
201 225 255
201 225 255
202 225 255
202 225 255
202 225 255
202 225 255
202 225 255
202 225 255
202 225 255
202 225 255
202 225 255
202 225 255
202 225 255
202 225 255
202 225 255
202 225 255
202 225 255
202 225 255
203 225 255
203 225 255
203 225 255
203 225 255
203 225 255
203 225 255
203 225 255
203 225 255
203 225 255
203 226 255
203 226 255
203 226 255
203 226 255
203 226 255
203 226 255
203 226 255
204 226 255
204 226 255
204 226 255
204 226 255
204 226 255
204 226 255
204 226 255
204 226 255
204 226 255
204 226 255
204 226 255
204 226 255
204 226 255
204 226 255
204 226 255
204 226 255
205 226 255
205 226 255
205 226 255
205 226 255
205 226 255
205 226 255
205 227 255
205 227 255
205 227 255
205 227 255
205 227 255
205 227 255
205 227 255
205 227 255
205 227 255
205 227 255
206 227 255
206 227 255
206 227 255
206 227 255
206 227 255
206 227 255
206 227 255
206 227 255
206 227 255
206 227 255
206 227 255
206 227 255
206 227 255
206 227 255
206 227 255
206 227 255
206 227 255
206 227 255
207 227 255
207 227 255
207 227 255
207 227 255
207 228 255
207 228 255
207 228 255
207 228 255
207 228 255
207 228 255
207 228 255
207 228 255
207 228 255
207 228 255
207 228 255
207 228 255
207 228 255
207 228 255
208 228 255
208 228 255
208 228 255
208 228 255
208 228 255
208 228 255
208 228 255
208 228 255
208 228 255
208 228 255
208 228 255
208 228 255
208 228 255
208 228 255
208 228 255
208 228 255
208 228 255
208 228 255
208 228 255
208 228 255
208 228 255
209 228 255
209 228 255
209 229 255
209 229 255
209 229 255
209 229 255
209 229 255
209 229 255
209 229 255
209 229 255
209 229 255
209 229 255
209 229 255
209 229 255
209 229 255
209 229 255
209 229 255
209 229 255
209 229 255
209 229 255
209 229 255
209 229 255
209 229 255
209 229 255
209 229 255
209 229 255
209 229 255
209 229 255
209 229 255
209 229 255
209 228 255
208 228 255
208 228 255
208 228 255
208 228 255
208 228 255
208 228 255
208 228 255
208 228 255
208 228 255
208 228 255
208 228 255
208 228 255
208 228 255
208 228 255
208 228 255
208 228 255
208 228 255
208 228 255
208 228 255
208 228 255
208 228 255
207 228 255
207 228 255
207 228 255
207 228 255
207 228 255
207 228 255
207 228 255
207 228 255
207 228 255
207 228 255
207 228 255
207 228 255
207 228 255
207 228 255
207 227 255
207 227 255
207 227 255
207 227 255
206 227 255
206 227 255
206 227 255
206 227 255
206 227 255
206 227 255
206 227 255
206 227 255
206 227 255
206 227 255
206 227 255
206 227 255
206 227 255
206 227 255
206 227 255
206 227 255
206 227 255
206 227 255
205 227 255
205 227 255
205 227 255
205 227 255
205 227 255
205 227 255
205 227 255
205 227 255
205 227 255
205 226 255
205 226 255
205 226 255
205 226 255
205 226 255
205 226 255
205 226 255
204 226 255
204 226 255
204 226 255
204 226 255
204 226 255
204 226 255
204 226 255
204 226 255
204 226 255
204 226 255
204 226 255
204 226 255
204 226 255
204 226 255
204 226 255
204 226 255
203 226 255
203 226 255
203 226 255
203 226 255
203 226 255
203 226 255
203 226 255
203 225 255
203 225 255
203 225 255
203 225 255
203 225 255
203 225 255
203 225 255
203 225 255
203 225 255
202 225 255
202 225 255
202 225 255
202 225 255
202 225 255
202 225 255
202 225 255
202 225 255
202 225 255
202 225 255
202 225 255
202 225 255
202 225 255
202 225 255
202 225 255
202 225 255
201 225 255
201 225 255
201 225 255
201 225 255
201 225 255
201 225 255
201 224 255
201 224 255
201 224 255
201 224 255
201 224 255
201 224 255
201 224 255
201 224 255
201 224 255
201 224 255
201 224 255
201 224 255
201 224 255
200 224 255
200 224 255
200 224 255
200 224 255
200 224 255
200 224 255
200 224 255
200 224 255
200 224 255
200 224 255
200 224 255
200 224 255
200 224 255
200 224 255
200 224 255
200 224 255
200 224 255
200 224 255
200 224 255
200 224 255
200 224 255
200 224 255
200 224 255
200 224 255
200 224 255
200 224 255
200 224 255
200 224 255
200 224 255
200 224 255
200 224 255
200 224 255
200 224 255
200 224 255
199 224 255
199 224 255
199 224 255
199 224 255
199 224 255
199 224 255
199 224 255
199 224 255
199 224 255
199 224 255
199 224 255
199 224 255
199 224 255
199 224 255
199 224 255
199 224 255
199 224 255
199 224 255
200 224 255
200 224 255
200 224 255
200 224 255
200 224 255
200 224 255
200 224 255
200 224 255
200 224 255
200 224 255
200 224 255
200 224 255
200 224 255
200 224 255
200 224 255
200 224 255
200 224 255
200 224 255
200 224 255
200 224 255
200 224 255
200 224 255
200 224 255
200 224 255
200 224 255
200 224 255
200 224 255
200 224 255
200 224 255
200 224 255
200 224 255
200 224 255
200 224 255
200 224 255
201 224 255
201 224 255
201 224 255
201 224 255
201 224 255
201 224 255
201 224 255
201 224 255
201 224 255
201 224 255
201 224 255
201 224 255
201 224 255
201 224 255
201 225 255
201 225 255
201 225 255
201 225 255
201 225 255
202 225 255
202 225 255
202 225 255
202 225 255
202 225 255
202 225 255
202 225 255
202 225 255
202 225 255
202 225 255
202 225 255
202 225 255
202 225 255
202 225 255
202 225 255
202 225 255
203 225 255
203 225 255
203 225 255
203 225 255
203 225 255
203 225 255
203 225 255
203 225 255
203 225 255
203 226 255
203 226 255
203 226 255
203 226 255
203 226 255
203 226 255
203 226 255
204 226 255
204 226 255
204 226 255
204 226 255
204 226 255
204 226 255
204 226 255
204 226 255
204 226 255
204 226 255
204 226 255
204 226 255
204 226 255
204 226 255
204 226 255
204 226 255
205 226 255
205 226 255
205 226 255
205 226 255
205 226 255
205 226 255
205 226 255
205 227 255
205 227 255
205 227 255
205 227 255
205 227 255
205 227 255
205 227 255
205 227 255
205 227 255
206 227 255
206 227 255
206 227 255
206 227 255
206 227 255
206 227 255
206 227 255
206 227 255
206 227 255
206 227 255
206 227 255
206 227 255
206 227 255
206 227 255
206 227 255
206 227 255
206 227 255
206 227 255
207 227 255
207 227 255
207 227 255
207 227 255
207 228 255
207 228 255
207 228 255
207 228 255
207 228 255
207 228 255
207 228 255
207 228 255
207 228 255
207 228 255
207 228 255
207 228 255
207 228 255
207 228 255
208 228 255
208 228 255
208 228 255
208 228 255
208 228 255
208 228 255
208 228 255
208 228 255
208 228 255
208 228 255
208 228 255
208 228 255
208 228 255
208 228 255
208 228 255
208 228 255
208 228 255
208 228 255
208 228 255
208 228 255
208 228 255
209 228 255
209 229 255
209 229 255
209 229 255
209 229 255
209 229 255
209 229 255
209 229 255
209 229 255
209 229 255
209 229 255
209 229 255
209 229 255
209 229 255
209 229 255
209 229 255
209 229 255
209 229 255
209 229 255
209 229 255
209 229 255
209 229 255
209 229 255
209 229 255
209 229 255
209 229 255
209 229 255
209 229 255
209 229 255
209 229 255
209 229 255
209 229 255
209 229 255
209 229 255
209 229 255
209 229 255
209 228 255
209 228 255
208 228 255
208 228 255
208 228 255
208 228 255
208 228 255
208 228 255
208 228 255
208 228 255
208 228 255
208 228 255
208 228 255
208 228 255
208 228 255
208 228 255
208 228 255
208 228 255
208 228 255
208 228 255
208 228 255
208 228 255
207 228 255
207 228 255
207 228 255
207 228 255
207 228 255
207 228 255
207 228 255
207 228 255
207 228 255
207 228 255
207 228 255
207 228 255
207 228 255
207 228 255
207 227 255
207 227 255
207 227 255
207 227 255
206 227 255
206 227 255
206 227 255
206 227 255
206 227 255
206 227 255
206 227 255
206 227 255
206 227 255
206 227 255
206 227 255
206 227 255
206 227 255
206 227 255
206 227 255
206 227 255
206 227 255
206 227 255
205 227 255
205 227 255
205 227 255
205 227 255
205 227 255
205 227 255
205 227 255
205 227 255
205 227 255
205 226 255
205 226 255
205 226 255
205 226 255
205 226 255
205 226 255
205 226 255
204 226 255
204 226 255
204 226 255
204 226 255
204 226 255
204 226 255
204 226 255
204 226 255
204 226 255
204 226 255
204 226 255
204 226 255
204 226 255
204 226 255
204 226 255
204 226 255
203 226 255
203 226 255
203 226 255
203 226 255
203 226 255
203 226 255
203 226 255
203 225 255
203 225 255
203 225 255
203 225 255
203 225 255
203 225 255
203 225 255
203 225 255
203 225 255
202 225 255
202 225 255
202 225 255
202 225 255
202 225 255
202 225 255
202 225 255
202 225 255
202 225 255
202 225 255
202 225 255
202 225 255
202 225 255
202 225 255
202 225 255
202 225 255
202 225 255
201 225 255
201 225 255
201 225 255
201 225 255
201 225 255
201 224 255
201 224 255
201 224 255
201 224 255
201 224 255
201 224 255
201 224 255
201 224 255
201 224 255
201 224 255
201 224 255
201 224 255
201 224 255
201 224 255
201 224 255
200 224 255
200 224 255
200 224 255
200 224 255
200 224 255
200 224 255
200 224 255
200 224 255
200 224 255
200 224 255
200 224 255
200 224 255
200 224 255
200 224 255
200 224 255
200 224 255
200 224 255
200 224 255
200 224 255
200 224 255
200 224 255
200 224 255
200 224 255
200 224 255
200 224 255
200 224 255
200 224 255
200 224 255
200 224 255
200 224 255
200 224 255
200 224 255
200 224 255
200 224 255
200 224 255
200 224 255
200 224 255
200 224 255
200 224 255
200 224 255
200 224 255
200 224 255
200 224 255
200 224 255
200 224 255
200 224 255
200 224 255
200 224 255
200 224 255
200 224 255
200 224 255
200 224 255
200 224 255
200 224 255
200 224 255
200 224 255
200 224 255
200 224 255
200 224 255
200 224 255
200 224 255
200 224 255
200 224 255
200 224 255
200 224 255
200 224 255
200 224 255
200 224 255
200 224 255
200 224 255
200 224 255
200 224 255
200 224 255
200 224 255
200 224 255
200 224 255
201 224 255
201 224 255
201 224 255
201 224 255
201 224 255
201 224 255
201 224 255
201 224 255
201 224 255
201 224 255
201 224 255
201 224 255
201 224 255
201 224 255
201 224 255
201 225 255
201 225 255
201 225 255
201 225 255
201 225 255
202 225 255
202 225 255
202 225 255
202 225 255
202 225 255
202 225 255
202 225 255
202 225 255
202 225 255
202 225 255
202 225 255
202 225 255
202 225 255
202 225 255
202 225 255
202 225 255
202 225 255
203 225 255
203 225 255
203 225 255
203 225 255
203 225 255
203 225 255
203 225 255
203 225 255
203 225 255
203 226 255
203 226 255
203 226 255
203 226 255
203 226 255
203 226 255
203 226 255
204 226 255
204 226 255
204 226 255
204 226 255
204 226 255
204 226 255
204 226 255
204 226 255
204 226 255
204 226 255
204 226 255
204 226 255
204 226 255
204 226 255
204 226 255
204 226 255
205 226 255
205 226 255
205 226 255
205 226 255
205 226 255
205 226 255
205 226 255
205 227 255
205 227 255
205 227 255
205 227 255
205 227 255
205 227 255
205 227 255
205 227 255
205 227 255
206 227 255
206 227 255
206 227 255
206 227 255
206 227 255
206 227 255
206 227 255
206 227 255
206 227 255
206 227 255
206 227 255
206 227 255
206 227 255
206 227 255
206 227 255
206 227 255
206 227 255
207 227 255
207 227 255
207 227 255
207 227 255
207 227 255
207 228 255
207 228 255
207 228 255
207 228 255
207 228 255
207 228 255
207 228 255
207 228 255
207 228 255
207 228 255
207 228 255
207 228 255
207 228 255
207 228 255
208 228 255
208 228 255
208 228 255
208 228 255
208 228 255
208 228 255
208 228 255
208 228 255
208 228 255
208 228 255
208 228 255
208 228 255
208 228 255
208 228 255
208 228 255
208 228 255
208 228 255
208 228 255
208 228 255
208 228 255
209 228 255
209 228 255
209 229 255
209 229 255
209 229 255
209 229 255
209 229 255
209 229 255
209 229 255
209 229 255
209 229 255
209 229 255
209 229 255
209 229 255
209 229 255
209 229 255
209 229 255
209 229 255
209 229 255
209 229 255
209 229 255
210 229 255
209 229 255
209 229 255
209 229 255
209 229 255
209 229 255
209 229 255
209 229 255
209 229 255
209 229 255
209 229 255
209 229 255
209 229 255
209 229 255
209 229 255
209 229 255
209 229 255
209 229 255
209 229 255
209 229 255
209 229 255
209 229 255
209 229 255
209 228 255
208 228 255
208 228 255
208 228 255
208 228 255
208 228 255
208 228 255
208 228 255
208 228 255
208 228 255
208 228 255
208 228 255
208 228 255
208 228 255
208 228 255
208 228 255
208 228 255
208 228 255
208 228 255
208 228 255
208 228 255
207 228 255
207 228 255
207 228 255
207 228 255
207 228 255
207 228 255
207 228 255
207 228 255
207 228 255
207 228 255
207 228 255
207 228 255
207 228 255
207 228 255
207 227 255
207 227 255
207 227 255
207 227 255
207 227 255
206 227 255
206 227 255
206 227 255
206 227 255
206 227 255
206 227 255
206 227 255
206 227 255
206 227 255
206 227 255
206 227 255
206 227 255
206 227 255
206 227 255
206 227 255
206 227 255
206 227 255
205 227 255
205 227 255
205 227 255
205 227 255
205 227 255
205 227 255
205 227 255
205 227 255
205 227 255
205 227 255
205 226 255
205 226 255
205 226 255
205 226 255
205 226 255
205 226 255
204 226 255
204 226 255
204 226 255
204 226 255
204 226 255
204 226 255
204 226 255
204 226 255
204 226 255
204 226 255
204 226 255
204 226 255
204 226 255
204 226 255
204 226 255
204 226 255
203 226 255
203 226 255
203 226 255
203 226 255
203 226 255
203 226 255
203 226 255
203 225 255
203 225 255
203 225 255
203 225 255
203 225 255
203 225 255
203 225 255
203 225 255
203 225 255
202 225 255
202 225 255
202 225 255
202 225 255
202 225 255
202 225 255
202 225 255
202 225 255
202 225 255
202 225 255
202 225 255
202 225 255
202 225 255
202 225 255
202 225 255
202 225 255
202 225 255
201 225 255
201 225 255
201 225 255
201 225 255
201 225 255
201 225 255
201 224 255
201 224 255
201 224 255
201 224 255
201 224 255
201 224 255
201 224 255
201 224 255
201 224 255
201 224 255
201 224 255
201 224 255
201 224 255
201 224 255
201 224 255
201 224 255
200 224 255
200 224 255
200 224 255
200 224 255
200 224 255
200 224 255
200 224 255
200 224 255
200 224 255
200 224 255
200 224 255
200 224 255
200 224 255
200 224 255
200 224 255
200 224 255
200 224 255
200 224 255
200 224 255
200 224 255
200 224 255
200 224 255
200 224 255
200 224 255
200 224 255
200 224 255
200 224 255
200 224 255
200 224 255
200 224 255
200 224 255
200 224 255
200 224 255
200 224 255
200 224 255
200 224 255
200 224 255
200 224 255
200 224 255
200 224 255
200 224 255
200 224 255
200 224 255
200 224 255
200 224 255
200 224 255
200 224 255
200 224 255
200 224 255
200 224 255
200 224 255
200 224 255
200 224 255
200 224 255
200 224 255
200 224 255
200 224 255
200 224 255
200 224 255
200 224 255
200 224 255
200 224 255
200 224 255
200 224 255
200 224 255
200 224 255
201 224 255
201 224 255
201 224 255
201 224 255
201 224 255
201 224 255
201 224 255
201 224 255
201 224 255
201 224 255
201 224 255
201 224 255
201 224 255
201 224 255
201 224 255
201 224 255
201 225 255
201 225 255
201 225 255
201 225 255
201 225 255
202 225 255
202 225 255
202 225 255
202 225 255
202 225 255
202 225 255
202 225 255
202 225 255
202 225 255
202 225 255
202 225 255
202 225 255
202 225 255
202 225 255
202 225 255
202 225 255
202 225 255
202 225 255
203 225 255
203 225 255
203 225 255
203 225 255
203 225 255
203 225 255
203 225 255
203 225 255
203 225 255
203 226 255
203 226 255
203 226 255
203 226 255
203 226 255
203 226 255
203 226 255
204 226 255
204 226 255
204 226 255
204 226 255
204 226 255
204 226 255
204 226 255
204 226 255
204 226 255
204 226 255
204 226 255
204 226 255
204 226 255
204 226 255
204 226 255
204 226 255
205 226 255
205 226 255
205 226 255
205 226 255
205 226 255
205 226 255
205 226 255
205 227 255
205 227 255
205 227 255
205 227 255
205 227 255
205 227 255
205 227 255
205 227 255
205 227 255
206 227 255
206 227 255
206 227 255
206 227 255
206 227 255
206 227 255
206 227 255
206 227 255
206 227 255
206 227 255
206 227 255
206 227 255
206 227 255
206 227 255
206 227 255
206 227 255
206 227 255
207 227 255
207 227 255
207 227 255
207 227 255
207 227 255
207 228 255
207 228 255
207 228 255
207 228 255
207 228 255
207 228 255
207 228 255
207 228 255
207 228 255
207 228 255
207 228 255
207 228 255
207 228 255
207 228 255
208 228 255
208 228 255
208 228 255
208 228 255
208 228 255
208 228 255
208 228 255
208 228 255
208 228 255
208 228 255
208 228 255
208 228 255
208 228 255
208 228 255
208 228 255
208 228 255
208 228 255
208 228 255
208 228 255
208 228 255
209 228 255
209 228 255
209 229 255
209 229 255
209 229 255
209 229 255
209 229 255
209 229 255
209 229 255
209 229 255
209 229 255
209 229 255
209 229 255
209 229 255
209 229 255
209 229 255
209 229 255
209 229 255
209 229 255
209 229 255
209 229 255
209 229 255
209 229 255
210 229 255
210 229 255
210 229 255
210 229 255
210 229 255
210 229 255
209 229 255
209 229 255
209 229 255
209 229 255
209 229 255
209 229 255
209 229 255
209 229 255
209 229 255
209 229 255
209 229 255
209 229 255
209 229 255
209 229 255
209 229 255
209 229 255
209 229 255
209 229 255
209 229 255
209 229 255
209 229 255
209 228 255
208 228 255
208 228 255
208 228 255
208 228 255
208 228 255
208 228 255
208 228 255
208 228 255
208 228 255
208 228 255
208 228 255
208 228 255
208 228 255
208 228 255
208 228 255
208 228 255
208 228 255
208 228 255
208 228 255
208 228 255
208 228 255
207 228 255
207 228 255
207 228 255
207 228 255
207 228 255
207 228 255
207 228 255
207 228 255
207 228 255
207 228 255
207 228 255
207 228 255
207 228 255
207 227 255
207 227 255
207 227 255
207 227 255
207 227 255
206 227 255
206 227 255
206 227 255
206 227 255
206 227 255
206 227 255
206 227 255
206 227 255
206 227 255
206 227 255
206 227 255
206 227 255
206 227 255
206 227 255
206 227 255
206 227 255
206 227 255
205 227 255
205 227 255
205 227 255
205 227 255
205 227 255
205 227 255
205 227 255
205 227 255
205 227 255
205 227 255
205 226 255
205 226 255
205 226 255
205 226 255
205 226 255
205 226 255
204 226 255
204 226 255
204 226 255
204 226 255
204 226 255
204 226 255
204 226 255
204 226 255
204 226 255
204 226 255
204 226 255
204 226 255
204 226 255
204 226 255
204 226 255
204 226 255
203 226 255
203 226 255
203 226 255
203 226 255
203 226 255
203 226 255
203 226 255
203 225 255
203 225 255
203 225 255
203 225 255
203 225 255
203 225 255
203 225 255
203 225 255
203 225 255
203 225 255
202 225 255
202 225 255
202 225 255
202 225 255
202 225 255
202 225 255
202 225 255
202 225 255
202 225 255
202 225 255
202 225 255
202 225 255
202 225 255
202 225 255
202 225 255
202 225 255
202 225 255
201 225 255
201 225 255
201 225 255
201 225 255
201 225 255
201 225 255
201 225 255
201 224 255
201 224 255
201 224 255
201 224 255
201 224 255
201 224 255
201 224 255
201 224 255
201 224 255
201 224 255
201 224 255
201 224 255
201 224 255
201 224 255
201 224 255
201 224 255
201 224 255
201 224 255
200 224 255
200 224 255
200 224 255
200 224 255
200 224 255
200 224 255
200 224 255
200 224 255
200 224 255
200 224 255
200 224 255
200 224 255
200 224 255
200 224 255
200 224 255
200 224 255
200 224 255
200 224 255
200 224 255
200 224 255
200 224 255
200 224 255
200 224 255
200 224 255
200 224 255
200 224 255
200 224 255
200 224 255
200 224 255
200 224 255
200 224 255
200 224 255
200 224 255
200 224 255
200 224 255
200 224 255
200 224 255
200 224 255
200 224 255
200 224 255
200 224 255
200 224 255
200 224 255
200 224 255
200 224 255
200 224 255
200 224 255
200 224 255
200 224 255
200 224 255
200 224 255
200 224 255
201 224 255
201 224 255
201 224 255
201 224 255
201 224 255
201 224 255
201 224 255
201 224 255
201 224 255
201 224 255
201 224 255
201 224 255
201 224 255
201 224 255
201 224 255
201 224 255
201 224 255
201 224 255
201 225 255
201 225 255
201 225 255
201 225 255
201 225 255
201 225 255
202 225 255
202 225 255
202 225 255
202 225 255
202 225 255
202 225 255
202 225 255
202 225 255
202 225 255
202 225 255
202 225 255
202 225 255
202 225 255
202 225 255
202 225 255
202 225 255
202 225 255
202 225 255
203 225 255
203 225 255
203 225 255
203 225 255
203 225 255
203 225 255
203 225 255
203 225 255
203 225 255
203 225 255
203 226 255
203 226 255
203 226 255
203 226 255
203 226 255
203 226 255
203 226 255
204 226 255
204 226 255
204 226 255
204 226 255
204 226 255
204 226 255
204 226 255
204 226 255
204 226 255
204 226 255
204 226 255
204 226 255
204 226 255
204 226 255
204 226 255
204 226 255
205 226 255
205 226 255
205 226 255
205 226 255
205 226 255
205 226 255
205 227 255
205 227 255
205 227 255
205 227 255
205 227 255
205 227 255
205 227 255
205 227 255
205 227 255
205 227 255
206 227 255
206 227 255
206 227 255
206 227 255
206 227 255
206 227 255
206 227 255
206 227 255
206 227 255
206 227 255
206 227 255
206 227 255
206 227 255
206 227 255
206 227 255
206 227 255
206 227 255
207 227 255
207 227 255
207 227 255
207 227 255
207 227 255
207 228 255
207 228 255
207 228 255
207 228 255
207 228 255
207 228 255
207 228 255
207 228 255
207 228 255
207 228 255
207 228 255
207 228 255
207 228 255
208 228 255
208 228 255
208 228 255
208 228 255
208 228 255
208 228 255
208 228 255
208 228 255
208 228 255
208 228 255
208 228 255
208 228 255
208 228 255
208 228 255
208 228 255
208 228 255
208 228 255
208 228 255
208 228 255
208 228 255
208 228 255
209 228 255
209 229 255
209 229 255
209 229 255
209 229 255
209 229 255
209 229 255
209 229 255
209 229 255
209 229 255
209 229 255
209 229 255
209 229 255
209 229 255
209 229 255
209 229 255
209 229 255
209 229 255
209 229 255
209 229 255
209 229 255
209 229 255
210 229 255
210 229 255
210 229 255
210 229 255
210 229 255
210 229 255
210 229 255
210 229 255
210 229 255
210 229 255
210 229 255
210 229 255
210 229 255
209 229 255
209 229 255
209 229 255
209 229 255
209 229 255
209 229 255
209 229 255
209 229 255
209 229 255
209 229 255
209 229 255
209 229 255
209 229 255
209 229 255
209 229 255
209 229 255
209 229 255
209 229 255
209 229 255
209 229 255
209 229 255
209 228 255
209 228 255
208 228 255
208 228 255
208 228 255
208 228 255
208 228 255
208 228 255
208 228 255
208 228 255
208 228 255
208 228 255
208 228 255
208 228 255
208 228 255
208 228 255
208 228 255
208 228 255
208 228 255
208 228 255
208 228 255
208 228 255
207 228 255
207 228 255
207 228 255
207 228 255
207 228 255
207 228 255
207 228 255
207 228 255
207 228 255
207 228 255
207 228 255
207 228 255
207 228 255
207 228 255
207 227 255
207 227 255
207 227 255
207 227 255
206 227 255
206 227 255
206 227 255
206 227 255
206 227 255
206 227 255
206 227 255
206 227 255
206 227 255
206 227 255
206 227 255
206 227 255
206 227 255
206 227 255
206 227 255
206 227 255
206 227 255
205 227 255
205 227 255
205 227 255
205 227 255
205 227 255
205 227 255
205 227 255
205 227 255
205 227 255
205 227 255
205 226 255
205 226 255
205 226 255
205 226 255
205 226 255
205 226 255
204 226 255
204 226 255
204 226 255
204 226 255
204 226 255
204 226 255
204 226 255
204 226 255
204 226 255
204 226 255
204 226 255
204 226 255
204 226 255
204 226 255
204 226 255
204 226 255
203 226 255
203 226 255
203 226 255
203 226 255
203 226 255
203 226 255
203 226 255
203 226 255
203 225 255
203 225 255
203 225 255
203 225 255
203 225 255
203 225 255
203 225 255
203 225 255
203 225 255
202 225 255
202 225 255
202 225 255
202 225 255
202 225 255
202 225 255
202 225 255
202 225 255
202 225 255
202 225 255
202 225 255
202 225 255
202 225 255
202 225 255
202 225 255
202 225 255
202 225 255
202 225 255
202 225 255
201 225 255
201 225 255
201 225 255
201 225 255
201 225 255
201 225 255
201 224 255
201 224 255
201 224 255
201 224 255
201 224 255
201 224 255
201 224 255
201 224 255
201 224 255
201 224 255
201 224 255
201 224 255
201 224 255
201 224 255
201 224 255
201 224 255
201 224 255
201 224 255
201 224 255
201 224 255
201 224 255
200 224 255
200 224 255
200 224 255
200 224 255
200 224 255
200 224 255
200 224 255
200 224 255
200 224 255
200 224 255
200 224 255
200 224 255
200 224 255
200 224 255
200 224 255
200 224 255
200 224 255
200 224 255
200 224 255
200 224 255
200 224 255
200 224 255
200 224 255
200 224 255
200 224 255
200 224 255
200 224 255
200 224 255
200 224 255
200 224 255
200 224 255
200 224 255
200 224 255
200 224 255
200 224 255
200 224 255
200 224 255
201 224 255
201 224 255
201 224 255
201 224 255
201 224 255
201 224 255
201 224 255
201 224 255
201 224 255
201 224 255
201 224 255
201 224 255
201 224 255
201 224 255
201 224 255
201 224 255
201 224 255
201 224 255
201 224 255
201 224 255
201 224 255
201 224 255
201 225 255
201 225 255
201 225 255
201 225 255
201 225 255
201 225 255
202 225 255
202 225 255
202 225 255
202 225 255
202 225 255
202 225 255
202 225 255
202 225 255
202 225 255
202 225 255
202 225 255
202 225 255
202 225 255
202 225 255
202 225 255
202 225 255
202 225 255
202 225 255
202 225 255
203 225 255
203 225 255
203 225 255
203 225 255
203 225 255
203 225 255
203 225 255
203 225 255
203 225 255
203 226 255
203 226 255
203 226 255
203 226 255
203 226 255
203 226 255
203 226 255
203 226 255
204 226 255
204 226 255
204 226 255
204 226 255
204 226 255
204 226 255
204 226 255
204 226 255
204 226 255
204 226 255
204 226 255
204 226 255
204 226 255
204 226 255
204 226 255
204 226 255
205 226 255
205 226 255
205 226 255
205 226 255
205 226 255
205 226 255
205 227 255
205 227 255
205 227 255
205 227 255
205 227 255
205 227 255
205 227 255
205 227 255
205 227 255
205 227 255
206 227 255
206 227 255
206 227 255
206 227 255
206 227 255
206 227 255
206 227 255
206 227 255
206 227 255
206 227 255
206 227 255
206 227 255
206 227 255
206 227 255
206 227 255
206 227 255
206 227 255
207 227 255
207 227 255
207 227 255
207 227 255
207 228 255
207 228 255
207 228 255
207 228 255
207 228 255
207 228 255
207 228 255
207 228 255
207 228 255
207 228 255
207 228 255
207 228 255
207 228 255
207 228 255
208 228 255
208 228 255
208 228 255
208 228 255
208 228 255
208 228 255
208 228 255
208 228 255
208 228 255
208 228 255
208 228 255
208 228 255
208 228 255
208 228 255
208 228 255
208 228 255
208 228 255
208 228 255
208 228 255
208 228 255
209 228 255
209 228 255
209 229 255
209 229 255
209 229 255
209 229 255
209 229 255
209 229 255
209 229 255
209 229 255
209 229 255
209 229 255
209 229 255
209 229 255
209 229 255
209 229 255
209 229 255
209 229 255
209 229 255
209 229 255
209 229 255
209 229 255
209 229 255
210 229 255
210 229 255
210 229 255
210 229 255
210 229 255
210 229 255
210 229 255
210 229 255
210 229 255
210 229 255
210 229 255
210 229 255
210 229 255
210 229 255
210 229 255
210 229 255
210 229 255
210 229 255
210 229 255
210 229 255
209 229 255
209 229 255
209 229 255
209 229 255
209 229 255
209 229 255
209 229 255
209 229 255
209 229 255
209 229 255
209 229 255
209 229 255
209 229 255
209 229 255
209 229 255
209 229 255
209 229 255
209 229 255
209 229 255
209 229 255
209 229 255
209 228 255
208 228 255
208 228 255
208 228 255
208 228 255
208 228 255
208 228 255
208 228 255
208 228 255
208 228 255
208 228 255
208 228 255
208 228 255
208 228 255
208 228 255
208 228 255
208 228 255
208 228 255
208 228 255
208 228 255
208 228 255
207 228 255
207 228 255
207 228 255
207 228 255
207 228 255
207 228 255
207 228 255
207 228 255
207 228 255
207 228 255
207 228 255
207 228 255
207 228 255
207 228 255
207 227 255
207 227 255
207 227 255
207 227 255
206 227 255
206 227 255
206 227 255
206 227 255
206 227 255
206 227 255
206 227 255
206 227 255
206 227 255
206 227 255
206 227 255
206 227 255
206 227 255
206 227 255
206 227 255
206 227 255
206 227 255
205 227 255
205 227 255
205 227 255
205 227 255
205 227 255
205 227 255
205 227 255
205 227 255
205 227 255
205 227 255
205 226 255
205 226 255
205 226 255
205 226 255
205 226 255
205 226 255
204 226 255
204 226 255
204 226 255
204 226 255
204 226 255
204 226 255
204 226 255
204 226 255
204 226 255
204 226 255
204 226 255
204 226 255
204 226 255
204 226 255
204 226 255
204 226 255
204 226 255
203 226 255
203 226 255
203 226 255
203 226 255
203 226 255
203 226 255
203 226 255
203 225 255
203 225 255
203 225 255
203 225 255
203 225 255
203 225 255
203 225 255
203 225 255
203 225 255
203 225 255
202 225 255
202 225 255
202 225 255
202 225 255
202 225 255
202 225 255
202 225 255
202 225 255
202 225 255
202 225 255
202 225 255
202 225 255
202 225 255
202 225 255
202 225 255
202 225 255
202 225 255
202 225 255
202 225 255
202 225 255
201 225 255
201 225 255
201 225 255
201 225 255
201 225 255
201 225 255
201 225 255
201 224 255
201 224 255
201 224 255
201 224 255
201 224 255
201 224 255
201 224 255
201 224 255
201 224 255
201 224 255
201 224 255
201 224 255
201 224 255
201 224 255
201 224 255
201 224 255
201 224 255
201 224 255
201 224 255
201 224 255
201 224 255
201 224 255
201 224 255
201 224 255
201 224 255
201 224 255
201 224 255
201 224 255
201 224 255
201 224 255
201 224 255
201 224 255
201 224 255
201 224 255
201 224 255
201 224 255
201 224 255
201 224 255
201 224 255
201 224 255
201 224 255
201 224 255
201 224 255
201 224 255
201 224 255
201 224 255
201 224 255
201 224 255
201 224 255
201 224 255
201 224 255
201 224 255
201 224 255
201 224 255
201 224 255
201 224 255
201 224 255
201 224 255
201 224 255
201 224 255
201 224 255
201 224 255
201 224 255
201 224 255
201 224 255
201 224 255
201 224 255
201 224 255
201 225 255
201 225 255
201 225 255
201 225 255
201 225 255
201 225 255
201 225 255
202 225 255
202 225 255
202 225 255
202 225 255
202 225 255
202 225 255
202 225 255
202 225 255
202 225 255
202 225 255
202 225 255
202 225 255
202 225 255
202 225 255
202 225 255
202 225 255
202 225 255
202 225 255
202 225 255
202 225 255
203 225 255
203 225 255
203 225 255
203 225 255
203 225 255
203 225 255
203 225 255
203 225 255
203 225 255
203 225 255
203 226 255
203 226 255
203 226 255
203 226 255
203 226 255
203 226 255
203 226 255
204 226 255
204 226 255
204 226 255
204 226 255
204 226 255
204 226 255
204 226 255
204 226 255
204 226 255
204 226 255
204 226 255
204 226 255
204 226 255
204 226 255
204 226 255
204 226 255
204 226 255
205 226 255
205 226 255
205 226 255
205 226 255
205 226 255
205 226 255
205 227 255
205 227 255
205 227 255
205 227 255
205 227 255
205 227 255
205 227 255
205 227 255
205 227 255
205 227 255
206 227 255
206 227 255
206 227 255
206 227 255
206 227 255
206 227 255
206 227 255
206 227 255
206 227 255
206 227 255
206 227 255
206 227 255
206 227 255
206 227 255
206 227 255
206 227 255
206 227 255
207 227 255
207 227 255
207 227 255
207 227 255
207 228 255
207 228 255
207 228 255
207 228 255
207 228 255
207 228 255
207 228 255
207 228 255
207 228 255
207 228 255
207 228 255
207 228 255
207 228 255
207 228 255
208 228 255
208 228 255
208 228 255
208 228 255
208 228 255
208 228 255
208 228 255
208 228 255
208 228 255
208 228 255
208 228 255
208 228 255
208 228 255
208 228 255
208 228 255
208 228 255
208 228 255
208 228 255
208 228 255
208 228 255
209 228 255
209 229 255
209 229 255
209 229 255
209 229 255
209 229 255
209 229 255
209 229 255
209 229 255
209 229 255
209 229 255
209 229 255
209 229 255
209 229 255
209 229 255
209 229 255
209 229 255
209 229 255
209 229 255
209 229 255
209 229 255
209 229 255
210 229 255
210 229 255
210 229 255
210 229 255
210 229 255
210 229 255
210 229 255
210 229 255
210 229 255
210 229 255
210 229 255
210 229 255
210 229 255
210 229 255
210 229 255
210 229 255
210 229 255
210 229 255
210 229 255
210 229 255
210 229 255
210 229 255
210 229 255
210 229 255
210 229 255
210 229 255
210 229 255
210 229 255
209 229 255
209 229 255
209 229 255
209 229 255
209 229 255
209 229 255
209 229 255
209 229 255
209 229 255
209 229 255
209 229 255
209 229 255
209 229 255
209 229 255
209 229 255
209 229 255
209 229 255
209 229 255
209 229 255
209 229 255
209 228 255
209 228 255
208 228 255
208 228 255
208 228 255
208 228 255
208 228 255
208 228 255
208 228 255
208 228 255
208 228 255
208 228 255
208 228 255
208 228 255
208 228 255
208 228 255
208 228 255
208 228 255
208 228 255
208 228 255
208 228 255
207 228 255
207 228 255
207 228 255
207 228 255
207 228 255
207 228 255
207 228 255
207 228 255
207 228 255
207 228 255
207 228 255
207 228 255
207 228 255
207 228 255
207 227 255
207 227 255
207 227 255
207 227 255
206 227 255
206 227 255
206 227 255
206 227 255
206 227 255
206 227 255
206 227 255
206 227 255
206 227 255
206 227 255
206 227 255
206 227 255
206 227 255
206 227 255
206 227 255
206 227 255
206 227 255
205 227 255
205 227 255
205 227 255
205 227 255
205 227 255
205 227 255
205 227 255
205 227 255
205 227 255
205 227 255
205 226 255
205 226 255
205 226 255
205 226 255
205 226 255
205 226 255
205 226 255
204 226 255
204 226 255
204 226 255
204 226 255
204 226 255
204 226 255
204 226 255
204 226 255
204 226 255
204 226 255
204 226 255
204 226 255
204 226 255
204 226 255
204 226 255
204 226 255
203 226 255
203 226 255
203 226 255
203 226 255
203 226 255
203 226 255
203 226 255
203 226 255
203 225 255
203 225 255
203 225 255
203 225 255
203 225 255
203 225 255
203 225 255
203 225 255
203 225 255
202 225 255
202 225 255
202 225 255
202 225 255
202 225 255
202 225 255
202 225 255
202 225 255
202 225 255
202 225 255
202 225 255
202 225 255
202 225 255
202 225 255
202 225 255
202 225 255
202 225 255
202 225 255
202 225 255
202 225 255
202 225 255
202 225 255
201 225 255
201 225 255
201 225 255
201 225 255
201 225 255
201 225 255
201 225 255
201 225 255
201 224 255
201 224 255
201 224 255
201 224 255
201 224 255
201 224 255
201 224 255
201 224 255
201 224 255
201 224 255
201 224 255
201 224 255
201 224 255
201 224 255
201 224 255
201 224 255
201 224 255
201 224 255
201 224 255
201 224 255
201 224 255
201 224 255
201 224 255
201 224 255
201 224 255
201 224 255
201 224 255
201 224 255
201 224 255
201 224 255
201 224 255
201 224 255
201 224 255
201 224 255
201 224 255
201 224 255
201 224 255
201 224 255
201 224 255
201 224 255
201 224 255
201 224 255
201 224 255
201 224 255
201 224 255
201 224 255
201 224 255
201 224 255
201 224 255
201 224 255
201 224 255
201 224 255
201 224 255
201 224 255
201 224 255
201 224 255
201 225 255
201 225 255
201 225 255
201 225 255
201 225 255
201 225 255
201 225 255
201 225 255
202 225 255
202 225 255
202 225 255
202 225 255
202 225 255
202 225 255
202 225 255
202 225 255
202 225 255
202 225 255
202 225 255
202 225 255
202 225 255
202 225 255
202 225 255
202 225 255
202 225 255
202 225 255
202 225 255
202 225 255
202 225 255
202 225 255
203 225 255
203 225 255
203 225 255
203 225 255
203 225 255
203 225 255
203 225 255
203 225 255
203 225 255
203 226 255
203 226 255
203 226 255
203 226 255
203 226 255
203 226 255
203 226 255
203 226 255
204 226 255
204 226 255
204 226 255
204 226 255
204 226 255
204 226 255
204 226 255
204 226 255
204 226 255
204 226 255
204 226 255
204 226 255
204 226 255
204 226 255
204 226 255
204 226 255
205 226 255
205 226 255
205 226 255
205 226 255
205 226 255
205 226 255
205 226 255
205 227 255
205 227 255
205 227 255
205 227 255
205 227 255
205 227 255
205 227 255
205 227 255
205 227 255
205 227 255
206 227 255
206 227 255
206 227 255
206 227 255
206 227 255
206 227 255
206 227 255
206 227 255
206 227 255
206 227 255
206 227 255
206 227 255
206 227 255
206 227 255
206 227 255
206 227 255
206 227 255
207 227 255
207 227 255
207 227 255
207 227 255
207 228 255
207 228 255
207 228 255
207 228 255
207 228 255
207 228 255
207 228 255
207 228 255
207 228 255
207 228 255
207 228 255
207 228 255
207 228 255
207 228 255
208 228 255
208 228 255
208 228 255
208 228 255
208 228 255
208 228 255
208 228 255
208 228 255
208 228 255
208 228 255
208 228 255
208 228 255
208 228 255
208 228 255
208 228 255
208 228 255
208 228 255
208 228 255
208 228 255
208 228 255
209 228 255
209 229 255
209 229 255
209 229 255
209 229 255
209 229 255
209 229 255
209 229 255
209 229 255
209 229 255
209 229 255
209 229 255
209 229 255
209 229 255
209 229 255
209 229 255
209 229 255
209 229 255
209 229 255
209 229 255
209 229 255
209 229 255
210 229 255
210 229 255
210 229 255
210 229 255
210 229 255
210 229 255
210 229 255
210 229 255
210 229 255
210 229 255
210 229 255
210 229 255
210 229 255
210 229 255
210 229 255
210 229 255
210 229 255
210 229 255
210 229 255
210 229 255
210 229 255
210 229 255
210 229 255
210 229 255
210 229 255
210 229 255
210 229 255
210 229 255
210 229 255
210 229 255
210 229 255
210 229 255
210 229 255
210 229 255
209 229 255
209 229 255
209 229 255
209 229 255
209 229 255
209 229 255
209 229 255
209 229 255
209 229 255
209 229 255
209 229 255
209 229 255
209 229 255
209 229 255
209 229 255
209 229 255
209 229 255
209 229 255
209 229 255
209 229 255
209 229 255
209 228 255
208 228 255
208 228 255
208 228 255
208 228 255
208 228 255
208 228 255
208 228 255
208 228 255
208 228 255
208 228 255
208 228 255
208 228 255
208 228 255
208 228 255
208 228 255
208 228 255
208 228 255
208 228 255
208 228 255
207 228 255
207 228 255
207 228 255
207 228 255
207 228 255
207 228 255
207 228 255
207 228 255
207 228 255
207 228 255
207 228 255
207 228 255
207 228 255
207 228 255
207 227 255
207 227 255
207 227 255
207 227 255
207 227 255
206 227 255
206 227 255
206 227 255
206 227 255
206 227 255
206 227 255
206 227 255
206 227 255
206 227 255
206 227 255
206 227 255
206 227 255
206 227 255
206 227 255
206 227 255
206 227 255
205 227 255
205 227 255
205 227 255
205 227 255
205 227 255
205 227 255
205 227 255
205 227 255
205 227 255
205 227 255
205 226 255
205 226 255
205 226 255
205 226 255
205 226 255
205 226 255
205 226 255
204 226 255
204 226 255
204 226 255
204 226 255
204 226 255
204 226 255
204 226 255
204 226 255
204 226 255
204 226 255
204 226 255
204 226 255
204 226 255
204 226 255
204 226 255
204 226 255
204 226 255
203 226 255
203 226 255
203 226 255
203 226 255
203 226 255
203 226 255
203 226 255
203 225 255
203 225 255
203 225 255
203 225 255
203 225 255
203 225 255
203 225 255
203 225 255
203 225 255
203 225 255
203 225 255
202 225 255
202 225 255
202 225 255
202 225 255
202 225 255
202 225 255
202 225 255
202 225 255
202 225 255
202 225 255
202 225 255
202 225 255
202 225 255
202 225 255
202 225 255
202 225 255
202 225 255
202 225 255
202 225 255
202 225 255
202 225 255
202 225 255
202 225 255
201 225 255
201 225 255
201 225 255
201 225 255
201 225 255
201 225 255
201 225 255
201 225 255
201 225 255
201 225 255
201 224 255
201 224 255
201 224 255
201 224 255
201 224 255
201 224 255
201 224 255
201 224 255
201 224 255
201 224 255
201 224 255
201 224 255
201 224 255
201 224 255
201 224 255
201 224 255
201 224 255
201 224 255
201 224 255
201 224 255
201 224 255
201 224 255
201 224 255
201 224 255
201 224 255
201 224 255
201 224 255
201 224 255
201 224 255
201 224 255
201 224 255
201 224 255
201 224 255
201 224 255
201 224 255
201 224 255
201 224 255
201 224 255
201 224 255
201 224 255
201 225 255
201 225 255
201 225 255
201 225 255
201 225 255
201 225 255
201 225 255
201 225 255
201 225 255
201 225 255
201 225 255
202 225 255
202 225 255
202 225 255
202 225 255
202 225 255
202 225 255
202 225 255
202 225 255
202 225 255
202 225 255
202 225 255
202 225 255
202 225 255
202 225 255
202 225 255
202 225 255
202 225 255
202 225 255
202 225 255
202 225 255
202 225 255
202 225 255
203 225 255
203 225 255
203 225 255
203 225 255
203 225 255
203 225 255
203 225 255
203 225 255
203 225 255
203 225 255
203 225 255
203 226 255
203 226 255
203 226 255
203 226 255
203 226 255
203 226 255
203 226 255
204 226 255
204 226 255
204 226 255
204 226 255
204 226 255
204 226 255
204 226 255
204 226 255
204 226 255
204 226 255
204 226 255
204 226 255
204 226 255
204 226 255
204 226 255
204 226 255
204 226 255
205 226 255
205 226 255
205 226 255
205 226 255
205 226 255
205 226 255
205 226 255
205 227 255
205 227 255
205 227 255
205 227 255
205 227 255
205 227 255
205 227 255
205 227 255
205 227 255
206 227 255
206 227 255
206 227 255
206 227 255
206 227 255
206 227 255
206 227 255
206 227 255
206 227 255
206 227 255
206 227 255
206 227 255
206 227 255
206 227 255
206 227 255
206 227 255
206 227 255
207 227 255
207 227 255
207 227 255
207 227 255
207 227 255
207 228 255
207 228 255
207 228 255
207 228 255
207 228 255
207 228 255
207 228 255
207 228 255
207 228 255
207 228 255
207 228 255
207 228 255
207 228 255
208 228 255
208 228 255
208 228 255
208 228 255
208 228 255
208 228 255
208 228 255
208 228 255
208 228 255
208 228 255
208 228 255
208 228 255
208 228 255
208 228 255
208 228 255
208 228 255
208 228 255
208 228 255
208 228 255
208 228 255
209 228 255
209 228 255
209 229 255
209 229 255
209 229 255
209 229 255
209 229 255
209 229 255
209 229 255
209 229 255
209 229 255
209 229 255
209 229 255
209 229 255
209 229 255
209 229 255
209 229 255
209 229 255
209 229 255
209 229 255
209 229 255
209 229 255
210 229 255
210 229 255
210 229 255
210 229 255
210 229 255
210 229 255
210 229 255
210 229 255
210 229 255
210 229 255
210 229 255
210 229 255
210 229 255
210 229 255
210 229 255
210 229 255
210 229 255
210 229 255
210 229 255
210 230 255
210 229 255
210 229 255
210 229 255
210 229 255
210 229 255
210 229 255
210 229 255
210 229 255
210 229 255
210 229 255
210 229 255
210 229 255
210 229 255
210 229 255
210 229 255
210 229 255
210 229 255
210 229 255
210 229 255
210 229 255
210 229 255
210 229 255
209 229 255
209 229 255
209 229 255
209 229 255
209 229 255
209 229 255
209 229 255
209 229 255
209 229 255
209 229 255
209 229 255
209 229 255
209 229 255
209 229 255
209 229 255
209 229 255
209 229 255
209 229 255
209 229 255
209 229 255
209 228 255
208 228 255
208 228 255
208 228 255
208 228 255
208 228 255
208 228 255
208 228 255
208 228 255
208 228 255
208 228 255
208 228 255
208 228 255
208 228 255
208 228 255
208 228 255
208 228 255
208 228 255
208 228 255
208 228 255
208 228 255
207 228 255
207 228 255
207 228 255
207 228 255
207 228 255
207 228 255
207 228 255
207 228 255
207 228 255
207 228 255
207 228 255
207 228 255
207 228 255
207 228 255
207 227 255
207 227 255
207 227 255
207 227 255
206 227 255
206 227 255
206 227 255
206 227 255
206 227 255
206 227 255
206 227 255
206 227 255
206 227 255
206 227 255
206 227 255
206 227 255
206 227 255
206 227 255
206 227 255
206 227 255
206 227 255
205 227 255
205 227 255
205 227 255
205 227 255
205 227 255
205 227 255
205 227 255
205 227 255
205 227 255
205 227 255
205 226 255
205 226 255
205 226 255
205 226 255
205 226 255
205 226 255
205 226 255
204 226 255
204 226 255
204 226 255
204 226 255
204 226 255
204 226 255
204 226 255
204 226 255
204 226 255
204 226 255
204 226 255
204 226 255
204 226 255
204 226 255
204 226 255
204 226 255
203 226 255
203 226 255
203 226 255
203 226 255
203 226 255
203 226 255
203 226 255
203 226 255
203 225 255
203 225 255
203 225 255
203 225 255
203 225 255
203 225 255
203 225 255
203 225 255
203 225 255
203 225 255
203 225 255
202 225 255
202 225 255
202 225 255
202 225 255
202 225 255
202 225 255
202 225 255
202 225 255
202 225 255
202 225 255
202 225 255
202 225 255
202 225 255
202 225 255
202 225 255
202 225 255
202 225 255
202 225 255
202 225 255
202 225 255
202 225 255
202 225 255
202 225 255
202 225 255
202 225 255
202 225 255
201 225 255
201 225 255
201 225 255
201 225 255
201 225 255
201 225 255
201 225 255
201 225 255
201 225 255
201 225 255
201 225 255
201 225 255
201 225 255
201 225 255
201 225 255
201 225 255
201 225 255
201 224 255
201 224 255
201 224 255
201 224 255
201 224 255
201 224 255
201 224 255
201 224 255
201 224 255
201 224 255
201 225 255
201 224 255
201 225 255
201 225 255
201 225 255
201 225 255
201 225 255
201 225 255
201 225 255
201 225 255
201 225 255
201 225 255
201 225 255
201 225 255
201 225 255
201 225 255
201 225 255
201 225 255
201 225 255
202 225 255
202 225 255
202 225 255
202 225 255
202 225 255
202 225 255
202 225 255
202 225 255
202 225 255
202 225 255
202 225 255
202 225 255
202 225 255
202 225 255
202 225 255
202 225 255
202 225 255
202 225 255
202 225 255
202 225 255
202 225 255
202 225 255
202 225 255
202 225 255
202 225 255
202 225 255
203 225 255
203 225 255
203 225 255
203 225 255
203 225 255
203 225 255
203 225 255
203 225 255
203 225 255
203 225 255
203 225 255
203 226 255
203 226 255
203 226 255
203 226 255
203 226 255
203 226 255
203 226 255
203 226 255
204 226 255
204 226 255
204 226 255
204 226 255
204 226 255
204 226 255
204 226 255
204 226 255
204 226 255
204 226 255
204 226 255
204 226 255
204 226 255
204 226 255
204 226 255
204 226 255
205 226 255
205 226 255
205 226 255
205 226 255
205 226 255
205 226 255
205 226 255
205 227 255
205 227 255
205 227 255
205 227 255
205 227 255
205 227 255
205 227 255
205 227 255
205 227 255
205 227 255
206 227 255
206 227 255
206 227 255
206 227 255
206 227 255
206 227 255
206 227 255
206 227 255
206 227 255
206 227 255
206 227 255
206 227 255
206 227 255
206 227 255
206 227 255
206 227 255
206 227 255
207 227 255
207 227 255
207 227 255
207 227 255
207 228 255
207 228 255
207 228 255
207 228 255
207 228 255
207 228 255
207 228 255
207 228 255
207 228 255
207 228 255
207 228 255
207 228 255
207 228 255
207 228 255
208 228 255
208 228 255
208 228 255
208 228 255
208 228 255
208 228 255
208 228 255
208 228 255
208 228 255
208 228 255
208 228 255
208 228 255
208 228 255
208 228 255
208 228 255
208 228 255
208 228 255
208 228 255
208 228 255
209 228 255
209 228 255
209 229 255
209 229 255
209 229 255
209 229 255
209 229 255
209 229 255
209 229 255
209 229 255
209 229 255
209 229 255
209 229 255
209 229 255
209 229 255
209 229 255
209 229 255
209 229 255
209 229 255
209 229 255
209 229 255
209 229 255
210 229 255
210 229 255
210 229 255
210 229 255
210 229 255
210 229 255
210 229 255
210 229 255
210 229 255
210 229 255
210 229 255
210 229 255
210 229 255
210 229 255
210 229 255
210 229 255
210 229 255
210 229 255
210 229 255
210 229 255
210 229 255
210 230 255
210 230 255
211 230 255
211 230 255
210 230 255
210 230 255
210 230 255
210 229 255
210 229 255
210 229 255
210 229 255
210 229 255
210 229 255
210 229 255
210 229 255
210 229 255
210 229 255
210 229 255
210 229 255
210 229 255
210 229 255
210 229 255
210 229 255
210 229 255
210 229 255
210 229 255
210 229 255
210 229 255
210 229 255
209 229 255
209 229 255
209 229 255
209 229 255
209 229 255
209 229 255
209 229 255
209 229 255
209 229 255
209 229 255
209 229 255
209 229 255
209 229 255
209 229 255
209 229 255
209 229 255
209 229 255
209 229 255
209 229 255
209 229 255
209 228 255
208 228 255
208 228 255
208 228 255
208 228 255
208 228 255
208 228 255
208 228 255
208 228 255
208 228 255
208 228 255
208 228 255
208 228 255
208 228 255
208 228 255
208 228 255
208 228 255
208 228 255
208 228 255
208 228 255
207 228 255
207 228 255
207 228 255
207 228 255
207 228 255
207 228 255
207 228 255
207 228 255
207 228 255
207 228 255
207 228 255
207 228 255
207 228 255
207 228 255
207 227 255
207 227 255
207 227 255
207 227 255
206 227 255
206 227 255
206 227 255
206 227 255
206 227 255
206 227 255
206 227 255
206 227 255
206 227 255
206 227 255
206 227 255
206 227 255
206 227 255
206 227 255
206 227 255
206 227 255
206 227 255
205 227 255
205 227 255
205 227 255
205 227 255
205 227 255
205 227 255
205 227 255
205 227 255
205 227 255
205 227 255
205 226 255
205 226 255
205 226 255
205 226 255
205 226 255
205 226 255
205 226 255
204 226 255
204 226 255
204 226 255
204 226 255
204 226 255
204 226 255
204 226 255
204 226 255
204 226 255
204 226 255
204 226 255
204 226 255
204 226 255
204 226 255
204 226 255
204 226 255
204 226 255
203 226 255
203 226 255
203 226 255
203 226 255
203 226 255
203 226 255
203 226 255
203 226 255
203 225 255
203 225 255
203 225 255
203 225 255
203 225 255
203 225 255
203 225 255
203 225 255
203 225 255
203 225 255
203 225 255
203 225 255
202 225 255
202 225 255
202 225 255
202 225 255
202 225 255
202 225 255
202 225 255
202 225 255
202 225 255
202 225 255
202 225 255
202 225 255
202 225 255
202 225 255
202 225 255
202 225 255
202 225 255
202 225 255
202 225 255
202 225 255
202 225 255
202 225 255
202 225 255
202 225 255
202 225 255
202 225 255
202 225 255
202 225 255
202 225 255
202 225 255
202 225 255
202 225 255
201 225 255
201 225 255
201 225 255
201 225 255
201 225 255
201 225 255
201 225 255
201 225 255
201 225 255
201 225 255
201 225 255
201 225 255
201 225 255
201 225 255
201 225 255
201 225 255
201 225 255
201 225 255
201 225 255
201 225 255
201 225 255
201 225 255
201 225 255
201 225 255
202 225 255
202 225 255
202 225 255
202 225 255
202 225 255
202 225 255
202 225 255
202 225 255
202 225 255
202 225 255
202 225 255
202 225 255
202 225 255
202 225 255
202 225 255
202 225 255
202 225 255
202 225 255
202 225 255
202 225 255
202 225 255
202 225 255
202 225 255
202 225 255
202 225 255
202 225 255
202 225 255
202 225 255
202 225 255
202 225 255
202 225 255
202 225 255
203 225 255
203 225 255
203 225 255
203 225 255
203 225 255
203 225 255
203 225 255
203 225 255
203 225 255
203 225 255
203 225 255
203 225 255
203 226 255
203 226 255
203 226 255
203 226 255
203 226 255
203 226 255
203 226 255
203 226 255
204 226 255
204 226 255
204 226 255
204 226 255
204 226 255
204 226 255
204 226 255
204 226 255
204 226 255
204 226 255
204 226 255
204 226 255
204 226 255
204 226 255
204 226 255
204 226 255
204 226 255
205 226 255
205 226 255
205 226 255
205 226 255
205 226 255
205 226 255
205 226 255
205 227 255
205 227 255
205 227 255
205 227 255
205 227 255
205 227 255
205 227 255
205 227 255
205 227 255
205 227 255
206 227 255
206 227 255
206 227 255
206 227 255
206 227 255
206 227 255
206 227 255
206 227 255
206 227 255
206 227 255
206 227 255
206 227 255
206 227 255
206 227 255
206 227 255
206 227 255
206 227 255
207 227 255
207 227 255
207 227 255
207 227 255
207 228 255
207 228 255
207 228 255
207 228 255
207 228 255
207 228 255
207 228 255
207 228 255
207 228 255
207 228 255
207 228 255
207 228 255
207 228 255
207 228 255
208 228 255
208 228 255
208 228 255
208 228 255
208 228 255
208 228 255
208 228 255
208 228 255
208 228 255
208 228 255
208 228 255
208 228 255
208 228 255
208 228 255
208 228 255
208 228 255
208 228 255
208 228 255
208 228 255
209 228 255
209 228 255
209 229 255
209 229 255
209 229 255
209 229 255
209 229 255
209 229 255
209 229 255
209 229 255
209 229 255
209 229 255
209 229 255
209 229 255
209 229 255
209 229 255
209 229 255
209 229 255
209 229 255
209 229 255
209 229 255
210 229 255
210 229 255
210 229 255
210 229 255
210 229 255
210 229 255
210 229 255
210 229 255
210 229 255
210 229 255
210 229 255
210 229 255
210 229 255
210 229 255
210 229 255
210 229 255
210 229 255
210 229 255
210 229 255
210 229 255
210 229 255
210 229 255
210 230 255
210 230 255
210 230 255
211 230 255
211 230 255
211 230 255
211 230 255
211 230 255
211 230 255
211 230 255
211 230 255
210 230 255
210 230 255
210 230 255
210 229 255
210 229 255
210 229 255
210 229 255
210 229 255
210 229 255
210 229 255
210 229 255
210 229 255
210 229 255
210 229 255
210 229 255
210 229 255
210 229 255
210 229 255
210 229 255
210 229 255
210 229 255
210 229 255
210 229 255
210 229 255
209 229 255
209 229 255
209 229 255
209 229 255
209 229 255
209 229 255
209 229 255
209 229 255
209 229 255
209 229 255
209 229 255
209 229 255
209 229 255
209 229 255
209 229 255
209 229 255
209 229 255
209 229 255
209 229 255
209 229 255
209 228 255
209 228 255
208 228 255
208 228 255
208 228 255
208 228 255
208 228 255
208 228 255
208 228 255
208 228 255
208 228 255
208 228 255
208 228 255
208 228 255
208 228 255
208 228 255
208 228 255
208 228 255
208 228 255
208 228 255
208 228 255
207 228 255
207 228 255
207 228 255
207 228 255
207 228 255
207 228 255
207 228 255
207 228 255
207 228 255
207 228 255
207 228 255
207 228 255
207 228 255
207 227 255
207 227 255
207 227 255
207 227 255
207 227 255
206 227 255
206 227 255
206 227 255
206 227 255
206 227 255
206 227 255
206 227 255
206 227 255
206 227 255
206 227 255
206 227 255
206 227 255
206 227 255
206 227 255
206 227 255
206 227 255
206 227 255
205 227 255
205 227 255
205 227 255
205 227 255
205 227 255
205 227 255
205 227 255
205 227 255
205 227 255
205 226 255
205 226 255
205 226 255
205 226 255
205 226 255
205 226 255
205 226 255
204 226 255
204 226 255
204 226 255
204 226 255
204 226 255
204 226 255
204 226 255
204 226 255
204 226 255
204 226 255
204 226 255
204 226 255
204 226 255
204 226 255
204 226 255
204 226 255
204 226 255
204 226 255
203 226 255
203 226 255
203 226 255
203 226 255
203 226 255
203 226 255
203 226 255
203 226 255
203 226 255
203 225 255
203 225 255
203 225 255
203 225 255
203 225 255
203 225 255
203 225 255
203 225 255
203 225 255
203 225 255
203 225 255
203 225 255
202 225 255
202 225 255
202 225 255
202 225 255
202 225 255
202 225 255
202 225 255
202 225 255
202 225 255
202 225 255
202 225 255
202 225 255
202 225 255
202 225 255
202 225 255
202 225 255
202 225 255
202 225 255
202 225 255
202 225 255
202 225 255
202 225 255
202 225 255
202 225 255
202 225 255
202 225 255
202 225 255
202 225 255
202 225 255
202 225 255
202 225 255
202 225 255
202 225 255
202 225 255
202 225 255
202 225 255
202 225 255
202 225 255
202 225 255
202 225 255
202 225 255
202 225 255
202 225 255
202 225 255
202 225 255
202 225 255
202 225 255
202 225 255
202 225 255
202 225 255
202 225 255
202 225 255
202 225 255
202 225 255
202 225 255
202 225 255
202 225 255
202 225 255
202 225 255
202 225 255
202 225 255
202 225 255
202 225 255
202 225 255
202 225 255
202 225 255
202 225 255
202 225 255
202 225 255
202 225 255
202 225 255
202 225 255
202 225 255
202 225 255
202 225 255
202 225 255
202 225 255
202 225 255
203 225 255
203 225 255
203 225 255
203 225 255
203 225 255
203 225 255
203 225 255
203 225 255
203 225 255
203 225 255
203 225 255
203 225 255
203 226 255
203 226 255
203 226 255
203 226 255
203 226 255
203 226 255
203 226 255
203 226 255
203 226 255
204 226 255
204 226 255
204 226 255
204 226 255
204 226 255
204 226 255
204 226 255
204 226 255
204 226 255
204 226 255
204 226 255
204 226 255
204 226 255
204 226 255
204 226 255
204 226 255
204 226 255
205 226 255
205 226 255
205 226 255
205 226 255
205 226 255
205 226 255
205 226 255
205 227 255
205 227 255
205 227 255
205 227 255
205 227 255
205 227 255
205 227 255
205 227 255
205 227 255
205 227 255
206 227 255
206 227 255
206 227 255
206 227 255
206 227 255
206 227 255
206 227 255
206 227 255
206 227 255
206 227 255
206 227 255
206 227 255
206 227 255
206 227 255
206 227 255
206 227 255
206 227 255
207 227 255
207 227 255
207 227 255
207 227 255
207 227 255
207 228 255
207 228 255
207 228 255
207 228 255
207 228 255
207 228 255
207 228 255
207 228 255
207 228 255
207 228 255
207 228 255
207 228 255
207 228 255
208 228 255
208 228 255
208 228 255
208 228 255
208 228 255
208 228 255
208 228 255
208 228 255
208 228 255
208 228 255
208 228 255
208 228 255
208 228 255
208 228 255
208 228 255
208 228 255
208 228 255
208 228 255
208 228 255
209 228 255
209 228 255
209 229 255
209 229 255
209 229 255
209 229 255
209 229 255
209 229 255
209 229 255
209 229 255
209 229 255
209 229 255
209 229 255
209 229 255
209 229 255
209 229 255
209 229 255
209 229 255
209 229 255
209 229 255
209 229 255
209 229 255
210 229 255
210 229 255
210 229 255
210 229 255
210 229 255
210 229 255
210 229 255
210 229 255
210 229 255
210 229 255
210 229 255
210 229 255
210 229 255
210 229 255
210 229 255
210 229 255
210 229 255
210 229 255
210 229 255
210 229 255
210 229 255
210 230 255
210 230 255
210 230 255
211 230 255
211 230 255
211 230 255
211 230 255
211 230 255
211 230 255
211 230 255
211 230 255
211 230 255
211 230 255
211 230 255
211 230 255
211 230 255
211 230 255
211 230 255
211 230 255
210 230 255
210 230 255
210 230 255
210 229 255
210 229 255
210 229 255
210 229 255
210 229 255
210 229 255
210 229 255
210 229 255
210 229 255
210 229 255
210 229 255
210 229 255
210 229 255
210 229 255
210 229 255
210 229 255
210 229 255
210 229 255
210 229 255
210 229 255
210 229 255
209 229 255
209 229 255
209 229 255
209 229 255
209 229 255
209 228 254
208 228 253
207 227 250
208 228 252
207 227 250
206 226 249
206 226 248
205 226 244
204 224 238
205 226 246
204 225 242
204 224 240
204 225 240
203 224 238
201 222 230
205 226 246
204 225 246
205 225 246
206 226 249
207 227 252
207 228 253
208 228 254
208 228 255
208 228 255
208 228 255
208 228 255
208 228 255
208 228 255
208 228 255
208 228 255
208 228 255
208 228 255
208 228 255
208 228 255
208 228 255
207 228 255
207 228 255
207 228 255
207 228 255
207 228 255
207 228 255
207 228 255
207 228 255
207 228 255
207 228 255
207 228 255
207 228 255
207 228 255
207 228 255
207 227 255
207 227 255
207 227 255
207 227 255
206 227 255
206 227 255
206 227 255
206 227 255
206 227 255
206 227 255
206 227 255
206 227 255
206 227 255
206 227 255
206 227 255
206 227 255
206 227 255
206 227 255
206 227 255
206 227 255
206 227 255
205 227 255
205 227 255
205 227 255
205 227 255
205 227 255
205 227 255
205 227 255
205 227 255
205 227 255
205 227 255
205 226 255
205 226 255
205 226 255
205 226 255
205 226 255
205 226 255
205 226 255
204 226 255
204 226 255
204 226 255
204 226 255
204 226 255
204 226 255
204 226 255
204 226 255
204 226 255
204 226 255
204 226 255
204 226 255
204 226 255
204 226 255
204 226 255
204 226 255
204 226 255
204 226 255
203 226 255
203 226 255
203 226 255
203 226 255
203 226 255
203 226 255
203 226 255
203 226 255
203 226 255
203 225 255
203 225 255
203 225 255
203 225 255
203 225 255
203 225 255
203 225 255
203 225 255
203 225 255
203 225 255
203 225 255
203 225 255
203 225 255
203 225 255
202 225 255
202 225 255
202 225 255
202 225 255
202 225 255
202 225 255
202 225 255
202 225 255
202 225 255
202 225 255
202 225 255
202 225 255
202 225 255
202 225 255
202 225 255
202 225 255
202 225 255
202 225 255
202 225 255
202 225 255
202 225 255
202 225 255
202 225 255
202 225 255
202 225 255
200 223 254
188 211 246
186 209 242
173 197 236
161 185 227
153 177 222
154 178 222
150 175 220
150 175 220
156 181 224
153 177 223
156 180 223
172 196 235
181 204 240
190 213 247
200 223 254
202 225 255
202 225 255
202 225 255
202 225 255
202 225 255
202 225 255
202 225 255
202 225 255
202 225 255
202 225 255
202 225 255
202 225 255
202 225 255
202 225 255
202 225 255
202 225 255
202 225 255
202 225 255
202 225 255
202 225 255
202 225 255
202 225 255
202 225 255
202 225 255
202 225 255
203 225 255
203 225 255
203 225 255
203 225 255
203 225 255
203 225 255
203 225 255
203 225 255
203 225 255
203 225 255
203 225 255
203 225 255
203 225 255
203 225 255
203 226 255
203 226 255
203 226 255
203 226 255
203 226 255
203 226 255
203 226 255
203 226 255
203 226 255
204 226 255
204 226 255
204 226 255
204 226 255
204 226 255
204 226 255
204 226 255
204 226 255
204 226 255
204 226 255
204 226 255
204 226 255
204 226 255
204 226 255
204 226 255
204 226 255
204 226 255
204 226 255
205 226 255
205 226 255
205 226 255
205 226 255
205 226 255
205 226 255
205 226 255
205 227 255
205 227 255
205 227 255
205 227 255
205 227 255
205 227 255
205 227 255
205 227 255
205 227 255
205 227 255
206 227 255
206 227 255
206 227 255
206 227 255
206 227 255
206 227 255
206 227 255
206 227 255
206 227 255
206 227 255
206 227 255
206 227 255
206 227 255
206 227 255
206 227 255
206 227 255
206 227 255
207 227 255
207 227 255
207 227 255
207 227 255
207 228 255
207 228 255
207 228 255
207 228 255
207 228 255
207 228 255
207 228 255
207 228 255
207 228 255
207 228 255
207 228 255
207 228 255
207 228 255
207 228 255
208 228 255
208 228 255
208 228 255
208 228 255
208 228 255
208 228 255
208 228 255
208 228 255
208 228 255
208 228 255
208 228 255
208 228 255
208 228 254
207 225 249
205 222 241
203 217 230
201 213 221
200 211 217
200 211 216
199 210 213
198 207 206
197 205 202
197 206 204
198 207 207
196 203 196
196 204 198
198 207 206
198 206 203
198 206 203
199 209 211
199 209 209
201 213 220
203 216 227
206 222 240
208 227 250
209 228 254
209 229 255
209 229 255
209 229 255
209 229 255
210 229 255
210 229 255
210 229 255
210 229 255
210 229 255
210 229 255
210 229 255
210 229 255
210 229 255
210 229 255
210 229 255
210 229 255
210 229 255
210 229 255
210 229 255
210 229 255
210 229 255
210 229 255
210 229 255
210 229 255
210 229 255
210 230 255
210 230 255
210 230 255
211 230 255
211 230 255
211 230 255
211 230 255
211 230 255
211 230 255
211 230 255
211 230 255
211 230 255
211 230 255
211 230 255
211 230 255
211 230 255
211 230 255
211 230 255
211 230 255
211 230 255
211 230 255
211 230 255
211 230 255
211 230 255
211 230 255
211 230 255
211 230 255
210 230 255
210 230 255
210 230 255
210 229 255
210 229 255
210 229 255
210 229 255
210 229 255
210 229 255
210 229 255
210 229 255
210 229 255
210 229 255
210 229 255
210 229 255
210 229 255
208 228 250
205 225 241
205 225 241
204 225 240
203 224 241
195 216 206
195 217 206
196 218 214
187 210 181
192 215 194
189 212 188
191 214 201
190 213 186
188 211 177
188 211 188
187 211 177
186 210 173
189 213 193
190 213 193
186 210 173
186 209 173
187 210 173
187 210 179
187 211 175
184 208 171
189 213 191
187 211 188
187 211 184
192 215 204
189 212 189
189 212 188
189 212 193
191 214 206
195 217 211
198 219 218
200 222 230
201 222 234
204 225 242
204 225 244
206 227 250
208 228 255
208 228 255
208 228 255
208 228 255
208 228 255
208 228 255
208 228 255
207 228 255
207 228 255
207 228 255
207 228 255
207 228 255
207 228 255
207 228 255
207 228 255
207 228 255
207 228 255
207 228 255
207 228 255
207 228 255
207 228 255
207 227 255
207 227 255
207 227 255
207 227 255
206 227 255
206 227 255
206 227 255
206 227 255
206 227 255
206 227 255
206 227 255
206 227 255
206 227 255
206 227 255
206 227 255
206 227 255
206 227 255
206 227 255
206 227 255
206 227 255
206 227 255
206 227 255
205 227 255
205 227 255
205 227 255
205 227 255
205 227 255
205 227 255
205 227 255
205 227 255
205 227 255
205 227 255
205 226 255
205 226 255
205 226 255
205 226 255
205 226 255
205 226 255
205 226 255
204 226 255
204 226 255
204 226 255
204 226 255
204 226 255
204 226 255
204 226 255
204 226 255
204 226 255
204 226 255
204 226 255
204 226 255
204 226 255
204 226 255
204 226 255
204 226 255
204 226 255
204 226 255
204 226 255
203 226 255
203 226 255
203 226 255
203 226 255
203 226 255
203 226 255
203 226 255
203 226 255
203 226 255
203 225 255
203 225 255
203 225 255
203 225 255
203 225 255
203 225 255
203 225 255
203 225 255
203 225 255
203 225 255
203 225 255
203 225 255
203 225 255
203 225 255
203 225 255
203 225 255
202 225 255
202 225 255
202 225 255
202 225 255
202 225 255
202 225 255
202 225 255
202 225 255
202 225 255
202 225 255
202 225 255
202 225 255
198 220 252
180 203 239
157 181 225
128 154 207
121 147 203
87 118 188
65 101 176
63 99 173
62 99 173
61 98 171
62 99 179
62 99 176
62 98 174
61 98 173
62 99 174
62 98 172
62 99 172
62 99 176
62 99 174
62 98 172
62 99 175
68 103 176
92 122 189
108 136 196
139 164 211
165 189 230
175 198 236
196 219 251
202 225 255
202 225 255
202 225 255
202 225 255
202 225 255
202 225 255
202 225 255
202 225 255
202 225 255
202 225 255
202 225 255
202 225 255
203 225 255
203 225 255
203 225 255
203 225 255
203 225 255
203 225 255
203 225 255
203 225 255
203 225 255
203 225 255
203 225 255
203 225 255
203 225 255
203 225 255
203 225 255
203 226 255
203 226 255
203 226 255
203 226 255
203 226 255
203 226 255
203 226 255
203 226 255
203 226 255
203 226 255
204 226 255
204 226 255
204 226 255
204 226 255
204 226 255
204 226 255
204 226 255
204 226 255
204 226 255
204 226 255
204 226 255
204 226 255
204 226 255
204 226 255
204 226 255
204 226 255
204 226 255
204 226 255
204 226 255
205 226 255
205 226 255
205 226 255
205 226 255
205 226 255
205 226 255
205 226 255
205 227 255
205 227 255
205 227 255
205 227 255
205 227 255
205 227 255
205 227 255
205 227 255
205 227 255
205 227 255
206 227 255
206 227 255
206 227 255
206 227 255
206 227 255
206 227 255
206 227 255
206 227 255
206 227 255
206 227 255
206 227 255
206 227 255
206 227 255
206 227 255
206 227 255
206 227 255
206 227 255
206 227 255
207 227 255
207 227 255
207 227 255
207 227 255
207 228 255
207 228 255
207 228 255
207 228 255
207 228 255
207 228 255
207 228 255
207 228 255
207 228 255
207 228 255
207 228 255
207 228 255
207 228 255
207 228 255
208 228 255
208 228 255
208 228 255
208 228 255
208 228 255
208 228 255
208 228 254
204 221 239
200 213 220
196 206 204
194 201 192
192 196 180
187 188 160
184 182 142
181 175 118
180 174 114
179 173 114
179 173 114
179 173 114
178 173 114
178 173 114
178 173 114
178 173 114
178 173 114
178 173 114
178 173 114
178 173 114
178 173 114
179 173 114
179 173 114
179 173 114
179 173 114
179 174 114
180 174 114
180 174 114
180 174 114
181 174 114
181 175 114
182 175 114
184 179 129
185 180 133
190 190 161
195 200 187
197 205 199
201 211 214
202 213 219
206 222 240
208 225 247
210 229 255
210 229 255
210 229 255
210 229 255
210 229 255
210 229 255
210 229 255
210 229 255
210 229 255
210 229 255
210 229 255
210 229 255
210 230 255
210 230 255
210 230 255
211 230 255
211 230 255
211 230 255
211 230 255
211 230 255
211 230 255
211 230 255
211 230 255
211 230 255
211 230 255
211 230 255
211 230 255
211 230 255
211 230 255
211 230 255
211 230 255
211 230 255
211 230 255
211 230 255
211 230 255
211 230 255
211 230 255
211 230 255
211 230 255
211 230 255
211 230 255
211 230 255
211 230 255
211 230 255
211 230 255
211 230 255
211 230 255
210 230 255
210 230 255
210 230 255
210 229 255
210 229 255
210 229 255
209 228 252
204 224 236
204 224 238
199 221 224
195 217 217
193 215 203
193 215 198
189 212 186
185 208 165
189 212 182
186 210 171
184 208 163
185 209 169
186 210 171
184 208 163
182 206 155
183 206 142
183 206 151
180 204 144
181 206 157
182 206 161
183 206 151
182 206 153
180 205 153
183 207 161
181 205 142
181 205 142
181 205 144
180 205 142
181 205 144
180 205 147
183 207 157
181 205 159
180 204 135
184 208 159
183 206 142
182 206 159
184 208 165
180 205 151
182 206 161
182 206 144
182 206 163
184 208 167
188 212 189
186 210 181
187 211 182
190 213 188
194 217 214
194 217 206
198 220 226
202 224 240
205 226 248
206 227 252
208 228 255
208 228 255
208 228 255
208 228 255
207 228 255
207 228 255
207 228 255
207 228 255
207 228 255
207 228 255
207 228 255
207 228 255
207 228 255
207 228 255
207 228 255
207 228 255
207 228 255
207 228 255
207 227 255
207 227 255
207 227 255
207 227 255
206 227 255
206 227 255
206 227 255
206 227 255
206 227 255
206 227 255
206 227 255
206 227 255
206 227 255
206 227 255
206 227 255
206 227 255
206 227 255
206 227 255
206 227 255
206 227 255
206 227 255
205 227 255
205 227 255
205 227 255
205 227 255
205 227 255
205 227 255
205 227 255
205 227 255
205 227 255
205 227 255
205 227 255
205 226 255
205 226 255
205 226 255
205 226 255
205 226 255
205 226 255
205 226 255
204 226 255
204 226 255
204 226 255
204 226 255
204 226 255
204 226 255
204 226 255
204 226 255
204 226 255
204 226 255
204 226 255
204 226 255
204 226 255
204 226 255
204 226 255
204 226 255
204 226 255
204 226 255
204 226 255
204 226 255
203 226 255
203 226 255
203 226 255
203 226 255
203 226 255
203 226 255
203 226 255
203 226 255
203 226 255
203 226 255
203 226 255
203 225 255
203 225 255
203 225 255
203 225 255
203 225 255
203 225 255
203 225 255
203 225 255
203 225 255
203 225 255
203 225 255
203 225 255
203 225 255
203 225 255
203 225 255
203 225 255
203 225 255
199 222 253
171 194 233
138 163 213
110 137 194
62 99 176
62 99 176
62 99 175
62 99 177
61 99 179
62 98 168
62 99 174
62 99 174
62 98 173
63 99 174
61 98 172
62 99 172
61 98 165
61 98 171
61 98 172
62 99 174
62 99 176
62 99 176
61 98 168
62 99 176
62 99 173
63 99 177
62 99 178
62 99 174
62 99 174
62 99 177
63 99 178
65 101 175
104 133 192
139 164 212
171 194 234
199 221 253
203 225 255
203 225 255
203 225 255
203 225 255
203 225 255
203 225 255
203 225 255
203 225 255
203 225 255
203 225 255
203 225 255
203 225 255
203 225 255
203 225 255
203 225 255
203 225 255
203 225 255
203 225 255
203 226 255
203 226 255
203 226 255
203 226 255
203 226 255
203 226 255
203 226 255
203 226 255
203 226 255
203 226 255
204 226 255
204 226 255
204 226 255
204 226 255
204 226 255
204 226 255
204 226 255
204 226 255
204 226 255
204 226 255
204 226 255
204 226 255
204 226 255
204 226 255
204 226 255
204 226 255
204 226 255
204 226 255
204 226 255
204 226 255
205 226 255
205 226 255
205 226 255
205 226 255
205 226 255
205 226 255
205 226 255
205 227 255
205 227 255
205 227 255
205 227 255
205 227 255
205 227 255
205 227 255
205 227 255
205 227 255
205 227 255
205 227 255
206 227 255
206 227 255
206 227 255
206 227 255
206 227 255
206 227 255
206 227 255
206 227 255
206 227 255
206 227 255
206 227 255
206 227 255
206 227 255
206 227 255
206 227 255
206 227 255
206 227 255
207 227 255
207 227 255
207 227 255
207 227 255
207 228 255
207 228 255
207 228 255
207 228 255
207 228 255
207 228 255
207 228 255
207 228 255
207 228 255
207 228 255
207 228 255
207 228 255
207 228 255
207 228 255
208 228 255
208 228 255
208 228 255
208 228 255
207 226 250
201 214 224
196 205 202
192 198 186
187 189 161
182 179 133
179 174 116
178 173 114
177 173 114
177 172 114
176 172 114
176 172 114
176 172 114
175 172 114
175 172 114
175 172 114
175 171 114
175 171 114
175 171 114
175 171 114
175 171 114
175 171 114
175 171 114
175 171 114
175 171 114
175 171 114
175 172 114
175 172 114
175 172 114
176 172 114
176 172 114
176 172 114
176 172 114
176 172 114
177 172 114
177 172 114
177 173 114
178 173 114
178 173 114
178 173 114
179 173 114
179 173 114
179 174 114
180 174 114
181 174 114
181 174 114
182 175 114
183 175 114
187 183 139
190 189 158
198 205 199
199 206 202
202 212 217
207 223 242
210 229 255
210 229 255
210 230 255
210 230 255
210 230 255
211 230 255
211 230 255
211 230 255
211 230 255
211 230 255
211 230 255
211 230 255
211 230 255
211 230 255
211 230 255
211 230 255
211 230 255
211 230 255
211 230 255
211 230 255
211 230 255
211 230 255
211 230 255
211 230 255
211 230 255
211 230 255
211 230 255
211 230 255
211 230 255
211 230 255
211 230 255
211 230 255
211 230 255
211 230 255
211 230 255
211 230 255
211 230 255
211 230 255
211 230 255
211 230 255
211 230 255
210 229 254
207 227 245
204 224 238
200 221 220
196 217 201
193 215 198
192 214 196
189 212 182
188 211 177
187 210 171
186 210 181
186 209 161
183 207 151
184 208 161
182 206 151
182 206 163
182 206 153
181 205 144
180 204 135
183 207 165
181 205 137
183 207 155
179 203 122
181 205 155
180 204 120
179 203 144
182 205 140
174 199 111
180 204 128
178 202 122
182 206 149
179 203 135
178 202 120
178 203 128
178 202 108
177 200 105
179 204 133
180 204 137
180 205 140
179 204 149
181 205 147
177 201 128
179 202 117
182 206 153
180 205 153
177 201 130
178 203 130
178 204 142
181 205 140
181 206 144
183 208 165
183 207 157
182 207 161
183 207 155
183 208 165
185 209 165
184 208 173
190 213 199
189 213 193
192 215 194
194 217 206
202 223 238
203 224 241
207 228 254
208 228 255
208 228 255
208 228 255
207 228 255
207 228 255
207 228 255
207 228 255
207 228 255
207 228 255
207 228 255
207 228 255
207 228 255
207 228 255
207 228 255
207 228 255
207 228 255
207 227 255
207 227 255
207 227 255
207 227 255
207 227 255
206 227 255
206 227 255
206 227 255
206 227 255
206 227 255
206 227 255
206 227 255
206 227 255
206 227 255
206 227 255
206 227 255
206 227 255
206 227 255
206 227 255
206 227 255
206 227 255
206 227 255
205 227 255
205 227 255
205 227 255
205 227 255
205 227 255
205 227 255
205 227 255
205 227 255
205 227 255
205 227 255
205 227 255
205 226 255
205 226 255
205 226 255
205 226 255
205 226 255
205 226 255
205 226 255
204 226 255
204 226 255
204 226 255
204 226 255
204 226 255
204 226 255
204 226 255
204 226 255
204 226 255
204 226 255
204 226 255
204 226 255
204 226 255
204 226 255
204 226 255
204 226 255
204 226 255
204 226 255
204 226 255
204 226 255
204 226 255
203 226 255
203 226 255
203 226 255
203 226 255
203 226 255
203 226 255
203 226 255
203 226 255
203 226 255
203 226 255
203 226 255
203 226 255
203 225 255
203 225 255
203 225 255
203 225 255
203 225 255
203 225 255
203 225 255
203 225 255
191 214 247
157 181 225
98 127 190
67 102 177
63 100 176
62 99 171
62 99 174
62 99 180
62 99 177
62 99 171
63 99 171
62 99 176
62 98 174
62 99 174
63 99 176
62 99 173
63 99 173
62 98 173
62 98 172
61 98 171
62 99 170
62 99 175
62 99 176
62 99 173
62 99 175
62 98 169
62 98 169
62 99 173
62 99 172
62 99 170
62 99 173
62 98 173
63 99 176
63 99 175
62 99 173
62 99 171
62 99 172
61 98 171
65 101 177
124 150 205
151 175 220
193 215 248
203 225 255
203 225 255
203 225 255
203 225 255
203 225 255
203 225 255
203 225 255
203 225 255
203 226 255
203 226 255
203 226 255
203 226 255
203 226 255
203 226 255
203 226 255
203 226 255
203 226 255
203 226 255
203 226 255
203 226 255
204 226 255
204 226 255
204 226 255
204 226 255
204 226 255
204 226 255
204 226 255
204 226 255
204 226 255
204 226 255
204 226 255
204 226 255
204 226 255
204 226 255
204 226 255
204 226 255
204 226 255
204 226 255
204 226 255
204 226 255
204 226 255
205 226 255
205 226 255
205 226 255
205 226 255
205 226 255
205 226 255
205 226 255
205 227 255
205 227 255
205 227 255
205 227 255
205 227 255
205 227 255
205 227 255
205 227 255
205 227 255
205 227 255
205 227 255
206 227 255
206 227 255
206 227 255
206 227 255
206 227 255
206 227 255
206 227 255
206 227 255
206 227 255
206 227 255
206 227 255
206 227 255
206 227 255
206 227 255
206 227 255
206 227 255
206 227 255
207 227 255
207 227 255
207 227 255
207 227 255
207 227 255
207 228 255
207 228 255
207 228 255
207 228 255
207 228 255
207 228 255
207 228 255
207 228 255
207 228 255
207 228 255
207 228 255
207 228 255
207 228 255
208 228 255
208 228 255
208 228 255
206 225 249
199 211 217
198 208 211
188 189 163
181 178 129
178 173 114
177 172 114
176 172 114
176 172 114
175 171 114
174 171 114
174 171 114
174 171 114
173 171 114
173 171 114
173 171 114
173 170 114
173 170 114
172 170 114
172 170 114
172 170 114
172 170 114
172 170 114
172 170 114
172 170 114
172 170 114
172 170 114
172 170 114
173 170 114
173 170 114
173 171 114
173 171 114
173 171 114
173 171 114
173 171 114
174 171 114
174 171 114
174 171 114
174 171 114
174 171 114
175 171 114
175 171 114
175 172 114
176 172 114
176 172 114
176 172 114
177 172 114
177 172 114
177 173 114
178 173 114
178 173 114
179 173 114
179 173 114
180 174 114
180 174 114
181 174 114
181 174 114
182 175 114
183 175 114
186 180 129
194 197 178
197 203 192
203 215 223
208 223 242
211 230 255
211 230 255
211 230 255
211 230 255
211 230 255
211 230 255
211 230 255
211 230 255
211 230 255
211 230 255
211 230 255
211 230 255
211 230 255
211 230 255
211 230 255
211 230 255
211 230 255
211 230 255
211 230 255
211 230 255
211 230 255
211 230 255
211 230 255
211 230 255
211 230 255
211 230 255
211 230 255
211 230 255
211 230 255
211 230 255
211 230 255
211 230 255
210 229 252
206 226 244
203 224 234
200 220 227
198 219 217
192 214 196
187 210 179
188 211 177
183 206 155
184 208 161
185 208 153
182 206 159
184 208 171
182 206 153
182 205 133
183 207 151
182 207 159
178 203 133
180 203 128
179 203 128
179 203 114
178 202 130
179 202 117
180 204 135
179 204 135
180 204 130
177 201 108
178 203 133
175 199 111
180 203 125
177 201 111
178 202 114
179 203 128
174 199 105
177 201 99
176 200 105
177 203 130
179 203 122
178 202 108
176 201 120
176 201 122
178 202 111
176 201 114
178 202 120
177 201 111
175 200 105
177 201 111
177 201 111
177 201 111
178 202 105
176 201 105
175 199 108
177 202 111
179 203 117
179 204 130
177 201 122
176 201 117
179 205 149
179 204 130
177 202 130
181 205 147
180 205 137
181 205 144
183 208 167
182 206 144
185 208 161
187 210 177
192 215 212
191 214 198
198 220 228
202 223 236
207 228 254
208 228 255
208 228 255
208 228 255
207 228 255
207 228 255
207 228 255
207 228 255
207 228 255
207 228 255
207 228 255
207 228 255
207 228 255
207 228 255
207 228 255
207 228 255
207 228 255
207 227 255
207 227 255
207 227 255
207 227 255
206 227 255
206 227 255
206 227 255
206 227 255
206 227 255
206 227 255
206 227 255
206 227 255
206 227 255
206 227 255
206 227 255
206 227 255
206 227 255
206 227 255
206 227 255
206 227 255
206 227 255
206 227 255
205 227 255
205 227 255
205 227 255
205 227 255
205 227 255
205 227 255
205 227 255
205 227 255
205 227 255
205 227 255
205 227 255
205 226 255
205 226 255
205 226 255
205 226 255
205 226 255
205 226 255
205 226 255
204 226 255
204 226 255
204 226 255
204 226 255
204 226 255
204 226 255
204 226 255
204 226 255
204 226 255
204 226 255
204 226 255
204 226 255
204 226 255
204 226 255
204 226 255
204 226 255
204 226 255
204 226 255
204 226 255
204 226 255
204 226 255
204 226 255
204 226 255
204 226 255
203 226 255
203 226 255
203 226 255
203 226 255
203 226 255
203 226 255
203 226 255
203 226 255
203 226 255
203 226 255
196 219 250
167 190 229
110 137 194
61 98 174
62 99 175
62 99 173
61 98 172
63 99 173
63 99 173
62 99 174
62 99 173
62 99 171
62 99 164
63 99 175
62 99 170
62 99 173
62 99 174
62 99 169
61 98 173
62 99 176
61 98 167
62 99 167
62 99 171
63 99 174
61 98 164
62 98 168
62 98 170
62 99 173
62 99 174
62 98 172
62 98 168
62 98 167
62 99 174
62 99 174
62 99 172
62 99 174
61 98 171
62 99 174
62 98 170
62 99 172
63 100 178
62 99 171
62 99 169
61 98 170
62 99 174
113 140 196
146 171 217
198 221 252
203 226 255
203 226 255
203 226 255
203 226 255
203 226 255
203 226 255
203 226 255
203 226 255
203 226 255
203 226 255
203 226 255
204 226 255
204 226 255
204 226 255
204 226 255
204 226 255
204 226 255
204 226 255
204 226 255
204 226 255
204 226 255
204 226 255
204 226 255
204 226 255
204 226 255
204 226 255
204 226 255
204 226 255
204 226 255
204 226 255
204 226 255
204 226 255
204 226 255
205 226 255
205 226 255
205 226 255
205 226 255
205 226 255
205 226 255
205 226 255
205 226 255
205 227 255
205 227 255
205 227 255
205 227 255
205 227 255
205 227 255
205 227 255
205 227 255
205 227 255
205 227 255
205 227 255
206 227 255
206 227 255
206 227 255
206 227 255
206 227 255
206 227 255
206 227 255
206 227 255
206 227 255
206 227 255
206 227 255
206 227 255
206 227 255
206 227 255
206 227 255
206 227 255
206 227 255
206 227 255
207 227 255
207 227 255
207 227 255
207 227 255
207 228 255
207 228 255
207 228 255
207 228 255
207 228 255
207 228 255
207 228 255
207 228 255
207 228 255
207 228 255
207 228 255
207 228 255
207 228 255
207 228 255
208 228 255
208 228 255
205 223 245
198 209 212
193 200 190
185 186 153
178 173 114
177 172 114
176 172 114
175 171 114
174 171 114
173 171 114
173 171 114
172 170 114
172 170 114
172 170 114
171 170 114
171 170 114
171 170 114
171 170 114
171 170 114
171 169 114
170 169 114
170 169 114
170 169 114
170 169 114
170 169 114
170 169 114
170 169 114
170 169 114
171 169 114
171 170 114
171 170 114
171 170 114
171 170 114
171 170 114
171 170 114
171 170 114
172 170 114
172 170 114
172 170 114
172 170 114
172 170 114
172 170 114
173 170 114
173 171 114
173 171 114
173 171 114
174 171 114
174 171 114
174 171 114
175 171 114
175 171 114
175 172 114
176 172 114
176 172 114
176 172 114
177 172 114
177 172 114
177 173 114
178 173 114
178 173 114
179 173 114
179 174 114
180 174 114
181 174 114
181 174 114
182 175 114
183 175 114
184 176 114
189 185 144
195 198 180
203 214 220
206 219 231
211 230 255
211 230 255
211 230 255
211 230 255
211 230 255
211 230 255
211 230 255
211 230 255
211 230 255
211 230 255
211 230 255
211 230 255
211 230 255
211 230 255
212 230 255
212 230 255
212 230 255
212 230 255
211 230 255
211 230 255
211 230 255
211 230 255
211 230 255
211 230 255
211 230 254
208 227 246
202 222 230
198 219 218
190 212 184
191 213 193
190 212 181
186 209 173
187 210 171
182 204 157
182 205 153
183 206 155
179 203 128
180 203 140
182 205 149
182 206 149
180 204 130
182 205 147
181 205 149
179 203 120
177 202 117
179 203 133
179 204 130
178 203 128
178 202 120
179 203 117
179 203 125
179 203 122
176 201 120
178 201 108
175 199 95
178 202 120
176 199 105
175 199 95
174 199 105
175 199 84
177 201 95
176 201 111
177 201 99
177 201 92
179 203 135
174 199 88
175 200 108
175 199 105
177 202 108
174 199 88
176 200 102
176 201 117
176 200 67
177 201 99
175 199 84
175 199 99
178 202 99
176 200 92
176 201 105
175 199 88
175 200 114
176 201 111
178 202 108
177 202 114
176 200 99
177 202 130
176 201 105
176 202 122
178 202 111
177 203 130
178 202 108
176 201 111
179 202 108
178 202 120
182 206 140
181 205 140
181 205 137
184 208 161
185 209 173
189 213 193
191 214 196
198 220 221
205 225 245
207 228 254
208 228 255
208 228 255
207 228 255
207 228 255
207 228 255
207 228 255
207 228 255
207 228 255
207 228 255
207 228 255
207 228 255
207 228 255
207 228 255
207 228 255
207 228 255
207 228 255
207 227 255
207 227 255
207 227 255
207 227 255
206 227 255
206 227 255
206 227 255
206 227 255
206 227 255
206 227 255
206 227 255
206 227 255
206 227 255
206 227 255
206 227 255
206 227 255
206 227 255
206 227 255
206 227 255
206 227 255
206 227 255
206 227 255
205 227 255
205 227 255
205 227 255
205 227 255
205 227 255
205 227 255
205 227 255
205 227 255
205 227 255
205 227 255
205 227 255
205 226 255
205 226 255
205 226 255
205 226 255
205 226 255
205 226 255
205 226 255
205 226 255
205 226 255
204 226 255
204 226 255
204 226 255
204 226 255
204 226 255
204 226 255
204 226 255
204 226 255
204 226 255
204 226 255
204 226 255
204 226 255
204 226 255
204 226 255
204 226 255
204 226 255
204 226 255
204 226 255
204 226 255
204 226 255
204 226 255
204 226 255
204 226 255
204 226 255
203 226 255
203 226 255
181 204 240
127 153 207
78 111 182
63 99 169
62 99 175
62 99 172
62 98 170
62 99 175
62 98 171
62 99 175
62 99 170
62 99 171
62 98 165
63 99 175
62 99 171
61 98 166
62 98 168
63 99 172
62 99 170
63 99 175
63 99 168
63 100 175
62 98 164
62 99 172
62 99 171
62 99 174
62 99 172
63 99 175
62 98 168
62 99 168
62 99 175
63 99 172
62 99 170
61 97 160
62 99 170
62 98 170
63 100 176
62 99 172
63 99 173
63 99 169
63 99 173
62 99 172
61 98 168
62 98 170
62 99 170
62 98 169
63 99 170
63 99 176
62 99 173
64 100 177
126 152 205
184 207 240
203 226 255
203 226 255
204 226 255
204 226 255
204 226 255
204 226 255
204 226 255
204 226 255
204 226 255
204 226 255
204 226 255
204 226 255
204 226 255
204 226 255
204 226 255
204 226 255
204 226 255
204 226 255
204 226 255
204 226 255
204 226 255
204 226 255
204 226 255
204 226 255
204 226 255
204 226 255
204 226 255
205 226 255
205 226 255
205 226 255
205 226 255
205 226 255
205 226 255
205 226 255
205 226 255
205 227 255
205 227 255
205 227 255
205 227 255
205 227 255
205 227 255
205 227 255
205 227 255
205 227 255
205 227 255
205 227 255
206 227 255
206 227 255
206 227 255
206 227 255
206 227 255
206 227 255
206 227 255
206 227 255
206 227 255
206 227 255
206 227 255
206 227 255
206 227 255
206 227 255
206 227 255
206 227 255
206 227 255
206 227 255
207 227 255
207 227 255
207 227 255
207 227 255
207 228 255
207 228 255
207 228 255
207 228 255
207 228 255
207 228 255
207 228 255
207 228 255
207 228 255
207 228 255
207 228 255
207 228 255
207 228 255
207 228 255
208 228 255
208 228 255
205 222 242
198 210 216
191 196 180
183 181 141
177 172 114
176 172 114
175 172 114
174 171 114
173 171 114
172 170 114
172 170 114
171 170 114
171 170 114
170 169 114
170 169 114
170 169 114
170 169 114
169 169 114
169 169 114
169 169 114
169 169 114
169 169 114
169 169 114
169 169 114
169 169 114
169 169 114
169 169 114
169 169 114
169 169 114
169 169 114
169 169 114
169 169 114
169 169 114
169 169 114
169 169 114
169 169 114
170 169 114
170 169 114
170 169 114
170 169 114
170 169 114
170 169 114
171 170 114
171 170 114
171 170 114
171 170 114
171 170 114
172 170 114
172 170 114
172 170 114
172 170 114
173 170 114
173 171 114
173 171 114
174 171 114
174 171 114
174 171 114
175 171 114
175 171 114
175 172 114
176 172 114
176 172 114
176 172 114
177 172 114
177 173 114
178 173 114
178 173 114
179 173 114
179 173 114
180 174 114
180 174 114
181 174 114
181 174 114
182 175 114
183 175 114
184 176 114
187 181 131
193 192 165
201 210 209
209 225 245
211 230 255
211 230 255
211 230 255
211 230 255
211 230 255
211 230 255
212 230 255
212 230 255
212 230 255
212 230 255
212 230 255
212 230 255
212 230 255
212 230 255
212 230 255
212 230 255
212 230 255
211 230 254
206 226 244
202 222 224
193 215 201
189 212 189
187 209 179
189 212 177
186 208 171
183 206 147
184 207 157
185 208 159
181 204 137
182 206 153
180 204 130
183 206 142
181 205 142
181 205 135
177 201 128
180 203 125
180 203 122
179 202 120
177 201 117
179 203 117
177 200 102
178 202 125
177 201 102
179 203 122
178 202 125
176 200 105
178 202 108
177 201 105
175 200 105
177 201 111
176 201 111
176 200 92
178 202 105
176 199 88
177 201 84
175 199 88
177 201 102
177 200 88
174 199 102
176 201 111
176 200 88
173 198 95
174 198 80
176 199 76
176 200 99
176 200 80
176 200 102
175 200 105
176 201 95
176 200 88
173 198 80
174 199 99
173 198 84
176 200 88
173 197 84
176 201 114
175 200 102
176 200 88
175 199 95
175 200 108
176 200 92
176 201 99
177 201 108
176 200 102
178 201 99
178 202 105
174 198 95
176 201 122
178 204 149
176 201 105
178 202 120
178 203 140
177 202 130
177 202 111
179 203 128
182 206 147
181 206 155
183 208 161
185 209 169
187 211 182
195 217 212
200 221 228
207 227 253
208 228 255
208 228 255
208 228 255
207 228 255
207 228 255
207 228 255
207 228 255
207 228 255
207 228 255
207 228 255
207 228 255
207 228 255
207 228 255
207 228 255
207 228 255
207 228 255
207 228 255
207 227 255
207 227 255
207 227 255
207 227 255
206 227 255
206 227 255
206 227 255
206 227 255
206 227 255
206 227 255
206 227 255
206 227 255
206 227 255
206 227 255
206 227 255
206 227 255
206 227 255
206 227 255
206 227 255
206 227 255
206 227 255
206 227 255
205 227 255
205 227 255
205 227 255
205 227 255
205 227 255
205 227 255
205 227 255
205 227 255
205 227 255
205 227 255
205 227 255
205 227 255
205 226 255
205 226 255
205 226 255
205 226 255
205 226 255
205 226 255
205 226 255
205 226 255
205 226 255
204 226 255
204 226 255
204 226 255
204 226 255
204 226 255
204 226 255
204 226 255
204 226 255
204 226 255
204 226 255
204 226 255
204 226 255
204 226 255
204 226 255
204 226 255
204 226 255
204 226 255
204 226 255
202 224 254
171 194 232
105 133 194
62 99 174
62 99 174
62 99 174
62 99 171
61 98 169
62 99 174
62 98 168
62 99 172
62 98 168
62 99 171
63 99 170
63 99 173
61 98 168
62 98 168
63 100 178
61 98 166
62 98 168
62 98 170
62 98 166
62 98 165
62 99 174
61 97 165
62 98 165
62 99 169
62 98 168
62 98 169
62 99 170
63 99 174
63 99 170
61 98 168
62 98 169
62 98 165
62 98 164
62 99 173
62 99 171
62 98 170
62 99 170
62 99 171
62 99 174
63 99 172
62 98 170
62 99 169
62 99 169
62 98 170
62 99 172
62 99 175
61 98 173
62 99 173
62 99 174
62 99 172
61 98 175
63 99 175
114 140 196
174 196 232
203 225 255
204 226 255
204 226 255
204 226 255
204 226 255
204 226 255
204 226 255
204 226 255
204 226 255
204 226 255
204 226 255
204 226 255
204 226 255
204 226 255
204 226 255
204 226 255
204 226 255
204 226 255
204 226 255
204 226 255
205 226 255
205 226 255
205 226 255
205 226 255
205 226 255
205 226 255
205 226 255
205 226 255
205 227 255
205 227 255
205 227 255
205 227 255
205 227 255
205 227 255
205 227 255
205 227 255
205 227 255
205 227 255
205 227 255
205 227 255
206 227 255
206 227 255
206 227 255
206 227 255
206 227 255
206 227 255
206 227 255
206 227 255
206 227 255
206 227 255
206 227 255
206 227 255
206 227 255
206 227 255
206 227 255
206 227 255
206 227 255
206 227 255
207 227 255
207 227 255
207 227 255
207 227 255
207 228 255
207 228 255
207 228 255
207 228 255
207 228 255
207 228 255
207 228 255
207 228 255
207 228 255
207 228 255
207 228 255
207 228 255
207 228 255
207 228 255
208 228 255
208 228 255
208 228 255
202 217 231
194 202 196
187 189 163
178 174 116
176 172 114
175 171 114
173 171 114
173 171 114
172 170 114
171 170 114
171 170 114
170 169 114
170 169 114
169 169 114
169 169 114
169 169 114
168 169 114
168 168 114
168 168 114
168 168 114
168 168 114
168 168 114
167 168 114
167 168 114
167 168 114
167 168 114
167 168 114
167 168 114
167 168 114
168 168 114
167 168 114
168 168 114
168 168 114
168 168 114
168 168 114
168 168 114
168 168 114
168 168 114
168 168 114
169 169 114
169 169 114
169 169 114
169 169 114
169 169 114
169 169 114
170 169 114
170 169 114
170 169 114
170 169 114
170 169 114
171 170 114
171 170 114
171 170 114
171 170 114
172 170 114
172 170 114
172 170 114
173 170 114
173 171 114
173 171 114
174 171 114
174 171 114
174 171 114
174 171 114
175 171 114
175 172 114
176 172 114
176 172 114
176 172 114
177 172 114
177 173 114
178 173 114
178 173 114
179 173 114
179 173 114
180 174 114
180 174 114
181 174 114
181 174 114
182 175 114
183 175 114
184 176 114
185 176 114
190 187 150
199 204 194
206 219 231
211 230 254
212 230 255
212 230 255
212 230 255
212 230 255
212 230 255
212 230 255
212 230 255
212 230 255
212 230 255
212 230 255
208 227 246
204 224 237
199 220 215
194 215 199
190 212 186
187 209 186
183 206 163
184 207 149
185 207 144
183 207 159
184 207 155
182 205 137
182 205 140
179 202 122
181 204 140
182 206 147
178 202 117
180 204 135
180 204 137
175 198 122
177 200 111
179 203 125
180 204 128
178 201 108
175 200 108
178 202 122
177 202 108
178 201 105
178 202 108
172 196 92
176 200 102
176 201 122
176 200 95
176 200 95
175 199 95
176 200 84
177 201 95
174 198 76
175 199 95
178 202 99
176 200 76
177 201 92
178 201 76
176 200 99
174 198 84
173 198 72
176 199 76
173 198 108
177 201 102
175 199 76
173 198 80
175 199 95
177 201 92
173 198 99
176 200 102
175 200 95
173 198 84
177 201 95
173 198 76
176 201 95
175 200 105
174 198 84
174 199 92
176 200 92
172 197 88
174 199 95
176 200 92
176 201 105
176 201 99
176 199 84
175 200 114
176 201 95
174 198 80
178 202 108
176 201 111
176 201 102
177 201 114
176 201 108
175 200 102
175 199 92
174 199 105
176 200 99
176 201 117
179 203 137
179 204 128
181 204 137
181 205 135
184 209 181
187 211 177
190 213 188
200 221 228
204 225 246
208 228 255
208 228 255
208 228 255
208 228 255
207 228 255
207 228 255
207 228 255
207 228 255
207 228 255
207 228 255
207 228 255
207 228 255
207 228 255
207 228 255
207 228 255
207 228 255
207 228 255
207 228 255
207 227 255
207 227 255
207 227 255
207 227 255
206 227 255
206 227 255
206 227 255
206 227 255
206 227 255
206 227 255
206 227 255
206 227 255
206 227 255
206 227 255
206 227 255
206 227 255
206 227 255
206 227 255
206 227 255
206 227 255
206 227 255
206 227 255
206 227 255
205 227 255
205 227 255
205 227 255
205 227 255
205 227 255
205 227 255
205 227 255
205 227 255
205 227 255
205 227 255
205 227 255
205 227 255
205 226 255
205 226 255
205 226 255
205 226 255
205 226 255
205 226 255
205 226 255
205 226 255
205 226 255
204 226 255
204 226 255
204 226 255
204 226 255
204 226 255
204 226 255
204 226 255
204 226 255
204 226 255
204 226 255
204 226 255
203 225 255
168 191 230
106 134 193
63 99 173
62 99 175
61 98 163
62 98 168
62 98 168
62 99 171
63 99 172
63 99 167
62 99 171
62 98 166
62 99 170
62 99 173
62 99 173
62 99 169
61 98 166
63 99 167
61 98 166
62 98 168
62 99 173
62 99 166
62 98 168
62 99 173
63 99 174
63 99 172
62 98 166
62 98 167
63 100 172
61 98 169
63 99 169
62 99 165
62 98 166
61 98 166
62 99 170
62 98 168
62 98 170
62 99 170
62 98 167
62 98 166
62 98 169
62 98 166
62 99 169
62 98 167
61 97 167
62 99 171
62 98 169
62 99 172
62 98 170
61 98 168
62 98 170
62 99 172
62 98 171
61 98 167
62 99 172
63 99 177
62 99 174
62 98 172
107 134 192
174 197 233
202 224 254
204 226 255
204 226 255
204 226 255
204 226 255
204 226 255
204 226 255
204 226 255
204 226 255
204 226 255
204 226 255
204 226 255
205 226 255
205 226 255
205 226 255
205 226 255
205 226 255
205 226 255
205 226 255
205 226 255
205 226 255
205 227 255
205 227 255
205 227 255
205 227 255
205 227 255
205 227 255
205 227 255
205 227 255
205 227 255
205 227 255
205 227 255
205 227 255
206 227 255
206 227 255
206 227 255
206 227 255
206 227 255
206 227 255
206 227 255
206 227 255
206 227 255
206 227 255
206 227 255
206 227 255
206 227 255
206 227 255
206 227 255
206 227 255
206 227 255
206 227 255
206 227 255
207 227 255
207 227 255
207 227 255
207 227 255
207 228 255
207 228 255
207 228 255
207 228 255
207 228 255
207 228 255
207 228 255
207 228 255
207 228 255
207 228 255
207 228 255
207 228 255
207 228 255
207 228 255
208 228 255
208 228 255
208 228 255
207 228 254
204 221 240
194 201 194
183 181 141
177 173 114
176 172 114
174 171 114
173 171 114
172 170 114
171 170 114
170 169 114
170 169 114
169 169 114
169 169 114
169 169 114
168 168 114
168 168 114
168 168 114
167 168 114
167 168 114
167 168 114
167 168 114
167 168 114
166 168 114
166 168 114
166 168 114
166 168 114
166 168 114
166 168 114
166 168 114
166 168 114
166 168 114
166 168 114
166 168 114
167 168 114
167 168 114
167 168 114
167 168 114
167 168 114
167 168 114
167 168 114
167 168 114
167 168 114
168 168 114
168 168 114
168 168 114
168 168 114
168 169 114
169 169 114
169 169 114
169 169 114
169 169 114
169 169 114
170 169 114
170 169 114
170 169 114
170 169 114
171 170 114
171 170 114
171 170 114
171 170 114
172 170 114
172 170 114
172 170 114
173 170 114
173 171 114
173 171 114
174 171 114
174 171 114
174 171 114
175 171 114
175 172 114
175 172 114
176 172 114
176 172 114
177 172 114
177 172 114
177 173 114
178 173 114
178 173 114
179 173 114
179 173 114
180 174 114
180 174 114
181 174 114
181 174 114
182 175 114
183 175 114
184 176 114
185 176 114
190 186 146
197 198 180
207 220 233
212 230 255
212 230 255
212 230 255
212 230 255
212 230 255
211 230 253
205 224 238
199 219 220
193 215 189
190 212 186
192 214 191
186 208 167
191 213 193
182 205 149
183 206 142
184 207 153
181 205 144
180 204 133
182 206 149
184 207 149
180 204 135
177 202 111
180 205 142
177 200 111
177 202 114
179 202 92
175 199 84
176 200 99
181 204 122
177 201 128
177 201 102
178 202 111
177 201 108
173 197 84
177 201 111
177 200 88
176 199 67
175 199 76
175 199 76
176 200 95
176 200 76
174 198 80
175 199 102
176 200 88
176 201 99
175 199 72
176 200 88
176 199 76
174 199 84
176 199 80
174 198 67
174 199 72
174 197 76
175 199 76
174 198 80
173 197 62
174 198 72
175 200 84
176 200 72
174 198 72
176 200 76
173 198 76
176 200 92
175 199 80
176 200 88
174 199 95
171 197 76
175 199 72
175 199 88
176 200 99
176 201 108
177 201 95
175 199 72
172 198 88
173 198 80
173 197 72
176 200 80
175 199 84
175 200 95
175 201 111
175 199 72
177 200 80
173 198 84
176 200 80
174 199 88
177 202 114
178 202 120
177 201 108
175 200 92
175 200 111
177 201 108
177 202 114
176 201 125
179 204 135
177 202 111
178 203 128
180 204 142
180 204 140
183 208 169
186 210 184
194 217 212
199 221 224
206 227 250
208 228 255
208 228 255
208 228 255
208 228 255
208 228 255
207 228 255
207 228 255
207 228 255
207 228 255
207 228 255
207 228 255
207 228 255
207 228 255
207 228 255
207 228 255
207 228 255
207 228 255
207 228 255
207 228 255
207 227 255
207 227 255
207 227 255
207 227 255
206 227 255
206 227 255
206 227 255
206 227 255
206 227 255
206 227 255
206 227 255
206 227 255
206 227 255
206 227 255
206 227 255
206 227 255
206 227 255
206 227 255
206 227 255
206 227 255
206 227 255
206 227 255
206 227 255
205 227 255
205 227 255
205 227 255
205 227 255
205 227 255
205 227 255
205 227 255
205 227 255
205 227 255
205 227 255
205 227 255
205 227 255
205 227 255
205 227 255
205 226 255
205 226 255
205 226 255
205 226 255
205 226 255
205 226 255
205 226 255
205 226 255
205 226 255
205 226 255
204 226 255
204 226 255
204 226 255
166 189 228
99 127 186
62 99 173
62 99 173
61 98 169
62 99 174
62 98 170
63 99 171
62 99 169
62 98 170
63 99 167
63 100 177
62 99 169
62 99 175
62 98 170
62 99 170
62 98 169
62 98 168
62 98 161
62 98 167
62 98 165
62 98 167
62 98 166
62 98 166
61 98 165
62 99 169
63 99 173
63 99 175
62 98 163
61 98 165
62 98 164
63 99 167
62 99 171
63 99 168
62 99 167
62 99 170
62 98 168
62 99 172
63 99 173
62 99 168
61 98 164
62 98 164
62 98 163
62 99 167
62 98 167
62 98 170
62 98 169
62 98 169
61 98 167
62 99 175
61 98 164
62 98 170
62 98 169
63 99 171
63 99 169
62 99 169
62 98 170
62 98 168
62 98 169
62 98 171
62 99 170
62 99 173
89 120 183
174 197 231
204 226 255
204 226 255
204 226 255
204 226 255
205 226 255
205 226 255
205 226 255
205 226 255
205 226 255
205 226 255
205 226 255
205 226 255
205 226 255
205 226 255
205 227 255
205 227 255
205 227 255
205 227 255
205 227 255
205 227 255
205 227 255
205 227 255
205 227 255
205 227 255
205 227 255
205 227 255
205 227 255
206 227 255
206 227 255
206 227 255
206 227 255
206 227 255
206 227 255
206 227 255
206 227 255
206 227 255
206 227 255
206 227 255
206 227 255
206 227 255
206 227 255
206 227 255
206 227 255
206 227 255
206 227 255
206 227 255
207 227 255
207 227 255
207 227 255
207 227 255
207 228 255
207 228 255
207 228 255
207 228 255
207 228 255
207 228 255
207 228 255
207 228 255
207 228 255
207 228 255
207 228 255
207 228 255
207 228 255
207 228 255
208 228 255
208 228 255
208 228 255
208 228 255
208 228 255
204 220 237
196 205 204
183 182 142
177 172 114
175 172 114
174 171 114
173 170 114
172 170 114
171 170 114
170 169 114
169 169 114
169 169 114
168 168 114
168 168 114
167 168 114
167 168 114
167 168 114
166 168 114
166 168 114
166 167 114
166 167 114
166 167 114
166 167 114
165 167 114
165 167 114
165 167 114
165 167 114
165 167 114
165 167 114
165 167 114
165 167 114
165 167 114
165 167 114
165 167 114
166 167 114
166 167 114
166 167 114
166 167 114
166 167 114
166 167 114
166 168 114
166 168 114
167 168 114
167 168 114
167 168 114
167 168 114
167 168 114
167 168 114
168 168 114
168 168 114
168 168 114
168 168 114
168 169 114
169 169 114
169 169 114
169 169 114
169 169 114
170 169 114
170 169 114
170 169 114
170 169 114
171 170 114
171 170 114
171 170 114
171 170 114
172 170 114
172 170 114
172 170 114
173 170 114
173 171 114
173 171 114
174 171 114
174 171 114
174 171 114
175 171 114
175 171 114
175 172 114
176 172 114
176 172 114
176 172 114
177 172 114
177 173 114
178 173 114
178 173 114
179 173 114
179 173 114
180 174 114
180 174 114
181 174 114
181 174 114
182 175 114
183 175 114
183 175 114
184 176 114
185 176 114
189 183 135
200 205 198
210 226 245
212 230 255
202 222 228
195 216 198
190 212 177
190 213 181
187 210 173
183 206 159
184 206 157
183 205 151
183 206 147
183 206 142
180 203 137
182 206 147
178 202 137
180 204 135
177 200 114
180 204 135
174 198 122
178 202 105
178 202 133
178 202 108
178 201 111
178 201 95
177 201 102
177 201 117
176 200 108
172 197 95
176 199 99
178 202 114
178 202 108
177 201 111
176 200 99
175 200 102
175 199 84
174 198 88
174 198 72
174 199 108
176 200 88
174 198 80
173 197 67
177 200 72
173 198 67
173 198 95
173 198 80
175 199 95
174 199 76
174 198 67
176 201 105
175 199 84
175 199 57
175 199 72
175 199 62
175 199 72
175 200 92
173 197 57
175 199 76
173 197 62
174 199 80
175 199 80
173 198 88
175 199 88
175 200 80
174 199 88
175 199 92
173 197 44
174 198 72
174 198 57
175 198 44
174 198 80
174 198 62
175 198 57
175 199 72
174 199 72
175 199 92
174 198 80
173 197 76
174 199 72
175 199 80
173 198 76
175 200 88
174 199 84
174 199 76
177 201 108
174 199 99
174 198 111
176 200 99
175 200 102
177 201 99
176 200 99
177 202 111
176 201 111
175 200 105
177 203 133
178 203 130
176 200 117
178 202 128
182 207 151
180 205 140
185 209 169
187 211 181
194 216 206
203 224 244
207 228 254
208 228 255
208 228 255
208 228 255
208 228 255
208 228 255
208 228 255
207 228 255
207 228 255
207 228 255
207 228 255
207 228 255
207 228 255
207 228 255
207 228 255
207 228 255
207 228 255
207 228 255
207 228 255
207 228 255
207 228 255
207 227 255
207 227 255
207 227 255
207 227 255
207 227 255
206 227 255
206 227 255
206 227 255
206 227 255
206 227 255
206 227 255
206 227 255
206 227 255
206 227 255
206 227 255
206 227 255
206 227 255
206 227 255
206 227 255
206 227 255
206 227 255
206 227 255
206 227 255
206 227 255
205 227 255
205 227 255
205 227 255
205 227 255
205 227 255
205 227 255
205 227 255
205 227 255
205 227 255
205 227 255
205 227 255
205 227 255
205 227 255
205 227 255
205 226 255
205 226 255
205 226 255
205 226 255
205 226 255
205 226 255
187 209 242
119 145 199
62 99 173
62 98 170
62 99 170
61 98 164
62 98 163
62 99 171
62 99 171
62 99 173
62 99 172
63 99 174
62 99 169
62 99 171
62 98 166
62 98 163
62 98 166
62 98 165
62 99 169
61 98 165
62 99 169
63 99 166
63 100 174
62 98 164
62 98 166
62 99 169
62 99 170
62 98 164
62 99 170
62 99 171
62 98 169
61 97 161
62 98 162
62 99 170
62 98 164
63 99 167
62 99 171
62 99 169
62 98 161
62 98 168
63 99 171
62 98 168
62 98 163
63 99 173
62 98 167
62 99 168
62 98 168
63 99 168
61 98 160
62 98 166
62 99 172
62 98 166
61 97 165
61 98 164
62 99 175
62 99 170
62 99 171
62 98 168
63 99 172
61 98 167
62 98 167
62 99 173
62 99 172
62 98 166
62 98 168
62 98 166
107 134 187
181 203 238
205 226 255
205 226 255
205 226 255
205 226 255
205 226 255
205 226 255
205 227 255
205 227 255
205 227 255
205 227 255
205 227 255
205 227 255
205 227 255
205 227 255
205 227 255
205 227 255
205 227 255
205 227 255
205 227 255
205 227 255
206 227 255
206 227 255
206 227 255
206 227 255
206 227 255
206 227 255
206 227 255
206 227 255
206 227 255
206 227 255
206 227 255
206 227 255
206 227 255
206 227 255
206 227 255
206 227 255
206 227 255
206 227 255
206 227 255
207 227 255
207 227 255
207 227 255
207 227 255
207 227 255
207 228 255
207 228 255
207 228 255
207 228 255
207 228 255
207 228 255
207 228 255
207 228 255
207 228 255
207 228 255
207 228 255
207 228 255
207 228 255
207 228 255
208 228 255
208 228 255
208 228 255
208 228 255
208 228 255
208 228 255
206 224 246
198 210 216
185 184 148
178 173 114
175 172 114
174 171 114
173 170 114
171 170 114
170 169 114
170 169 114
169 169 114
168 168 114
168 168 114
167 168 114
167 168 114
167 168 114
166 168 114
166 167 114
166 167 114
165 167 114
165 167 114
165 167 114
165 167 114
165 167 114
165 167 114
165 167 114
165 167 114
164 167 114
164 167 114
164 167 114
165 167 114
164 167 114
165 167 114
165 167 114
165 167 114
165 167 114
165 167 114
165 167 114
165 167 114
165 167 114
165 167 114
165 167 114
165 167 114
166 167 114
166 167 114
166 167 114
166 167 114
166 168 114
166 168 114
167 168 114
167 168 114
167 168 114
167 168 114
167 168 114
168 168 114
168 168 114
168 168 114
168 168 114
169 169 114
169 169 114
169 169 114
169 169 114
170 169 114
170 169 114
170 169 114
170 169 114
171 170 114
171 170 114
171 170 114
171 170 114
172 170 114
172 170 114
172 170 114
173 170 114
173 171 114
173 171 114
174 171 114
174 171 114
174 171 114
175 171 114
175 172 114
175 172 114
176 172 114
176 172 114
176 172 114
177 172 114
177 173 114
178 173 114
178 173 114
179 173 114
179 173 114
179 174 114
180 174 114
180 174 114
181 174 114
182 175 114
182 175 114
183 175 114
184 176 114
185 176 114
186 177 114
191 186 144
190 212 186
187 210 173
183 205 157
185 207 159
180 203 125
182 206 147
179 203 122
181 204 149
181 204 137
179 202 125
182 205 133
181 204 122
177 201 108
178 201 111
176 200 108
178 201 102
178 202 120
176 200 105
181 203 117
175 200 108
177 201 105
176 200 99
177 201 95
177 201 117
176 200 105
175 198 72
176 200 88
176 200 76
176 200 84
174 197 51
174 198 76
176 199 88
176 199 76
172 196 80
178 202 95
175 199 84
174 197 57
174 198 76
176 200 88
177 201 84
175 198 67
175 199 80
173 197 67
172 196 76
173 197 62
169 193 67
174 198 72
174 198 57
174 198 72
173 197 44
175 199 80
176 200 84
174 199 84
176 200 76
175 199 67
173 198 67
174 198 80
175 199 72
175 199 92
175 199 88
175 198 67
174 198 62
174 198 76
174 198 62
174 199 80
174 198 44
175 199 76
174 198 67
174 199 76
172 197 72
175 199 76
174 198 76
174 199 88
175 198 44
176 199 76
173 198 62
173 198 72
174 199 76
176 200 76
175 199 67
175 199 67
174 198 67
174 198 92
173 198 88
177 200 80
175 198 72
175 200 99
175 199 92
177 200 84
176 201 102
175 199 88
175 200 99
177 201 108
175 200 117
177 201 95
178 203 125
178 203 122
179 203 125
180 205 137
183 206 142
184 208 167
189 213 191
202 224 240
206 226 246
208 228 255
208 228 255
208 228 255
208 228 255
208 228 255
208 228 255
208 228 255
208 228 255
207 228 255
207 228 255
207 228 255
207 228 255
207 228 255
207 228 255
207 228 255
207 228 255
207 228 255
207 228 255
207 228 255
207 228 255
207 228 255
207 228 255
207 227 255
207 227 255
207 227 255
207 227 255
207 227 255
206 227 255
206 227 255
206 227 255
206 227 255
206 227 255
206 227 255
206 227 255
206 227 255
206 227 255
206 227 255
206 227 255
206 227 255
206 227 255
206 227 255
206 227 255
206 227 255
206 227 255
206 227 255
206 227 255
206 227 255
206 227 255
205 227 255
205 227 255
205 227 255
205 227 255
205 227 255
205 227 255
205 227 255
205 227 255
205 227 255
205 227 255
205 227 255
205 227 255
203 225 254
161 184 223
67 103 178
63 99 168
62 98 169
62 99 169
62 99 170
62 99 171
62 98 164
62 98 163
61 98 170
63 99 171
62 99 170
62 98 163
62 98 165
62 99 170
63 99 171
62 98 166
62 98 171
61 98 162
62 98 168
62 99 169
62 99 167
63 99 170
62 98 169
62 98 167
62 98 165
63 99 169
62 98 167
62 98 157
63 99 171
63 99 166
62 99 170
62 99 170
62 99 169
62 99 166
62 98 165
62 98 168
62 99 166
62 99 165
62 98 167
62 99 169
62 99 170
62 98 165
63 99 167
62 98 160
62 98 165
61 98 160
63 99 171
62 99 172
63 99 170
62 99 166
62 98 165
62 99 165
62 98 169
63 99 172
62 99 172
62 98 167
62 98 165
62 98 163
62 98 165
62 98 170
62 98 169
62 99 170
63 99 168
62 99 170
62 98 170
62 98 167
62 98 170
73 106 176
146 170 215
203 225 254
205 227 255
205 227 255
205 227 255
205 227 255
205 227 255
205 227 255
205 227 255
205 227 255
205 227 255
205 227 255
205 227 255
205 227 255
206 227 255
206 227 255
206 227 255
206 227 255
206 227 255
206 227 255
206 227 255
206 227 255
206 227 255
206 227 255
206 227 255
206 227 255
206 227 255
206 227 255
206 227 255
206 227 255
206 227 255
206 227 255
206 227 255
206 227 255
206 227 255
207 227 255
207 227 255
207 227 255
207 227 255
207 227 255
207 228 255
207 228 255
207 228 255
207 228 255
207 228 255
207 228 255
207 228 255
207 228 255
207 228 255
207 228 255
207 228 255
207 228 255
207 228 255
207 228 255
208 228 255
208 228 255
208 228 255
208 228 255
208 228 255
208 228 255
208 228 255
208 228 255
203 219 234
192 199 187
179 175 118
176 172 114
174 171 114
173 170 114
172 170 114
171 169 114
170 169 114
169 169 114
168 168 114
168 168 114
167 168 114
167 168 114
166 168 114
166 167 114
165 167 114
165 167 114
165 167 114
165 167 114
164 167 114
164 167 114
164 167 114
164 167 114
164 167 114
164 167 114
164 166 114
164 166 114
164 166 114
164 166 114
164 166 114
164 166 114
164 166 114
164 166 114
164 167 114
164 167 114
164 167 114
164 167 114
164 167 114
164 167 114
164 167 114
165 167 114
165 167 114
165 167 114
165 167 114
165 167 114
165 167 114
166 167 114
166 167 114
166 167 114
166 167 114
166 168 114
166 168 114
167 168 114
167 168 114
167 168 114
167 168 114
168 168 114
168 168 114
168 168 114
168 168 114
168 169 114
169 169 114
169 169 114
169 169 114
169 169 114
170 169 114
170 169 114
170 169 114
171 169 114
171 170 114
171 170 114
171 170 114
172 170 114
172 170 114
172 170 114
173 170 114
173 171 114
173 171 114
173 171 114
174 171 114
174 171 114
174 171 114
175 171 114
175 172 114
176 172 114
176 172 114
176 172 114
177 172 114
177 172 114
177 173 114
178 173 114
178 173 114
179 173 114
179 173 114
180 174 114
180 174 114
181 174 114
181 174 114
182 175 114
182 175 114
183 175 114
184 176 114
184 176 114
182 205 153
185 208 153
182 204 149
184 207 157
183 206 151
184 208 155
181 204 130
181 204 144
182 205 144
179 202 120
181 203 128
178 202 117
176 200 105
176 200 122
179 203 111
179 203 111
178 203 114
175 199 88
176 199 92
177 200 67
175 199 95
176 200 92
175 199 76
176 200 99
175 199 80
173 197 84
173 197 67
175 200 84
174 199 92
176 199 80
177 201 105
171 195 72
173 198 95
174 197 80
175 200 102
172 196 62
173 197 67
174 198 57
175 199 76
176 200 67
174 198 76
175 199 84
174 198 62
175 198 67
172 197 72
173 197 62
174 198 80
175 199 57
175 199 76
175 198 67
173 198 84
175 199 76
175 200 88
174 198 67
172 196 44
175 199 62
175 199 62
173 197 44
175 199 67
173 197 88
174 198 62
176 199 67
174 199 88
174 198 57
175 199 76
175 199 72
173 198 62
176 199 72
175 199 88
175 199 76
173 198 80
177 199 51
175 199 57
176 200 92
174 198 76
174 198 57
175 199 57
173 197 57
177 201 95
173 198 72
174 198 67
176 199 51
175 200 102
174 198 62
175 199 72
175 200 88
177 202 108
172 197 84
176 199 67
174 198 72
176 200 92
174 199 95
175 200 92
175 199 84
176 201 102
175 200 99
178 202 114
177 202 130
179 204 137
178 203 130
178 203 125
183 206 144
184 209 167
187 211 182
194 217 212
206 226 248
208 228 255
208 228 255
208 228 255
208 228 255
208 228 255
208 228 255
208 228 255
208 228 255
208 228 255
208 228 255
207 228 255
207 228 255
207 228 255
207 228 255
207 228 255
207 228 255
207 228 255
207 228 255
207 228 255
207 228 255
207 228 255
207 228 255
207 228 255
207 228 255
207 228 255
207 227 255
207 227 255
207 227 255
207 227 255
207 227 255
206 227 255
206 227 255
206 227 255
206 227 255
206 227 255
206 227 255
206 227 255
206 227 255
206 227 255
206 227 255
206 227 255
206 227 255
206 227 255
206 227 255
206 227 255
206 227 255
206 227 255
206 227 255
206 227 255
206 227 255
206 227 255
206 227 255
205 227 255
205 227 255
205 227 255
205 227 255
205 227 255
184 205 240
87 117 177
62 98 167
62 99 171
63 100 174
62 99 169
63 99 170
61 98 165
62 98 167
62 98 165
62 98 167
62 99 170
61 98 162
62 98 164
61 98 168
62 98 169
62 99 169
62 98 164
62 98 167
63 99 164
63 99 170
63 99 170
62 98 162
63 99 173
62 98 166
62 99 167
62 98 166
62 99 169
61 98 169
62 98 169
62 98 164
62 99 168
61 98 168
63 99 173
63 99 162
62 99 167
62 98 165
61 97 158
63 99 165
62 99 170
63 99 168
62 98 165
62 98 164
61 98 163
62 98 167
63 99 166
61 97 159
63 99 172
62 98 164
62 98 166
62 99 168
63 99 172
61 98 164
63 99 169
62 98 164
62 98 168
61 98 164
62 99 167
62 99 173
63 99 170
62 99 171
61 98 169
62 98 166
61 98 169
62 98 171
62 98 170
62 99 170
62 98 167
62 98 165
62 98 166
62 98 167
62 98 169
90 119 183
185 207 240
205 227 255
205 227 255
205 227 255
205 227 255
205 227 255
206 227 255
206 227 255
206 227 255
206 227 255
206 227 255
206 227 255
206 227 255
206 227 255
206 227 255
206 227 255
206 227 255
206 227 255
206 227 255
206 227 255
206 227 255
206 227 255
206 227 255
206 227 255
206 227 255
206 227 255
206 227 255
206 227 255
207 227 255
207 227 255
207 227 255
207 227 255
207 227 255
207 228 255
207 228 255
207 228 255
207 228 255
207 228 255
207 228 255
207 228 255
207 228 255
207 228 255
207 228 255
207 228 255
207 228 255
207 228 255
207 228 255
207 228 255
208 228 255
208 228 255
208 228 255
208 228 255
208 228 255
208 228 255
208 228 255
208 228 255
208 228 255
208 228 255
199 210 216
188 191 168
177 173 114
175 172 114
173 171 114
172 170 114
171 170 114
170 169 114
169 169 114
168 168 114
167 168 114
167 168 114
166 168 114
166 167 114
166 167 114
165 167 114
165 167 114
165 167 114
164 167 114
164 167 114
164 167 114
164 166 114
164 166 114
163 166 114
163 166 114
163 166 114
163 166 114
163 166 114
163 166 114
163 166 114
163 166 114
163 166 114
163 166 114
163 166 114
163 166 114
163 166 114
163 166 114
164 166 114
164 166 114
164 166 114
164 166 114
164 167 114
164 167 114
164 167 114
164 167 114
165 167 114
165 167 114
165 167 114
165 167 114
165 167 114
165 167 114
166 167 114
166 167 114
166 167 114
166 168 114
166 168 114
167 168 114
167 168 114
167 168 114
167 168 114
167 168 114
168 168 114
168 168 114
168 168 114
168 169 114
169 169 114
169 169 114
169 169 114
169 169 114
170 169 114
170 169 114
170 169 114
170 169 114
171 170 114
171 170 114
171 170 114
172 170 114
172 170 114
172 170 114
173 170 114
173 171 114
173 171 114
173 171 114
174 171 114
174 171 114
174 171 114
175 171 114
175 172 114
175 172 114
176 172 114
176 172 114
176 172 114
177 172 114
177 173 114
178 173 114
178 173 114
178 173 114
179 173 114
179 174 114
180 174 114
180 174 114
181 174 114
181 174 114
182 175 114
182 175 114
183 175 114
181 204 140
181 203 133
183 205 128
179 203 137
177 201 108
180 203 122
179 202 125
176 200 108
180 203 114
178 201 102
177 200 117
176 200 102
178 202 117
172 196 95
176 200 95
177 200 105
174 198 80
177 201 92
175 198 67
175 198 76
175 198 80
177 200 80
174 198 72
176 200 95
175 199 88
174 197 76
173 197 80
175 198 57
175 199 62
172 196 62
175 200 95
174 198 62
175 199 72
175 199 67
177 200 62
174 198 80
174 199 76
176 200 88
174 197 72
174 198 62
174 198 67
175 199 76
176 200 76
175 199 80
176 199 62
174 197 72
173 198 51
176 200 80
172 196 62
174 198 44
175 199 67
174 199 76
173 197 36
175 199 76
175 199 62
174 198 57
172 197 80
175 200 84
171 196 76
175 199 67
174 198 51
174 199 84
176 200 76
173 197 67
174 199 67
174 198 72
173 198 62
175 198 51
174 198 67
172 196 51
174 198 57
173 198 67
175 199 51
173 197 62
175 199 57
173 198 44
175 199 62
176 199 67
175 199 72
174 198 76
174 198 72
171 196 62
173 198 72
174 199 72
174 199 84
175 198 57
174 199 76
175 199 80
173 198 80
174 198 76
174 198 51
174 198 57
173 198 76
175 199 76
177 201 102
176 201 102
174 199 88
173 199 108
178 203 128
178 202 105
176 201 105
179 204 142
177 202 122
179 203 130
184 208 169
184 208 159
194 217 209
203 225 242
208 228 255
208 228 255
208 228 255
208 228 255
208 228 255
208 228 255
208 228 255
208 228 255
208 228 255
208 228 255
208 228 255
208 228 255
208 228 255
207 228 255
207 228 255
207 228 255
207 228 255
207 228 255
207 228 255
207 228 255
207 228 255
207 228 255
207 228 255
207 228 255
207 228 255
207 228 255
207 228 255
207 228 255
207 227 255
207 227 255
207 227 255
207 227 255
206 227 255
206 227 255
206 227 255
206 227 255
206 227 255
206 227 255
206 227 255
206 227 255
206 227 255
206 227 255
206 227 255
206 227 255
206 227 255
206 227 255
206 227 255
206 227 255
206 227 255
206 227 255
206 227 255
206 227 255
206 227 255
203 224 253
147 170 213
64 100 169
62 99 172
62 99 171
61 98 164
62 98 168
62 99 167
62 99 174
61 98 165
62 98 159
62 98 164
63 99 167
62 99 167
62 99 166
62 99 170
62 99 166
62 98 170
62 98 164
62 98 169
62 98 163
62 98 167
62 98 164
61 98 163
63 99 171
62 98 160
62 99 169
62 99 169
63 99 166
63 99 169
62 98 163
62 98 160
63 99 167
62 98 163
62 99 169
62 99 168
62 98 162
62 98 165
62 98 161
61 97 157
62 98 166
62 98 168
63 99 167
62 98 164
61 97 157
62 98 165
61 97 158
62 98 166
62 98 168
62 98 163
61 97 160
62 98 163
61 98 168
62 98 167
61 97 159
63 99 169
63 99 169
62 99 166
62 99 168
62 99 166
61 98 159
62 99 170
62 98 168
61 97 162
62 99 169
63 99 171
62 98 168
62 99 172
62 99 173
62 98 165
61 97 152
62 99 174
62 98 166
62 97 164
62 98 169
65 100 166
138 162 210
203 224 254
206 227 255
206 227 255
206 227 255
206 227 255
206 227 255
206 227 255
206 227 255
206 227 255
206 227 255
206 227 255
206 227 255
206 227 255
206 227 255
206 227 255
206 227 255
206 227 255
206 227 255
206 227 255
206 227 255
206 227 255
207 227 255
207 227 255
207 227 255
207 227 255
207 227 255
207 228 255
207 228 255
207 228 255
207 228 255
207 228 255
207 228 255
207 228 255
207 228 255
207 228 255
207 228 255
207 228 255
207 228 255
207 228 255
207 228 255
207 228 255
208 228 255
208 228 255
208 228 255
208 228 255
208 228 255
208 228 255
208 228 255
208 228 255
208 228 255
208 228 255
208 228 255
208 228 255
206 225 248
195 203 198
183 180 137
177 172 114
175 171 114
173 171 114
171 170 114
170 169 114
169 169 114
169 169 114
168 168 114
167 168 114
167 168 114
166 167 114
166 167 114
165 167 114
165 167 114
164 167 114
164 167 114
164 166 114
164 166 114
163 166 114
163 166 114
163 166 114
163 166 114
163 166 114
163 166 114
163 166 114
163 166 114
163 166 114
163 166 114
163 166 114
163 166 114
163 166 114
163 166 114
163 166 114
163 166 114
163 166 114
163 166 114
163 166 114
163 166 114
163 166 114
163 166 114
164 166 114
164 166 114
164 166 114
164 167 114
164 167 114
164 167 114
164 167 114
165 167 114
165 167 114
165 167 114
165 167 114
165 167 114
166 167 114
166 167 114
166 167 114
166 168 114
166 168 114
167 168 114
167 168 114
167 168 114
167 168 114
168 168 114
168 168 114
168 168 114
168 168 114
168 169 114
169 169 114
169 169 114
169 169 114
169 169 114
170 169 114
170 169 114
170 169 114
171 169 114
171 170 114
171 170 114
171 170 114
172 170 114
172 170 114
172 170 114
173 170 114
173 171 114
173 171 114
173 171 114
174 171 114
174 171 114
174 171 114
175 171 114
175 172 114
175 172 114
176 172 114
176 172 114
176 172 114
177 172 114
177 172 114
178 173 114
178 173 114
178 173 114
179 173 114
179 173 114
180 174 114
180 174 114
180 174 114
181 174 114
181 174 114
182 175 114
182 205 125
180 203 128
174 198 117
179 202 117
183 206 140
178 202 114
180 203 117
176 200 102
175 199 105
177 201 99
178 202 108
174 198 95
176 199 99
175 199 99
174 198 84
173 196 72
177 201 99
173 197 62
178 202 99
175 199 88
175 199 72
174 197 72
177 200 102
172 197 84
175 199 99
174 197 72
177 200 67
174 199 88
176 199 84
176 200 88
174 198 67
174 198 80
176 200 72
172 196 67
177 200 67
176 199 67
173 197 57
175 200 99
171 195 80
176 199 57
176 200 80
174 198 67
171 195 57
174 199 72
174 198 51
175 199 72
173 197 51
175 199 62
173 198 72
173 197 51
173 198 72
176 199 76
172 196 36
173 197 57
175 199 76
174 198 67
174 198 67
174 199 88
175 199 62
174 198 72
175 200 92
175 200 80
175 199 57
173 198 72
174 198 57
175 199 67
175 198 51
176 199 67
174 198 57
173 197 51
174 199 67
172 197 67
174 198 57
174 198 62
175 199 67
174 198 44
173 197 51
173 198 44
174 198 51
174 198 76
173 198 72
172 198 76
175 199 62
174 198 51
174 198 62
174 198 62
175 199 76
172 197 44
174 198 57
175 199 72
174 199 84
176 200 76
174 199 88
174 198 57
175 200 102
177 200 80
173 197 62
174 198 72
177 202 108
176 200 76
179 202 111
176 200 88
176 201 111
178 202 108
180 204 128
180 205 142
180 204 128
184 209 169
190 214 194
201 223 236
208 228 254
208 228 255
208 228 255
208 228 255
208 228 255
208 228 255
208 228 255
208 228 255
208 228 255
208 228 255
208 228 255
208 228 255
208 228 255
208 228 255
208 228 255
207 228 255
207 228 255
207 228 255
207 228 255
207 228 255
207 228 255
207 228 255
207 228 255
207 228 255
207 228 255
207 228 255
207 228 255
207 228 255
207 228 255
207 228 255
207 228 255
207 227 255
207 227 255
207 227 255
207 227 255
207 227 255
206 227 255
206 227 255
206 227 255
206 227 255
206 227 255
206 227 255
206 227 255
206 227 255
206 227 255
206 227 255
206 227 255
206 227 255
206 227 255
206 227 255
189 211 244
109 135 183
61 98 166
62 98 161
62 99 169
62 98 161
62 99 169
61 97 161
62 98 165
63 99 166
62 98 166
62 99 170
63 100 172
63 99 168
62 99 170
61 98 164
62 98 162
63 99 167
63 99 170
62 99 165
62 97 156
63 99 167
62 98 164
63 99 166
62 98 167
62 99 173
62 99 171
63 99 169
62 99 171
62 98 159
62 98 166
62 98 159
61 98 166
63 99 169
62 99 163
61 98 166
63 99 168
63 99 165
63 99 169
63 99 167
62 98 163
62 98 164
63 99 173
62 98 158
61 98 166
62 98 163
61 98 164
62 98 160
62 98 164
62 98 163
62 99 169
62 98 168
62 98 161
62 98 167
62 98 164
62 98 168
62 98 163
62 98 169
61 97 161
62 99 170
62 99 170
62 99 171
62 98 167
62 99 164
62 98 160
62 98 165
62 98 165
62 98 170
62 98 162
62 98 170
62 98 167
62 98 165
62 98 165
62 98 165
61 97 160
62 99 170
62 97 164
61 97 162
103 130 186
194 216 247
206 227 255
206 227 255
206 227 255
206 227 255
206 227 255
206 227 255
206 227 255
206 227 255
206 227 255
206 227 255
206 227 255
206 227 255
206 227 255
206 227 255
207 227 255
207 227 255
207 227 255
207 227 255
207 227 255
207 228 255
207 228 255
207 228 255
207 228 255
207 228 255
207 228 255
207 228 255
207 228 255
207 228 255
207 228 255
207 228 255
207 228 255
207 228 255
207 228 255
207 228 255
207 228 255
208 228 255
208 228 255
208 228 255
208 228 255
208 228 255
208 228 255
208 228 255
208 228 255
208 228 255
208 228 255
208 228 255
208 228 255
208 228 255
208 228 255
207 226 251
195 203 198
182 178 131
176 172 114
174 171 114
173 170 114
171 170 114
170 169 114
169 169 114
168 168 114
168 168 114
167 168 114
166 168 114
166 167 114
165 167 114
165 167 114
164 167 114
164 167 114
164 166 114
164 166 114
163 166 114
163 166 114
163 166 114
163 166 114
163 166 114
163 166 114
162 166 114
162 166 114
162 166 114
162 166 114
162 166 114
162 166 114
162 166 114
162 166 114
162 166 114
162 166 114
162 166 114
163 166 114
163 166 114
163 166 114
163 166 114
163 166 114
163 166 114
163 166 114
163 166 114
163 166 114
164 166 114
164 166 114
164 166 114
164 167 114
164 167 114
164 167 114
164 167 114
165 167 114
165 167 114
165 167 114
165 167 114
165 167 114
166 167 114
166 167 114
166 167 114
166 168 114
166 168 114
167 168 114
167 168 114
167 168 114
167 168 114
168 168 114
168 168 114
168 168 114
168 168 114
169 169 114
169 169 114
169 169 114
169 169 114
170 169 114
170 169 114
170 169 114
170 169 114
171 170 114
171 170 114
171 170 114
171 170 114
172 170 114
172 170 114
172 170 114
173 170 114
173 171 114
173 171 114
174 171 114
174 171 114
174 171 114
174 171 114
175 171 114
175 172 114
175 172 114
176 172 114
176 172 114
176 172 114
177 172 114
177 173 114
177 173 114
178 173 114
178 173 114
179 173 114
179 173 114
179 174 114
180 174 114
180 174 114
181 174 114
181 174 114
177 200 130
178 201 120
180 202 130
177 200 95
179 202 120
177 201 114
177 200 111
177 201 105
178 201 95
176 199 76
177 200 111
175 199 76
177 200 95
177 201 105
174 198 88
175 199 95
175 199 72
173 197 80
176 199 76
174 199 92
175 199 99
177 201 92
174 197 76
178 201 95
174 198 62
173 197 72
172 196 57
174 198 72
174 198 51
174 199 80
176 200 72
174 198 25
175 199 51
175 198 51
175 199 72
175 199 67
174 198 62
174 198 62
173 197 67
174 197 57
174 198 62
175 199 72
173 198 72
173 198 57
171 195 57
173 197 44
174 198 62
175 198 44
175 198 57
174 199 76
173 197 57
173 198 67
172 197 51
175 198 80
174 198 44
175 199 62
174 198 51
174 198 67
175 199 72
174 198 62
174 198 51
174 198 67
176 200 76
175 199 57
174 199 67
175 198 62
173 197 44
174 198 57
174 198 51
174 198 51
173 198 57
173 198 67
173 197 62
172 196 62
173 197 57
174 198 62
173 197 36
175 198 51
172 197 67
172 197 62
173 198 62
173 197 57
173 198 57
173 198 72
174 198 72
174 197 44
173 198 88
172 197 67
172 197 80
174 198 62
175 199 76
174 198 72
174 198 88
176 200 80
174 198 72
175 200 95
175 200 92
175 199 72
176 201 92
174 199 102
177 201 92
176 200 102
176 200 95
174 199 88
176 201 105
178 203 122
179 204 142
180 204 120
180 205 142
182 206 151
192 215 203
204 225 246
208 228 255
208 228 255
208 228 255
208 228 255
208 228 255
208 228 255
208 228 255
208 228 255
208 228 255
208 228 255
208 228 255
208 228 255
208 228 255
208 228 255
208 228 255
208 228 255
208 228 255
208 228 255
207 228 255
207 228 255
207 228 255
207 228 255
207 228 255
207 228 255
207 228 255
207 228 255
207 228 255
207 228 255
207 228 255
207 228 255
207 228 255
207 228 255
207 228 255
207 228 255
207 227 255
207 227 255
207 227 255
207 227 255
207 227 255
207 227 255
206 227 255
206 227 255
206 227 255
206 227 255
206 227 255
206 227 255
206 227 255
179 201 236
73 106 171
62 99 168
62 98 167
62 98 161
62 98 165
63 99 165
61 97 161
61 97 157
63 99 167
62 98 164
62 98 168
62 98 171
62 99 168
62 98 166
62 98 162
62 98 166
62 98 165
62 98 163
62 98 163
61 98 163
62 98 165
62 99 168
62 98 165
62 98 157
62 99 169
62 98 162
62 98 165
62 98 167
62 98 163
62 98 168
62 98 160
62 98 161
62 98 161
61 97 161
62 98 164
62 99 168
62 98 166
61 97 161
62 98 164
62 98 157
63 99 167
61 97 160
63 99 166
63 99 167
61 97 153
63 99 168
62 98 165
63 99 169
62 98 161
62 98 163
62 99 171
61 97 157
61 97 158
62 98 163
62 98 156
62 98 161
62 98 165
62 97 161
62 97 156
61 97 153
63 98 160
62 98 160
63 99 161
63 99 163
62 98 165
62 98 165
62 98 160
63 99 168
62 99 173
62 98 162
62 99 171
62 98 167
62 97 163
63 99 165
62 99 169
62 98 170
61 97 161
62 98 166
61 97 164
78 109 170
166 187 226
206 227 255
206 227 255
206 227 255
206 227 255
206 227 255
206 227 255
206 227 255
207 227 255
207 227 255
207 227 255
207 227 255
207 227 255
207 227 255
207 228 255
207 228 255
207 228 255
207 228 255
207 228 255
207 228 255
207 228 255
207 228 255
207 228 255
207 228 255
207 228 255
207 228 255
207 228 255
207 228 255
207 228 255
207 228 255
208 228 255
208 228 255
208 228 255
208 228 255
208 228 255
208 228 255
208 228 255
208 228 255
208 228 255
208 228 255
208 228 255
208 228 255
208 228 255
208 228 255
208 228 255
208 228 255
208 228 255
208 228 254
195 202 195
183 182 141
176 172 114
174 171 114
173 170 114
171 170 114
170 169 114
169 169 114
168 168 114
167 168 114
167 168 114
166 167 114
166 167 114
165 167 114
165 167 114
164 167 114
164 166 114
163 166 114
163 166 114
163 166 114
163 166 114
163 166 114
163 166 114
162 166 114
162 166 114
162 166 114
162 166 114
162 166 114
162 166 114
162 166 114
162 166 114
162 166 114
162 166 114
162 166 114
162 166 114
162 166 114
162 166 114
162 166 114
162 166 114
162 166 114
163 166 114
163 166 114
163 166 114
163 166 114
163 166 114
163 166 114
163 166 114
163 166 114
164 166 114
164 166 114
164 167 114
164 167 114
164 167 114
164 167 114
165 167 114
165 167 114
165 167 114
165 167 114
165 167 114
166 167 114
166 167 114
166 167 114
166 168 114
166 168 114
167 168 114
167 168 114
167 168 114
167 168 114
168 168 114
168 168 114
168 168 114
168 168 114
169 169 114
169 169 114
169 169 114
169 169 114
170 169 114
170 169 114
170 169 114
170 169 114
171 170 114
171 170 114
171 170 114
171 170 114
172 170 114
172 170 114
172 170 114
173 170 114
173 171 114
173 171 114
173 171 114
174 171 114
174 171 114
174 171 114
175 171 114
175 171 114
175 172 114
176 172 114
176 172 114
176 172 114
176 172 114
177 172 114
177 173 114
178 173 114
178 173 114
178 173 114
179 173 114
179 173 114
179 174 114
180 174 114
180 174 114
181 174 114
178 201 111
178 201 117
179 202 111
177 200 99
178 200 114
174 197 95
179 202 122
173 197 84
172 197 92
176 199 76
176 200 102
177 200 95
174 198 102
177 201 84
175 198 72
177 200 76
174 198 80
175 199 76
175 199 67
173 198 80
175 199 92
176 199 76
176 199 67
177 199 57
176 199 95
175 199 76
176 200 76
175 199 72
175 199 62
174 197 72
175 199 67
175 199 62
175 198 72
176 200 88
172 196 62
175 199 62
172 196 57
174 197 36
176 199 57
176 199 57
173 198 62
175 199 62
175 199 72
177 200 72
176 200 67
174 198 62
174 199 72
175 199 72
175 199 72
174 198 62
176 199 67
173 198 57
175 199 57
173 197 44
173 197 44
175 199 76
173 198 67
175 199 57
172 197 51
177 200 67
173 198 67
172 197 57
176 200 72
174 198 67
174 199 80
173 198 51
174 197 44
173 198 51
172 196 36
174 198 36
175 199 80
172 197 57
175 199 44
174 199 72
174 197 62
174 198 51
174 197 44
173 198 72
173 198 62
174 198 36
174 198 51
174 198 51
174 199 62
173 198 67
174 198 62
174 198 67
175 198 44
173 198 72
174 199 67
175 199 80
174 199 80
173 198 76
174 199 80
172 197 44
173 198 67
175 199 72
173 198 67
173 198 72
175 199 92
173 198 80
175 199 72
176 200 95
173 197 72
176 200 105
175 199 95
175 199 105
177 201 108
176 201 125
177 201 99
178 203 135
184 208 161
185 209 161
192 214 194
203 224 238
209 228 255
208 228 255
208 228 255
208 228 255
208 228 255
208 228 255
208 228 255
208 228 255
208 228 255
208 228 255
208 228 255
208 228 255
208 228 255
208 228 255
208 228 255
208 228 255
208 228 255
208 228 255
208 228 255
208 228 255
208 228 255
207 228 255
207 228 255
207 228 255
207 228 255
207 228 255
207 228 255
207 228 255
207 228 255
207 228 255
207 228 255
207 228 255
207 228 255
207 228 255
207 228 255
207 228 255
207 228 255
207 228 255
207 227 255
207 227 255
207 227 255
207 227 255
207 227 255
207 227 255
152 175 211
61 98 163
61 97 164
62 98 165
61 97 161
63 99 167
62 99 166
61 97 160
62 98 163
63 99 164
62 98 163
61 97 157
61 98 163
61 97 158
62 98 162
61 97 157
62 99 166
62 98 165
63 99 170
61 97 159
62 98 167
62 99 167
62 98 169
62 98 162
62 98 168
62 98 166
62 98 161
62 98 163
62 98 160
62 98 168
62 98 166
63 99 165
61 97 163
61 98 164
62 98 162
61 97 154
63 98 162
61 97 159
62 98 161
62 98 165
63 99 168
62 98 161
62 98 166
61 97 161
61 98 163
61 97 162
63 99 167
62 98 163
62 98 161
61 97 158
62 98 167
62 98 161
63 99 165
62 98 165
62 98 165
62 98 165
62 98 166
62 99 166
62 98 163
62 98 165
62 98 162
61 97 156
62 98 163
62 99 168
62 98 165
61 97 156
62 98 166
62 98 162
61 97 158
62 98 166
62 98 167
62 98 164
62 99 172
62 99 171
62 98 164
62 98 164
62 98 163
62 98 166
62 98 169
61 97 163
62 97 163
61 96 161
62 97 167
163 185 222
206 226 255
207 227 255
207 227 255
207 227 255
207 227 255
207 227 255
207 228 255
207 228 255
207 228 255
207 228 255
207 228 255
207 228 255
207 228 255
207 228 255
207 228 255
207 228 255
207 228 255
207 228 255
207 228 255
207 228 255
207 228 255
207 228 255
207 228 255
208 228 255
208 228 255
208 228 255
208 228 255
208 228 255
208 228 255
208 228 255
208 228 255
208 228 255
208 228 255
208 228 255
208 228 255
208 228 255
208 228 255
208 228 255
208 228 255
208 228 255
208 228 255
208 228 255
208 228 255
208 228 253
198 208 209
181 177 127
176 172 114
174 171 114
173 170 114
171 170 114
170 169 114
169 169 114
168 168 114
167 168 114
167 168 114
166 167 114
165 167 114
165 167 114
165 167 114
164 167 114
164 166 114
163 166 114
163 166 114
163 166 114
163 166 114
162 166 114
162 166 114
162 166 114
162 166 114
162 166 114
162 166 114
162 166 114
162 166 114
162 166 114
162 166 114
162 166 114
162 166 114
162 166 114
162 166 114
162 166 114
162 166 114
162 166 114
162 166 114
162 166 114
162 166 114
162 166 114
162 166 114
163 166 114
163 166 114
163 166 114
163 166 114
163 166 114
163 166 114
163 166 114
164 166 114
164 166 114
164 167 114
164 167 114
164 167 114
164 167 114
165 167 114
165 167 114
165 167 114
165 167 114
165 167 114
166 167 114
166 167 114
166 167 114
166 168 114
166 168 114
167 168 114
167 168 114
167 168 114
167 168 114
168 168 114
168 168 114
168 168 114
168 168 114
169 169 114
169 169 114
169 169 114
169 169 114
170 169 114
170 169 114
170 169 114
170 169 114
171 169 114
171 170 114
171 170 114
171 170 114
172 170 114
172 170 114
172 170 114
172 170 114
173 170 114
173 171 114
173 171 114
174 171 114
174 171 114
174 171 114
174 171 114
175 171 114
175 172 114
175 172 114
176 172 114
176 172 114
176 172 114
177 172 114
177 172 114
177 173 114
178 173 114
178 173 114
178 173 114
179 173 114
179 173 114
179 174 114
180 174 114
180 174 114
178 202 122
178 202 105
175 198 88
175 199 84
175 199 88
175 199 92
175 199 76
175 199 92
176 199 84
177 200 72
174 198 76
175 199 95
175 199 92
173 197 62
175 198 67
176 200 88
178 201 84
177 200 80
175 199 72
175 198 51
175 198 67
175 198 80
176 199 76
177 200 57
176 200 76
174 198 62
174 198 88
176 200 80
175 198 67
172 196 57
174 198 57
174 198 67
175 198 76
176 199 67
173 197 62
176 199 62
174 198 72
174 198 76
174 198 67
174 198 51
175 198 44
175 199 51
174 198 67
174 199 84
175 199 72
174 198 51
176 198 44
173 197 62
174 199 67
175 199 62
176 199 62
174 198 76
174 198 62
174 198 57
175 199 57
171 196 36
173 197 36
174 198 51
175 198 62
174 199 76
173 197 62
173 198 62
173 198 44
175 199 44
174 198 62
175 198 36
175 198 51
173 197 36
174 199 80
174 198 67
175 199 62
173 198 57
174 198 44
175 199 72
173 197 36
174 199 62
174 198 36
172 196 62
174 198 62
174 198 67
174 198 51
175 198 36
175 199 76
174 198 44
175 199 67
174 197 25
173 197 76
175 199 57
174 198 57
174 199 80
172 196 57
175 199 76
174 199 76
173 198 44
174 198 67
174 198 36
176 199 72
174 199 72
175 199 57
175 200 102
173 197 67
176 200 88
173 198 76
173 198 51
175 200 105
175 200 99
177 201 92
173 199 99
176 200 88
179 203 125
179 204 130
180 205 135
183 207 155
184 207 147
196 218 215
204 225 241
209 229 255
209 229 255
209 228 255
209 228 255
208 228 255
208 228 255
208 228 255
208 228 255
208 228 255
208 228 255
208 228 255
208 228 255
208 228 255
208 228 255
208 228 255
208 228 255
208 228 255
208 228 255
208 228 255
208 228 255
208 228 255
208 228 255
208 228 255
208 228 255
207 228 255
207 228 255
207 228 255
207 228 255
207 228 255
207 228 255
207 228 255
207 228 255
207 228 255
207 228 255
207 228 255
207 228 255
207 228 255
207 228 255
207 228 255
207 228 255
203 224 253
138 161 203
62 98 168
62 98 160
62 98 164
61 98 165
61 97 160
61 97 159
62 98 168
62 98 160
61 97 161
63 99 164
62 98 166
62 99 168
62 98 160
61 97 160
62 98 167
62 99 164
61 97 160
61 97 155
62 98 159
62 98 162
63 99 169
62 98 161
62 99 165
62 98 162
62 98 167
63 99 171
62 98 170
63 99 168
62 98 164
62 98 160
61 97 160
63 99 165
62 98 160
63 99 166
62 98 164
62 98 166
63 99 167
61 98 167
61 98 163
62 98 168
63 99 161
62 98 164
62 98 167
62 99 165
62 99 166
62 98 167
62 99 167
61 98 158
63 99 164
63 100 172
62 98 160
63 99 165
62 98 162
62 98 158
61 97 161
61 98 161
62 98 162
62 98 159
63 99 167
61 98 161
63 99 168
62 99 171
61 97 160
62 98 157
62 98 166
62 98 160
63 99 170
62 98 164
62 99 172
61 97 160
62 98 163
62 99 166
62 98 164
62 98 161
62 98 158
62 98 169
62 98 163
62 98 164
62 98 166
62 98 167
61 97 160
62 98 168
62 98 169
62 98 169
147 170 212
204 225 253
207 228 255
207 228 255
207 228 255
207 228 255
207 228 255
207 228 255
207 228 255
207 228 255
207 228 255
207 228 255
207 228 255
207 228 255
207 228 255
207 228 255
207 228 255
207 228 255
208 228 255
208 228 255
208 228 255
208 228 255
208 228 255
208 228 255
208 228 255
208 228 255
208 228 255
208 228 255
208 228 255
208 228 255
208 228 255
208 228 255
208 228 255
208 228 255
208 228 255
208 228 255
208 228 255
208 228 255
209 228 255
209 228 255
209 229 255
209 229 255
204 219 234
187 187 156
177 173 114
175 171 114
173 171 114
172 170 114
170 169 114
169 169 114
168 168 114
167 168 114
167 168 114
166 167 114
165 167 114
165 167 114
164 167 114
164 167 114
164 166 114
163 166 114
163 166 114
163 166 114
163 166 114
162 166 114
162 166 114
162 166 114
162 166 114
162 166 114
162 166 114
162 166 114
162 165 114
162 165 114
162 165 114
162 165 114
162 165 114
162 165 114
162 165 114
162 166 114
162 166 114
162 166 114
162 166 114
162 166 114
162 166 114
162 166 114
162 166 114
162 166 114
162 166 114
163 166 114
163 166 114
163 166 114
163 166 114
163 166 114
163 166 114
163 166 114
164 166 114
164 166 114
164 167 114
164 167 114
164 167 114
165 167 114
165 167 114
165 167 114
165 167 114
165 167 114
166 167 114
166 167 114
166 167 114
166 167 114
166 168 114
167 168 114
167 168 114
167 168 114
167 168 114
167 168 114
168 168 114
168 168 114
168 168 114
168 169 114
169 169 114
169 169 114
169 169 114
169 169 114
170 169 114
170 169 114
170 169 114
170 169 114
171 170 114
171 170 114
171 170 114
171 170 114
172 170 114
172 170 114
172 170 114
172 170 114
173 170 114
173 171 114
173 171 114
174 171 114
174 171 114
174 171 114
174 171 114
175 171 114
175 172 114
175 172 114
176 172 114
176 172 114
176 172 114
176 172 114
177 172 114
177 172 114
177 173 114
178 173 114
178 173 114
178 173 114
179 173 114
179 173 114
180 174 114
180 174 114
178 200 114
174 197 80
178 202 108
176 199 105
177 201 105
176 199 92
178 201 102
176 200 84
175 199 80
177 200 88
177 199 67
174 198 80
176 200 102
176 199 88
176 200 84
173 197 57
175 198 62
176 200 80
177 200 76
176 200 92
173 198 88
173 197 62
174 198 72
176 199 76
173 197 62
174 198 57
175 199 57
174 198 36
176 199 51
174 198 62
173 197 57
174 198 62
174 198 57
175 198 51
174 198 51
175 198 25
174 197 51
171 195 44
173 197 51
176 199 57
175 199 72
175 198 62
176 199 51
173 198 51
175 198 62
172 197 51
173 197 57
175 199 62
173 198 67
174 198 44
175 199 62
174 197 57
171 195 62
175 198 51
173 198 57
176 199 57
176 199 72
174 197 51
176 199 57
174 198 44
175 199 67
172 196 62
173 197 36
173 198 62
173 197 36
175 198 57
175 198 57
175 198 57
175 199 62
174 198 57
174 199 80
174 198 62
173 198 44
173 197 62
174 198 36
172 197 51
174 198 51
174 197 57
175 198 62
174 198 36
171 196 36
175 198 36
174 197 44
175 199 44
174 197 44
173 197 44
171 196 67
175 199 62
175 198 36
172 197 57
175 199 57
173 197 44
175 199 51
175 198 57
175 199 57
174 199 80
173 198 67
172 196 67
175 199 88
175 198 62
178 201 76
176 200 95
175 199 67
175 199 72
176 200 99
176 200 88
175 200 88
175 200 92
176 200 88
175 200 105
175 199 92
176 200 88
179 203 111
179 203 135
183 208 171
187 211 177
194 216 207
207 227 249
209 229 255
209 229 255
209 229 255
209 229 255
209 229 255
209 228 255
208 228 255
208 228 255
208 228 255
208 228 255
208 228 255
208 228 255
208 228 255
208 228 255
208 228 255
208 228 255
208 228 255
208 228 255
208 228 255
208 228 255
208 228 255
208 228 255
208 228 255
208 228 255
208 228 255
208 228 255
208 228 255
208 228 255
208 228 255
207 228 255
207 228 255
207 228 255
207 228 255
207 228 255
207 228 255
207 228 255
207 228 255
201 222 250
111 138 191
61 98 164
61 98 164
62 99 165
62 99 166
62 98 159
61 97 155
62 99 168
62 98 165
62 98 163
61 97 159
61 97 163
61 97 153
62 98 160
62 98 164
63 100 171
61 97 160
62 98 163
61 97 158
61 97 153
63 99 164
62 98 162
62 98 166
62 98 162
62 98 161
62 98 164
62 98 161
62 98 157
63 99 163
62 98 157
62 98 163
61 97 159
62 98 162
61 97 159
61 96 152
62 98 157
61 97 156
61 97 161
62 99 166
61 98 161
62 98 158
62 98 159
62 98 161
63 100 173
63 98 161
62 98 162
62 98 164
62 98 160
62 98 160
62 98 164
61 97 158
62 98 164
62 98 162
62 98 166
62 98 161
62 98 159
62 98 158
61 98 164
61 97 158
62 98 161
63 99 162
62 98 159
61 97 161
62 98 160
62 98 163
61 98 159
62 98 163
62 98 171
61 97 157
62 98 166
62 98 163
62 98 165
62 98 168
62 98 162
62 98 161
62 99 167
62 97 159
61 97 158
62 98 165
62 98 162
61 97 165
62 98 167
62 98 163
63 99 168
62 98 166
62 97 161
63 98 167
125 149 197
204 225 253
207 228 255
207 228 255
207 228 255
207 228 255
207 228 255
207 228 255
207 228 255
207 228 255
208 228 255
208 228 255
208 228 255
208 228 255
208 228 255
208 228 255
208 228 255
208 228 255
208 228 255
208 228 255
208 228 255
208 228 255
208 228 255
208 228 255
208 228 255
208 228 255
208 228 255
208 228 255
208 228 255
208 228 255
208 228 255
208 228 255
208 228 255
209 228 255
209 229 255
209 229 255
209 229 255
209 229 255
209 229 255
206 223 244
191 195 175
178 173 114
176 172 114
173 171 114
172 170 114
171 169 114
169 169 114
168 169 114
168 168 114
167 168 114
166 168 114
166 167 114
165 167 114
165 167 114
164 167 114
164 166 114
163 166 114
163 166 114
163 166 114
163 166 114
162 166 114
162 166 114
162 166 114
162 166 114
162 166 114
162 166 114
162 165 114
162 165 114
161 165 114
161 165 114
161 165 114
161 165 114
161 165 114
161 165 114
162 165 114
162 165 114
162 166 114
162 166 114
162 166 114
162 166 114
162 166 114
162 166 114
162 166 114
162 166 114
162 166 114
163 166 114
163 166 114
163 166 114
163 166 114
163 166 114
163 166 114
163 166 114
164 166 114
164 166 114
164 167 114
164 167 114
164 167 114
164 167 114
165 167 114
165 167 114
165 167 114
165 167 114
165 167 114
166 167 114
166 167 114
166 167 114
166 168 114
166 168 114
167 168 114
167 168 114
167 168 114
167 168 114
168 168 114
168 168 114
168 168 114
168 168 114
169 169 114
169 169 114
169 169 114
169 169 114
169 169 114
170 169 114
170 169 114
170 169 114
170 169 114
171 170 114
171 170 114
171 170 114
171 170 114
172 170 114
172 170 114
172 170 114
172 170 114
173 170 114
173 171 114
173 171 114
174 171 114
174 171 114
174 171 114
174 171 114
175 171 114
175 171 114
175 172 114
176 172 114
176 172 114
176 172 114
176 172 114
177 172 114
177 172 114
177 173 114
178 173 114
178 173 114
178 173 114
179 173 114
179 173 114
179 174 114
180 174 114
177 201 84
178 201 92
180 203 102
174 197 67
174 198 72
177 200 102
177 200 80
178 202 99
175 198 57
175 199 80
175 198 76
174 198 67
176 200 80
173 197 51
175 198 76
176 199 80
174 198 88
174 198 80
174 198 51
176 200 95
172 196 67
175 199 67
175 199 62
171 194 44
173 197 62
175 198 57
175 198 51
174 198 51
172 196 0
174 197 62
174 198 67
175 198 44
174 198 51
174 197 57
175 199 62
173 197 57
176 199 51
174 198 57
174 198 51
174 197 25
175 198 62
174 197 62
175 198 62
175 198 51
175 198 72
173 198 67
174 198 25
174 198 72
173 197 36
175 199 57
176 199 25
173 197 57
174 198 51
175 198 62
174 198 51
176 199 51
173 197 67
176 199 36
175 199 57
174 198 44
174 198 57
174 198 51
175 199 62
173 198 44
173 197 72
174 198 67
174 198 51
175 198 67
173 197 36
174 198 76
175 199 72
172 196 25
174 198 25
175 198 62
174 199 76
173 197 67
175 199 62
174 199 76
175 199 62
176 199 57
174 197 44
173 198 36
173 197 36
172 197 62
175 198 57
174 199 76
174 198 57
173 198 57
174 198 62
175 198 51
174 198 51
172 197 67
175 199 76
174 198 51
174 198 67
174 198 57
172 197 57
175 198 57
173 198 62
174 198 67
172 198 84
176 200 72
173 197 36
175 200 88
175 199 84
173 198 72
176 200 92
175 200 99
176 199 62
174 199 92
176 201 114
176 201 111
176 200 99
176 200 92
181 206 147
179 203 130
182 206 155
189 212 188
203 224 241
209 228 254
209 229 255
209 229 255
209 229 255
209 229 255
209 229 255
209 229 255
209 229 255
209 229 255
209 228 255
209 228 255
208 228 255
208 228 255
208 228 255
208 228 255
208 228 255
208 228 255
208 228 255
208 228 255
208 228 255
208 228 255
208 228 255
208 228 255
208 228 255
208 228 255
208 228 255
208 228 255
208 228 255
208 228 255
208 228 255
208 228 255
208 228 255
208 228 255
208 228 255
207 228 255
205 225 253
108 135 188
62 98 163
61 98 161
62 98 164
62 98 166
62 98 163
63 99 166
62 98 165
62 98 163
61 97 161
62 99 166
62 98 162
62 98 167
62 99 166
61 97 163
62 97 153
61 97 159
62 98 160
61 97 160
62 99 169
62 98 162
61 97 157
61 97 160
62 99 165
62 98 165
62 98 161
62 98 165
62 98 158
63 99 165
62 98 161
61 97 154
62 98 160
61 97 156
62 98 161
63 99 169
61 97 157
61 97 163
61 97 160
62 98 156
62 98 166
63 99 168
62 98 164
61 97 155
62 98 160
62 98 155
61 98 161
62 98 159
62 98 160
62 98 165
62 98 162
61 97 157
62 98 166
61 97 158
61 97 160
62 98 158
63 99 165
62 97 153
61 97 157
61 97 160
62 98 162
63 99 162
61 97 161
62 97 155
62 98 164
63 98 157
62 98 167
63 99 170
62 98 159
62 98 162
61 97 155
63 99 166
62 97 160
61 98 161
63 99 163
61 96 152
63 99 165
62 97 161
62 98 160
62 98 164
62 99 167
61 97 161
62 98 167
62 98 167
62 98 166
62 98 162
61 97 165
61 97 161
62 98 163
61 97 163
109 135 187
202 222 252
207 228 255
207 228 255
208 228 255
208 228 255
208 228 255
208 228 255
208 228 255
208 228 255
208 228 255
208 228 255
208 228 255
208 228 255
208 228 255
208 228 255
208 228 255
208 228 255
208 228 255
208 228 255
208 228 255
208 228 255
208 228 255
208 228 255
208 228 255
208 228 255
209 228 255
209 228 255
209 229 255
209 229 255
209 229 255
209 229 255
209 229 255
209 229 255
209 229 255
209 229 255
208 227 252
198 208 208
180 176 121
176 172 114
174 171 114
173 170 114
171 170 114
170 169 114
169 169 114
168 168 114
167 168 114
166 168 114
166 167 114
165 167 114
165 167 114
164 167 114
164 166 114
163 166 114
163 166 114
163 166 114
163 166 114
162 166 114
162 166 114
162 166 114
162 166 114
162 166 114
162 166 114
162 165 114
162 165 114
161 165 114
161 165 114
161 165 114
161 165 114
161 165 114
161 165 114
161 165 114
162 165 114
162 165 114
162 165 114
162 166 114
162 166 114
162 166 114
162 166 114
162 166 114
162 166 114
162 166 114
162 166 114
163 166 114
163 166 114
163 166 114
163 166 114
163 166 114
163 166 114
163 166 114
164 166 114
164 166 114
164 167 114
164 167 114
164 167 114
164 167 114
165 167 114
165 167 114
165 167 114
165 167 114
165 167 114
166 167 114
166 167 114
166 167 114
166 168 114
166 168 114
167 168 114
167 168 114
167 168 114
167 168 114
168 168 114
168 168 114
168 168 114
168 168 114
168 169 114
169 169 114
169 169 114
169 169 114
169 169 114
170 169 114
170 169 114
170 169 114
170 169 114
171 170 114
171 170 114
171 170 114
171 170 114
172 170 114
172 170 114
172 170 114
172 170 114
173 170 114
173 171 114
173 171 114
173 171 114
174 171 114
174 171 114
174 171 114
174 171 114
175 171 114
175 172 114
175 172 114
176 172 114
176 172 114
176 172 114
176 172 114
177 172 114
177 172 114
177 173 114
178 173 114
178 173 114
178 173 114
179 173 114
179 173 114
179 173 114
180 174 114
174 197 80
174 198 95
177 201 95
177 200 88
175 199 76
175 199 95
177 200 84
177 201 95
174 198 72
176 200 72
171 195 57
175 199 84
173 197 67
175 199 84
179 202 99
176 199 57
174 198 67
174 198 67
175 199 76
176 200 62
173 196 57
174 198 72
177 201 95
174 198 72
173 197 57
176 200 80
175 199 76
176 199 72
174 197 57
174 198 57
175 199 67
177 201 76
174 198 72
175 199 62
175 198 36
176 199 51
173 197 44
174 198 44
175 199 51
174 198 88
175 198 44
175 198 36
172 196 67
175 199 44
169 193 44
172 195 25
174 198 44
174 199 84
174 198 57
176 200 62
174 198 62
173 196 44
174 198 51
174 198 51
175 199 62
173 197 0
174 199 67
174 198 44
174 198 72
171 195 44
173 197 51
173 198 57
174 198 57
175 198 44
174 198 62
176 200 67
176 199 67
173 197 51
175 199 67
174 198 62
175 199 57
173 197 36
176 199 44
173 198 57
174 198 62
175 199 67
174 198 57
175 199 36
174 198 51
174 197 51
174 197 36
175 199 57
173 197 57
172 197 67
173 197 62
174 198 67
172 196 36
174 198 57
173 197 57
173 197 57
173 198 67
174 198 67
174 198 62
174 198 62
172 197 51
174 198 51
174 199 72
174 199 67
173 197 62
172 197 62
175 199 62
174 199 62
173 198 76
175 199 62
174 198 72
175 199 84
173 198 76
176 199 88
173 197 62
173 197 67
176 201 102
176 200 105
173 199 95
174 198 80
176 200 80
179 204 128
180 203 120
182 206 151
185 209 175
190 213 193
207 227 250
209 229 255
209 229 255
209 229 255
209 229 255
209 229 255
209 229 255
209 229 255
209 229 255
209 229 255
209 229 255
209 229 255
209 229 255
209 229 255
209 228 255
208 228 255
208 228 255
208 228 255
208 228 255
208 228 255
208 228 255
208 228 255
208 228 255
208 228 255
208 228 255
208 228 255
208 228 255
208 228 255
208 228 255
208 228 255
208 228 255
208 228 255
208 228 255
194 215 246
125 149 188
62 98 164
62 98 163
62 98 162
62 98 169
63 99 172
62 98 168
63 99 162
62 98 157
61 98 166
61 97 159
62 98 167
62 98 162
62 98 162
62 97 160
61 98 160
62 97 156
61 97 157
61 98 165
62 98 159
62 98 160
61 97 161
62 98 157
62 98 164
62 98 165
62 99 165
62 98 161
62 98 160
62 98 160
63 99 167
63 99 165
62 98 161
62 99 167
62 98 158
61 97 154
62 98 161
62 98 163
62 98 157
62 97 152
61 97 161
62 98 164
63 99 164
62 98 163
62 98 163
62 98 158
62 98 155
62 98 169
62 98 157
62 98 162
61 97 155
62 98 158
62 98 153
63 99 167
62 98 158
62 98 160
63 99 165
63 99 162
63 99 165
62 99 163
61 97 155
62 98 160
62 98 165
62 98 157
63 99 166
62 98 163
62 98 160
62 98 157
61 96 149
62 98 161
62 98 160
61 98 166
62 98 162
61 96 150
62 98 162
62 98 161
62 98 164
61 97 159
61 96 152
62 98 161
62 98 164
61 96 154
62 97 162
61 96 156
62 97 162
62 97 161
61 97 157
61 97 163
62 98 165
62 97 158
62 97 157
61 97 161
111 137 191
201 221 250
208 228 255
208 228 255
208 228 255
208 228 255
208 228 255
208 228 255
208 228 255
208 228 255
208 228 255
208 228 255
208 228 255
208 228 255
208 228 255
208 228 255
208 228 255
208 228 255
208 228 255
208 228 255
209 228 255
209 229 255
209 229 255
209 229 255
209 229 255
209 229 255
209 229 255
209 229 255
209 229 255
209 229 255
209 229 255
209 229 255
209 229 255
209 229 255
203 216 227
186 184 144
178 173 114
175 172 114
173 171 114
172 170 114
170 169 114
169 169 114
168 169 114
167 168 114
167 168 114
166 167 114
165 167 114
165 167 114
165 167 114
164 167 114
164 166 114
163 166 114
163 166 114
163 166 114
163 166 114
162 166 114
162 166 114
162 166 114
162 166 114
162 166 114
162 166 114
162 165 114
162 165 114
161 165 114
161 165 114
161 165 114
161 165 114
161 165 114
161 165 114
162 165 114
162 165 114
162 165 114
162 166 114
162 166 114
162 166 114
162 166 114
162 166 114
162 166 114
162 166 114
162 166 114
162 166 114
163 166 114
163 166 114
163 166 114
163 166 114
163 166 114
163 166 114
163 166 114
164 166 114
164 166 114
164 167 114
164 167 114
164 167 114
165 167 114
165 167 114
165 167 114
165 167 114
165 167 114
165 167 114
166 167 114
166 167 114
166 167 114
166 168 114
166 168 114
167 168 114
167 168 114
167 168 114
167 168 114
168 168 114
168 168 114
168 168 114
168 168 114
168 169 114
169 169 114
169 169 114
169 169 114
169 169 114
170 169 114
170 169 114
170 169 114
170 169 114
171 169 114
171 170 114
171 170 114
171 170 114
172 170 114
172 170 114
172 170 114
172 170 114
172 170 114
173 170 114
173 171 114
173 171 114
173 171 114
174 171 114
174 171 114
174 171 114
175 171 114
175 171 114
175 172 114
175 172 114
176 172 114
176 172 114
176 172 114
176 172 114
177 172 114
177 172 114
177 173 114
178 173 114
178 173 114
178 173 114
178 173 114
179 173 114
179 173 114
179 174 114
174 198 88
174 198 92
175 199 80
174 197 76
179 202 95
176 199 76
177 200 92
175 198 76
174 197 76
175 198 72
172 196 80
175 199 72
175 198 57
176 199 76
177 200 62
174 197 57
175 199 67
177 200 84
174 198 62
175 198 72
174 198 51
173 197 80
176 199 67
174 198 76
175 199 76
175 199 62
172 196 62
177 200 57
175 198 57
174 198 44
176 200 80
174 197 25
172 196 67
174 198 80
175 199 88
174 198 62
175 199 57
171 195 36
174 198 57
174 197 57
175 198 51
175 198 51
175 198 72
175 198 51
172 196 44
172 197 36
174 198 57
172 196 36
173 196 51
174 198 51
174 198 57
173 198 67
170 194 51
172 196 25
176 200 76
176 199 51
175 198 51
174 198 51
176 200 67
176 199 57
174 198 57
175 199 44
173 198 76
176 199 51
175 199 57
173 197 44
173 198 67
174 198 57
174 198 44
174 198 62
172 197 44
173 197 57
174 198 25
172 195 51
175 199 72
173 198 62
175 198 36
173 198 80
174 198 62
175 198 67
173 197 67
175 199 57
175 199 62
172 196 36
173 198 88
176 199 57
172 196 36
174 199 62
174 198 62
173 197 57
173 198 62
173 198 51
174 198 57
174 198 62
174 198 62
175 200 92
175 199 57
174 198 36
174 198 62
176 199 72
174 198 62
175 199 80
174 198 57
173 197 57
174 198 76
173 197 36
174 199 76
174 198 44
177 200 62
172 197 72
176 200 80
175 199 72
177 201 88
175 201 105
177 202 122
177 202 108
177 202 114
180 205 142
180 204 130
181 205 147
188 211 177
202 223 234
209 229 255
209 229 255
209 229 255
209 229 255
209 229 255
209 229 255
209 229 255
209 229 255
209 229 255
209 229 255
209 229 255
209 229 255
209 229 255
209 229 255
209 229 255
209 229 255
209 229 255
209 228 255
209 228 255
208 228 255
208 228 255
208 228 255
208 228 255
208 228 255
208 228 255
208 228 255
208 228 255
208 228 255
208 228 255
208 228 255
199 220 248
125 150 196
62 98 162
61 97 157
62 98 161
62 98 166
62 98 167
61 98 166
62 97 161
63 99 163
62 98 162
62 98 159
61 97 159
62 99 168
62 98 160
60 96 155
61 97 159
61 97 157
62 98 157
61 97 160
62 99 164
61 97 161
62 98 162
62 98 165
62 98 162
62 98 165
61 97 155
62 98 163
61 97 159
61 97 160
62 98 161
62 98 155
62 98 158
62 98 164
62 99 171
62 98 161
62 98 159
62 98 164
62 98 165
63 99 163
63 99 167
62 98 162
62 98 161
63 99 167
62 98 160
62 97 155
61 97 159
62 97 153
62 98 160
62 98 163
63 99 172
62 98 159
62 98 160
62 98 158
62 98 160
63 99 166
63 99 165
62 98 163
63 99 166
61 97 151
62 98 167
62 97 156
62 98 163
62 98 158
62 98 157
61 97 156
62 98 153
61 97 154
63 99 169
62 98 164
62 97 159
61 97 159
62 97 158
62 98 162
61 97 160
62 97 160
61 97 156
62 98 161
62 97 155
61 96 157
62 97 158
62 98 164
61 97 161
61 97 154
62 97 160
62 98 160
62 98 168
62 98 161
61 97 162
62 98 167
61 97 164
62 97 161
61 97 162
61 97 161
102 128 178
204 225 253
208 228 255
208 228 255
208 228 255
208 228 255
208 228 255
208 228 255
208 228 255
208 228 255
208 228 255
208 228 255
208 228 255
209 228 255
209 229 255
209 229 255
209 229 255
209 229 255
209 229 255
209 229 255
209 229 255
209 229 255
209 229 255
209 229 255
209 229 255
209 229 255
209 229 255
209 229 255
209 229 255
209 229 255
209 229 255
209 227 252
195 200 190
181 176 121
176 172 114
174 171 114
173 170 114
171 170 114
170 169 114
169 169 114
168 168 114
167 168 114
167 168 114
166 167 114
165 167 114
165 167 114
164 167 114
164 167 114
164 166 114
163 166 114
163 166 114
163 166 114
163 166 114
162 166 114
162 166 114
162 166 114
162 166 114
162 166 114
162 166 114
162 166 114
162 165 114
162 165 114
162 165 114
162 165 114
162 165 114
162 165 114
162 165 114
162 165 114
162 166 114
162 166 114
162 166 114
162 166 114
162 166 114
162 166 114
162 166 114
162 166 114
162 166 114
162 166 114
163 166 114
163 166 114
163 166 114
163 166 114
163 166 114
163 166 114
163 166 114
164 166 114
164 166 114
164 167 114
164 167 114
164 167 114
164 167 114
165 167 114
165 167 114
165 167 114
165 167 114
165 167 114
166 167 114
166 167 114
166 167 114
166 168 114
166 168 114
167 168 114
167 168 114
167 168 114
167 168 114
167 168 114
168 168 114
168 168 114
168 168 114
168 168 114
168 169 114
169 169 114
169 169 114
169 169 114
169 169 114
170 169 114
170 169 114
170 169 114
170 169 114
171 169 114
171 170 114
171 170 114
171 170 114
171 170 114
172 170 114
172 170 114
172 170 114
172 170 114
173 170 114
173 171 114
173 171 114
173 171 114
174 171 114
174 171 114
174 171 114
174 171 114
175 171 114
175 171 114
175 172 114
175 172 114
176 172 114
176 172 114
176 172 114
177 172 114
177 172 114
177 172 114
177 173 114
178 173 114
178 173 114
178 173 114
178 173 114
179 173 114
179 173 114
179 174 114
175 198 88
175 198 76
174 197 80
171 194 76
173 197 76
176 199 80
172 196 76
175 199 84
174 197 44
175 199 80
174 197 76
174 197 67
176 199 67
174 197 67
173 196 51
176 199 67
176 198 76
175 199 72
173 197 67
176 199 62
171 195 72
176 199 76
175 199 51
173 197 57
172 196 57
174 198 67
175 199 67
174 198 67
173 196 36
174 198 44
171 196 44
175 199 67
174 198 67
175 198 51
174 198 57
173 197 62
174 198 51
173 197 51
173 197 51
173 197 62
175 198 57
173 196 36
174 198 51
174 198 76
173 197 51
175 199 57
176 200 76
174 198 51
174 197 57
174 198 51
175 198 51
174 198 62
174 199 67
175 199 72
175 199 67
172 196 51
174 197 51
175 198 57
175 198 51
173 198 44
174 198 44
174 198 57
175 199 57
174 198 51
175 199 51
174 198 62
174 198 62
176 199 36
174 198 51
174 198 25
172 197 36
174 198 57
174 198 44
176 199 44
174 199 62
175 200 84
173 197 44
174 199 72
173 197 57
173 197 36
175 198 36
173 197 57
175 198 62
174 198 57
175 199 67
172 196 57
172 196 44
174 198 67
173 197 51
173 197 67
174 199 72
173 197 44
174 198 62
174 198 51
174 198 51
174 198 36
171 196 57
173 197 57
175 198 25
175 199 62
175 199 57
172 196 62
175 199 76
175 200 76
174 198 62
174 199 62
174 199 72
175 199 76
173 197 62
175 199 84
175 199 67
175 199 72
175 199 72
175 199 67
175 198 67
176 199 80
175 199 84
177 201 99
177 201 114
178 202 117
181 205 133
187 210 177
194 216 199
208 228 250
209 229 255
209 229 255
209 229 255
209 229 255
209 229 255
209 229 255
209 229 255
209 229 255
209 229 255
209 229 255
209 229 255
209 229 255
209 229 255
209 229 255
209 229 255
209 229 255
209 229 255
209 229 255
209 229 255
209 229 255
209 229 255
209 228 255
209 228 255
209 228 255
208 228 255
208 228 255
208 228 255
206 227 254
117 142 189
61 97 154
61 97 153
61 97 157
62 99 166
62 98 164
61 98 164
63 99 167
62 98 159
62 98 162
62 98 163
62 98 166
63 99 164
62 98 161
61 97 156
62 98 156
62 98 162
61 97 151
62 98 159
61 97 155
62 98 162
62 97 156
62 98 161
61 98 163
62 98 157
61 97 151
62 97 155
62 98 157
62 98 160
63 99 164
62 98 158
61 97 157
62 98 163
62 97 155
62 98 157
63 98 163
62 99 166
62 98 159
62 98 162
62 99 168
61 97 160
62 98 163
62 98 164
61 97 158
61 97 154
62 98 159
63 99 164
62 98 157
62 98 162
62 98 160
62 98 160
61 97 155
62 98 163
61 98 159
62 98 159
61 97 159
62 98 160
60 96 154
62 98 160
63 99 163
63 99 162
62 98 160
62 98 164
62 98 164
61 97 161
62 98 159
62 98 161
62 98 156
61 97 153
62 98 158
62 98 155
64 100 171
62 98 163
61 97 159
62 97 155
62 98 159
62 98 160
61 97 161
62 97 153
61 97 148
61 97 155
62 98 158
62 98 164
61 97 159
62 97 160
62 98 163
63 98 164
62 97 159
61 96 155
62 98 163
62 98 163
60 95 155
61 97 157
62 97 153
61 97 162
112 137 183
206 226 254
208 228 255
208 228 255
208 228 255
208 228 255
209 228 255
209 228 255
209 229 255
209 229 255
209 229 255
209 229 255
209 229 255
209 229 255
209 229 255
209 229 255
209 229 255
209 229 255
209 229 255
209 229 255
209 229 255
209 229 255
209 229 255
209 229 255
209 229 255
209 229 255
209 229 255
209 229 255
209 229 255
207 223 243
186 183 142
178 173 114
175 172 114
174 171 114
172 170 114
171 170 114
170 169 114
169 169 114
168 168 114
167 168 114
166 168 114
166 167 114
165 167 114
165 167 114
164 167 114
164 167 114
164 166 114
163 166 114
163 166 114
163 166 114
163 166 114
162 166 114
162 166 114
162 166 114
162 166 114
162 166 114
162 166 114
162 166 114
162 166 114
162 166 114
162 166 114
162 166 114
162 166 114
162 166 114
162 166 114
162 166 114
162 166 114
162 166 114
162 166 114
162 166 114
162 166 114
162 166 114
162 166 114
162 166 114
163 166 114
163 166 114
163 166 114
163 166 114
163 166 114
163 166 114
163 166 114
163 166 114
164 166 114
164 166 114
164 167 114
164 167 114
164 167 114
164 167 114
165 167 114
165 167 114
165 167 114
165 167 114
165 167 114
166 167 114
166 167 114
166 167 114
166 167 114
166 168 114
166 168 114
167 168 114
167 168 114
167 168 114
167 168 114
168 168 114
168 168 114
168 168 114
168 168 114
168 168 114
169 169 114
169 169 114
169 169 114
169 169 114
169 169 114
170 169 114
170 169 114
170 169 114
170 169 114
171 169 114
171 170 114
171 170 114
171 170 114
172 170 114
172 170 114
172 170 114
172 170 114
172 170 114
173 170 114
173 171 114
173 171 114
173 171 114
174 171 114
174 171 114
174 171 114
174 171 114
175 171 114
175 171 114
175 172 114
175 172 114
176 172 114
176 172 114
176 172 114
176 172 114
177 172 114
177 172 114
177 173 114
177 173 114
178 173 114
178 173 114
178 173 114
179 173 114
179 173 114
179 173 114
179 174 114
175 198 76
176 199 88
180 203 108
173 196 80
177 200 76
176 199 67
174 197 62
172 195 51
175 198 76
175 199 80
174 197 80
175 198 67
173 197 76
174 197 72
174 198 80
175 198 57
176 198 62
173 197 57
174 198 72
174 198 80
173 197 62
174 198 62
173 196 57
171 194 67
175 199 51
173 198 67
173 197 62
176 200 67
173 197 51
173 197 44
174 198 62
176 200 67
174 197 25
174 197 44
174 198 57
174 198 67
175 198 62
173 197 67
174 197 51
176 199 62
174 198 57
176 199 51
174 198 51
176 199 62
174 198 67
172 196 51
173 198 44
176 199 51
173 197 25
173 196 36
175 199 76
175 198 57
175 199 44
173 198 57
175 198 44
175 198 62
174 197 0
175 199 67
174 198 36
174 198 72
174 198 72
173 197 62
174 198 44
172 197 67
175 198 57
173 198 36
173 198 57
176 199 62
174 198 25
174 197 36
174 198 51
174 198 57
173 197 62
174 198 44
173 197 51
175 198 51
174 198 44
172 196 44
175 199 44
175 198 57
174 198 51
173 197 57
175 198 36
174 198 36
175 199 51
174 198 44
173 197 36
175 198 44
173 198 57
176 200 67
175 198 51
173 197 51
173 197 25
173 198 67
173 198 51
177 199 44
174 199 80
173 198 62
175 199 57
173 198 57
174 198 76
175 199 62
177 200 67
175 198 57
175 198 44
175 199 67
174 199 80
173 198 51
175 199 80
175 199 76
176 199 51
176 199 76
173 198 57
175 199 67
175 199 80
176 200 80
176 200 92
177 200 76
177 201 99
178 202 111
177 201 102
180 205 135
186 210 171
188 211 189
204 224 236
210 229 255
210 229 255
210 229 255
210 229 255
210 229 255
209 229 255
209 229 255
209 229 255
209 229 255
209 229 255
209 229 255
209 229 255
209 229 255
209 229 255
209 229 255
209 229 255
209 229 255
209 229 255
209 229 255
209 229 255
209 229 255
209 229 255
209 229 255
209 229 255
209 229 255
208 228 254
129 153 198
62 98 161
62 98 160
62 98 161
62 98 164
62 98 161
63 99 162
62 98 163
62 97 160
62 98 163
62 98 158
61 97 161
62 98 165
62 98 158
61 97 159
62 98 161
61 97 157
62 99 167
61 98 158
62 98 161
62 98 161
62 97 154
63 99 162
60 96 152
62 98 160
62 98 160
61 97 153
62 98 161
61 97 155
63 99 162
62 99 168
62 98 160
61 97 155
62 98 161
62 98 161
63 99 167
61 97 158
61 97 155
61 97 157
62 98 159
61 97 156
62 98 157
61 97 159
62 98 160
61 97 154
61 97 157
61 97 159
61 97 160
62 98 160
62 98 159
61 97 158
63 98 158
63 99 171
62 97 155
62 98 157
62 98 161
63 99 161
61 97 152
62 98 158
62 98 159
61 97 159
62 98 163
61 98 160
62 98 160
62 98 159
62 98 154
62 98 161
61 97 155
61 97 155
61 98 161
62 98 163
61 98 163
61 97 161
63 99 162
62 98 159
63 98 160
63 98 160
62 98 162
61 96 156
62 98 164
62 98 164
63 99 168
62 97 153
62 98 159
61 97 154
62 97 161
61 97 157
63 99 165
62 98 162
61 97 153
62 98 165
62 97 162
62 98 161
62 98 162
61 97 159
62 97 164
62 96 156
128 152 197
209 229 255
209 229 255
209 229 255
209 229 255
209 229 255
209 229 255
209 229 255
209 229 255
209 229 255
209 229 255
209 229 255
209 229 255
209 229 255
209 229 255
209 229 255
209 229 255
209 229 255
209 229 255
209 229 255
209 229 255
209 229 255
210 229 255
210 229 255
210 229 255
210 229 255
210 229 255
200 210 213
181 176 121
177 173 114
175 171 114
173 171 114
172 170 114
171 169 114
169 169 114
169 169 114
168 168 114
167 168 114
166 168 114
166 167 114
165 167 114
165 167 114
164 167 114
164 167 114
164 166 114
163 166 114
163 166 114
163 166 114
163 166 114
163 166 114
162 166 114
162 166 114
162 166 114
162 166 114
162 166 114
162 166 114
162 166 114
162 166 114
162 166 114
162 166 114
162 166 114
162 166 114
162 166 114
162 166 114
162 166 114
162 166 114
162 166 114
162 166 114
162 166 114
162 166 114
163 166 114
163 166 114
163 166 114
163 166 114
163 166 114
163 166 114
163 166 114
163 166 114
164 166 114
164 166 114
164 166 114
164 167 114
164 167 114
164 167 114
164 167 114
165 167 114
165 167 114
165 167 114
165 167 114
165 167 114
166 167 114
166 167 114
166 167 114
166 167 114
166 168 114
166 168 114
167 168 114
167 168 114
167 168 114
167 168 114
167 168 114
168 168 114
168 168 114
168 168 114
168 168 114
168 169 114
169 169 114
169 169 114
169 169 114
169 169 114
170 169 114
170 169 114
170 169 114
170 169 114
170 169 114
171 170 114
171 170 114
171 170 114
171 170 114
172 170 114
172 170 114
172 170 114
172 170 114
172 170 114
173 170 114
173 171 114
173 171 114
173 171 114
174 171 114
174 171 114
174 171 114
174 171 114
175 171 114
175 171 114
175 172 114
175 172 114
176 172 114
176 172 114
176 172 114
176 172 114
177 172 114
177 172 114
177 172 114
177 173 114
178 173 114
178 173 114
178 173 114
178 173 114
179 173 114
179 173 114
179 173 114
179 174 114
175 197 80
179 202 99
175 198 67
175 199 67
175 198 84
174 197 67
175 199 84
175 199 72
176 199 92
173 196 62
176 199 62
171 195 76
175 198 62
174 198 72
173 197 80
176 199 80
177 199 51
172 195 44
174 198 62
175 199 67
175 198 25
174 197 51
175 199 67
172 196 51
175 199 72
175 198 51
175 198 57
171 195 36
175 199 67
173 196 57
177 200 72
174 197 57
173 197 36
176 199 62
172 195 25
173 197 62
173 197 51
174 197 44
176 200 67
173 197 44
175 198 57
173 196 36
173 197 51
175 198 62
174 198 44
175 198 57
173 197 36
176 199 62
173 197 51
174 198 62
175 199 67
173 198 67
175 198 44
175 198 44
176 200 80
174 198 67
175 199 57
175 198 44
174 198 62
174 198 51
174 198 62
174 198 51
174 198 44
174 198 51
176 199 62
174 198 62
172 195 36
174 198 36
175 199 72
172 196 25
174 198 76
175 199 57
175 198 44
175 198 36
175 198 51
173 198 57
174 198 72
173 197 57
175 199 62
175 198 44
173 198 62
176 199 44
175 199 62
175 199 44
175 198 44
174 198 57
173 197 51
174 198 57
174 198 44
174 198 51
175 199 72
172 197 44
174 198 62
175 199 44
174 198 51
175 198 44
176 200 80
175 199 57
175 198 36
174 198 62
174 198 36
174 198 51
175 198 44
173 198 57
174 198 36
174 198 62
173 198 57
175 198 51
176 199 62
175 199 62
176 200 76
175 199 72
175 199 57
174 198 44
174 199 80
176 200 76
173 198 72
177 200 84
175 199 95
176 200 105
176 201 117
179 203 120
180 204 128
179 203 142
188 211 177
199 220 218
209 229 254
210 229 255
210 229 255
210 229 255
210 229 255
210 229 255
210 229 255
210 229 255
210 229 255
210 229 255
209 229 255
209 229 255
209 229 255
209 229 255
209 229 255
209 229 255
209 229 255
209 229 255
209 229 255
209 229 255
209 229 255
209 229 255
209 229 255
209 229 255
149 171 212
62 98 164
61 97 161
61 98 162
62 98 162
62 98 164
61 97 162
62 98 161
61 97 158
62 98 158
62 98 163
62 98 160
63 99 169
62 98 157
62 98 157
62 98 166
63 98 159
62 98 161
61 97 156
62 98 162
62 98 160
62 98 159
62 98 156
62 98 158
61 97 150
62 98 158
61 98 161
62 97 154
61 97 154
62 98 159
62 98 156
61 97 158
61 96 147
61 97 157
62 98 161
62 97 157
62 98 154
63 99 163
62 98 159
62 98 160
61 97 154
62 97 158
61 97 154
62 98 161
61 97 155
62 97 158
61 97 152
61 97 154
61 97 159
62 98 161
63 99 167
62 97 154
62 98 161
62 98 158
61 97 158
62 98 163
62 99 163
62 98 159
63 99 168
61 97 155
62 98 156
61 97 151
62 98 162
62 97 152
63 99 167
62 98 156
61 97 154
61 97 156
63 99 161
62 97 160
61 97 156
61 97 157
61 97 153
61 97 156
62 98 159
61 97 159
61 97 159
62 99 166
63 99 163
62 98 158
63 99 168
62 97 159
63 99 164
62 98 159
62 97 155
61 97 161
61 96 154
62 98 162
61 97 160
62 98 161
62 97 160
62 98 163
62 99 163
62 97 160
61 97 161
62 98 169
61 96 158
62 96 155
62 97 159
151 173 212
209 229 255
209 229 255
209 229 255
209 229 255
209 229 255
209 229 255
209 229 255
209 229 255
209 229 255
209 229 255
209 229 255
209 229 255
209 229 255
209 229 255
209 229 255
210 229 255
210 229 255
210 229 255
210 229 255
210 229 255
210 229 255
210 229 255
210 229 255
208 226 249
192 194 171
179 173 114
177 172 114
175 171 114
173 170 114
171 170 114
170 169 114
169 169 114
169 169 114
168 168 114
167 168 114
166 168 114
166 167 114
165 167 114
165 167 114
165 167 114
164 167 114
164 167 114
164 166 114
163 166 114
163 166 114
163 166 114
163 166 114
163 166 114
163 166 114
162 166 114
162 166 114
162 166 114
162 166 114
162 166 114
162 166 114
162 166 114
162 166 114
162 166 114
162 166 114
162 166 114
162 166 114
162 166 114
162 166 114
162 166 114
163 166 114
163 166 114
163 166 114
163 166 114
163 166 114
163 166 114
163 166 114
163 166 114
163 166 114
163 166 114
164 166 114
164 166 114
164 167 114
164 167 114
164 167 114
164 167 114
165 167 114
165 167 114
165 167 114
165 167 114
165 167 114
165 167 114
166 167 114
166 167 114
166 167 114
166 167 114
166 168 114
166 168 114
167 168 114
167 168 114
167 168 114
167 168 114
167 168 114
168 168 114
168 168 114
168 168 114
168 168 114
168 169 114
169 169 114
169 169 114
169 169 114
169 169 114
170 169 114
170 169 114
170 169 114
170 169 114
170 169 114
171 169 114
171 170 114
171 170 114
171 170 114
171 170 114
172 170 114
172 170 114
172 170 114
172 170 114
173 170 114
173 170 114
173 171 114
173 171 114
173 171 114
174 171 114
174 171 114
174 171 114
174 171 114
175 171 114
175 171 114
175 172 114
175 172 114
176 172 114
176 172 114
176 172 114
176 172 114
177 172 114
177 172 114
177 172 114
177 173 114
177 173 114
178 173 114
178 173 114
178 173 114
178 173 114
179 173 114
179 173 114
179 173 114
180 174 114
175 197 76
174 198 76
177 200 92
176 199 67
172 195 67
172 195 88
179 202 99
176 199 72
176 199 72
177 200 72
173 197 62
175 199 76
175 199 84
174 198 62
170 194 51
174 197 72
175 198 67
175 198 44
177 200 62
173 197 76
176 199 72
176 199 44
177 200 72
176 199 62
173 197 62
175 198 62
172 196 62
176 200 76
176 199 57
172 196 51
171 195 57
170 195 67
171 195 51
174 198 51
175 199 57
175 199 80
174 198 51
174 197 25
175 198 36
176 199 67
173 198 76
175 199 51
174 198 57
173 197 36
174 198 44
172 196 51
175 198 25
177 200 51
174 197 51
174 198 62
173 197 62
176 199 67
174 198 51
175 199 67
175 198 0
174 197 36
172 196 36
174 197 57
175 199 62
174 198 72
172 196 25
174 198 57
175 198 36
174 197 0
175 198 44
174 198 25
174 198 51
174 198 67
175 199 57
175 199 62
176 200 84
175 198 36
174 198 51
175 199 57
175 198 51
175 199 80
173 197 44
173 197 51
176 199 67
176 199 36
172 197 51
173 198 57
174 198 51
174 198 44
173 198 51
173 198 57
175 198 44
174 198 51
176 199 57
173 197 44
175 199 72
174 198 57
174 198 51
173 197 57
173 197 44
175 199 57
175 199 72
173 197 36
175 198 51
175 198 25
176 199 62
174 198 44
174 197 44
175 198 44
174 197 36
172 196 72
176 199 44
174 198 62
174 198 62
176 200 72
177 200 62
175 198 51
176 199 72
176 199 67
174 199 76
174 198 76
176 200 88
176 199 72
174 199 72
175 199 92
176 200 95
176 200 92
176 200 80
180 204 130
181 204 128
186 209 167
196 217 206
209 228 252
210 229 255
210 229 255
210 229 255
210 229 255
210 229 255
210 229 255
210 229 255
210 229 255
210 229 255
210 229 255
210 229 255
210 229 255
210 229 255
210 229 255
209 229 255
209 229 255
209 229 255
209 229 255
209 229 255
209 229 255
209 229 255
168 189 223
64 98 155
62 99 165
61 97 154
61 97 157
60 96 154
60 96 155
61 97 151
62 98 155
62 98 160
62 98 158
61 97 157
62 98 160
62 98 157
63 99 164
61 97 154
63 99 167
61 97 160
62 98 156
62 98 159
62 98 161
61 97 157
62 98 162
60 96 145
62 98 162
62 98 163
60 96 151
61 96 153
62 98 156
61 97 152
61 96 153
61 97 158
62 98 162
61 97 154
62 97 158
61 97 156
61 97 156
62 98 159
61 97 156
61 97 157
62 98 157
62 97 154
63 98 156
62 98 161
63 98 159
61 97 153
62 98 156
62 98 162
62 98 162
62 98 161
61 97 157
62 98 166
62 98 161
61 97 156
63 99 163
61 97 157
62 98 159
62 98 161
61 96 152
62 98 156
62 98 156
62 98 157
62 98 159
61 97 156
62 98 160
61 97 151
61 97 156
61 97 157
62 97 159
62 98 159
62 98 160
62 98 161
61 96 151
63 99 166
62 97 156
61 97 154
61 97 154
62 98 163
61 97 157
62 97 154
62 99 163
61 97 156
62 97 151
62 97 164
62 98 162
62 98 157
61 97 154
62 97 160
62 97 157
62 98 160
62 98 163
62 97 154
61 96 152
62 97 159
61 97 161
62 97 159
61 96 157
62 97 158
62 98 167
62 96 158
61 96 158
164 185 222
209 229 255
209 229 255
209 229 255
209 229 255
209 229 255
209 229 255
209 229 255
210 229 255
210 229 255
210 229 255
210 229 255
210 229 255
210 229 255
210 229 255
210 229 255
210 229 255
210 229 255
210 229 255
210 229 255
210 229 255
210 229 255
208 226 247
187 184 144
179 173 114
176 172 114
174 171 114
173 171 114
171 170 114
170 169 114
169 169 114
169 169 114
168 168 114
167 168 114
167 168 114
166 167 114
166 167 114
165 167 114
165 167 114
164 167 114
164 167 114
164 166 114
164 166 114
163 166 114
163 166 114
163 166 114
163 166 114
163 166 114
163 166 114
163 166 114
163 166 114
163 166 114
162 166 114
162 166 114
162 166 114
162 166 114
162 166 114
162 166 114
162 166 114
163 166 114
163 166 114
163 166 114
163 166 114
163 166 114
163 166 114
163 166 114
163 166 114
163 166 114
163 166 114
163 166 114
164 166 114
164 166 114
164 166 114
164 167 114
164 167 114
164 167 114
164 167 114
165 167 114
165 167 114
165 167 114
165 167 114
165 167 114
165 167 114
165 167 114
166 167 114
166 167 114
166 167 114
166 168 114
166 168 114
167 168 114
167 168 114
167 168 114
167 168 114
167 168 114
167 168 114
168 168 114
168 168 114
168 168 114
168 168 114
168 169 114
169 169 114
169 169 114
169 169 114
169 169 114
170 169 114
170 169 114
170 169 114
170 169 114
170 169 114
171 169 114
171 170 114
171 170 114
171 170 114
171 170 114
172 170 114
172 170 114
172 170 114
172 170 114
172 170 114
173 170 114
173 171 114
173 171 114
173 171 114
174 171 114
174 171 114
174 171 114
174 171 114
174 171 114
175 171 114
175 171 114
175 172 114
175 172 114
176 172 114
176 172 114
176 172 114
176 172 114
177 172 114
177 172 114
177 172 114
177 173 114
177 173 114
178 173 114
178 173 114
178 173 114
178 173 114
179 173 114
179 173 114
179 173 114
179 174 114
180 174 114
177 199 72
174 197 62
170 194 51
173 196 76
173 197 80
175 198 80
172 196 51
173 196 44
170 194 51
173 197 67
173 196 51
174 197 67
173 196 67
173 197 44
174 198 76
174 197 57
175 198 62
173 197 57
177 200 67
174 197 80
175 198 44
175 198 67
175 198 62
176 199 57
177 200 57
174 198 76
175 199 62
176 199 51
175 198 36
173 197 0
174 198 36
174 198 72
176 200 80
176 199 67
174 198 51
175 199 57
176 199 67
177 200 67
175 198 62
175 198 51
175 198 51
175 199 57
176 199 51
175 199 67
176 199 0
174 198 51
173 198 44
174 198 62
172 196 36
175 198 44
173 197 57
173 197 44
172 196 36
172 196 36
174 198 51
174 198 44
174 198 76
174 198 51
174 198 44
173 197 44
175 199 62
174 198 62
174 198 57
173 197 44
175 199 57
174 198 25
176 199 57
175 199 67
175 198 25
174 198 51
175 199 51
175 198 36
174 198 62
174 198 57
173 196 36
174 198 36
172 196 36
175 198 36
175 198 25
174 199 80
173 197 25
177 200 57
174 199 76
173 197 44
173 197 36
175 199 84
175 199 67
174 198 67
174 197 44
173 198 57
174 198 62
176 199 57
175 199 57
175 198 51
174 199 72
174 198 57
175 198 44
174 198 51
174 199 80
174 197 25
175 199 44
175 199 76
172 197 51
177 199 51
175 199 57
173 199 80
174 198 62
175 198 51
176 199 57
173 198 62
173 198 67
175 199 67
172 197 67
175 199 57
174 198 44
175 199 57
175 200 88
175 199 72
174 199 67
174 199 80
176 200 84
177 201 88
176 200 111
179 203 125
179 203 117
183 207 153
179 203 142
194 216 201
208 228 252
210 229 255
210 229 255
210 229 255
210 229 255
210 229 255
210 229 255
210 229 255
210 229 255
210 229 255
210 229 255
210 229 255
210 229 255
210 229 255
210 229 255
210 229 255
210 229 255
210 229 255
210 229 255
210 229 255
190 210 238
67 101 162
62 98 160
61 97 159
61 97 158
62 98 154
61 97 159
61 98 160
62 98 157
61 97 157
63 99 164
62 98 158
62 98 157
61 98 161
61 97 152
62 98 160
63 99 169
63 98 158
62 98 158
61 97 152
62 98 157
62 98 159
61 97 155
62 98 163
62 98 153
62 98 162
62 98 164
61 96 148
62 97 154
62 97 153
62 98 163
62 98 162
62 98 163
61 97 159
62 98 158
62 98 161
62 99 163
61 97 153
62 98 161
61 98 164
62 98 159
62 98 161
62 98 161
62 98 163
61 96 151
62 97 153
62 98 158
61 97 156
62 98 157
63 99 164
61 97 154
62 98 159
61 97 153
62 98 158
61 97 156
62 98 160
63 99 164
62 97 154
62 98 155
62 98 155
61 97 153
62 98 159
62 97 152
62 98 159
62 97 162
61 97 158
62 97 158
61 97 151
62 98 162
61 97 159
62 98 155
61 97 151
61 97 155
62 98 160
61 96 152
63 99 162
62 97 153
63 98 161
61 96 156
62 98 157
62 98 162
62 98 155
62 98 162
61 97 158
61 97 157
62 98 164
63 98 163
62 97 160
62 97 156
63 99 166
61 97 152
61 97 155
62 98 165
62 98 160
61 96 159
63 98 165
61 96 153
61 97 162
62 97 156
61 97 159
62 97 164
61 96 159
75 106 160
194 213 242
210 229 255
210 229 255
210 229 255
210 229 255
210 229 255
210 229 255
210 229 255
210 229 255
210 229 255
210 229 255
210 229 255
210 229 255
210 229 255
210 229 255
210 229 255
210 229 255
210 229 255
210 229 255
210 229 255
203 216 225
183 177 123
178 173 114
176 172 114
174 171 114
173 170 114
171 170 114
171 169 114
169 169 114
169 169 114
168 168 114
167 168 114
167 168 114
166 168 114
166 167 114
165 167 114
165 167 114
165 167 114
164 167 114
164 167 114
164 167 114
164 166 114
164 166 114
163 166 114
163 166 114
163 166 114
163 166 114
163 166 114
163 166 114
163 166 114
163 166 114
163 166 114
163 166 114
163 166 114
163 166 114
163 166 114
163 166 114
163 166 114
163 166 114
163 166 114
163 166 114
163 166 114
163 166 114
163 166 114
163 166 114
164 166 114
164 166 114
164 166 114
164 166 114
164 167 114
164 167 114
164 167 114
164 167 114
165 167 114
165 167 114
165 167 114
165 167 114
165 167 114
165 167 114
165 167 114
166 167 114
166 167 114
166 167 114
166 167 114
166 168 114
166 168 114
167 168 114
167 168 114
167 168 114
167 168 114
167 168 114
168 168 114
168 168 114
168 168 114
168 168 114
168 168 114
169 169 114
169 169 114
169 169 114
169 169 114
169 169 114
170 169 114
170 169 114
170 169 114
170 169 114
170 169 114
171 169 114
171 170 114
171 170 114
171 170 114
171 170 114
172 170 114
172 170 114
172 170 114
172 170 114
172 170 114
173 170 114
173 171 114
173 171 114
173 171 114
173 171 114
174 171 114
174 171 114
174 171 114
174 171 114
175 171 114
175 171 114
175 171 114
175 172 114
175 172 114
176 172 114
176 172 114
176 172 114
176 172 114
177 172 114
177 172 114
177 172 114
177 173 114
177 173 114
178 173 114
178 173 114
178 173 114
178 173 114
179 173 114
179 173 114
179 173 114
179 174 114
180 174 114
180 174 114
174 197 51
177 200 80
168 192 51
177 200 95
176 199 72
176 199 67
173 197 67
175 199 84
173 197 76
175 198 51
174 198 67
173 196 36
175 199 72
173 196 44
174 197 62
175 198 62
175 199 84
173 196 67
175 198 72
172 196 44
173 196 36
174 198 67
176 198 44
170 194 44
168 191 36
175 198 62
173 197 51
172 196 72
172 196 67
175 198 51
173 197 51
174 198 57
175 198 67
176 199 76
174 198 51
171 195 57
173 196 25
176 199 57
173 197 25
175 199 67
172 196 36
173 196 51
174 198 51
174 197 44
173 197 57
173 196 0
174 198 44
175 199 67
172 196 51
174 198 57
173 197 57
173 197 57
174 198 62
175 199 51
174 198 51
174 198 51
174 198 51
173 196 44
173 198 72
172 196 36
175 199 62
173 197 44
175 198 57
174 198 57
176 199 57
175 198 44
175 199 62
174 198 62
175 199 51
173 198 57
173 198 62
174 198 72
173 198 67
173 197 44
176 199 57
175 199 67
174 198 57
174 199 57
175 198 36
176 200 76
176 199 51
174 197 44
172 196 44
173 196 44
174 198 57
175 198 25
176 199 62
176 199 51
175 199 67
175 199 62
173 198 62
174 198 51
174 198 44
174 198 36
172 197 44
174 198 36
172 196 36
175 198 51
175 199 51
175 198 44
175 199 76
174 198 44
176 199 44
174 198 51
176 199 62
175 198 67
174 198 57
173 198 72
175 198 57
174 198 51
173 197 57
175 199 62
174 198 62
175 198 62
175 199 76
175 199 67
175 199 57
172 197 51
176 199 62
174 199 76
176 200 62
177 201 102
177 201 95
179 202 84
177 201 108
180 203 128
178 203 117
182 206 149
190 213 189
205 225 237
210 230 255
210 230 255
210 230 255
210 229 255
210 229 255
210 229 255
210 229 255
210 229 255
210 229 255
210 229 255
210 229 255
210 229 255
210 229 255
210 229 255
210 229 255
210 229 255
210 229 255
202 222 250
107 133 182
61 98 160
62 98 158
61 97 158
63 100 171
61 97 158
62 98 158
62 98 160
62 98 162
61 97 155
62 98 161
62 98 161
62 97 157
62 98 165
61 97 153
62 98 159
63 99 166
62 98 156
62 98 161
62 98 159
61 97 149
61 97 156
63 98 164
62 98 160
63 98 160
61 97 154
62 98 158
62 97 152
61 97 151
61 97 152
62 98 162
61 97 150
62 98 159
61 97 155
62 97 157
61 97 151
62 98 160
61 97 154
62 98 159
61 97 155
62 98 160
62 97 154
62 98 156
62 98 160
62 98 156
62 98 157
61 96 153
62 98 156
62 98 157
63 99 164
61 96 148
63 98 155
62 97 155
62 98 158
61 97 159
62 98 155
61 97 154
61 97 156
62 98 158
63 99 163
62 98 161
63 99 163
63 99 162
63 99 164
62 98 160
61 96 150
62 98 157
62 98 161
62 97 150
61 97 152
62 98 157
61 97 154
62 98 162
62 98 160
62 97 159
61 96 139
63 99 163
61 97 150
62 97 156
62 97 155
62 98 158
60 96 153
61 97 157
61 97 157
62 98 156
61 97 158
62 98 153
61 97 158
63 99 164
62 97 154
62 98 165
61 97 156
61 96 153
63 99 166
61 96 151
62 97 156
62 98 160
62 98 160
61 97 161
60 96 154
62 97 163
62 97 161
60 95 155
97 124 178
203 223 251
210 229 255
210 229 255
210 229 255
210 229 255
210 229 255
210 229 255
210 229 255
210 229 255
210 229 255
210 229 255
210 229 255
210 229 255
210 229 255
210 229 255
210 230 255
210 230 255
210 230 255
201 210 212
183 177 123
178 173 114
176 172 114
174 171 114
173 171 114
172 170 114
171 170 114
170 169 114
169 169 114
168 168 114
168 168 114
167 168 114
167 168 114
166 167 114
166 167 114
165 167 114
165 167 114
165 167 114
165 167 114
164 167 114
164 167 114
164 167 114
164 166 114
164 166 114
163 166 114
163 166 114
163 166 114
163 166 114
163 166 114
163 166 114
163 166 114
163 166 114
163 166 114
163 166 114
163 166 114
163 166 114
163 166 114
163 166 114
163 166 114
163 166 114
164 166 114
164 166 114
164 166 114
164 166 114
164 167 114
164 167 114
164 167 114
164 167 114
164 167 114
164 167 114
165 167 114
165 167 114
165 167 114
165 167 114
165 167 114
165 167 114
165 167 114
166 167 114
166 167 114
166 167 114
166 168 114
166 168 114
166 168 114
167 168 114
167 168 114
167 168 114
167 168 114
167 168 114
168 168 114
168 168 114
168 168 114
168 168 114
168 168 114
168 169 114
169 169 114
169 169 114
169 169 114
169 169 114
169 169 114
170 169 114
170 169 114
170 169 114
170 169 114
170 169 114
171 169 114
171 170 114
171 170 114
171 170 114
171 170 114
172 170 114
172 170 114
172 170 114
172 170 114
172 170 114
173 170 114
173 171 114
173 171 114
173 171 114
173 171 114
174 171 114
174 171 114
174 171 114
174 171 114
174 171 114
175 171 114
175 171 114
175 172 114
175 172 114
176 172 114
176 172 114
176 172 114
176 172 114
176 172 114
177 172 114
177 172 114
177 172 114
177 173 114
178 173 114
178 173 114
178 173 114
178 173 114
178 173 114
179 173 114
179 173 114
179 173 114
179 174 114
180 174 114
180 174 114
180 174 114
174 197 80
176 198 76
170 193 51
175 198 62
174 198 62
173 197 62
176 199 62
174 197 67
175 198 67
171 195 57
170 193 72
172 196 36
174 197 62
174 197 67
176 200 80
172 195 80
176 199 57
171 195 36
173 196 36
172 196 62
173 197 62
174 198 57
175 198 57
176 199 67
177 200 57
174 197 44
171 195 51
174 198 62
173 197 44
175 198 51
173 196 44
174 197 51
175 199 51
172 196 36
174 198 62
174 198 51
174 198 62
173 196 44
171 195 51
173 197 62
174 198 67
173 197 44
174 198 57
172 197 44
174 198 67
174 198 25
174 197 51
173 196 44
176 199 57
175 198 57
174 197 51
174 198 67
173 197 25
172 196 57
173 197 57
177 199 51
175 199 51
173 197 62
173 197 36
175 199 44
174 198 25
175 199 67
172 197 51
175 198 44
173 197 51
174 198 51
173 197 51
173 197 57
175 198 44
174 197 51
173 197 44
176 199 62
174 197 51
175 199 62
176 200 72
174 198 57
174 198 67
172 197 36
173 196 36
174 198 62
174 198 62
174 198 67
173 197 51
174 198 44
175 199 67
174 197 51
175 199 76
174 198 44
174 198 62
173 197 62
174 198 44
175 198 25
174 198 51
174 198 36
175 199 44
173 197 44
177 200 62
175 199 72
174 198 36
174 198 57
173 197 44
174 198 57
178 200 57
176 199 51
175 199 67
176 199 67
174 197 44
175 198 57
174 198 57
176 199 36
174 198 51
174 198 72
175 198 36
175 198 51
174 198 67
176 200 80
174 198 57
175 199 44
175 199 67
175 200 76
173 197 51
175 199 67
176 200 80
177 200 84
176 201 102
178 202 108
178 202 95
179 204 128
182 206 149
190 213 182
205 225 240
211 230 255
211 230 255
211 230 255
211 230 255
211 230 255
211 230 255
210 230 255
210 230 255
210 230 255
210 229 255
210 229 255
210 229 255
210 229 255
210 229 255
210 229 255
210 229 255
128 151 194
61 96 150
61 97 157
61 98 159
62 98 162
60 96 152
62 98 157
61 96 153
63 98 154
62 98 163
61 97 154
62 98 156
61 97 154
61 97 158
62 97 154
62 98 161
61 97 154
63 99 164
61 97 148
61 96 148
63 98 158
61 97 152
62 97 155
62 98 160
61 96 148
61 97 156
62 98 160
62 97 151
61 96 152
62 97 152
61 97 153
62 98 157
61 97 152
62 98 161
60 96 149
62 97 152
61 97 153
62 98 157
62 97 154
62 98 159
62 98 156
61 96 152
61 96 154
63 98 160
62 98 161
62 98 156
62 98 160
61 97 152
61 97 155
62 98 160
60 96 150
62 98 154
61 97 153
62 98 159
62 97 151
63 99 167
62 98 162
61 96 151
62 97 153
62 97 150
60 96 153
62 97 153
61 96 148
62 98 161
62 98 159
62 98 156
62 98 164
61 97 153
63 99 166
62 98 153
62 99 164
61 97 158
61 97 152
61 96 150
60 96 145
62 98 159
61 96 149
61 97 155
62 98 161
62 98 159
61 97 153
61 97 154
62 98 158
62 98 155
62 98 163
61 96 157
63 99 167
61 97 153
61 97 158
62 97 155
61 97 155
62 98 159
62 97 158
62 98 160
62 98 157
61 97 159
62 97 155
61 97 161
61 96 160
62 97 156
61 96 160
60 94 146
61 95 158
61 96 157
60 94 149
122 145 187
209 228 255
210 229 255
210 229 255
210 229 255
210 229 255
210 229 255
210 229 255
210 230 255
210 230 255
210 230 255
211 230 255
211 230 255
211 230 255
211 230 255
211 230 255
211 230 255
200 210 211
181 174 114
178 173 114
176 172 114
174 171 114
173 171 114
172 170 114
171 170 114
170 169 114
169 169 114
169 169 114
168 168 114
167 168 114
167 168 114
166 168 114
166 167 114
166 167 114
165 167 114
165 167 114
165 167 114
165 167 114
164 167 114
164 167 114
164 167 114
164 167 114
164 167 114
164 166 114
164 166 114
164 166 114
164 166 114
164 166 114
164 166 114
164 166 114
164 166 114
164 166 114
164 166 114
164 166 114
164 166 114
164 166 114
164 166 114
164 167 114
164 167 114
164 167 114
164 167 114
164 167 114
164 167 114
164 167 114
165 167 114
165 167 114
165 167 114
165 167 114
165 167 114
165 167 114
165 167 114
165 167 114
166 167 114
166 167 114
166 167 114
166 167 114
166 168 114
166 168 114
167 168 114
167 168 114
167 168 114
167 168 114
167 168 114
167 168 114
168 168 114
168 168 114
168 168 114
168 168 114
168 168 114
168 169 114
169 169 114
169 169 114
169 169 114
169 169 114
169 169 114
170 169 114
170 169 114
170 169 114
170 169 114
170 169 114
170 169 114
171 170 114
171 170 114
171 170 114
171 170 114
171 170 114
172 170 114
172 170 114
172 170 114
172 170 114
172 170 114
173 170 114
173 171 114
173 171 114
173 171 114
173 171 114
174 171 114
174 171 114
174 171 114
174 171 114
174 171 114
175 171 114
175 171 114
175 172 114
175 172 114
176 172 114
176 172 114
176 172 114
176 172 114
176 172 114
177 172 114
177 172 114
177 172 114
177 173 114
177 173 114
178 173 114
178 173 114
178 173 114
178 173 114
178 173 114
179 173 114
179 173 114
179 173 114
179 174 114
180 174 114
180 174 114
180 174 114
180 174 114
175 198 80
176 200 88
173 196 57
172 195 44
172 196 44
174 197 57
172 196 62
173 197 51
172 195 57
172 196 62
173 196 51
172 195 51
175 197 44
176 199 57
172 196 36
175 199 57
175 199 62
174 197 36
174 197 57
173 195 57
173 197 62
174 198 67
171 194 62
174 197 72
175 199 62
175 198 44
175 198 80
173 197 51
174 198 44
175 198 36
174 198 57
173 197 62
174 198 62
176 199 62
172 196 44
175 198 51
174 198 51
176 200 72
175 198 57
175 198 44
174 198 72
175 198 44
173 196 51
173 197 36
172 196 67
175 198 62
175 198 67
176 198 25
175 199 67
173 197 36
176 199 62
175 199 44
174 197 57
177 199 44
176 199 57
171 195 36
175 199 80
174 198 67
173 197 25
175 198 44
171 195 36
174 198 62
174 198 57
173 197 25
174 199 62
175 199 36
173 197 36
174 198 62
174 198 44
175 199 51
174 198 57
174 198 51
175 198 51
174 198 51
171 195 62
175 199 57
173 197 25
176 199 67
174 198 44
173 198 62
176 199 51
174 198 25
174 199 62
175 199 51
174 198 62
174 198 57
174 199 62
174 198 25
176 199 36
176 199 51
175 199 67
175 199 57
175 199 67
173 197 51
174 198 51
174 197 25
175 199 62
175 198 51
174 198 44
174 198 51
175 199 51
173 197 44
174 197 25
174 198 44
174 198 57
175 198 57
175 199 67
174 198 62
174 198 57
175 199 72
176 199 57
176 199 72
176 200 76
174 198 51
175 199 88
175 199 57
174 198 44
177 201 80
174 199 76
177 200 80
173 197 51
175 199 67
175 199 84
176 200 67
176 200 72
177 201 92
177 201 88
180 204 122
179 203 130
182 205 130
187 210 167
202 223 228
211 230 255
211 230 255
211 230 255
211 230 255
211 230 255
211 230 255
211 230 255
211 230 255
211 230 255
211 230 255
211 230 255
211 230 255
210 230 255
210 230 255
165 186 217
61 97 160
60 96 148
62 98 158
62 97 154
61 97 153
61 97 155
62 98 163
62 98 159
62 98 163
61 97 154
62 98 162
63 98 157
61 97 155
61 97 153
62 97 153
62 98 159
61 97 159
62 98 156
61 97 157
61 97 154
61 97 150
61 97 154
62 98 156
61 97 151
61 96 149
61 97 157
62 98 158
62 98 160
61 97 157
61 97 153
61 97 157
61 97 149
62 98 159
62 98 160
63 98 159
62 98 162
61 97 154
61 97 153
62 98 158
62 97 151
63 99 161
63 99 164
62 97 154
62 97 161
62 98 157
61 97 152
62 97 160
63 99 163
61 96 152
62 98 152
62 97 154
61 97 148
61 96 158
62 98 162
62 97 153
61 97 153
63 98 159
62 98 157
62 98 158
62 98 160
61 97 151
62 98 156
62 97 152
61 97 153
62 98 156
62 98 155
61 97 158
61 97 154
62 98 163
62 98 165
62 98 158
61 97 155
62 97 155
61 97 160
61 97 155
61 96 154
61 97 156
61 97 153
62 98 159
61 97 154
61 97 157
61 97 151
63 98 159
62 98 157
61 97 159
62 98 155
62 98 158
62 97 151
62 98 157
61 97 151
61 97 153
62 98 159
61 97 152
61 97 154
60 96 151
61 96 152
61 97 158
61 96 150
62 97 156
61 97 153
61 97 156
61 95 148
61 95 156
61 96 156
61 96 159
61 95 156
171 191 222
210 230 255
210 230 255
211 230 255
211 230 255
211 230 255
211 230 255
211 230 255
211 230 255
211 230 255
211 230 255
211 230 255
211 230 255
211 230 255
211 230 255
195 198 180
181 174 114
178 173 114
176 172 114
175 171 114
173 171 114
172 170 114
171 170 114
170 169 114
170 169 114
169 169 114
168 168 114
168 168 114
167 168 114
167 168 114
167 168 114
166 168 114
166 167 114
166 167 114
165 167 114
165 167 114
165 167 114
165 167 114
165 167 114
164 167 114
164 167 114
164 167 114
164 167 114
164 167 114
164 167 114
164 167 114
164 167 114
164 167 114
164 167 114
164 167 114
164 167 114
164 167 114
164 167 114
164 167 114
164 167 114
164 167 114
164 167 114
165 167 114
165 167 114
165 167 114
165 167 114
165 167 114
165 167 114
165 167 114
165 167 114
165 167 114
166 167 114
166 167 114
166 167 114
166 167 114
166 167 114
166 168 114
166 168 114
166 168 114
167 168 114
167 168 114
167 168 114
167 168 114
167 168 114
167 168 114
168 168 114
168 168 114
168 168 114
168 168 114
168 168 114
168 169 114
169 169 114
169 169 114
169 169 114
169 169 114
169 169 114
170 169 114
170 169 114
170 169 114
170 169 114
170 169 114
170 169 114
171 170 114
171 170 114
171 170 114
171 170 114
171 170 114
172 170 114
172 170 114
172 170 114
172 170 114
172 170 114
173 170 114
173 170 114
173 171 114
173 171 114
173 171 114
174 171 114
174 171 114
174 171 114
174 171 114
174 171 114
174 171 114
175 171 114
175 171 114
175 172 114
175 172 114
175 172 114
176 172 114
176 172 114
176 172 114
176 172 114
177 172 114
177 172 114
177 172 114
177 172 114
177 173 114
178 173 114
178 173 114
178 173 114
178 173 114
178 173 114
179 173 114
179 173 114
179 173 114
179 173 114
179 174 114
180 174 114
180 174 114
180 174 114
180 174 114
181 174 114
174 197 62
174 198 36
171 194 67
171 194 51
173 196 62
173 196 67
176 199 72
174 197 57
171 196 44
174 196 72
173 197 51
174 197 57
174 198 36
175 199 72
176 199 44
171 194 72
176 200 57
172 196 57
176 199 62
176 199 88
174 198 67
172 197 62
172 196 67
175 198 62
174 198 67
175 198 57
171 194 36
173 196 57
175 198 36
173 196 72
175 199 67
176 199 36
174 198 72
175 199 76
175 199 72
172 196 25
173 197 51
175 198 57
173 196 51
174 198 67
174 197 44
174 198 67
175 198 57
173 196 51
176 199 57
173 196 36
171 195 44
175 198 51
172 195 57
174 198 62
175 199 51
172 196 62
172 196 36
174 198 57
174 198 36
173 197 57
175 198 62
174 197 57
173 197 44
175 199 57
174 197 25
171 195 51
173 197 44
173 196 44
173 196 36
175 199 80
175 198 67
172 197 72
172 196 36
174 198 36
175 198 51
173 197 51
175 198 51
172 196 51
175 198 44
174 198 57
177 200 84
175 199 62
174 198 36
174 198 57
174 197 25
175 198 57
175 199 80
174 198 36
174 198 36
175 199 57
174 199 62
174 198 51
174 198 57
175 199 62
175 198 51
173 197 57
175 199 76
174 198 44
175 199 62
173 197 25
174 198 44
174 198 51
173 198 62
174 199 62
175 198 44
174 198 44
176 198 25
172 197 62
174 198 51
174 198 44
174 198 51
176 199 51
175 199 57
176 199 62
173 197 51
174 198 51
174 198 44
174 198 51
176 199 62
173 198 57
175 198 44
175 198 44
175 199 76
174 199 57
174 198 72
176 200 95
176 199 57
176 200 88
173 198 84
175 200 92
177 201 99
176 199 99
179 203 120
177 202 122
181 204 133
184 208 161
204 224 236
211 230 255
211 230 255
211 230 255
211 230 255
211 230 255
211 230 255
211 230 255
211 230 255
211 230 255
211 230 255
211 230 255
211 230 255
201 220 248
86 115 164
61 97 154
60 96 149
62 98 163
62 98 158
62 98 160
61 97 153
62 98 156
62 97 162
61 96 154
62 98 157
63 99 162
61 97 157
61 96 157
61 97 153
62 98 160
61 97 160
62 98 151
62 98 158
63 99 169
63 99 161
62 97 155
62 98 158
61 97 153
63 99 163
63 99 161
61 96 155
62 98 157
62 97 154
62 98 157
61 97 157
61 97 155
61 97 152
61 97 157
62 98 156
62 98 155
62 97 153
62 98 156
61 97 153
62 97 154
61 97 148
61 97 151
61 96 150
61 97 157
62 98 157
60 95 152
63 99 161
62 98 159
62 97 154
61 97 153
61 96 150
61 97 153
62 98 154
61 97 158
62 98 158
62 98 166
62 98 161
61 97 154
62 98 158
62 98 159
61 97 154
61 97 152
62 98 159
61 97 153
61 97 150
62 98 153
62 98 158
62 98 158
62 98 157
61 97 157
62 98 163
62 98 160
63 99 163
62 98 161
61 97 149
61 97 155
63 98 157
62 97 157
60 96 152
62 98 157
61 97 151
61 97 148
61 96 147
62 97 150
62 97 157
61 97 157
62 97 159
62 97 158
62 98 159
61 97 153
61 96 151
60 96 152
61 96 149
62 98 163
61 96 153
61 97 155
60 95 150
61 97 158
62 97 159
62 98 163
62 98 161
62 96 155
61 96 152
61 96 154
61 96 152
61 96 159
60 95 154
81 109 162
199 218 247
211 230 255
211 230 255
211 230 255
211 230 255
211 230 255
211 230 255
211 230 255
211 230 255
211 230 255
211 230 255
211 230 255
210 229 252
195 199 183
181 174 114
178 173 114
176 172 114
175 171 114
174 171 114
172 170 114
172 170 114
171 170 114
170 169 114
169 169 114
169 169 114
168 168 114
168 168 114
167 168 114
167 168 114
167 168 114
166 168 114
166 167 114
166 167 114
166 167 114
165 167 114
165 167 114
165 167 114
165 167 114
165 167 114
165 167 114
165 167 114
165 167 114
165 167 114
165 167 114
165 167 114
165 167 114
165 167 114
165 167 114
165 167 114
165 167 114
165 167 114
165 167 114
165 167 114
165 167 114
165 167 114
165 167 114
165 167 114
165 167 114
165 167 114
165 167 114
166 167 114
166 167 114
166 167 114
166 167 114
166 167 114
166 167 114
166 168 114
166 168 114
167 168 114
167 168 114
167 168 114
167 168 114
167 168 114
167 168 114
167 168 114
168 168 114
168 168 114
168 168 114
168 168 114
168 168 114
168 168 114
169 169 114
169 169 114
169 169 114
169 169 114
169 169 114
169 169 114
170 169 114
170 169 114
170 169 114
170 169 114
170 169 114
170 169 114
171 170 114
171 170 114
171 170 114
171 170 114
171 170 114
172 170 114
172 170 114
172 170 114
172 170 114
172 170 114
172 170 114
173 170 114
173 171 114
173 171 114
173 171 114
173 171 114
174 171 114
174 171 114
174 171 114
174 171 114
174 171 114
175 171 114
175 171 114
175 171 114
175 172 114
175 172 114
176 172 114
176 172 114
176 172 114
176 172 114
176 172 114
177 172 114
177 172 114
177 172 114
177 172 114
177 173 114
177 173 114
178 173 114
178 173 114
178 173 114
178 173 114
178 173 114
179 173 114
179 173 114
179 173 114
179 174 114
180 174 114
180 174 114
180 174 114
180 174 114
180 174 114
181 174 114
181 174 114
174 197 80
174 197 51
175 198 67
174 197 44
175 197 62
175 197 62
174 197 62
173 197 62
173 196 62
175 198 44
172 196 76
173 197 51
173 197 67
173 196 57
171 194 72
175 198 57
174 197 36
172 196 57
174 198 51
172 195 57
172 196 62
171 195 57
173 197 67
173 196 36
176 199 57
171 195 44
175 198 51
175 199 67
173 197 36
173 197 57
174 198 57
172 195 44
174 197 51
173 196 62
176 199 25
175 198 51
173 197 36
173 196 25
172 195 44
173 197 62
172 196 51
173 197 51
174 198 57
176 199 67
174 197 62
175 199 80
173 197 62
175 198 51
176 199 51
174 198 51
173 196 0
171 195 44
174 197 25
175 198 36
174 198 62
173 197 44
171 195 0
175 198 36
175 199 62
174 198 51
174 197 36
176 199 36
175 199 57
175 199 57
175 198 44
172 196 57
176 199 57
175 198 44
174 198 44
174 199 72
175 198 25
174 197 36
177 199 25
172 196 36
175 199 62
175 198 44
175 199 62
176 199 44
173 197 51
174 198 51
175 199 51
174 198 36
173 197 44
174 198 62
173 198 57
175 198 0
175 198 44
175 199 62
175 198 57
174 198 51
176 200 67
173 196 36
175 199 57
173 197 44
173 197 51
174 198 57
173 198 62
175 198 57
174 198 57
175 198 44
175 199 67
174 198 67
175 199 72
174 198 36
174 198 67
175 199 51
175 199 67
174 198 57
175 199 62
175 199 72
173 197 25
173 197 36
173 197 44
175 199 67
174 197 44
176 199 62
176 199 44
175 198 44
175 199 72
174 198 36
175 199 72
174 198 67
176 199 57
174 197 51
176 199 57
177 201 95
175 199 72
177 201 99
177 201 92
178 203 135
177 201 102
179 202 117
190 212 179
203 223 230
211 230 255
211 230 255
211 230 255
211 230 255
211 230 255
211 230 255
211 230 255
211 230 255
211 230 255
211 230 255
211 230 255
120 144 185
62 98 159
62 98 158
62 97 156
61 97 152
61 97 156
62 98 162
62 97 155
61 97 150
63 99 165
61 98 160
61 97 154
61 96 144
61 97 158
61 96 149
61 97 153
62 97 152
61 97 156
61 97 155
60 96 151
61 97 151
62 98 150
62 98 164
62 98 153
61 97 155
61 97 156
63 99 161
63 99 163
61 97 160
61 96 147
61 97 147
61 97 153
62 98 154
61 97 157
61 97 157
62 98 155
62 98 160
62 98 155
62 98 155
62 98 158
62 97 155
61 96 147
63 98 158
62 98 162
62 97 155
61 96 152
62 98 155
61 96 151
62 98 153
60 96 147
62 98 155
62 97 151
62 97 152
62 98 160
62 97 158
61 96 149
61 97 155
62 98 159
62 97 154
61 96 152
61 97 153
62 97 157
62 97 152
61 97 151
61 97 154
62 98 156
61 97 158
62 97 154
62 97 153
62 97 156
62 98 159
61 97 157
61 97 152
62 98 161
61 97 147
62 98 156
62 98 159
62 98 156
61 97 147
62 97 157
61 96 149
61 97 153
62 97 155
62 98 160
62 97 154
62 97 154
62 97 157
62 98 152
63 98 152
61 97 156
61 96 145
61 96 151
62 97 153
61 96 148
61 97 160
61 97 150
62 98 160
61 96 152
61 97 152
62 98 159
61 97 159
62 97 156
61 96 155
61 97 160
62 97 156
62 97 160
61 96 158
62 96 154
61 95 155
126 148 189
211 230 255
211 230 255
211 230 255
211 230 255
211 230 255
211 230 255
211 230 255
211 230 255
211 230 255
211 230 255
211 230 254
196 199 183
182 175 114
179 173 114
177 172 114
175 172 114
174 171 114
173 171 114
172 170 114
171 170 114
170 169 114
170 169 114
169 169 114
169 169 114
168 168 114
168 168 114
167 168 114
167 168 114
167 168 114
167 168 114
166 168 114
166 168 114
166 167 114
166 167 114
166 167 114
166 167 114
165 167 114
165 167 114
165 167 114
165 167 114
165 167 114
165 167 114
165 167 114
165 167 114
165 167 114
165 167 114
165 167 114
165 167 114
165 167 114
165 167 114
165 167 114
165 167 114
166 167 114
166 167 114
166 167 114
166 167 114
166 167 114
166 167 114
166 167 114
166 168 114
166 168 114
166 168 114
166 168 114
167 168 114
167 168 114
167 168 114
167 168 114
167 168 114
167 168 114
167 168 114
168 168 114
168 168 114
168 168 114
168 168 114
168 168 114
168 168 114
169 169 114
169 169 114
169 169 114
169 169 114
169 169 114
169 169 114
169 169 114
170 169 114
170 169 114
170 169 114
170 169 114
170 169 114
171 169 114
171 170 114
171 170 114
171 170 114
171 170 114
171 170 114
172 170 114
172 170 114
172 170 114
172 170 114
172 170 114
172 170 114
173 170 114
173 171 114
173 171 114
173 171 114
173 171 114
174 171 114
174 171 114
174 171 114
174 171 114
174 171 114
174 171 114
175 171 114
175 171 114
175 172 114
175 172 114
175 172 114
176 172 114
176 172 114
176 172 114
176 172 114
176 172 114
177 172 114
177 172 114
177 172 114
177 172 114
177 173 114
178 173 114
178 173 114
178 173 114
178 173 114
178 173 114
178 173 114
179 173 114
179 173 114
179 173 114
179 173 114
179 174 114
180 174 114
180 174 114
180 174 114
180 174 114
180 174 114
181 174 114
181 174 114
181 174 114
170 193 51
172 195 51
174 198 62
173 196 62
173 196 57
173 195 44
173 195 25
173 195 51
171 194 51
171 193 57
172 195 25
175 198 67
176 199 67
174 197 62
174 197 36
174 197 44
174 196 36
172 195 62
175 197 51
176 199 62
175 198 62
173 196 44
174 198 67
171 194 62
171 193 51
174 197 51
174 198 51
175 198 44
173 197 57
174 197 57
173 196 51
171 195 44
174 197 44
173 196 62
174 198 62
174 198 62
172 195 36
175 198 36
177 199 51
176 199 67
173 197 62
176 199 67
174 198 36
173 196 57
172 196 36
173 197 57
175 198 51
172 196 51
174 197 44
173 196 36
170 194 51
174 197 44
174 198 44
173 197 44
175 199 36
175 198 25
172 196 36
177 200 62
173 197 25
173 197 25
176 199 62
174 198 44
175 198 25
173 197 25
176 199 67
175 199 57
174 198 36
174 198 44
172 196 62
174 197 44
173 197 51
175 198 57
172 197 44
174 198 57
177 201 80
174 198 51
174 198 25
175 199 67
174 198 51
173 197 25
173 196 25
174 198 67
174 198 62
174 198 57
175 198 57
174 198 36
175 199 44
174 198 36
175 198 44
176 199 57
174 199 80
175 198 25
174 198 62
175 199 57
175 199 67
175 199 51
175 198 51
173 197 57
174 198 57
174 198 44
175 198 57
174 198 51
172 196 36
174 197 25
173 197 36
174 198 57
174 198 36
174 198 44
175 199 51
173 198 51
175 199 62
174 198 36
174 198 62
175 198 25
175 199 44
174 198 57
174 197 51
175 199 76
175 198 51
175 199 67
175 199 76
175 198 62
176 200 72
173 198 67
174 198 72
174 198 67
175 198 67
177 201 111
176 199 80
178 201 95
177 201 105
181 205 137
181 204 130
187 210 169
204 224 234
212 230 255
212 230 255
212 230 255
212 230 255
211 230 255
211 230 255
211 230 255
211 230 255
211 230 255
173 193 223
60 96 153
61 97 152
61 97 147
61 96 149
62 98 154
62 98 160
61 97 156
61 96 144
61 97 153
61 97 152
62 98 154
62 97 151
62 98 157
62 98 160
61 98 158
62 98 161
61 97 156
62 98 161
61 97 151
62 98 155
62 97 149
62 97 153
62 98 151
61 96 151
62 98 155
60 96 147
62 98 155
60 95 145
61 97 149
62 98 156
62 97 143
62 98 160
61 97 155
61 97 154
62 98 154
61 97 155
61 97 149
62 97 153
61 96 144
61 97 153
61 96 145
61 97 152
62 97 155
61 97 160
61 97 156
61 97 153
62 97 150
61 97 152
62 98 161
61 97 153
63 99 159
62 98 161
62 97 153
63 98 158
61 96 150
61 97 155
61 96 148
62 98 158
62 98 160
61 96 150
62 98 153
61 96 145
61 97 149
61 96 152
62 97 153
63 98 158
62 97 158
61 97 149
62 98 160
62 98 157
61 96 149
62 96 147
62 98 157
62 98 158
61 97 153
62 98 154
61 97 155
62 97 151
62 98 155
62 97 148
62 97 160
61 97 154
60 96 145
61 96 152
62 97 157
61 97 153
61 96 151
61 96 152
62 97 152
61 97 159
61 96 145
61 96 153
62 98 159
61 97 154
61 96 158
61 96 154
61 97 156
62 97 149
62 96 154
62 97 157
62 97 153
61 96 152
60 95 147
61 95 149
62 97 155
61 96 152
61 95 152
61 95 147
60 94 146
61 95 152
182 202 232
211 230 255
211 230 255
211 230 255
211 230 255
211 230 255
212 230 255
212 230 255
212 230 255
212 230 255
198 203 194
182 175 114
179 173 114
177 173 114
176 172 114
175 171 114
173 171 114
173 170 114
172 170 114
171 170 114
170 169 114
170 169 114
169 169 114
169 169 114
168 169 114
168 168 114
168 168 114
167 168 114
167 168 114
167 168 114
167 168 114
167 168 114
166 168 114
166 168 114
166 168 114
166 167 114
166 167 114
166 167 114
166 167 114
166 167 114
166 167 114
166 167 114
166 167 114
166 167 114
166 167 114
166 167 114
166 167 114
166 167 114
166 167 114
166 167 114
166 167 114
166 167 114
166 167 114
166 168 114
166 168 114
166 168 114
167 168 114
167 168 114
167 168 114
167 168 114
167 168 114
167 168 114
167 168 114
167 168 114
167 168 114
168 168 114
168 168 114
168 168 114
168 168 114
168 168 114
168 168 114
168 169 114
169 169 114
169 169 114
169 169 114
169 169 114
169 169 114
169 169 114
169 169 114
170 169 114
170 169 114
170 169 114
170 169 114
170 169 114
170 169 114
171 170 114
171 170 114
171 170 114
171 170 114
171 170 114
171 170 114
172 170 114
172 170 114
172 170 114
172 170 114
172 170 114
172 170 114
173 170 114
173 171 114
173 171 114
173 171 114
173 171 114
174 171 114
174 171 114
174 171 114
174 171 114
174 171 114
174 171 114
175 171 114
175 171 114
175 172 114
175 172 114
175 172 114
176 172 114
176 172 114
176 172 114
176 172 114
176 172 114
176 172 114
177 172 114
177 172 114
177 172 114
177 173 114
177 173 114
178 173 114
178 173 114
178 173 114
178 173 114
178 173 114
179 173 114
179 173 114
179 173 114
179 173 114
179 173 114
179 174 114
180 174 114
180 174 114
180 174 114
180 174 114
180 174 114
181 174 114
181 174 114
181 174 114
181 174 114
181 174 114
177 200 67
176 199 88
173 196 57
175 198 62
174 198 57
174 196 57
172 196 67
175 198 62
175 198 62
172 195 44
173 197 44
175 199 76
176 199 51
176 199 67
174 196 57
172 194 51
175 198 51
170 194 57
174 197 44
171 195 51
173 196 36
171 194 67
173 196 44
172 195 51
175 198 51
174 197 57
174 198 36
172 196 51
171 195 57
175 198 51
174 197 51
171 194 36
174 198 57
174 198 51
173 196 36
173 197 36
176 199 67
175 199 51
175 198 51
172 195 57
171 195 57
172 195 25
176 199 67
177 200 57
176 199 51
175 199 67
175 199 72
173 197 51
170 194 44
173 196 57
175 198 80
173 196 44
172 196 51
174 197 51
173 196 44
173 196 44
172 196 57
172 195 36
172 195 36
176 199 51
173 197 51
175 198 51
173 197 44
175 198 62
177 200 62
174 198 51
176 199 62
173 197 51
173 197 44
173 197 0
176 199 62
173 197 36
175 198 62
175 199 76
172 196 57
175 198 44
174 198 57
175 198 36
175 198 25
176 199 51
175 199 57
172 196 44
175 199 57
174 198 62
175 198 62
173 197 36
175 199 76
173 197 72
176 200 67
175 199 51
174 198 44
174 198 51
174 198 51
173 198 51
175 198 44
173 198 51
174 198 44
175 198 25
175 199 51
172 197 51
176 199 62
175 198 25
173 197 36
175 199 67
173 197 44
174 198 51
174 198 44
175 199 57
175 199 44
175 199 51
174 198 62
175 199 62
175 198 57
173 196 36
176 199 62
175 199 51
174 198 51
175 198 0
176 199 57
174 198 57
174 197 51
174 197 25
175 199 51
176 199 57
172 197 57
172 196 57
175 200 99
175 199 67
175 199 88
175 199 51
175 199 84
176 199 92
180 204 117
180 203 125
188 210 165
204 224 227
212 230 255
212 230 255
212 230 255
212 230 255
212 230 255
212 230 255
212 230 255
211 229 255
95 122 160
60 96 151
62 98 156
62 98 156
61 97 153
62 98 156
61 97 155
60 96 145
62 98 161
61 97 151
61 97 154
61 97 154
62 98 158
62 98 159
61 97 160
61 96 145
62 98 160
61 97 147
62 98 160
61 97 151
62 98 156
62 97 153
62 98 161
62 98 158
63 98 158
63 98 157
60 96 152
61 97 154
61 97 153
63 98 162
62 98 158
61 96 154
62 98 159
62 97 154
60 96 148
61 96 145
61 96 142
62 98 163
62 98 156
62 97 154
62 98 156
61 96 154
61 97 152
62 98 163
61 97 155
60 95 148
62 98 158
60 96 145
61 96 151
61 97 155
61 97 147
61 97 155
61 97 147
62 98 157
61 96 147
61 96 147
61 96 144
62 97 157
60 96 148
61 97 152
61 96 151
61 96 140
61 97 152
61 97 148
62 98 157
62 98 158
61 96 143
62 98 160
62 98 157
62 98 158
62 98 152
62 98 163
62 98 159
62 98 158
62 98 159
62 97 156
60 96 147
62 98 157
62 98 160
62 97 152
61 96 149
61 97 156
62 97 154
60 95 144
62 98 159
61 96 148
62 97 153
60 95 141
61 97 154
62 97 155
62 97 155
62 97 155
62 98 161
61 97 159
61 97 152
61 96 152
61 96 151
60 96 153
61 96 154
61 97 151
61 97 155
60 95 150
62 98 165
61 96 150
61 96 156
62 98 161
61 96 150
60 95 148
61 96 158
60 94 149
61 95 158
101 126 172
206 224 250
212 230 255
212 230 255
212 230 255
212 230 255
212 230 255
212 230 255
212 230 255
200 207 203
182 175 114
180 174 114
178 173 114
176 172 114
175 172 114
174 171 114
173 171 114
172 170 114
172 170 114
171 170 114
170 169 114
170 169 114
169 169 114
169 169 114
169 169 114
168 169 114
168 168 114
168 168 114
168 168 114
167 168 114
167 168 114
167 168 114
167 168 114
167 168 114
167 168 114
167 168 114
167 168 114
167 168 114
166 168 114
166 168 114
166 168 114
166 168 114
166 168 114
166 168 114
166 168 114
166 168 114
166 168 114
166 168 114
167 168 114
167 168 114
167 168 114
167 168 114
167 168 114
167 168 114
167 168 114
167 168 114
167 168 114
167 168 114
167 168 114
168 168 114
168 168 114
168 168 114
168 168 114
168 168 114
168 168 114
168 168 114
168 169 114
169 169 114
169 169 114
169 169 114
169 169 114
169 169 114
169 169 114
169 169 114
170 169 114
170 169 114
170 169 114
170 169 114
170 169 114
170 169 114
170 169 114
171 169 114
171 170 114
171 170 114
171 170 114
171 170 114
171 170 114
172 170 114
172 170 114
172 170 114
172 170 114
172 170 114
172 170 114
173 170 114
173 170 114
173 171 114
173 171 114
173 171 114
173 171 114
174 171 114
174 171 114
174 171 114
174 171 114
174 171 114
175 171 114
175 171 114
175 171 114
175 172 114
175 172 114
175 172 114
176 172 114
176 172 114
176 172 114
176 172 114
176 172 114
176 172 114
177 172 114
177 172 114
177 172 114
177 172 114
177 173 114
178 173 114
178 173 114
178 173 114
178 173 114
178 173 114
178 173 114
179 173 114
179 173 114
179 173 114
179 173 114
179 174 114
179 174 114
180 174 114
180 174 114
180 174 114
180 174 114
180 174 114
181 174 114
181 174 114
181 174 114
181 174 114
181 174 114
182 175 114
182 175 114
172 195 44
177 200 92
177 200 57
172 195 51
176 199 72
174 197 51
177 199 57
171 193 62
172 196 57
175 198 62
172 195 57
174 198 67
175 198 67
173 196 57
170 193 25
171 195 57
172 195 36
170 193 57
169 192 36
174 197 67
173 196 36
173 197 51
172 196 44
174 197 25
172 195 51
174 197 51
173 197 62
172 195 62
174 197 72
172 196 51
171 194 51
176 198 51
173 196 51
174 196 51
172 194 44
173 196 51
170 194 57
175 198 44
175 198 72
173 197 25
174 197 51
173 197 44
173 196 25
175 197 44
170 193 25
174 198 51
175 198 36
176 199 51
176 200 62
175 198 57
173 197 57
176 198 57
176 200 67
173 196 51
173 196 36
174 197 51
174 198 62
174 198 44
171 195 51
176 199 62
173 196 36
173 196 36
173 197 57
173 197 44
174 198 36
175 198 44
175 198 25
174 198 67
174 197 25
175 198 44
174 198 51
174 198 67
176 199 62
174 197 44
176 199 67
176 199 62
175 200 84
175 199 72
175 198 44
174 198 62
175 198 51
174 198 67
174 199 62
176 200 62
174 198 51
173 198 57
175 198 36
176 199 57
175 199 51
175 198 44
176 200 72
174 198 44
175 199 44
173 197 44
174 198 25
175 198 67
174 198 51
176 199 62
176 200 67
174 197 51
175 198 25
175 198 44
173 197 62
173 198 62
176 200 72
175 199 51
175 199 51
174 198 57
174 198 36
174 198 57
175 199 44
174 199 76
174 198 62
174 198 36
175 199 44
175 199 51
174 198 0
175 198 25
174 198 36
174 198 57
175 199 67
174 198 57
175 199 76
174 198 51
174 197 44
174 198 57
175 198 76
175 199 76
174 198 51
176 199 76
177 201 92
177 200 76
175 199 95
174 198 84
178 201 129
190 212 189
207 226 242
212 230 255
212 230 255
212 230 255
212 230 255
212 230 255
212 230 255
154 175 207
60 96 145
61 97 150
61 97 148
60 96 141
62 98 158
62 97 152
61 97 152
61 97 155
60 96 154
62 97 156
61 97 152
61 97 154
61 96 149
61 96 151
61 96 144
61 97 156
61 97 151
62 98 156
62 97 152
62 98 153
61 96 147
62 98 158
62 98 161
61 96 147
61 97 152
61 96 150
61 96 151
61 97 151
62 97 153
62 98 156
62 98 157
61 97 154
62 97 151
62 98 159
61 96 145
62 97 159
61 96 148
61 96 143
60 96 144
60 96 145
61 96 149
61 97 154
61 97 151
62 98 154
62 97 150
62 97 152
62 97 151
63 98 160
61 97 149
62 98 158
61 97 151
61 97 153
61 96 145
62 98 157
62 98 153
61 96 153
62 98 157
61 97 155
61 97 154
60 95 141
61 97 153
62 98 160
62 98 159
61 96 154
62 98 159
61 96 148
60 95 143
62 98 154
60 96 149
60 96 149
62 97 151
61 96 141
61 97 157
61 96 149
62 98 159
61 97 154
62 97 151
61 96 156
61 96 144
61 96 148
62 99 165
61 97 152
61 96 149
61 97 153
62 98 154
61 97 156
61 97 153
61 96 149
63 99 164
60 95 143
62 98 161
62 97 157
61 96 150
62 97 154
62 97 153
63 98 163
61 97 159
61 96 150
62 97 156
62 97 155
60 95 142
62 97 150
61 96 151
61 96 156
62 97 160
60 95 146
62 98 161
61 95 142
61 96 156
61 95 151
61 96 149
60 94 151
162 182 215
212 230 255
212 230 255
212 230 255
212 230 255
212 230 255
212 230 255
203 213 217
184 176 116
180 174 114
178 173 114
177 172 114
176 172 114
175 171 114
174 171 114
173 171 114
172 170 114
172 170 114
171 170 114
171 169 114
170 169 114
170 169 114
169 169 114
169 169 114
169 169 114
168 169 114
168 168 114
168 168 114
168 168 114
168 168 114
168 168 114
167 168 114
167 168 114
167 168 114
167 168 114
167 168 114
167 168 114
167 168 114
167 168 114
167 168 114
167 168 114
167 168 114
167 168 114
167 168 114
167 168 114
167 168 114
167 168 114
167 168 114
167 168 114
167 168 114
167 168 114
168 168 114
168 168 114
168 168 114
168 168 114
168 168 114
168 168 114
168 168 114
168 168 114
168 169 114
168 169 114
169 169 114
169 169 114
169 169 114
169 169 114
169 169 114
169 169 114
169 169 114
170 169 114
170 169 114
170 169 114
170 169 114
170 169 114
170 169 114
170 169 114
171 169 114
171 170 114
171 170 114
171 170 114
171 170 114
171 170 114
171 170 114
172 170 114
172 170 114
172 170 114
172 170 114
172 170 114
172 170 114
173 170 114
173 170 114
173 171 114
173 171 114
173 171 114
173 171 114
174 171 114
174 171 114
174 171 114
174 171 114
174 171 114
174 171 114
175 171 114
175 171 114
175 171 114
175 172 114
175 172 114
175 172 114
176 172 114
176 172 114
176 172 114
176 172 114
176 172 114
176 172 114
177 172 114
177 172 114
177 172 114
177 173 114
177 173 114
177 173 114
178 173 114
178 173 114
178 173 114
178 173 114
178 173 114
178 173 114
179 173 114
179 173 114
179 173 114
179 173 114
179 174 114
180 174 114
180 174 114
180 174 114
180 174 114
180 174 114
180 174 114
181 174 114
181 174 114
181 174 114
181 174 114
181 174 114
182 175 114
182 175 114
182 175 114
182 175 114
175 198 57
173 196 72
172 196 65
174 197 44
173 195 80
174 197 57
174 198 51
172 195 60
175 198 72
172 196 72
172 195 44
175 198 72
173 197 44
171 194 44
175 198 57
171 193 44
168 191 25
172 195 44
176 199 51
169 192 44
171 194 57
172 195 76
171 194 44
174 196 67
173 196 62
175 198 57
174 197 57
175 199 57
174 197 57
172 196 62
174 198 57
175 198 51
168 191 36
172 195 62
168 191 36
176 199 25
173 196 44
173 197 44
172 196 72
172 195 51
173 196 44
173 196 51
171 194 25
175 197 51
173 197 57
175 198 44
176 199 57
177 201 80
178 200 57
175 199 51
176 199 51
175 198 57
175 198 57
173 196 57
173 196 57
174 198 44
175 198 67
176 198 51
174 197 44
174 197 44
174 197 44
174 197 44
176 199 57
174 197 44
175 199 44
174 197 44
175 198 57
174 198 62
172 196 62
172 197 51
173 198 62
173 197 25
176 199 62
174 198 57
175 198 51
174 198 62
176 199 44
175 199 44
175 199 62
173 197 36
176 199 51
175 198 44
175 198 57
174 198 25
172 195 51
174 198 72
174 197 57
175 198 44
176 199 57
174 198 72
173 198 62
174 197 36
174 198 36
174 198 51
175 199 51
175 199 36
175 198 67
176 199 44
174 197 25
176 199 57
175 199 51
174 198 36
174 198 62
173 197 36
174 198 62
174 198 36
175 198 51
176 199 36
175 199 44
175 199 67
174 198 51
176 199 44
175 199 57
175 199 67
175 199 51
174 198 62
176 199 51
174 198 51
175 199 67
176 199 62
176 199 57
174 198 36
175 199 44
176 200 76
174 198 44
176 199 44
175 198 51
174 198 57
176 199 51
174 198 51
174 198 72
175 199 72
175 198 76
177 200 94
180 204 135
182 205 144
190 212 182
210 228 246
212 231 255
212 231 255
212 231 255
212 231 255
200 219 246
70 102 149
61 97 154
61 96 152
61 97 152
62 97 156
62 97 152
60 96 153
61 97 149
61 97 152
62 97 156
62 98 160
61 96 151
61 97 158
61 97 148
61 97 150
61 97 150
62 97 154
62 97 145
61 96 147
62 98 157
61 97 153
62 98 155
61 97 159
61 97 148
61 97 154
62 97 155
62 97 148
62 98 154
62 98 155
61 97 152
61 97 154
62 98 160
62 97 149
61 96 149
62 98 163
62 97 152
62 98 158
62 97 155
62 98 163
60 95 145
62 98 158
62 97 151
61 96 148
62 97 151
61 96 154
61 96 147
61 96 144
61 97 152
61 96 149
62 97 151
62 98 159
61 97 150
62 98 161
62 97 149
60 95 140
61 97 153
62 97 154
62 98 153
62 97 150
61 97 152
61 97 147
62 97 149
62 97 158
62 98 159
62 97 154
61 96 144
61 97 145
61 96 149
61 96 149
62 98 160
62 98 158
61 96 143
61 96 151
61 97 151
61 97 158
60 95 148
60 95 147
62 97 153
62 98 160
62 98 158
61 96 151
61 96 152
63 98 156
62 98 157
61 97 158
61 97 151
62 97 149
62 97 150
61 96 149
63 99 162
62 98 162
63 98 160
62 97 156
61 97 151
60 94 143
61 96 149
61 96 149
62 97 156
61 96 149
61 96 148
61 96 153
60 96 150
61 95 146
60 95 147
60 95 152
62 97 157
60 95 155
61 97 155
61 96 154
60 95 151
60 94 141
59 93 147
61 95 150
80 108 155
204 223 250
212 231 255
212 231 255
212 231 255
212 231 255
208 221 234
185 178 121
181 174 114
179 173 114
178 173 114
176 172 114
175 172 114
174 171 114
174 171 114
173 171 114
172 170 114
172 170 114
171 170 114
171 170 114
170 169 114
170 169 114
170 169 114
169 169 114
169 169 114
169 169 114
169 169 114
169 169 114
168 169 114
168 168 114
168 168 114
168 168 114
168 168 114
168 168 114
168 168 114
168 168 114
168 168 114
168 168 114
168 168 114
168 168 114
168 168 114
168 168 114
168 168 114
168 168 114
168 168 114
168 168 114
168 168 114
168 168 114
168 168 114
168 168 114
168 168 114
168 168 114
168 169 114
168 169 114
169 169 114
169 169 114
169 169 114
169 169 114
169 169 114
169 169 114
169 169 114
169 169 114
169 169 114
170 169 114
170 169 114
170 169 114
170 169 114
170 169 114
170 169 114
170 169 114
171 169 114
171 170 114
171 170 114
171 170 114
171 170 114
171 170 114
171 170 114
172 170 114
172 170 114
172 170 114
172 170 114
172 170 114
172 170 114
172 170 114
173 170 114
173 171 114
173 171 114
173 171 114
173 171 114
173 171 114
174 171 114
174 171 114
174 171 114
174 171 114
174 171 114
174 171 114
175 171 114
175 171 114
175 171 114
175 172 114
175 172 114
175 172 114
175 172 114
176 172 114
176 172 114
176 172 114
176 172 114
176 172 114
177 172 114
177 172 114
177 172 114
177 172 114
177 173 114
177 173 114
177 173 114
178 173 114
178 173 114
178 173 114
178 173 114
178 173 114
179 173 114
179 173 114
179 173 114
179 173 114
179 173 114
179 174 114
180 174 114
180 174 114
180 174 114
180 174 114
180 174 114
180 174 114
181 174 114
181 174 114
181 174 114
181 174 114
181 174 114
181 174 114
182 175 114
182 175 114
182 175 114
182 175 114
182 175 114
182 175 114
176 198 62
168 191 60
174 197 57
173 196 62
172 196 60
173 196 36
174 198 62
168 191 76
174 198 25
173 196 72
172 196 47
171 193 47
174 197 62
170 194 44
173 196 44
175 197 67
173 197 44
172 194 54
173 196 51
174 198 57
172 195 76
172 194 57
170 194 51
175 198 67
179 201 57
174 197 51
174 197 51
174 197 25
172 195 44
175 198 51
174 197 51
169 193 51
172 195 44
167 190 57
165 189 36
175 198 57
173 196 44
172 195 44
176 199 44
171 195 25
174 198 62
171 195 36
169 193 67
173 197 62
173 198 62
173 196 44
176 200 80
174 197 51
173 197 57
174 197 57
174 197 51
174 197 44
176 199 62
175 198 57
173 196 51
170 195 36
172 195 62
173 197 62
174 197 36
175 198 67
172 196 25
174 197 51
176 199 57
174 197 57
175 199 72
172 196 36
175 198 51
176 199 62
173 197 51
174 198 57
174 198 44
174 197 44
173 197 25
174 198 57
175 198 57
176 198 44
174 198 57
176 199 67
177 200 62
176 198 44
175 199 51
176 199 72
175 199 62
174 198 62
174 198 25
175 199 44
175 199 72
174 198 62
177 200 51
174 198 44
175 199 72
172 196 44
175 198 44
175 198 0
175 199 57
176 199 57
173 197 36
174 198 44
174 198 51
175 198 25
173 198 51
175 198 36
175 199 44
174 198 51
176 199 51
173 197 25
175 199 44
173 197 36
176 199 57
174 198 51
174 198 57
175 199 72
177 200 67
176 199 62
174 198 57
175 198 51
174 198 51
175 199 62
175 199 57
174 198 62
176 199 51
176 199 36
175 199 62
174 198 51
174 198 44
176 199 51
175 199 57
172 196 25
174 197 36
175 199 67
175 199 80
177 200 84
177 201 92
178 202 99
179 203 122
177 200 105
183 206 157
190 212 173
212 230 254
213 231 255
213 231 255
213 231 255
131 153 184
61 97 151
61 97 154
61 97 150
61 96 151
61 97 145
61 96 148
62 98 154
61 96 152
61 97 151
61 97 158
61 96 152
62 98 155
61 96 150
62 97 154
62 98 156
62 97 153
61 96 144
63 98 158
60 96 145
62 98 156
62 97 149
62 97 148
61 96 151
62 98 154
62 97 155
61 96 153
61 97 156
61 97 147
63 99 167
62 97 150
62 98 154
61 97 150
62 98 152
62 98 156
62 98 158
61 96 154
61 96 150
61 96 144
61 96 149
62 97 150
62 97 153
62 98 158
62 98 155
60 96 150
61 96 147
61 96 142
63 99 164
61 96 152
62 97 152
61 97 150
62 97 152
61 96 150
61 97 155
62 97 153
62 98 156
61 97 150
62 97 154
62 98 160
61 97 150
62 97 147
62 97 152
62 98 152
62 97 154
61 96 145
60 96 153
61 97 151
62 97 152
61 97 151
62 98 156
62 98 157
61 97 149
62 97 161
61 96 152
62 97 154
62 97 155
62 97 154
61 97 150
61 96 153
61 96 148
62 98 159
62 98 163
61 96 147
63 98 154
60 95 144
62 97 157
60 96 147
61 96 151
60 95 149
62 97 155
61 96 147
61 96 149
61 97 152
61 97 154
62 97 158
62 97 154
62 98 160
61 96 147
61 96 152
61 96 147
61 97 156
61 96 153
61 96 144
61 96 155
62 98 158
61 96 151
61 95 150
62 97 152
61 96 157
60 94 147
61 96 147
61 96 149
61 95 154
60 93 142
60 94 145
139 160 197
213 231 255
213 231 255
213 231 255
211 227 247
189 184 141
182 175 114
180 174 114
178 173 114
177 172 114
176 172 114
175 172 114
174 171 114
174 171 114
173 171 114
172 170 114
172 170 114
172 170 114
171 170 114
171 170 114
170 169 114
170 169 114
170 169 114
170 169 114
169 169 114
169 169 114
169 169 114
169 169 114
169 169 114
169 169 114
169 169 114
169 169 114
169 169 114
168 169 114
168 169 114
168 169 114
168 169 114
168 169 114
168 169 114
168 169 114
168 169 114
169 169 114
169 169 114
169 169 114
169 169 114
169 169 114
169 169 114
169 169 114
169 169 114
169 169 114
169 169 114
169 169 114
169 169 114
169 169 114
169 169 114
170 169 114
170 169 114
170 169 114
170 169 114
170 169 114
170 169 114
170 169 114
170 169 114
170 169 114
171 170 114
171 170 114
171 170 114
171 170 114
171 170 114
171 170 114
171 170 114
172 170 114
172 170 114
172 170 114
172 170 114
172 170 114
172 170 114
172 170 114
173 170 114
173 170 114
173 171 114
173 171 114
173 171 114
173 171 114
173 171 114
174 171 114
174 171 114
174 171 114
174 171 114
174 171 114
174 171 114
175 171 114
175 171 114
175 171 114
175 172 114
175 172 114
175 172 114
175 172 114
176 172 114
176 172 114
176 172 114
176 172 114
176 172 114
176 172 114
177 172 114
177 172 114
177 172 114
177 172 114
177 173 114
177 173 114
178 173 114
178 173 114
178 173 114
178 173 114
178 173 114
178 173 114
179 173 114
179 173 114
179 173 114
179 173 114
179 173 114
179 174 114
180 174 114
180 174 114
180 174 114
180 174 114
180 174 114
180 174 114
180 174 114
181 174 114
181 174 114
181 174 114
181 174 114
181 174 114
181 175 114
182 175 114
182 175 114
182 175 114
182 175 114
182 175 114
183 175 114
183 175 114
183 175 114
174 197 60
170 194 57
175 198 76
173 196 51
172 195 72
173 197 54
171 196 36
174 196 57
172 194 47
175 197 44
172 196 47
172 194 25
175 199 67
174 197 51
176 199 80
166 190 36
172 196 57
177 199 44
170 193 51
174 198 57
173 197 44
171 194 51
173 196 54
176 199 51
170 194 25
173 196 72
174 198 44
168 192 47
176 199 62
169 193 57
172 195 51
174 196 51
170 193 57
177 200 76
173 196 36
168 192 51
172 195 36
172 195 67
172 196 36
173 196 62
172 195 44
174 197 51
170 193 44
171 194 25
174 198 62
169 192 36
173 197 44
172 196 51
175 198 57
175 198 67
175 198 72
174 198 51
174 197 44
170 194 76
174 197 36
172 195 51
173 197 25
172 196 44
175 197 36
173 197 67
175 199 57
174 197 44
173 197 0
173 196 25
173 197 57
173 196 57
174 197 51
174 198 51
173 197 57
174 197 57
176 199 62
175 198 51
176 199 44
174 198 72
176 199 44
175 198 36
175 198 67
172 195 36
174 198 51
175 199 44
174 197 25
173 196 57
175 198 36
175 198 51
175 198 51
176 200 67
174 198 57
177 200 62
176 198 36
175 198 62
174 198 72
177 200 62
175 199 44
174 198 62
176 199 62
177 200 62
175 199 57
175 199 62
174 198 51
173 197 0
175 198 44
175 199 44
175 198 57
175 198 57
173 197 57
175 200 84
176 199 36
174 198 51
176 199 57
175 199 57
175 199 57
177 200 62
174 198 25
175 199 76
174 198 44
174 198 51
175 199 57
174 198 62
174 198 62
176 199 51
174 199 62
176 199 51
175 198 51
174 198 25
174 198 62
176 200 76
173 197 36
177 200 72
175 199 51
176 200 88
173 197 67
176 200 80
178 201 95
179 202 80
176 200 99
178 201 105
183 206 135
184 207 151
196 216 207
213 231 255
213 231 255
199 217 244
61 97 149
60 96 145
61 96 143
61 97 152
61 97 153
60 96 150
61 96 145
61 96 151
62 98 153
60 96 145
61 96 148
61 97 154
61 97 150
62 98 156
61 96 142
61 96 150
61 97 156
61 97 154
60 95 147
62 97 152
61 97 151
61 97 152
62 97 157
61 97 150
60 96 150
61 96 147
61 97 151
60 96 150
62 98 158
62 98 156
61 97 151
61 96 153
61 96 144
61 96 143
62 98 157
61 97 154
62 97 152
61 97 153
61 96 147
61 96 149
62 98 155
62 97 151
61 97 152
62 97 150
61 97 150
61 96 149
61 97 144
61 97 149
61 97 148
62 98 157
60 95 136
61 96 150
61 96 144
63 98 158
62 98 157
61 96 151
62 97 150
62 97 153
61 97 152
61 97 149
61 96 144
60 96 144
61 97 154
60 96 142
61 97 150
62 97 152
61 96 148
60 94 135
62 98 160
61 96 150
61 96 148
62 97 150
62 98 158
62 98 155
62 97 152
62 97 150
62 98 153
62 98 153
61 96 148
62 97 156
61 97 151
61 97 153
62 97 148
63 99 163
61 97 157
61 97 151
62 97 154
61 97 152
62 97 154
62 98 159
61 96 151
61 96 150
60 95 145
62 98 156
60 95 139
62 97 152
61 97 155
61 96 148
59 94 144
61 96 153
60 96 148
61 96 149
62 97 157
62 97 151
62 96 150
61 96 154
61 95 149
62 97 157
62 97 156
61 96 155
60 95 149
61 95 147
59 93 139
62 96 158
61 95 151
68 99 153
204 222 248
213 231 255
213 231 255
193 191 160
183 175 114
181 174 114
179 173 114
178 173 114
177 172 114
176 172 114
175 172 114
174 171 114
174 171 114
173 171 114
173 170 114
172 170 114
172 170 114
172 170 114
171 170 114
171 170 114
171 170 114
170 169 114
170 169 114
170 169 114
170 169 114
170 169 114
170 169 114
170 169 114
169 169 114
169 169 114
169 169 114
169 169 114
169 169 114
169 169 114
169 169 114
169 169 114
169 169 114
169 169 114
169 169 114
169 169 114
169 169 114
169 169 114
169 169 114
169 169 114
170 169 114
170 169 114
170 169 114
170 169 114
170 169 114
170 169 114
170 169 114
170 169 114
170 169 114
170 169 114
170 169 114
170 169 114
171 169 114
171 170 114
171 170 114
171 170 114
171 170 114
171 170 114
171 170 114
171 170 114
171 170 114
172 170 114
172 170 114
172 170 114
172 170 114
172 170 114
172 170 114
172 170 114
173 170 114
173 170 114
173 171 114
173 171 114
173 171 114
173 171 114
173 171 114
174 171 114
174 171 114
174 171 114
174 171 114
174 171 114
174 171 114
174 171 114
175 171 114
175 171 114
175 171 114
175 172 114
175 172 114
175 172 114
176 172 114
176 172 114
176 172 114
176 172 114
176 172 114
176 172 114
176 172 114
177 172 114
177 172 114
177 172 114
177 172 114
177 173 114
177 173 114
178 173 114
178 173 114
178 173 114
178 173 114
178 173 114
178 173 114
178 173 114
179 173 114
179 173 114
179 173 114
179 173 114
179 173 114
179 174 114
180 174 114
180 174 114
180 174 114
180 174 114
180 174 114
180 174 114
180 174 114
181 174 114
181 174 114
181 174 114
181 174 114
181 174 114
181 175 114
182 175 114
182 175 114
182 175 114
182 175 114
182 175 114
182 175 114
183 175 114
183 175 114
183 175 114
183 175 114
183 175 114
172 196 54
176 199 90
173 196 57
177 200 70
171 194 65
172 195 65
169 191 54
175 197 54
176 199 67
175 198 72
174 196 54
171 195 54
172 195 47
173 197 60
172 196 47
170 193 36
173 197 51
169 192 36
175 199 76
173 196 60
167 190 47
174 197 74
175 199 57
175 198 47
172 195 36
173 196 47
174 197 62
171 195 44
169 192 47
174 197 57
172 195 62
172 196 44
174 197 57
172 193 57
175 198 51
175 198 76
170 193 44
169 192 44
174 197 62
172 196 36
173 197 72
171 195 25
174 196 57
175 198 67
174 196 36
172 195 36
176 200 62
170 194 57
175 198 57
174 197 51
175 198 57
174 198 76
176 199 57
172 195 62
173 197 36
176 199 51
173 195 44
174 197 57
172 195 51
174 197 25
173 197 36
173 197 36
173 196 76
173 196 44
177 200 62
174 197 51
172 196 36
172 197 36
176 199 57
174 198 51
175 199 57
174 196 36
175 198 51
175 199 51
176 199 62
176 199 62
176 199 62
175 199 67
173 197 51
175 199 62
174 198 57
176 200 57
175 199 44
176 199 62
176 200 62
175 199 44
173 197 36
173 196 57
175 198 44
175 199 44
174 198 62
175 199 62
175 198 57
176 200 57
174 197 44
174 199 80
174 197 44
174 197 51
175 198 51
174 198 62
175 198 25
174 197 0
174 198 44
176 199 62
174 198 44
174 198 25
174 198 51
174 198 36
175 199 51
174 198 51
175 199 57
175 199 57
174 198 44
173 197 44
176 199 51
174 198 44
174 198 62
174 198 44
175 199 67
176 200 80
176 199 57
175 198 36
172 197 36
174 198 36
175 198 25
175 199 72
173 197 72
174 198 57
176 200 72
174 199 67
177 199 62
175 199 62
176 200 78
178 201 95
177 200 94
179 202 111
178 201 102
181 204 133
185 207 155
205 224 231
213 231 255
140 162 199
62 97 149
61 97 153
61 96 144
62 98 158
61 97 152
60 96 140
61 96 151
62 97 151
61 96 145
61 96 154
60 96 148
62 98 157
61 97 156
61 97 154
60 96 148
61 97 155
61 96 149
61 97 149
62 98 156
62 98 151
61 97 147
62 98 154
60 95 143
61 97 149
63 98 156
61 97 151
62 97 148
61 97 155
62 98 153
61 97 152
61 97 153
61 96 148
61 96 145
62 98 152
61 97 151
61 97 155
61 96 151
61 96 147
62 97 152
61 96 145
62 98 159
61 96 144
61 97 150
61 97 156
61 97 148
62 98 158
60 96 153
61 96 144
62 98 152
62 97 151
61 97 150
60 96 149
61 96 140
60 95 141
61 96 149
61 97 148
62 98 155
62 98 156
61 97 156
63 99 162
62 98 156
61 96 149
61 97 151
61 97 150
62 98 158
61 97 150
61 97 151
62 97 156
61 96 142
61 97 153
62 97 155
62 97 150
61 97 151
61 97 150
62 97 156
61 96 145
62 97 154
60 95 142
62 97 149
62 98 156
62 97 148
62 98 156
61 96 153
61 96 149
62 98 156
61 97 151
61 97 152
61 96 153
62 98 158
60 95 142
61 97 149
62 97 156
62 98 154
61 96 147
62 98 159
61 96 143
61 97 152
62 97 148
61 95 149
61 97 150
60 95 142
61 96 150
61 96 148
62 97 159
60 95 146
62 96 146
60 95 151
59 94 146
61 97 155
62 97 159
61 96 154
61 95 154
60 95 145
61 96 154
61 95 151
61 94 153
133 154 190
213 231 255
201 206 199
184 176 114
182 175 114
180 174 114
179 173 114
178 173 114
177 172 114
176 172 114
175 172 114
175 171 114
174 171 114
173 171 114
173 171 114
173 170 114
172 170 114
172 170 114
172 170 114
171 170 114
171 170 114
171 170 114
171 170 114
171 170 114
171 169 114
170 169 114
170 169 114
170 169 114
170 169 114
170 169 114
170 169 114
170 169 114
170 169 114
170 169 114
170 169 114
170 169 114
170 169 114
170 169 114
170 169 114
170 169 114
170 169 114
170 169 114
170 169 114
170 169 114
170 169 114
170 169 114
170 169 114
171 169 114
171 170 114
171 170 114
171 170 114
171 170 114
171 170 114
171 170 114
171 170 114
171 170 114
171 170 114
172 170 114
172 170 114
172 170 114
172 170 114
172 170 114
172 170 114
172 170 114
172 170 114
172 170 114
173 170 114
173 170 114
173 171 114
173 171 114
173 171 114
173 171 114
173 171 114
173 171 114
174 171 114
174 171 114
174 171 114
174 171 114
174 171 114
174 171 114
174 171 114
175 171 114
175 171 114
175 171 114
175 172 114
175 172 114
175 172 114
175 172 114
176 172 114
176 172 114
176 172 114
176 172 114
176 172 114
176 172 114
177 172 114
177 172 114
177 172 114
177 172 114
177 172 114
177 173 114
177 173 114
178 173 114
178 173 114
178 173 114
178 173 114
178 173 114
178 173 114
178 173 114
179 173 114
179 173 114
179 173 114
179 173 114
179 173 114
179 174 114
180 174 114
180 174 114
180 174 114
180 174 114
180 174 114
180 174 114
180 174 114
181 174 114
181 174 114
181 174 114
181 174 114
181 174 114
181 174 114
181 175 114
182 175 114
182 175 114
182 175 114
182 175 114
182 175 114
182 175 114
183 175 114
183 175 114
183 175 114
183 175 114
183 175 114
183 175 114
183 175 114
184 176 114
173 197 67
172 196 44
174 197 80
168 191 40
171 194 54
175 198 70
172 196 51
174 197 60
171 195 72
172 196 51
172 195 62
173 196 47
171 195 54
173 196 62
173 196 51
173 197 40
171 195 54
174 197 51
172 195 36
172 195 36
174 198 57
172 195 40
170 193 57
176 198 36
171 196 44
169 192 47
174 197 51
170 194 57
170 193 57
175 198 57
175 198 51
174 195 36
175 197 67
171 194 57
172 196 36
171 194 51
174 197 67
170 194 44
171 195 62
172 196 25
173 197 67
169 193 72
174 197 57
174 197 51
173 196 67
168 191 51
174 198 44
170 193 51
173 196 51
173 196 57
174 198 51
173 196 36
175 198 44
173 197 62
172 196 51
175 198 57
173 196 44
174 198 67
175 199 44
174 197 36
173 196 57
173 196 44
175 199 62
176 199 44
174 197 67
173 197 44
173 198 44
173 197 44
174 198 44
175 198 51
175 199 57
174 197 44
174 197 57
177 200 67
175 199 57
175 198 0
175 198 62
174 198 57
175 198 57
176 199 44
174 197 25
174 197 36
174 198 36
174 197 36
174 197 44
173 198 57
173 197 62
173 197 57
174 198 51
177 200 67
176 199 51
175 198 44
174 198 44
174 197 51
174 198 57
175 199 67
175 199 76
177 200 57
175 199 67
176 199 51
174 198 57
174 198 44
174 198 51
176 199 57
175 198 44
176 199 57
176 199 72
175 199 57
175 198 44
175 199 76
175 198 25
173 196 25
176 199 51
175 198 57
176 199 51
175 199 57
173 197 36
176 199 62
176 199 67
175 199 57
176 199 57
176 199 57
175 198 44
174 198 36
173 196 44
176 199 72
175 199 67
176 200 72
175 198 51
173 197 51
174 198 51
176 199 62
174 197 54
176 200 84
176 200 72
178 200 76
178 201 95
180 204 125
183 206 142
187 209 180
201 220 237
74 106 155
60 96 143
61 96 149
62 98 152
61 97 151
62 98 156
63 98 159
62 98 159
61 97 153
61 97 151
61 97 149
62 98 155
61 97 148
60 95 141
62 97 149
61 97 152
61 97 150
61 96 143
61 97 145
62 98 156
61 97 144
61 97 153
61 97 151
61 96 142
62 97 147
61 97 151
60 95 142
62 97 149
62 97 148
60 95 147
62 97 162
61 97 155
61 97 150
62 97 157
62 97 154
61 97 150
61 97 151
60 96 149
61 96 147
61 96 150
62 98 154
62 97 149
61 97 151
62 97 153
61 97 147
61 97 148
61 96 151
60 95 141
61 97 151
61 97 147
61 97 149
62 97 152
63 98 158
62 98 153
61 96 145
62 97 151
61 96 141
62 97 150
61 96 151
62 97 155
61 96 149
62 97 156
62 97 154
61 97 153
62 97 152
61 96 145
61 96 145
61 97 151
60 96 141
61 96 144
61 97 152
62 98 155
61 97 151
61 96 148
62 98 154
61 96 144
62 97 148
61 97 145
61 96 145
61 96 143
61 96 147
61 96 143
61 97 155
61 96 141
61 97 149
60 96 148
60 95 139
62 97 154
60 95 140
61 97 151
61 96 154
62 98 157
61 96 147
63 99 164
59 93 139
61 97 154
61 96 142
61 96 144
60 96 147
62 97 152
61 97 152
62 97 156
61 97 150
60 95 142
61 96 150
62 97 155
61 96 151
62 97 154
60 95 142
61 95 145
60 95 149
61 95 150
61 95 145
62 96 149
60 94 142
62 97 160
61 94 147
64 97 155
198 208 214
186 177 114
183 175 114
181 174 114
180 174 114
178 173 114
178 173 114
177 172 114
176 172 114
175 172 114
175 171 114
174 171 114
174 171 114
174 171 114
173 171 114
173 171 114
173 170 114
172 170 114
172 170 114
172 170 114
172 170 114
172 170 114
171 170 114
171 170 114
171 170 114
171 170 114
171 170 114
171 170 114
171 170 114
171 170 114
171 170 114
171 170 114
171 170 114
171 170 114
171 170 114
171 170 114
171 170 114
171 170 114
171 170 114
171 170 114
171 170 114
171 170 114
171 170 114
171 170 114
171 170 114
171 170 114
171 170 114
171 170 114
172 170 114
172 170 114
172 170 114
172 170 114
172 170 114
172 170 114
172 170 114
172 170 114
172 170 114
172 170 114
173 170 114
173 170 114
173 171 114
173 171 114
173 171 114
173 171 114
173 171 114
173 171 114
173 171 114
174 171 114
174 171 114
174 171 114
174 171 114
174 171 114
174 171 114
174 171 114
175 171 114
175 171 114
175 171 114
175 171 114
175 172 114
175 172 114
175 172 114
176 172 114
176 172 114
176 172 114
176 172 114
176 172 114
176 172 114
176 172 114
177 172 114
177 172 114
177 172 114
177 172 114
177 172 114
177 173 114
177 173 114
178 173 114
178 173 114
178 173 114
178 173 114
178 173 114
178 173 114
178 173 114
179 173 114
179 173 114
179 173 114
179 173 114
179 173 114
179 173 114
179 174 114
179 174 114
180 174 114
180 174 114
180 174 114
180 174 114
180 174 114
180 174 114
181 174 114
181 174 114
181 174 114
181 174 114
181 174 114
181 174 114
181 174 114
182 175 114
182 175 114
182 175 114
182 175 114
182 175 114
182 175 114
182 175 114
183 175 114
183 175 114
183 175 114
183 175 114
183 175 114
183 175 114
183 175 114
184 176 114
184 176 114
184 176 114
184 176 114
171 194 31
175 198 62
175 199 70
177 200 84
174 197 36
174 197 36
175 198 80
175 198 44
175 198 70
174 197 44
171 195 57
173 195 36
171 194 62
176 199 62
172 194 31
172 196 51
172 196 65
175 198 57
172 195 57
172 195 44
170 193 36
174 197 62
173 195 60
170 193 0
170 193 44
173 196 60
171 195 51
172 195 36
173 196 60
174 198 51
172 195 78
172 196 44
175 198 47
174 197 51
174 196 44
172 196 54
173 197 70
172 196 57
172 195 44
170 193 57
172 195 57
172 197 67
173 197 72
172 195 44
170 194 36
174 196 57
172 194 72
175 198 62
172 194 44
175 197 36
175 198 67
177 200 57
173 197 51
174 196 62
172 196 57
172 196 44
175 199 67
175 198 62
174 197 67
176 200 57
173 197 62
172 195 51
175 198 51
172 196 51
173 197 62
175 198 57
174 196 57
175 198 51
173 196 51
174 198 72
172 195 72
174 198 51
177 200 76
174 198 67
174 198 51
174 198 25
175 198 62
175 198 51
177 200 62
174 198 62
173 197 36
174 198 62
174 198 57
175 198 57
176 199 62
175 198 44
174 198 51
174 198 36
174 198 57
175 198 57
175 199 44
176 199 67
175 199 51
174 198 67
174 197 36
175 198 36
175 199 44
175 198 51
174 198 36
175 198 51
177 200 72
175 199 57
174 198 51
176 200 67
176 199 57
176 200 57
175 198 36
175 199 62
173 197 51
172 196 44
175 198 25
174 198 51
174 198 57
174 198 62
176 199 44
174 198 25
175 199 57
176 199 44
175 199 57
174 198 25
174 198 44
175 198 57
175 199 67
176 200 62
175 199 67
175 199 67
172 196 51
175 199 51
174 197 62
177 201 88
176 200 62
173 197 40
177 200 84
175 199 84
176 199 84
177 201 114
177 200 102
179 202 102
180 203 122
186 209 161
144 167 167
61 96 145
60 96 143
60 96 144
61 96 148
62 98 158
61 96 156
61 96 149
61 96 150
61 96 151
62 97 156
61 96 139
61 96 149
61 96 148
62 97 152
61 96 144
61 97 143
61 96 144
61 96 154
61 97 155
61 96 143
60 95 141
62 97 152
62 97 152
61 97 150
62 97 154
61 96 148
61 96 148
62 98 154
61 97 151
61 97 152
61 96 145
61 97 152
62 97 149
61 97 150
61 96 142
60 96 149
61 96 147
61 97 152
62 98 161
61 96 142
62 98 156
62 98 155
61 97 149
62 98 157
62 98 159
61 97 153
63 99 166
62 97 148
62 98 153
60 95 143
62 97 147
62 98 154
60 95 143
62 98 153
61 96 151
61 96 147
60 95 143
61 96 140
61 96 150
61 95 145
62 98 153
61 96 151
62 97 148
62 97 150
60 95 147
61 96 153
61 96 148
62 98 153
62 97 150
62 98 156
61 96 144
62 98 161
60 95 145
62 97 153
61 97 153
61 96 147
61 96 148
61 97 153
63 99 159
62 98 156
61 96 143
61 96 148
62 97 153
61 96 141
61 96 151
62 97 151
61 97 152
60 96 148
63 98 160
61 96 150
62 98 152
61 95 147
62 98 158
62 97 148
59 93 133
61 95 147
61 97 150
62 97 149
62 97 154
61 96 156
62 98 159
61 96 148
61 97 151
60 95 152
61 96 144
62 97 156
61 95 147
61 95 150
60 95 140
60 95 149
60 94 145
61 95 149
61 96 149
61 96 148
61 95 146
61 95 149
60 95 160
59 93 142
139 142 133
184 176 114
182 175 114
181 174 114
179 174 114
178 173 114
178 173 114
177 172 114
176 172 114
176 172 114
175 172 114
175 171 114
174 171 114
174 171 114
174 171 114
173 171 114
173 171 114
173 171 114
173 170 114
173 170 114
172 170 114
172 170 114
172 170 114
172 170 114
172 170 114
172 170 114
172 170 114
172 170 114
172 170 114
172 170 114
172 170 114
172 170 114
172 170 114
172 170 114
172 170 114
172 170 114
172 170 114
172 170 114
172 170 114
172 170 114
172 170 114
172 170 114
172 170 114
172 170 114
172 170 114
172 170 114
172 170 114
172 170 114
172 170 114
172 170 114
173 170 114
173 170 114
173 170 114
173 171 114
173 171 114
173 171 114
173 171 114
173 171 114
173 171 114
173 171 114
174 171 114
174 171 114
174 171 114
174 171 114
174 171 114
174 171 114
174 171 114
174 171 114
175 171 114
175 171 114
175 171 114
175 171 114
175 172 114
175 172 114
175 172 114
175 172 114
176 172 114
176 172 114
176 172 114
176 172 114
176 172 114
176 172 114
176 172 114
177 172 114
177 172 114
177 172 114
177 172 114
177 172 114
177 173 114
177 173 114
177 173 114
178 173 114
178 173 114
178 173 114
178 173 114
178 173 114
178 173 114
178 173 114
179 173 114
179 173 114
179 173 114
179 173 114
179 173 114
179 174 114
179 174 114
180 174 114
180 174 114
180 174 114
180 174 114
180 174 114
180 174 114
180 174 114
181 174 114
181 174 114
181 174 114
181 174 114
181 174 114
181 174 114
181 174 114
182 175 114
182 175 114
182 175 114
182 175 114
182 175 114
182 175 114
182 175 114
183 175 114
183 175 114
183 175 114
183 175 114
183 175 114
183 175 114
183 175 114
183 175 114
184 176 114
184 176 114
184 176 114
184 176 114
184 176 114
184 176 114
185 176 114
173 196 57
173 196 62
175 197 57
174 197 65
171 195 72
169 193 57
169 192 72
172 195 76
173 196 65
171 194 57
174 197 67
171 195 44
172 195 60
172 195 36
174 197 47
176 199 62
176 199 62
174 197 72
171 194 60
172 196 62
173 197 70
170 194 36
173 196 54
173 196 36
175 198 65
172 196 51
173 196 65
171 194 72
174 197 44
176 198 44
173 196 57
174 197 67
169 193 36
172 195 54
173 196 25
173 197 44
171 194 72
174 197 67
173 197 51
171 194 36
173 197 51
173 195 65
173 197 51
172 195 44
174 198 90
168 192 44
170 194 44
172 195 44
172 195 57
175 199 44
171 193 51
172 195 44
173 196 36
175 198 76
173 196 36
172 194 36
173 196 44
172 196 51
175 198 57
174 196 36
171 193 57
172 196 36
176 199 67
172 195 44
176 199 51
174 198 67
174 198 44
175 199 67
175 198 44
175 198 57
174 198 51
175 199 67
174 197 51
174 198 57
177 200 57
175 199 57
174 197 62
175 199 57
174 197 51
173 197 36
174 197 25
176 199 44
174 197 36
174 198 51
176 199 62
174 198 44
175 198 57
175 198 51
175 199 57
177 200 62
175 199 51
175 199 57
175 199 51
174 197 36
175 198 25
176 199 62
174 197 57
176 199 51
176 199 62
176 199 44
174 199 57
174 198 57
176 199 51
175 199 44
177 199 44
175 198 25
175 199 67
176 199 51
176 199 57
175 199 57
174 198 36
174 198 62
174 198 44
175 199 44
175 199 57
174 198 51
176 199 44
175 198 51
175 198 0
176 199 57
175 198 51
175 199 57
176 200 62
175 198 44
177 200 51
175 199 57
174 198 25
176 199 36
175 198 40
175 198 57
176 200 72
175 198 57
175 199 57
174 198 78
173 198 67
174 199 84
176 200 84
180 203 102
180 202 111
182 205 147
83 113 157
59 95 142
60 96 142
60 95 148
61 97 153
61 96 144
61 97 151
62 97 149
61 97 150
61 95 145
61 97 149
60 96 145
61 96 145
60 96 148
62 98 155
62 98 158
62 98 158
61 96 147
61 96 148
62 97 152
62 97 148
61 96 143
62 97 147
60 96 147
61 96 145
60 96 142
61 97 154
61 96 148
61 97 147
62 97 148
62 98 155
62 98 152
62 97 152
61 96 148
61 97 155
62 97 150
62 97 151
61 97 151
61 96 143
61 97 149
61 97 153
62 97 148
62 98 153
61 96 149
62 98 154
62 97 150
61 96 152
62 97 157
62 98 152
62 97 148
61 96 149
61 96 147
61 96 147
63 98 159
60 95 137
62 98 159
62 97 150
62 98 152
62 97 145
61 96 147
61 96 145
60 96 141
61 97 151
61 96 150
61 96 142
61 97 150
60 95 140
61 96 143
61 96 148
61 97 149
62 97 154
61 97 151
60 95 145
61 96 148
61 96 153
61 97 149
62 98 163
62 97 157
63 99 159
62 97 153
62 98 151
61 96 147
62 97 151
60 96 145
60 95 144
61 97 151
61 96 145
61 96 147
61 96 150
61 96 147
62 97 148
61 97 150
61 96 150
62 97 152
60 95 141
61 96 147
62 98 162
60 95 141
61 97 151
61 96 147
62 97 155
61 97 151
61 97 149
61 97 153
62 97 151
61 96 150
61 95 141
62 98 157
61 95 143
62 97 160
61 95 147
62 96 152
61 96 150
60 94 144
60 94 147
60 93 141
61 95 151
59 92 134
59 92 143
73 100 144
182 175 114
182 175 114
180 174 114
179 174 114
179 173 114
178 173 114
177 172 114
177 172 114
176 172 114
176 172 114
175 172 114
175 171 114
175 171 114
174 171 114
174 171 114
174 171 114
174 171 114
173 171 114
173 171 114
173 171 114
173 171 114
173 171 114
173 170 114
173 170 114
173 170 114
173 170 114
173 170 114
173 170 114
173 170 114
172 170 114
172 170 114
172 170 114
172 170 114
173 170 114
172 170 114
173 170 114
173 170 114
173 170 114
173 170 114
173 170 114
173 171 114
173 171 114
173 171 114
173 171 114
173 171 114
173 171 114
173 171 114
173 171 114
173 171 114
173 171 114
174 171 114
174 171 114
174 171 114
174 171 114
174 171 114
174 171 114
174 171 114
174 171 114
174 171 114
174 171 114
175 171 114
175 171 114
175 171 114
175 171 114
175 172 114
175 172 114
175 172 114
175 172 114
176 172 114
176 172 114
176 172 114
176 172 114
176 172 114
176 172 114
176 172 114
176 172 114
177 172 114
177 172 114
177 172 114
177 172 114
177 172 114
177 173 114
177 173 114
177 173 114
178 173 114
178 173 114
178 173 114
178 173 114
178 173 114
178 173 114
178 173 114
179 173 114
179 173 114
179 173 114
179 173 114
179 173 114
179 173 114
179 174 114
179 174 114
180 174 114
180 174 114
180 174 114
180 174 114
180 174 114
180 174 114
180 174 114
180 174 114
181 174 114
181 174 114
181 174 114
181 174 114
181 174 114
181 174 114
181 174 114
182 175 114
182 175 114
182 175 114
182 175 114
182 175 114
182 175 114
182 175 114
182 175 114
183 175 114
183 175 114
183 175 114
183 175 114
183 175 114
183 175 114
183 175 114
184 175 114
184 176 114
184 176 114
184 176 114
184 176 114
184 176 114
184 176 114
185 176 114
185 176 114
185 176 114
185 176 114
174 196 60
170 193 54
172 195 62
174 197 80
170 194 57
174 197 76
173 196 54
170 194 44
172 196 25
170 194 44
175 198 57
173 196 60
173 196 18
172 196 51
174 198 51
172 195 36
176 199 57
172 195 57
172 195 51
175 198 72
172 195 40
173 197 60
173 196 44
170 194 57
171 195 36
172 196 72
175 197 62
173 196 57
171 195 70
174 197 44
173 197 60
173 196 70
167 191 36
174 197 70
176 199 44
172 195 36
172 196 36
171 194 44
173 197 44
175 197 57
170 194 65
173 197 67
175 198 57
175 197 31
172 195 60
174 197 36
173 197 67
170 194 40
175 198 44
171 194 54
172 195 57
170 194 57
173 197 51
173 197 44
174 198 62
177 199 51
174 197 57
175 198 44
174 197 67
172 195 25
174 197 51
173 197 36
174 198 76
174 197 36
175 198 62
176 199 51
174 198 44
173 196 36
173 197 0
175 198 44
173 197 57
174 197 36
176 200 62
175 198 36
175 199 67
171 195 36
174 197 62
177 200 76
175 198 44
177 200 62
174 197 25
173 197 51
175 199 44
175 198 57
175 199 62
174 198 57
176 199 51
176 199 36
174 197 51
176 199 57
176 199 36
174 198 57
177 200 67
174 198 51
175 199 51
174 198 25
177 199 62
174 198 51
173 198 44
176 199 57
175 198 44
175 199 67
177 200 51
176 199 57
175 199 44
176 199 51
175 199 51
175 198 44
175 199 57
173 198 62
175 199 57
175 199 44
176 199 44
176 199 36
175 199 51
174 197 44
174 198 36
174 198 36
175 199 51
175 198 44
176 199 44
177 199 51
175 199 51
176 199 57
175 199 62
175 199 57
176 200 72
177 200 72
175 198 51
175 198 62
174 198 57
178 201 67
176 199 62
175 199 57
174 198 78
176 198 74
176 199 72
177 200 84
178 201 102
154 178 113
60 95 142
61 96 148
61 97 153
61 97 154
61 97 148
62 97 151
62 97 153
60 96 145
61 97 153
62 97 151
61 96 144
61 96 141
61 97 154
61 97 155
61 96 145
60 96 143
62 97 153
61 97 149
61 97 148
62 97 143
62 98 158
62 97 150
61 97 152
62 97 155
61 97 152
61 97 152
60 96 148
59 94 139
61 96 148
61 96 150
61 96 148
61 97 152
62 97 156
61 96 147
61 97 150
62 97 152
62 97 153
61 96 150
62 98 153
61 96 148
62 97 148
62 98 155
61 96 145
61 95 149
61 96 149
62 97 144
60 95 148
61 96 147
61 96 149
62 98 152
63 98 157
60 95 140
61 96 148
61 96 147
61 97 154
62 97 151
62 97 148
60 95 149
62 97 151
61 96 143
61 96 144
62 97 154
62 97 148
62 97 159
60 96 148
62 97 150
61 96 140
62 98 152
61 96 147
62 97 152
61 96 148
62 97 151
61 96 144
60 96 147
61 97 153
61 97 150
62 97 154
62 97 154
61 97 152
62 97 151
60 96 142
62 97 152
61 97 148
62 97 152
59 94 142
60 96 147
60 96 147
61 96 149
62 97 155
60 95 140
62 97 152
61 97 153
61 96 150
61 96 144
62 97 151
61 96 140
61 97 156
61 97 146
61 96 150
61 96 149
61 97 156
61 95 143
61 97 150
61 95 146
60 94 146
61 96 151
61 96 153
62 96 153
61 96 154
61 96 149
61 95 145
60 93 132
62 97 149
62 97 157
59 92 139
61 96 147
60 93 140
60 94 148
59 91 141
60 93 147
150 151 129
181 174 114
180 174 114
179 174 114
179 173 114
178 173 114
178 173 114
177 172 114
177 172 114
176 172 114
176 172 114
175 172 114
175 172 114
175 171 114
175 171 114
175 171 114
174 171 114
174 171 114
174 171 114
174 171 114
174 171 114
174 171 114
174 171 114
174 171 114
173 171 114
173 171 114
173 171 114
173 171 114
173 171 114
173 171 114
173 171 114
173 171 114
173 171 114
173 171 114
173 171 114
173 171 114
173 171 114
174 171 114
174 171 114
174 171 114
174 171 114
174 171 114
174 171 114
174 171 114
174 171 114
174 171 114
174 171 114
174 171 114
174 171 114
174 171 114
174 171 114
175 171 114
175 171 114
175 171 114
175 171 114
175 171 114
175 172 114
175 172 114
175 172 114
175 172 114
175 172 114
176 172 114
176 172 114
176 172 114
176 172 114
176 172 114
176 172 114
176 172 114
176 172 114
176 172 114
177 172 114
177 172 114
177 172 114
177 172 114
177 172 114
177 173 114
177 173 114
177 173 114
178 173 114
178 173 114
178 173 114
178 173 114
178 173 114
178 173 114
178 173 114
178 173 114
179 173 114
179 173 114
179 173 114
179 173 114
179 173 114
179 173 114
179 174 114
179 174 114
180 174 114
180 174 114
180 174 114
180 174 114
180 174 114
180 174 114
180 174 114
180 174 114
181 174 114
181 174 114
181 174 114
181 174 114
181 174 114
181 174 114
181 174 114
182 175 114
182 175 114
182 175 114
182 175 114
182 175 114
182 175 114
182 175 114
182 175 114
183 175 114
183 175 114
183 175 114
183 175 114
183 175 114
183 175 114
183 175 114
183 175 114
184 175 114
184 176 114
184 176 114
184 176 114
184 176 114
184 176 114
184 176 114
184 176 114
185 176 114
185 176 114
185 176 114
185 176 114
185 176 114
185 176 114
185 176 114
175 199 67
171 194 57
171 194 65
172 195 74
174 196 60
174 196 67
173 197 36
174 197 60
176 200 72
169 192 60
173 196 47
172 195 57
175 198 51
172 195 44
172 195 57
174 196 72
176 200 62
175 198 47
174 196 36
172 195 51
174 197 62
173 196 31
176 200 62
173 196 44
172 196 57
170 194 44
172 194 25
173 196 62
171 195 47
173 195 51
174 197 44
173 196 57
173 196 44
174 197 51
173 196 72
177 199 51
174 197 47
173 196 54
172 195 40
173 196 36
172 195 51
174 196 44
173 196 51
172 195 0
178 201 72
176 199 62
172 195 62
172 196 44
170 194 51
169 192 47
173 196 57
175 198 62
172 196 44
174 197 51
175 197 25
176 199 57
174 198 57
174 198 57
173 196 57
172 196 57
174 197 51
172 196 36
173 197 51
173 197 36
173 197 57
173 196 51
176 199 67
176 199 51
175 198 57
174 197 0
176 198 44
176 199 62
172 196 44
174 197 57
176 199 25
176 199 62
175 199 72
175 198 25
176 200 62
175 199 51
174 198 25
174 198 36
174 197 57
175 199 44
172 196 25
173 197 57
173 196 25
175 199 57
175 199 44
175 198 36
175 198 36
173 197 25
174 197 36
174 198 62
176 199 25
174 197 36
174 198 57
176 199 44
174 198 67
176 199 57
175 199 44
174 197 25
173 197 44
174 197 25
177 201 88
177 199 36
175 199 57
175 198 51
175 199 51
175 199 51
175 199 72
174 198 44
175 198 51
176 199 44
175 199 67
175 199 51
174 199 62
174 198 57
173 197 62
175 199 44
173 197 44
177 200 57
175 199 44
175 199 57
175 198 51
173 198 57
174 198 51
175 199 51
174 198 70
174 198 57
176 199 44
177 200 76
175 199 67
176 199 62
175 198 51
177 199 72
177 201 92
176 199 88
178 201 92
101 128 124
61 96 140
60 95 139
61 96 147
61 96 148
63 98 155
60 95 133
61 96 145
60 96 145
61 97 154
61 97 152
61 97 154
61 96 142
61 97 152
61 96 144
60 95 142
61 97 151
62 98 155
62 97 154
60 96 147
61 96 141
62 98 153
61 97 152
62 97 152
61 97 148
61 97 150
61 96 150
61 96 142
61 97 148
61 97 145
62 97 154
61 97 149
62 97 150
60 95 142
62 97 155
61 96 152
61 97 150
61 96 141
62 97 150
61 96 148
60 95 141
61 97 151
61 96 144
61 96 140
61 96 145
62 98 155
62 97 149
61 96 144
61 97 151
61 97 148
61 96 147
61 96 148
61 96 148
62 97 151
61 97 151
62 97 154
63 98 157
61 96 151
62 98 154
62 97 153
61 96 145
62 98 154
62 97 147
61 96 147
62 97 157
61 96 144
61 97 145
63 99 165
61 96 143
62 97 153
60 95 143
62 98 152
60 95 143
62 97 153
60 96 143
62 97 153
61 96 148
60 95 149
61 97 151
63 99 161
61 96 149
62 98 156
61 96 147
60 95 144
61 96 151
62 97 151
61 95 144
61 96 149
62 98 156
61 96 145
61 95 144
62 97 152
60 95 132
61 96 143
59 94 139
61 96 151
62 97 150
60 95 148
63 98 155
61 95 142
61 96 149
62 97 154
62 97 152
61 96 147
60 95 140
61 96 148
61 96 147
61 96 143
60 95 145
61 95 149
60 94 142
61 95 143
60 95 148
61 95 142
61 96 155
61 96 151
60 94 151
60 94 142
62 96 157
60 93 140
60 93 148
96 112 130
181 174 114
180 174 114
180 174 114
179 173 114
178 173 114
178 173 114
177 173 114
177 172 114
177 172 114
176 172 114
176 172 114
176 172 114
176 172 114
175 172 114
175 172 114
175 172 114
175 171 114
175 171 114
175 171 114
175 171 114
175 171 114
174 171 114
174 171 114
174 171 114
174 171 114
174 171 114
174 171 114
174 171 114
174 171 114
174 171 114
174 171 114
174 171 114
174 171 114
174 171 114
174 171 114
174 171 114
174 171 114
174 171 114
175 171 114
175 171 114
175 171 114
175 171 114
175 171 114
175 171 114
175 171 114
175 172 114
175 172 114
175 172 114
175 172 114
175 172 114
175 172 114
176 172 114
176 172 114
176 172 114
176 172 114
176 172 114
176 172 114
176 172 114
176 172 114
176 172 114
176 172 114
177 172 114
177 172 114
177 172 114
177 172 114
177 172 114
177 172 114
177 173 114
177 173 114
177 173 114
178 173 114
178 173 114
178 173 114
178 173 114
178 173 114
178 173 114
178 173 114
178 173 114
178 173 114
179 173 114
179 173 114
179 173 114
179 173 114
179 173 114
179 173 114
179 174 114
179 174 114
180 174 114
180 174 114
180 174 114
180 174 114
180 174 114
180 174 114
180 174 114
180 174 114
181 174 114
181 174 114
181 174 114
181 174 114
181 174 114
181 174 114
181 174 114
181 174 114
182 175 114
182 175 114
182 175 114
182 175 114
182 175 114
182 175 114
182 175 114
182 175 114
182 175 114
183 175 114
183 175 114
183 175 114
183 175 114
183 175 114
183 175 114
183 175 114
184 175 114
184 176 114
184 176 114
184 176 114
184 176 114
184 176 114
184 176 114
184 176 114
184 176 114
185 176 114
185 176 114
185 176 114
185 176 114
185 176 114
185 176 114
185 176 114
185 176 114
186 176 114
186 177 114
186 177 114
175 198 62
172 197 51
172 195 67
175 198 60
172 196 62
175 198 54
173 197 25
173 196 65
172 196 47
174 197 74
174 198 70
169 193 44
172 196 47
172 195 44
174 198 84
173 197 57
172 195 70
173 196 72
173 196 54
173 196 51
172 195 0
172 195 44
173 195 47
174 197 57
172 196 36
171 195 65
171 194 36
175 198 62
174 198 51
173 196 51
172 195 31
173 195 74
174 198 44
174 198 44
173 196 51
171 195 65
173 196 36
175 198 72
174 197 44
176 199 62
174 198 51
175 198 47
174 197 25
173 197 57
172 195 62
173 196 67
174 197 65
170 194 65
174 197 74
176 198 62
175 198 62
171 195 40
170 192 62
171 194 54
174 197 62
174 197 57
175 198 72
173 197 36
172 196 25
176 198 51
171 195 44
175 199 67
172 195 36
173 197 51
176 200 72
172 195 25
174 198 51
174 198 62
178 200 62
174 197 62
175 199 51
175 198 62
175 198 57
175 198 51
173 197 25
173 196 36
174 197 44
174 197 44
175 198 67
175 199 62
175 199 51
174 198 51
175 198 62
176 199 57
173 197 51
176 200 72
175 198 36
174 198 36
178 200 57
176 199 44
175 199 57
176 200 80
177 200 72
175 198 44
176 198 44
176 199 57
173 197 44
174 198 44
176 199 57
175 199 62
176 199 36
176 198 51
174 198 44
177 199 44
176 199 67
174 198 57
176 199 57
175 198 36
175 199 67
176 199 51
175 199 36
175 199 57
176 199 57
175 198 25
174 198 36
174 198 57
173 197 44
175 199 44
175 198 51
176 199 57
175 198 57
172 196 31
173 196 57
171 195 31
169 193 47
172 196 36
172 196 25
172 195 44
174 198 31
174 197 57
175 199 67
174 198 65
177 200 72
174 198 57
176 200 76
177 201 88
177 200 84
181 203 102
169 193 99
60 95 137
61 97 148
61 96 143
61 97 152
61 96 152
61 96 147
62 98 155
61 96 147
62 98 155
62 97 149
61 96 142
62 97 151
61 96 145
61 96 145
61 97 149
61 96 150
61 96 149
62 97 148
60 96 142
62 98 152
62 97 154
61 97 147
61 96 141
62 97 153
61 96 152
61 96 148
62 98 156
61 96 147
61 96 145
61 96 145
61 96 147
61 96 144
62 98 158
62 97 147
60 96 139
62 98 152
61 97 147
61 96 142
62 97 152
62 97 152
62 97 156
60 96 147
61 96 145
62 97 152
61 96 149
62 97 149
59 94 136
61 96 141
61 96 145
61 96 147
62 97 152
62 98 150
61 97 143
62 98 155
62 97 150
61 97 148
61 96 141
61 97 149
60 95 136
61 96 147
61 96 148
61 96 137
61 96 148
61 97 151
62 98 151
61 96 148
62 97 151
62 98 150
62 97 145
61 96 145
61 96 140
61 96 143
60 95 144
60 95 140
60 96 147
60 95 142
61 96 142
60 95 144
60 95 150
62 98 157
61 97 155
61 96 144
61 96 147
63 99 159
61 96 139
60 95 143
62 96 147
61 96 149
62 97 154
62 97 150
61 96 144
62 97 158
60 95 140
61 96 149
62 98 159
62 97 150
61 96 145
60 95 145
62 98 162
62 98 162
62 97 155
61 96 151
61 96 142
61 96 147
61 96 151
63 98 155
60 94 137
60 94 138
60 94 144
61 95 144
59 93 139
59 93 130
60 94 145
61 94 140
61 95 145
61 95 142
60 95 145
61 95 150
59 93 142
60 94 142
59 91 133
60 93 148
174 169 118
181 174 114
180 174 114
179 174 114
179 173 114
178 173 114
178 173 114
178 173 114
174 170 112
153 151 105
137 137 97
103 110 86
93 102 84
89 98 81
79 90 77
104 110 87
119 123 92
120 124 93
142 142 100
173 170 113
175 172 114
175 172 114
175 172 114
175 172 114
175 172 114
175 172 114
175 172 114
175 172 114
175 172 114
175 172 114
175 172 114
175 172 114
175 172 114
175 172 114
175 172 114
175 172 114
175 172 114
175 172 114
175 172 114
176 172 114
176 172 114
176 172 114
176 172 114
176 172 114
176 172 114
176 172 114
176 172 114
176 172 114
176 172 114
176 172 114
176 172 114
176 172 114
177 172 114
177 172 114
177 172 114
177 172 114
177 172 114
177 172 114
177 172 114
177 173 114
177 173 114
177 173 114
178 173 114
178 173 114
178 173 114
178 173 114
178 173 114
178 173 114
178 173 114
178 173 114
178 173 114
178 173 114
179 173 114
179 173 114
179 173 114
179 173 114
179 173 114
179 173 114
179 173 114
179 174 114
180 174 114
180 174 114
180 174 114
180 174 114
180 174 114
180 174 114
180 174 114
180 174 114
180 174 114
181 174 114
181 174 114
181 174 114
181 174 114
181 174 114
181 174 114
181 174 114
181 174 114
181 175 114
182 175 114
182 175 114
182 175 114
182 175 114
182 175 114
182 175 114
182 175 114
182 175 114
183 175 114
183 175 114
183 175 114
183 175 114
183 175 114
183 175 114
183 175 114
183 175 114
184 175 114
184 176 114
184 176 114
184 176 114
184 176 114
184 176 114
184 176 114
184 176 114
184 176 114
185 176 114
185 176 114
185 176 114
185 176 114
185 176 114
185 176 114
185 176 114
185 176 114
186 176 114
186 176 114
186 177 114
186 177 114
186 177 114
186 177 114
186 177 114
186 177 114
174 198 47
170 194 40
171 195 36
174 198 62
176 199 62
174 197 57
175 198 62
176 198 70
174 197 80
171 194 51
172 195 62
174 197 72
175 198 54
174 197 51
175 198 72
170 193 57
171 195 72
174 198 65
173 197 51
173 196 62
173 196 40
173 196 54
175 198 76
175 198 40
171 195 44
173 196 51
171 194 70
170 194 74
172 196 57
172 195 44
176 199 62
173 195 65
175 198 51
175 199 60
174 197 51
172 195 72
177 200 76
183 204 108
180 200 114
185 205 135
187 206 144
182 203 131
189 209 143
188 208 158
192 210 168
199 216 181
198 216 175
202 219 188
203 219 196
206 222 209
211 226 216
204 220 214
211 226 226
208 223 207
210 225 220
212 226 224
213 228 232
216 230 234
215 229 231
215 228 237
216 231 237
214 229 228
215 229 233
216 231 234
214 228 231
214 228 231
215 229 234
216 230 228
214 228 228
214 229 226
211 226 226
213 228 218
212 227 220
210 225 214
206 222 204
206 222 199
202 219 191
204 221 198
199 218 181
198 216 167
196 214 163
190 210 142
188 207 130
184 206 114
178 200 76
176 199 57
176 199 62
175 198 44
175 198 36
174 198 57
174 197 44
175 199 67
175 199 62
174 199 62
175 198 25
176 200 57
175 199 44
174 198 57
177 200 67
177 200 67
177 200 67
176 200 67
176 199 25
175 198 36
175 199 62
174 198 36
175 198 36
172 196 25
175 199 72
175 198 36
173 197 44
175 199 67
174 197 44
176 199 51
173 197 51
174 199 67
175 198 36
174 197 31
172 195 44
173 197 36
172 195 25
171 194 36
172 196 18
172 195 25
174 197 18
170 193 40
170 193 40
173 196 25
170 194 31
170 195 31
174 197 18
170 194 44
173 196 44
173 197 36
174 198 62
176 200 74
176 199 80
178 201 88
149 173 118
61 96 141
60 95 137
60 96 145
61 97 150
62 98 154
61 96 147
62 97 149
62 98 152
62 97 149
62 98 153
60 95 140
61 96 145
60 95 141
63 98 160
61 96 145
61 96 140
62 98 153
60 95 147
62 97 149
60 95 139
61 96 150
60 94 136
61 97 149
61 96 147
61 96 145
61 97 145
62 97 153
61 96 141
62 97 151
60 96 139
61 96 149
62 97 154
60 95 141
61 97 145
61 97 145
61 97 148
62 98 156
60 94 142
61 97 148
61 96 145
61 96 142
60 95 142
61 96 141
61 96 151
61 96 148
61 96 143
60 95 142
61 97 144
61 96 143
62 97 152
61 97 149
61 97 151
61 97 151
61 96 141
62 97 151
61 97 148
61 96 141
61 96 145
60 96 143
63 98 153
61 96 144
62 98 157
61 96 143
62 98 153
62 98 152
61 96 148
62 97 154
61 96 153
60 95 142
63 99 162
62 97 148
61 96 145
63 98 156
62 97 150
61 97 155
61 96 143
61 97 145
61 96 140
61 97 153
60 96 139
60 95 147
61 96 145
62 97 148
61 96 150
61 96 152
62 98 159
61 96 143
61 97 150
61 96 149
60 95 148
63 98 153
61 97 148
62 97 153
61 96 145
61 96 146
60 95 147
61 96 148
61 96 151
61 96 152
61 97 149
61 96 151
60 95 143
61 96 145
61 96 149
61 95 151
61 96 146
62 97 154
61 96 149
59 93 132
61 96 155
61 96 141
61 96 146
61 96 151
61 96 146
61 94 140
60 94 148
61 95 152
60 93 134
60 93 146
60 94 145
61 95 147
60 93 145
131 136 128
181 174 114
180 174 114
180 174 114
179 174 114
178 173 114
160 157 106
109 114 88
61 77 72
52 70 67
52 69 64
54 73 72
53 72 69
54 73 71
53 71 68
53 71 67
53 72 70
54 73 70
54 73 73
62 78 74
101 109 86
159 158 108
176 172 114
176 172 114
176 172 114
176 172 114
176 172 114
176 172 114
176 172 114
176 172 114
176 172 114
176 172 114
176 172 114
176 172 114
176 172 114
176 172 114
176 172 114
176 172 114
176 172 114
176 172 114
177 172 114
177 172 114
177 172 114
177 172 114
177 172 114
177 172 114
177 172 114
177 172 114
177 172 114
177 173 114
177 173 114
177 173 114
177 173 114
178 173 114
178 173 114
178 173 114
178 173 114
178 173 114
178 173 114
178 173 114
178 173 114
178 173 114
178 173 114
178 173 114
179 173 114
179 173 114
179 173 114
179 173 114
179 173 114
179 173 114
179 173 114
179 173 114
179 174 114
180 174 114
180 174 114
180 174 114
180 174 114
180 174 114
180 174 114
180 174 114
180 174 114
180 174 114
181 174 114
181 174 114
181 174 114
181 174 114
181 174 114
181 174 114
181 174 114
181 174 114
181 174 114
182 175 114
182 175 114
182 175 114
182 175 114
182 175 114
182 175 114
182 175 114
182 175 114
182 175 114
183 175 114
183 175 114
183 175 114
183 175 114
183 175 114
183 175 114
183 175 114
183 175 114
183 175 114
184 175 114
184 176 114
184 176 114
184 176 114
184 176 114
184 176 114
184 176 114
184 176 114
184 176 114
185 176 114
185 176 114
185 176 114
185 176 114
185 176 114
185 176 114
185 176 114
185 176 114
185 176 114
186 176 114
186 176 114
186 177 114
186 177 114
186 177 114
186 177 114
186 177 114
186 177 114
186 177 114
187 177 114
187 177 114
187 177 114
172 195 57
175 197 54
176 199 62
174 197 57
174 196 54
175 198 62
172 195 47
173 197 76
170 194 40
169 192 62
171 195 60
177 200 67
173 196 60
172 195 47
171 195 51
175 198 47
171 194 54
172 197 57
174 198 67
173 196 51
174 197 40
174 196 44
178 200 82
183 203 126
183 204 122
193 211 150
197 214 171
199 216 181
203 220 184
205 221 203
204 220 203
211 226 217
215 230 233
219 232 244
218 231 243
219 232 248
222 235 252
222 235 252
224 236 255
220 232 250
221 234 252
221 235 254
221 234 252
221 234 252
218 231 249
223 236 254
216 229 247
220 233 252
219 232 250
217 230 248
221 234 253
223 236 254
215 228 248
220 234 252
222 234 252
224 237 255
220 233 251
220 233 251
217 230 247
223 236 252
223 236 253
222 235 250
220 233 248
220 234 248
223 236 252
222 235 252
220 233 248
223 236 250
222 235 252
221 234 250
223 236 253
223 235 249
221 235 250
224 237 254
223 236 252
223 236 254
221 234 249
221 234 248
222 235 249
223 236 250
218 232 242
223 236 249
217 230 244
223 236 253
222 235 248
222 235 250
219 233 244
215 229 226
216 231 231
208 224 207
208 224 201
202 219 181
199 217 177
185 206 114
184 205 111
176 200 67
175 198 51
176 199 57
175 199 62
174 197 36
177 199 44
175 198 44
176 199 62
177 200 76
175 198 51
176 199 51
176 199 44
176 198 51
174 198 0
176 199 44
175 198 62
177 200 57
173 197 25
177 200 76
176 199 62
174 197 47
175 198 0
167 191 40
173 196 31
169 193 31
169 192 47
170 194 40
174 197 31
169 193 40
172 195 25
168 192 38
168 191 44
171 194 18
170 194 40
172 194 25
168 192 36
170 194 36
170 193 25
173 196 25
173 197 57
176 200 72
175 199 80
176 200 80
100 127 124
61 96 144
62 97 149
60 95 139
60 95 141
61 96 142
61 96 137
62 98 155
62 98 154
60 95 137
62 98 155
60 95 140
62 97 154
61 96 144
62 97 152
62 97 153
62 97 151
62 97 148
62 97 148
61 97 152
61 96 149
62 98 152
61 97 152
62 97 142
61 97 145
62 97 156
62 97 147
60 95 141
61 96 148
62 98 156
60 95 141
60 95 135
61 96 149
62 97 150
61 96 144
61 97 149
61 96 142
61 97 147
61 97 149
62 97 147
61 96 140
61 95 142
62 97 148
61 97 145
60 96 143
61 96 150
61 96 150
60 95 148
61 96 151
62 98 155
61 97 147
61 97 149
62 97 148
61 96 141
60 95 136
60 95 133
60 95 140
61 95 143
61 96 143
62 97 144
61 97 147
60 95 136
60 96 143
61 97 150
61 97 148
61 97 150
62 97 153
61 96 150
60 95 140
62 97 148
60 95 137
62 97 145
61 96 144
61 96 147
61 96 145
61 96 151
60 95 142
62 97 147
61 96 142
61 96 149
62 97 151
61 97 151
62 97 154
62 98 157
63 98 154
60 94 135
61 96 140
61 96 140
61 96 148
61 96 148
60 95 144
62 97 149
61 96 146
62 97 149
61 96 151
62 97 149
61 96 149
59 94 134
60 95 136
61 96 148
60 95 151
62 97 150
62 97 151
61 96 140
62 97 154
61 96 142
62 97 155
61 95 142
60 95 136
61 95 147
62 97 156
60 94 141
61 95 142
61 96 152
61 96 144
61 94 144
60 94 145
61 95 146
60 94 144
61 96 149
60 94 144
60 93 145
58 91 134
94 110 134
181 175 114
181 174 114
180 174 114
146 144 99
87 95 76
52 70 67
51 67 63
51 68 66
52 68 64
50 66 63
51 69 67
51 68 64
53 71 66
52 69 65
53 71 68
53 71 68
53 71 68
54 72 69
54 74 72
54 74 72
55 74 71
100 108 87
156 154 106
177 172 114
177 172 114
177 172 114
177 172 114
177 172 114
177 172 114
177 172 114
177 172 114
177 172 114
177 172 114
177 172 114
177 173 114
177 173 114
177 173 114
177 173 114
177 173 114
177 173 114
178 173 114
178 173 114
178 173 114
178 173 114
178 173 114
178 173 114
178 173 114
178 173 114
178 173 114
178 173 114
178 173 114
178 173 114
178 173 114
179 173 114
179 173 114
179 173 114
179 173 114
179 173 114
179 173 114
179 173 114
179 173 114
179 173 114
179 174 114
179 174 114
180 174 114
180 174 114
180 174 114
180 174 114
180 174 114
180 174 114
180 174 114
180 174 114
180 174 114
180 174 114
181 174 114
181 174 114
181 174 114
181 174 114
181 174 114
181 174 114
181 174 114
181 174 114
181 174 114
182 175 114
182 175 114
182 175 114
182 175 114
182 175 114
182 175 114
182 175 114
182 175 114
182 175 114
182 175 114
183 175 114
183 175 114
183 175 114
183 175 114
183 175 114
183 175 114
183 175 114
183 175 114
183 175 114
184 175 114
184 176 114
184 176 114
184 176 114
184 176 114
184 176 114
184 176 114
184 176 114
184 176 114
185 176 114
185 176 114
185 176 114
185 176 114
185 176 114
185 176 114
185 176 114
185 176 114
185 176 114
185 176 114
186 176 114
186 177 114
186 177 114
186 177 114
186 177 114
186 177 114
186 177 114
186 177 114
186 177 114
187 177 114
187 177 114
187 177 114
187 177 114
187 177 114
187 177 114
187 177 114
187 177 114
176 198 80
175 198 70
175 198 60
176 199 57
175 197 65
175 198 60
175 198 54
171 194 57
173 196 40
172 195 51
177 199 95
178 201 105
178 200 105
190 209 157
189 207 150
199 216 181
201 218 194
205 220 207
211 227 217
216 230 230
218 231 244
223 236 253
221 233 251
221 234 252
221 234 252
224 236 254
217 230 248
220 233 252
218 231 250
222 235 253
220 233 253
217 230 248
222 235 254
219 232 250
220 233 252
219 232 249
224 236 255
220 233 251
224 237 255
220 233 251
216 230 248
217 230 247
218 231 248
220 233 252
221 234 253
221 234 254
224 237 255
218 232 252
220 233 251
221 234 252
223 236 254
221 234 253
221 234 252
221 234 252
220 233 251
220 233 250
217 230 248
219 232 250
221 234 252
220 233 251
222 235 252
222 235 249
222 235 253
223 237 253
219 232 249
219 233 249
220 233 249
219 232 248
220 233 250
219 232 248
222 236 250
222 235 250
223 236 253
222 235 252
221 234 249
223 236 250
223 236 252
223 236 252
223 236 254
222 236 254
221 235 252
221 234 246
219 233 248
222 235 249
223 236 254
221 235 252
222 235 249
225 237 255
221 235 248
222 236 249
223 236 250
223 236 250
220 234 246
219 233 248
223 237 253
223 236 253
222 235 248
210 225 211
209 225 209
199 217 171
195 213 153
185 206 120
176 200 76
176 199 51
175 198 0
175 199 36
178 201 72
175 199 51
175 198 51
174 198 44
177 200 57
177 200 57
173 197 0
173 197 36
171 195 47
171 194 36
175 198 18
169 193 40
172 195 31
172 196 25
167 190 31
170 193 36
173 196 36
171 194 40
171 194 25
172 195 31
172 196 36
171 195 31
173 197 0
170 193 31
170 194 25
167 190 36
169 193 31
173 196 18
171 194 25
172 195 47
175 198 25
170 193 84
61 96 136
60 95 135
60 95 134
61 96 143
60 95 136
61 96 144
61 97 150
62 97 145
61 97 154
61 96 145
61 97 148
61 96 140
61 96 145
61 97 144
61 96 141
61 96 141
61 96 137
63 98 152
60 95 137
62 97 145
61 97 149
60 95 139
60 95 136
62 97 149
61 96 145
62 97 147
61 97 148
61 96 147
62 97 148
60 95 140
62 97 148
60 95 136
61 96 139
61 97 151
62 97 150
61 97 150
61 96 151
62 97 152
62 97 147
62 97 150
61 96 145
61 96 144
62 98 153
62 97 147
61 96 147
61 97 151
61 97 145
61 96 145
61 97 147
62 97 147
61 96 137
62 97 151
62 98 155
61 96 149
60 95 137
61 96 149
61 97 150
61 97 149
61 96 144
61 96 144
62 97 150
61 96 143
61 96 143
61 96 143
61 96 148
61 97 148
60 95 142
60 96 141
61 96 151
61 96 143
62 97 150
59 94 137
61 96 139
61 97 150
62 98 154
61 96 145
61 96 141
62 97 153
61 96 152
62 97 149
61 96 141
61 97 144
61 97 143
61 96 143
62 97 150
61 97 151
62 97 151
61 96 143
61 95 141
61 96 143
61 96 142
62 97 151
61 96 144
62 98 152
61 96 147
61 97 150
61 97 151
61 95 143
61 96 145
60 95 141
61 96 146
61 96 151
61 97 153
61 95 146
60 95 143
60 94 137
62 97 146
61 95 145
61 95 141
61 95 140
60 94 141
61 95 147
61 96 145
60 94 144
62 97 156
61 96 143
61 96 149
60 95 149
59 93 145
59 93 133
61 94 141
60 93 142
60 92 138
59 92 144
172 167 116
170 165 109
104 108 79
51 68 65
50 67 63
51 68 64
51 67 61
49 66 62
48 65 61
49 66 59
51 68 64
51 68 62
52 69 65
51 68 62
51 69 65
52 68 62
53 71 68
51 69 63
54 73 70
53 71 68
54 73 72
53 73 70
60 79 77
118 122 91
173 169 112
178 173 114
178 173 114
178 173 114
178 173 114
178 173 114
178 173 114
178 173 114
178 173 114
178 173 114
178 173 114
178 173 114
178 173 114
178 173 114
178 173 114
178 173 114
179 173 114
179 173 114
179 173 114
179 173 114
179 173 114
179 173 114
179 173 114
179 173 114
179 173 114
179 173 114
179 173 114
179 174 114
179 174 114
179 174 114
180 174 114
180 174 114
180 174 114
180 174 114
180 174 114
180 174 114
180 174 114
180 174 114
180 174 114
180 174 114
180 174 114
181 174 114
181 174 114
181 174 114
181 174 114
181 174 114
181 174 114
181 174 114
181 174 114
181 174 114
181 174 114
182 175 114
182 175 114
182 175 114
182 175 114
182 175 114
182 175 114
182 175 114
182 175 114
182 175 114
182 175 114
183 175 114
183 175 114
183 175 114
183 175 114
183 175 114
183 175 114
183 175 114
183 175 114
183 175 114
183 175 114
184 176 114
184 176 114
184 176 114
184 176 114
184 176 114
184 176 114
184 176 114
184 176 114
184 176 114
184 176 114
185 176 114
185 176 114
185 176 114
185 176 114
185 176 114
185 176 114
185 176 114
185 176 114
185 176 114
185 176 114
186 176 114
186 176 114
186 177 114
186 177 114
186 177 114
186 177 114
186 177 114
186 177 114
186 177 114
186 177 114
187 177 114
187 177 114
187 177 114
187 177 114
187 177 114
187 177 114
187 177 114
187 177 114
187 177 114
188 177 114
188 177 114
188 177 114
188 177 114
177 199 88
181 203 84
189 208 141
191 210 157
202 219 186
202 219 193
206 223 206
210 226 219
217 232 240
220 233 250
221 234 252
222 235 254
222 235 252
222 235 254
222 235 252
221 234 252
223 236 253
223 236 254
217 230 249
224 237 255
217 230 249
217 230 248
221 234 252
220 233 251
220 233 251
218 231 250
218 231 249
219 232 250
220 233 251
220 233 250
218 232 251
220 233 252
220 233 252
221 234 252
220 233 251
221 234 252
219 232 250
216 230 248
222 235 254
217 231 250
220 233 251
221 235 253
221 234 253
223 236 255
224 237 255
216 229 247
219 232 251
218 231 250
222 235 254
222 235 253
221 234 252
223 236 254
218 232 250
216 229 248
222 235 253
219 232 251
223 236 254
219 232 249
221 234 252
221 234 252
216 229 247
217 230 248
218 231 246
220 233 248
224 237 254
222 235 252
220 234 246
222 235 250
223 236 253
222 235 252
222 235 252
222 236 253
223 236 252
222 235 250
222 235 253
222 235 252
223 236 253
222 236 253
221 234 249
221 234 249
223 236 253
222 235 250
222 235 252
224 236 254
223 236 252
224 237 254
222 236 252
223 236 252
223 236 252
222 235 249
223 236 250
223 236 253
222 235 250
221 235 246
222 236 250
224 237 253
223 236 250
224 237 253
222 236 253
222 236 252
224 236 253
223 236 252
222 236 252
217 231 234
212 227 223
203 220 189
195 214 163
185 206 130
180 203 99
175 199 51
176 199 57
175 199 62
175 199 51
172 196 40
170 193 44
169 193 40
169 193 36
171 195 36
171 195 25
171 195 40
172 195 25
174 197 18
170 194 36
171 195 40
169 192 44
168 192 31
174 197 25
173 196 18
170 194 25
172 195 18
168 192 44
169 193 18
171 194 25
171 194 18
171 194 25
169 192 36
171 194 42
144 169 84
61 96 147
61 96 137
59 94 134
61 97 154
61 97 144
61 97 144
60 94 140
62 97 152
60 95 136
61 96 151
60 95 141
61 96 142
62 97 155
60 95 135
60 95 136
61 96 141
61 96 144
62 97 147
60 95 137
61 96 144
60 94 135
62 97 150
60 95 142
62 97 149
61 96 147
62 98 151
61 96 148
61 97 145
61 96 147
61 96 141
61 97 153
61 96 142
61 96 145
62 98 153
61 96 143
61 96 141
61 96 149
62 97 153
61 96 147
61 96 144
61 96 147
61 95 134
59 94 136
62 97 145
62 97 150
61 96 141
59 94 133
62 97 155
61 96 147
61 97 145
61 97 143
59 94 139
62 97 150
61 97 150
60 96 142
61 97 151
59 95 142
60 95 137
59 94 136
61 96 139
61 97 148
61 96 140
62 98 152
60 96 147
59 94 142
59 94 129
62 97 148
62 97 144
61 96 144
62 97 148
61 96 143
61 97 144
61 96 145
62 97 155
61 97 148
62 97 152
61 97 150
62 97 151
62 97 154
62 97 148
61 97 152
63 98 164
62 97 149
61 96 141
62 97 152
61 97 147
62 98 155
61 95 141
61 95 146
61 96 145
61 96 141
61 97 153
61 95 142
60 95 141
61 96 151
59 94 129
60 96 140
60 95 142
59 93 137
60 95 146
61 96 141
61 95 138
61 96 146
62 97 154
61 96 148
61 96 141
60 93 138
60 95 137
60 95 139
61 95 142
60 95 147
60 94 137
60 94 139
62 97 155
61 96 149
61 95 144
59 92 131
60 94 141
60 94 145
61 95 139
59 93 134
59 92 134
59 93 138
59 90 138
126 131 117
67 78 65
48 63 56
49 64 58
49 66 62
45 59 52
49 65 61
49 65 61
51 67 63
49 66 61
50 67 61
50 67 65
49 66 60
51 68 65
53 70 65
52 70 66
53 70 65
52 70 65
54 72 69
53 72 67
54 72 69
53 72 69
54 74 71
55 75 73
90 100 82
166 162 109
179 173 114
179 173 114
179 173 114
179 173 114
179 173 114
179 173 114
179 173 114
179 173 114
179 173 114
179 173 114
179 173 114
179 174 114
179 174 114
179 174 114
180 174 114
180 174 114
180 174 114
180 174 114
180 174 114
180 174 114
180 174 114
180 174 114
180 174 114
180 174 114
180 174 114
180 174 114
180 174 114
180 174 114
181 174 114
181 174 114
181 174 114
181 174 114
181 174 114
181 174 114
181 174 114
181 174 114
181 174 114
181 174 114
181 174 114
181 175 114
182 175 114
182 175 114
182 175 114
182 175 114
182 175 114
182 175 114
182 175 114
182 175 114
182 175 114
182 175 114
182 175 114
183 175 114
183 175 114
183 175 114
183 175 114
183 175 114
183 175 114
183 175 114
183 175 114
183 175 114
183 175 114
183 175 114
184 176 114
184 176 114
184 176 114
184 176 114
184 176 114
184 176 114
184 176 114
184 176 114
184 176 114
184 176 114
185 176 114
185 176 114
185 176 114
185 176 114
185 176 114
185 176 114
185 176 114
185 176 114
185 176 114
185 176 114
186 176 114
186 176 114
186 176 114
186 177 114
186 177 114
186 177 114
186 177 114
186 177 114
186 177 114
186 177 114
186 177 114
187 177 114
187 177 114
187 177 114
187 177 114
187 177 114
187 177 114
187 177 114
187 177 114
187 177 114
187 177 114
188 177 114
188 177 114
188 177 114
188 178 114
188 178 114
188 178 114
188 178 114
188 178 114
188 178 114
223 236 254
223 236 255
221 234 252
220 233 251
223 236 255
221 233 251
225 238 255
223 236 254
215 228 248
221 234 252
223 235 254
221 234 252
220 233 251
221 234 252
222 235 253
220 233 251
219 232 250
224 237 255
220 233 251
217 230 248
221 234 252
221 234 253
222 235 254
222 235 253
221 234 253
218 231 250
221 234 252
220 234 252
223 236 254
222 235 254
220 233 252
220 233 252
221 234 252
219 232 251
220 233 252
222 235 253
223 237 255
220 233 251
218 231 249
219 233 251
220 233 251
221 234 252
217 230 249
220 233 251
219 232 250
220 233 250
219 232 250
221 234 252
221 234 252
221 235 253
216 230 248
223 237 255
220 233 250
222 235 254
216 229 248
219 232 250
221 234 254
222 235 253
221 234 252
216 229 246
216 230 248
218 231 249
222 235 254
218 231 246
221 235 248
220 233 249
222 235 252
223 236 253
222 235 253
221 234 249
219 233 246
222 236 252
222 235 249
222 236 253
223 236 252
222 235 249
224 237 254
221 235 250
222 236 250
221 234 249
220 233 246
224 237 254
222 236 250
223 236 253
221 235 252
222 236 250
223 236 253
223 236 253
223 236 253
221 234 249
222 235 252
223 236 252
222 235 249
222 235 249
223 237 253
221 234 248
222 235 249
222 236 249
222 236 250
221 235 246
223 236 253
224 237 253
224 237 255
224 237 252
222 235 249
224 236 252
222 235 249
220 234 249
222 236 250
217 232 236
208 224 207
197 215 170
189 208 144
173 196 72
173 196 18
170 194 44
170 194 25
172 195 31
169 193 31
171 195 25
167 192 31
171 195 18
168 193 40
168 192 36
169 193 38
168 192 18
171 195 25
169 193 25
167 191 44
172 195 18
173 196 25
172 195 25
171 194 25
169 192 25
173 197 18
170 193 33
170 193 25
103 130 117
60 95 139
60 96 142
61 97 145
61 96 147
60 96 142
60 96 145
61 97 144
61 96 143
61 96 148
60 96 140
60 96 143
60 96 141
61 96 143
61 96 142
61 96 143
60 95 142
61 96 141
61 96 145
60 96 144
62 97 149
62 98 155
60 95 131
61 96 145
60 95 134
62 97 153
61 97 150
61 97 145
61 96 136
61 97 144
60 95 140
61 96 147
61 96 141
61 97 147
62 98 154
62 97 150
61 96 148
61 97 149
62 97 148
60 95 140
62 97 151
61 97 148
61 96 141
60 95 136
62 98 153
62 97 156
61 97 150
60 95 141
62 98 156
59 94 143
61 96 142
62 97 155
62 97 153
60 95 139
61 96 143
61 97 150
61 96 143
62 97 145
61 96 144
59 94 134
58 93 128
61 96 142
61 96 145
60 95 140
60 94 144
61 96 142
62 97 151
61 96 142
60 94 134
60 96 145
63 98 155
61 96 145
61 97 151
60 94 134
61 96 143
60 95 147
60 94 133
61 97 149
62 98 151
61 96 149
61 96 145
62 97 151
62 97 153
61 96 139
60 96 145
61 96 145
60 95 142
61 97 150
61 97 147
61 96 147
62 97 148
62 97 143
62 97 147
61 96 142
61 96 142
61 97 148
63 98 157
61 96 150
60 95 141
61 96 150
61 97 154
60 95 144
61 97 150
61 96 147
61 96 145
60 95 135
60 95 139
61 96 146
60 94 143
59 94 139
62 97 153
61 95 143
61 96 144
61 94 143
60 95 140
61 95 147
60 94 145
61 96 152
60 94 135
60 94 140
61 95 145
60 94 135
60 94 141
60 93 137
59 91 140
57 86 125
49 64 57
47 62 56
45 59 52
48 64 59
45 60 54
49 64 58
44 58 51
49 64 57
48 64 58
49 65 58
49 66 59
50 66 60
50 66 61
50 66 58
50 67 64
53 71 66
52 69 62
52 71 66
52 69 63
53 72 68
53 72 67
54 72 68
54 73 70
55 74 70
77 90 79
161 158 107
180 174 114
180 174 114
180 174 114
180 174 114
180 174 114
180 174 114
180 174 114
180 174 114
180 174 114
180 174 114
180 174 114
180 174 114
180 174 114
180 174 114
181 174 114
181 174 114
181 174 114
181 174 114
181 174 114
181 174 114
181 174 114
181 174 114
181 174 114
181 174 114
181 174 114
181 174 114
181 174 114
181 174 114
182 175 114
182 175 114
182 175 114
182 175 114
182 175 114
182 175 114
182 175 114
182 175 114
182 175 114
182 175 114
182 175 114
182 175 114
182 175 114
183 175 114
183 175 114
183 175 114
183 175 114
183 175 114
183 175 114
183 175 114
183 175 114
183 175 114
183 175 114
183 175 114
184 175 114
184 176 114
184 176 114
184 176 114
184 176 114
184 176 114
184 176 114
184 176 114
184 176 114
184 176 114
184 176 114
185 176 114
185 176 114
185 176 114
185 176 114
185 176 114
185 176 114
185 176 114
185 176 114
185 176 114
185 176 114
185 176 114
186 176 114
186 176 114
186 177 114
186 177 114
186 177 114
186 177 114
186 177 114
186 177 114
186 177 114
186 177 114
186 177 114
187 177 114
187 177 114
187 177 114
187 177 114
187 177 114
187 177 114
187 177 114
187 177 114
187 177 114
187 177 114
187 177 114
188 177 114
188 177 114
188 177 114
188 177 114
188 178 114
188 178 114
188 178 114
188 178 114
188 178 114
188 178 114
188 178 114
189 178 114
189 178 114
189 178 114
189 178 114
223 236 254
216 229 248
223 236 254
220 233 251
220 233 252
221 234 254
220 233 251
222 235 254
221 234 252
220 233 252
222 235 254
222 235 253
221 234 254
221 234 252
220 233 252
219 232 250
220 233 252
221 234 253
222 235 254
219 232 250
221 234 252
218 231 250
222 235 254
223 236 255
218 231 249
220 233 251
221 235 253
221 234 252
221 234 253
220 234 253
222 235 254
219 232 250
224 237 255
219 232 252
223 236 254
221 234 252
223 236 255
221 234 252
222 235 253
223 236 255
222 235 254
222 235 254
221 234 252
221 235 254
220 233 252
217 230 248
220 233 252
221 234 253
219 232 250
217 231 250
220 234 252
219 233 252
218 232 252
222 235 254
222 235 254
220 233 252
221 235 253
224 237 255
220 233 252
219 232 251
221 235 253
221 234 252
220 234 253
221 234 252
220 233 251
222 235 252
221 235 249
220 234 250
221 234 249
223 236 253
222 236 253
222 235 252
222 236 253
223 236 254
221 235 249
223 236 253
220 234 249
223 236 253
224 237 255
222 235 250
222 235 252
223 236 253
221 235 250
222 236 252
222 235 252
222 235 250
221 235 250
222 235 252
222 235 252
223 237 254
221 234 250
221 234 248
223 236 252
221 235 248
223 236 250
221 235 246
223 236 250
222 236 253
222 235 252
221 234 249
223 236 253
224 237 254
224 237 254
221 234 245
223 236 252
222 235 250
222 236 252
223 236 250
222 236 249
221 235 250
223 236 252
221 234 250
219 232 245
218 231 249
213 227 229
203 220 195
192 211 162
188 208 124
173 196 36
168 191 40
168 191 31
174 198 0
165 188 47
171 194 31
172 195 25
173 196 0
172 195 18
174 197 0
170 194 25
170 194 31
168 191 25
170 194 18
171 194 31
168 192 25
170 194 18
169 193 31
169 193 44
75 106 131
58 93 131
60 96 140
61 96 139
60 95 142
60 96 145
62 97 150
60 96 139
61 96 149
62 97 152
61 96 145
62 97 154
61 96 150
62 97 149
61 96 140
61 96 145
60 95 135
62 97 151
60 94 128
61 96 144
60 96 144
60 96 147
60 95 139
61 96 140
62 97 150
62 98 160
60 96 139
61 96 150
60 95 144
60 95 137
60 95 136
61 97 147
61 96 142
61 96 150
62 97 140
61 96 142
60 95 140
62 97 148
60 95 136
60 95 135
60 96 140
61 97 143
60 95 143
61 96 145
60 95 137
60 96 142
61 97 152
61 96 141
60 95 137
61 96 140
60 95 131
62 97 150
61 96 142
62 97 150
60 95 141
61 96 145
61 96 143
62 97 148
61 96 144
61 96 142
62 97 150
62 97 154
61 96 147
62 97 153
62 97 149
61 96 148
61 96 142
61 96 148
60 95 136
61 96 145
61 97 145
60 95 141
61 96 151
62 97 155
61 96 143
61 96 147
61 96 145
61 96 153
60 95 144
62 97 144
61 96 144
61 96 148
61 96 145
60 95 143
62 97 142
62 97 145
61 96 148
61 96 141
61 96 141
62 97 148
61 96 142
61 96 144
61 96 142
60 95 139
61 96 140
61 96 139
62 97 149
60 94 139
60 94 137
61 95 147
60 95 141
61 96 145
61 96 142
60 95 141
62 97 148
59 94 140
61 95 139
60 95 141
61 97 151
61 96 147
60 95 140
60 94 140
61 96 146
61 96 145
60 93 138
61 95 145
61 95 147
60 94 138
59 91 131
59 94 139
59 93 135
60 94 142
60 94 147
61 95 150
59 91 133
58 89 129
46 60 53
45 59 52
47 60 49
45 59 49
46 60 53
47 62 56
46 61 55
47 62 56
48 63 54
48 62 54
48 64 58
50 66 60
50 66 61
51 69 63
51 68 62
51 67 59
51 69 64
53 71 65
53 71 64
53 71 66
53 71 64
53 72 68
54 73 70
55 74 72
55 75 71
72 86 78
165 160 108
181 174 114
181 174 114
181 174 114
181 174 114
181 174 114
181 174 114
181 174 114
181 174 114
181 174 114
181 174 114
181 174 114
181 174 114
181 175 114
182 175 114
182 175 114
182 175 114
182 175 114
182 175 114
182 175 114
182 175 114
182 175 114
182 175 114
182 175 114
182 175 114
182 175 114
182 175 114
182 175 114
182 175 114
183 175 114
183 175 114
183 175 114
183 175 114
183 175 114
183 175 114
183 175 114
183 175 114
183 175 114
183 175 114
183 175 114
183 175 114
184 175 114
184 175 114
184 176 114
184 176 114
184 176 114
184 176 114
184 176 114
184 176 114
184 176 114
184 176 114
184 176 114
184 176 114
184 176 114
185 176 114
185 176 114
185 176 114
185 176 114
185 176 114
185 176 114
185 176 114
185 176 114
185 176 114
185 176 114
185 176 114
185 176 114
186 176 114
186 176 114
186 177 114
186 177 114
186 177 114
186 177 114
186 177 114
186 177 114
186 177 114
186 177 114
186 177 114
186 177 114
187 177 114
187 177 114
187 177 114
187 177 114
187 177 114
187 177 114
187 177 114
187 177 114
187 177 114
187 177 114
187 177 114
188 177 114
188 177 114
188 177 114
188 177 114
188 178 114
188 178 114
188 178 114
188 178 114
188 178 114
188 178 114
188 178 114
188 178 114
189 178 114
189 178 114
189 178 114
189 178 114
189 178 114
189 178 114
189 178 114
189 178 114
189 178 114
189 178 114
223 236 254
217 230 248
220 233 252
218 231 251
220 233 251
220 233 251
215 229 246
217 231 251
219 232 252
222 235 254
218 231 249
219 232 249
220 233 252
221 234 252
219 232 251
222 235 254
223 236 255
221 234 252
217 230 248
222 235 254
220 234 252
222 235 253
219 233 252
219 233 252
223 236 255
218 231 250
218 232 252
215 229 248
223 236 255
223 236 254
223 236 255
217 231 249
220 234 252
221 235 254
216 229 248
221 235 254
219 233 253
221 234 252
219 232 251
221 234 253
222 235 254
220 233 253
219 232 250
219 233 251
217 230 248
220 234 254
218 231 249
218 232 251
219 232 251
219 232 251
222 235 253
222 236 255
220 233 251
218 232 250
221 234 252
222 236 254
219 232 251
218 231 251
220 234 252
222 235 253
218 232 252
221 234 252
220 233 252
216 229 248
223 236 254
222 235 253
222 235 250
223 236 253
223 236 253
220 234 250
222 236 252
222 236 252
223 237 255
219 233 246
219 232 246
222 236 252
220 234 249
221 235 249
222 236 253
220 234 248
222 236 253
222 235 250
220 233 244
222 236 253
222 236 250
220 234 246
222 235 250
223 237 254
220 234 246
221 235 248
223 236 253
220 233 248
221 235 248
222 235 252
222 236 249
222 235 248
221 235 246
222 236 250
221 234 246
221 235 249
222 236 250
221 235 250
222 235 250
223 236 253
223 236 252
223 236 252
222 235 249
221 235 249
223 237 254
223 236 253
220 233 250
219 232 250
220 232 250
220 233 248
216 230 245
219 232 245
220 233 249
223 236 252
220 233 247
210 225 217
200 217 181
189 208 142
171 195 47
172 195 25
174 197 0
171 195 31
173 196 25
168 192 18
173 196 18
173 196 0
173 197 18
170 193 36
172 195 25
173 196 18
170 194 31
171 194 12
159 182 51
61 97 147
61 96 147
59 94 133
60 95 140
62 97 148
62 97 153
61 97 152
61 96 149
61 96 145
61 96 149
62 97 148
61 97 143
61 96 147
61 96 148
62 97 153
61 96 144
61 97 144
60 96 142
61 96 143
60 96 140
60 95 142
60 96 142
63 98 154
62 98 154
61 96 141
61 97 155
61 96 139
61 96 142
62 98 158
62 98 150
61 97 144
62 97 148
61 96 144
61 96 145
61 96 141
61 96 142
62 97 153
60 95 139
61 96 140
60 95 142
61 96 141
61 96 143
60 96 140
61 96 145
61 96 142
61 97 145
61 96 144
61 97 154
60 95 136
61 96 143
59 94 139
60 95 137
60 95 139
61 96 149
62 97 149
61 97 145
61 96 142
61 96 140
61 96 143
60 95 135
60 96 143
60 95 136
62 97 154
60 95 142
61 96 145
61 96 149
60 96 141
61 96 137
61 96 140
61 96 142
61 96 137
62 97 152
61 96 142
61 96 142
60 95 137
62 97 152
60 95 134
62 97 148
63 98 157
61 96 148
62 98 152
61 96 144
60 96 141
61 96 140
60 95 141
62 97 147
60 95 137
61 97 154
60 95 139
62 97 146
60 94 136
61 95 137
60 95 144
60 94 141
60 95 140
59 94 133
62 97 146
60 94 140
62 96 151
60 95 135
61 96 150
59 93 138
61 96 147
59 94 138
62 97 150
61 96 145
61 96 146
61 96 145
62 97 156
60 95 145
61 96 147
62 97 153
60 94 142
62 96 149
58 91 121
61 95 154
61 95 145
60 94 136
60 94 140
60 93 135
60 93 141
61 95 147
61 95 144
60 92 137
59 92 138
59 91 133
47 65 74
44 58 51
43 56 46
43 57 52
45 59 54
47 62 55
45 59 51
45 59 52
48 62 54
49 65 60
49 65 60
47 62 52
50 66 57
49 66 58
50 66 57
50 67 58
50 67 62
52 69 64
52 70 65
52 69 62
54 72 66
53 71 65
54 73 67
54 73 68
54 73 67
55 74 70
79 90 76
178 171 112
182 175 114
182 175 114
182 175 114
182 175 114
182 175 114
182 175 114
182 175 114
182 175 114
182 175 114
182 175 114
182 175 114
183 175 114
183 175 114
183 175 114
183 175 114
183 175 114
183 175 114
183 175 114
183 175 114
183 175 114
183 175 114
183 175 114
183 175 114
183 175 114
183 175 114
183 175 114
183 175 114
184 175 114
184 175 114
184 176 114
184 176 114
184 176 114
184 176 114
184 176 114
184 176 114
184 176 114
184 176 114
184 176 114
184 176 114
184 176 114
184 176 114
185 176 114
185 176 114
185 176 114
185 176 114
185 176 114
185 176 114
185 176 114
185 176 114
185 176 114
185 176 114
185 176 114
185 176 114
185 176 114
186 176 114
186 176 114
186 176 114
186 177 114
186 177 114
186 177 114
186 177 114
186 177 114
186 177 114
186 177 114
186 177 114
186 177 114
187 177 114
187 177 114
187 177 114
187 177 114
187 177 114
187 177 114
187 177 114
187 177 114
187 177 114
187 177 114
187 177 114
187 177 114
187 177 114
188 177 114
188 177 114
188 177 114
188 177 114
188 178 114
188 178 114
188 178 114
188 178 114
188 178 114
188 178 114
188 178 114
188 178 114
188 178 114
189 178 114
189 178 114
189 178 114
189 178 114
189 178 114
189 178 114
189 178 114
189 178 114
189 178 114
189 178 114
189 178 114
189 178 114
190 178 114
190 178 114
190 178 114
190 178 114
190 178 114
223 236 255
222 235 254
221 234 253
219 232 252
219 232 251
223 236 254
222 235 253
219 232 250
221 234 253
218 231 250
220 233 251
216 230 249
219 233 252
218 231 249
216 230 247
219 233 252
221 234 252
220 234 253
220 234 253
221 234 252
223 236 255
218 232 250
221 235 253
219 233 252
219 233 252
221 234 253
218 232 250
220 234 252
220 234 252
222 235 254
217 231 249
222 236 255
215 228 246
220 234 252
218 232 250
219 232 252
220 234 252
221 234 253
220 234 253
221 235 254
220 234 252
220 233 252
221 235 254
219 233 252
221 234 253
218 232 251
218 231 251
220 234 254
218 232 252
218 232 251
224 237 255
222 235 253
218 231 250
219 233 252
220 233 252
217 231 249
219 233 251
219 233 251
220 234 252
220 233 252
222 236 254
213 227 246
218 231 251
216 229 248
220 234 253
220 234 252
214 228 245
221 234 249
222 236 252
221 235 252
221 234 249
222 236 252
221 235 249
220 234 250
223 236 252
222 235 250
220 234 246
221 235 250
223 236 253
223 236 254
218 231 245
222 235 253
220 235 249
221 235 250
221 235 249
223 237 254
223 236 254
222 236 252
223 236 254
222 236 252
223 236 254
220 234 248
223 236 253
220 234 249
221 235 246
222 235 250
222 235 253
221 235 250
221 235 250
222 236 253
222 236 250
222 236 252
223 236 250
222 236 250
223 236 253
222 235 249
223 236 253
223 237 254
222 235 250
222 235 252
216 230 244
217 231 246
219 232 246
217 231 242
221 235 247
216 229 245
220 233 248
221 233 250
217 230 246
216 230 244
213 226 237
219 232 248
219 232 244
207 222 205
193 211 158
181 202 121
167 191 36
171 194 18
173 196 18
164 188 51
171 194 36
167 191 25
169 193 31
170 193 18
171 194 31
169 193 18
132 156 86
61 96 133
61 97 148
62 97 153
61 96 142
61 96 140
62 98 154
61 96 145
61 96 148
63 98 149
62 97 154
60 95 141
61 96 149
62 97 150
61 97 149
61 96 139
61 96 141
60 95 143
61 97 147
62 97 150
61 96 142
61 96 150
59 94 135
61 97 149
61 96 148
60 95 139
62 97 148
61 97 144
61 96 147
60 95 140
61 97 145
60 95 139
60 95 140
60 96 139
61 96 143
59 94 131
61 96 143
61 96 145
62 97 149
61 96 145
60 94 141
61 96 142
61 97 145
60 95 136
60 95 139
61 96 144
62 97 147
62 97 147
61 96 144
59 94 136
60 95 135
60 96 140
61 95 145
61 96 147
61 96 147
61 96 147
61 97 143
62 97 149
60 95 142
60 95 148
60 95 139
61 97 149
61 97 145
62 97 148
61 97 148
61 96 142
61 95 143
61 96 151
60 96 143
61 96 142
60 95 141
61 96 149
60 95 135
60 95 137
60 95 130
61 96 140
62 97 150
59 93 129
60 95 141
61 96 143
60 95 141
61 95 136
60 95 141
61 95 143
61 96 137
62 97 147
59 94 136
61 96 148
60 94 134
60 95 139
62 97 150
61 96 143
61 96 142
62 97 153
60 95 146
62 97 150
60 95 142
61 96 148
61 96 141
60 95 140
61 96 145
62 97 152
60 95 144
60 95 141
61 96 145
61 96 144
61 96 148
60 95 142
61 96 141
60 94 140
59 93 137
60 94 134
60 94 141
60 94 143
62 97 153
60 93 134
61 96 146
60 94 139
61 96 151
60 93 131
60 95 141
59 92 141
60 94 144
60 93 141
60 94 142
59 92 146
59 90 134
50 72 92
40 51 43
42 56 49
44 58 50
44 58 52
45 60 53
44 58 52
43 55 45
47 61 54
47 62 54
49 65 57
48 63 54
48 65 58
49 65 56
50 65 58
50 65 55
50 66 57
51 68 62
51 67 59
52 69 62
52 70 65
52 70 62
54 73 68
55 74 71
53 72 67
54 73 68
54 74 68
119 122 90
183 175 114
183 175 114
183 175 114
183 175 114
183 175 114
183 175 114
183 175 114
183 175 114
183 175 114
183 175 114
183 175 114
183 175 114
184 175 114
184 176 114
184 176 114
184 176 114
184 176 114
184 176 114
184 176 114
184 176 114
184 176 114
184 176 114
184 176 114
184 176 114
184 176 114
184 176 114
184 176 114
184 176 114
184 176 114
185 176 114
185 176 114
185 176 114
185 176 114
185 176 114
185 176 114
185 176 114
185 176 114
185 176 114
185 176 114
185 176 114
185 176 114
185 176 114
185 176 114
186 176 114
186 176 114
186 177 114
186 177 114
186 177 114
186 177 114
186 177 114
186 177 114
186 177 114
186 177 114
186 177 114
186 177 114
186 177 114
186 177 114
187 177 114
187 177 114
187 177 114
187 177 114
187 177 114
187 177 114
187 177 114
187 177 114
187 177 114
187 177 114
187 177 114
187 177 114
187 177 114
188 177 114
188 177 114
188 177 114
188 177 114
188 178 114
188 178 114
188 178 114
188 178 114
188 178 114
188 178 114
188 178 114
188 178 114
188 178 114
188 178 114
189 178 114
189 178 114
189 178 114
189 178 114
189 178 114
189 178 114
189 178 114
189 178 114
189 178 114
189 178 114
189 178 114
189 178 114
189 178 114
190 178 114
190 178 114
190 178 114
190 178 114
190 178 114
190 179 114
190 179 114
190 179 114
190 179 114
190 179 114
190 179 114
190 179 114
221 234 252
218 231 250
223 236 254
221 234 253
220 233 252
223 236 255
218 231 250
217 231 250
221 235 254
222 235 254
223 236 254
216 230 249
219 233 252
217 231 250
219 233 251
219 233 251
219 233 251
221 235 254
220 234 253
219 233 251
224 237 255
221 235 254
222 236 254
222 235 254
218 232 252
219 233 252
220 234 252
223 236 255
221 235 254
221 234 253
218 232 252
223 236 255
219 233 252
222 235 254
218 232 252
219 233 252
219 232 251
220 234 253
216 229 249
217 231 251
219 233 252
221 235 254
219 233 253
218 232 251
223 236 255
219 233 252
215 229 248
220 233 254
221 235 254
218 232 252
221 235 254
223 236 255
219 233 252
219 233 252
220 234 253
219 232 251
221 235 254
217 231 250
220 234 252
222 235 254
222 235 253
219 232 250
220 234 252
216 229 249
220 234 252
220 234 252
219 232 252
221 235 253
221 234 246
221 235 250
221 235 252
221 235 250
220 234 249
219 233 249
222 236 252
220 234 246
221 235 249
222 236 254
221 235 250
222 236 253
223 236 254
221 235 248
220 234 248
222 236 250
222 236 252
221 235 248
221 235 248
221 235 249
223 236 253
222 236 252
221 234 250
220 234 248
222 236 252
222 235 250
222 235 252
222 235 250
221 235 249
222 236 253
221 235 249
222 236 253
218 232 244
223 236 254
220 234 248
222 235 250
222 235 250
220 234 248
221 235 249
223 236 252
220 234 252
220 233 252
222 235 253
222 236 252
221 234 250
223 236 252
216 230 247
214 228 242
216 230 244
220 233 250
214 227 241
218 231 250
215 228 238
221 234 250
219 232 247
221 234 249
218 231 248
221 234 246
216 230 235
206 222 206
189 208 148
176 198 88
171 195 0
172 195 18
171 195 18
175 198 0
172 196 0
171 195 18
119 145 114
61 96 149
61 96 143
60 95 144
62 97 154
62 97 147
61 96 142
61 96 147
61 96 150
62 97 150
62 98 156
60 95 137
61 97 145
60 95 140
61 96 142
62 97 143
60 96 142
61 96 151
60 95 145
60 95 131
61 96 141
61 96 145
60 95 142
60 96 144
61 96 147
62 97 149
61 96 143
62 97 151
61 96 141
62 97 149
60 94 134
62 97 149
61 96 144
60 95 134
61 96 142
60 95 139
60 95 133
60 95 136
61 96 145
61 96 145
61 95 135
61 96 154
61 96 137
60 95 147
61 96 139
60 95 134
61 96 142
61 97 147
60 95 141
62 97 148
61 96 140
61 96 140
61 97 149
60 96 145
61 95 140
60 95 143
60 95 140
59 95 137
61 96 137
61 96 143
61 97 148
61 96 147
61 97 148
61 96 142
60 95 133
61 96 142
60 95 143
61 96 140
61 96 144
60 95 147
60 96 143
61 95 143
61 96 141
60 95 143
60 95 139
61 96 142
62 97 150
60 95 140
60 95 139
61 96 149
61 96 142
62 97 148
61 96 135
61 96 144
60 95 136
60 95 138
61 96 141
60 95 133
60 94 137
61 96 143
62 97 143
61 96 144
61 97 143
61 96 144
59 94 134
61 96 143
59 94 139
61 95 135
60 95 133
61 96 141
63 98 155
60 95 141
61 96 145
61 96 147
60 95 142
60 95 135
61 96 151
61 96 143
60 94 138
60 95 142
61 96 142
60 94 135
61 96 145
60 94 134
59 93 140
61 96 144
60 95 138
61 95 143
60 94 136
59 93 142
61 96 149
61 95 145
59 91 131
60 92 129
60 91 137
59 91 134
58 90 131
54 81 119
37 48 40
42 56 47
43 55 46
42 55 48
44 58 52
46 60 52
45 59 50
43 57 47
48 62 51
49 65 57
48 63 51
50 65 55
50 65 58
48 64 55
50 66 56
50 67 63
52 68 60
52 68 60
52 70 62
53 70 63
51 68 61
53 70 64
53 71 65
54 73 65
55 74 70
55 74 68
54 74 68
153 149 103
184 176 114
184 176 114
184 176 114
184 176 114
184 176 114
184 176 114
184 176 114
184 176 114
184 176 114
185 176 114
185 176 114
185 176 114
185 176 114
185 176 114
185 176 114
185 176 114
185 176 114
185 176 114
185 176 114
185 176 114
185 176 114
185 176 114
185 176 114
185 176 114
185 176 114
185 176 114
185 176 114
185 176 114
186 176 114
186 176 114
186 176 114
186 176 114
186 177 114
186 177 114
186 177 114
186 177 114
186 177 114
186 177 114
186 177 114
186 177 114
186 177 114
186 177 114
186 177 114
186 177 114
187 177 114
187 177 114
187 177 114
187 177 114
187 177 114
187 177 114
187 177 114
187 177 114
187 177 114
187 177 114
187 177 114
187 177 114
187 177 114
187 177 114
188 177 114
188 177 114
188 177 114
188 177 114
188 178 114
188 178 114
188 178 114
188 178 114
188 178 114
188 178 114
188 178 114
188 178 114
188 178 114
188 178 114
188 178 114
189 178 114
189 178 114
189 178 114
189 178 114
189 178 114
189 178 114
189 178 114
189 178 114
189 178 114
189 178 114
189 178 114
189 178 114
189 178 114
189 178 114
190 178 114
190 178 114
190 178 114
190 178 114
190 178 114
190 178 114
190 179 114
190 179 114
190 179 114
190 179 114
190 179 114
190 179 114
190 179 114
190 179 114
190 179 114
191 179 114
191 179 114
191 179 114
191 179 114
191 179 114
191 179 114
218 232 250
219 233 252
219 233 252
217 231 249
219 233 251
219 233 252
219 233 253
221 235 254
222 235 254
224 237 255
220 234 252
215 228 247
218 232 251
217 230 248
220 234 254
219 232 252
221 235 254
216 230 248
219 233 252
220 234 253
219 233 251
216 229 249
219 233 252
217 231 250
221 235 254
219 233 252
222 236 255
218 232 251
221 235 254
220 234 252
223 237 255
219 233 251
220 233 253
220 234 253
220 234 253
218 232 250
222 235 254
219 232 251
218 232 252
216 230 250
221 235 254
220 234 253
220 233 254
216 229 248
218 231 251
219 233 252
219 233 252
222 236 255
221 234 254
218 232 251
217 231 250
217 230 249
217 231 250
219 233 252
218 231 250
222 235 255
221 235 254
218 232 252
216 229 250
218 231 250
221 235 254
222 236 255
215 229 248
220 234 252
219 232 251
217 231 251
222 236 255
221 235 254
223 236 254
218 232 246
222 236 253
221 235 250
220 234 248
221 235 250
222 235 250
221 235 250
221 235 248
220 234 248
221 235 252
222 235 252
220 234 246
220 235 249
222 235 252
220 234 248
222 235 250
221 235 249
222 236 252
221 234 248
221 235 252
222 236 252
219 233 244
220 234 245
221 235 252
220 234 246
221 235 249
220 234 248
222 236 253
222 236 253
223 237 254
222 236 253
221 235 250
222 235 252
222 235 249
222 235 250
222 235 249
221 235 249
221 235 249
222 235 250
218 231 247
220 234 250
219 233 248
214 228 242
218 232 247
219 233 248
216 229 244
219 233 250
220 233 249
218 231 248
221 234 250
220 233 246
221 234 250
217 231 245
217 230 245
216 229 244
222 235 249
213 226 244
217 230 246
218 232 248
219 232 246
217 230 244
214 228 223
200 217 181
183 204 111
171 195 25
172 195 18
172 195 31
93 121 126
60 95 138
61 97 144
61 96 141
62 97 154
63 98 155
60 95 134
60 95 141
61 97 143
61 96 145
60 95 133
62 97 149
62 97 149
61 96 140
61 96 141
61 96 139
60 95 142
60 95 135
61 96 139
61 96 142
60 94 137
61 96 142
61 96 141
61 96 143
60 95 141
62 97 153
61 96 142
60 96 140
60 95 136
60 96 141
60 95 139
60 95 139
61 96 145
60 96 144
61 96 134
60 96 142
62 97 153
60 95 139
60 96 144
61 96 144
60 95 140
60 95 142
61 97 145
61 96 147
62 98 150
60 95 140
60 95 130
62 98 156
59 94 126
61 97 147
61 96 145
61 95 136
61 96 144
61 96 141
60 95 135
61 96 140
61 96 144
61 96 141
61 96 145
61 96 144
61 96 148
61 96 141
61 96 142
61 96 145
61 96 144
61 96 136
60 95 139
61 95 142
62 97 145
59 94 139
61 96 144
61 97 148
61 96 143
60 94 137
61 96 147
61 97 144
60 94 135
62 97 148
61 96 140
61 96 142
62 98 152
61 96 142
61 96 143
62 97 150
62 97 149
60 95 136
59 94 133
63 98 155
59 94 142
61 96 140
60 94 144
62 97 149
60 95 142
60 95 141
61 97 151
61 96 139
61 97 150
60 94 135
60 95 148
62 97 151
61 95 140
60 95 135
61 96 138
60 95 144
59 94 132
60 95 136
61 95 140
61 96 150
60 94 141
60 94 137
60 95 141
60 93 138
60 94 138
60 95 147
60 94 140
61 95 144
60 95 142
61 96 148
60 95 142
59 92 135
61 95 147
59 93 134
59 92 132
58 91 126
61 95 143
59 93 136
58 89 127
54 83 118
39 51 43
39 52 47
41 54 48
42 55 47
42 55 49
43 55 46
45 58 48
46 60 50
45 60 50
45 60 51
46 60 49
48 63 52
48 63 52
51 66 55
50 66 56
51 68 62
50 66 56
51 67 57
52 69 58
51 68 59
52 68 61
53 71 65
53 71 64
53 71 62
55 74 70
54 73 69
54 73 65
67 83 72
180 172 112
185 176 114
185 176 114
185 176 114
185 176 114
185 176 114
185 176 114
185 176 114
185 176 114
185 176 114
186 176 114
186 176 114
186 176 114
186 176 114
186 176 114
186 176 114
186 177 114
186 177 114
186 177 114
186 177 114
186 177 114
186 177 114
186 177 114
186 177 114
186 177 114
186 177 114
186 177 114
186 177 114
186 177 114
187 177 114
187 177 114
187 177 114
187 177 114
187 177 114
187 177 114
187 177 114
187 177 114
187 177 114
187 177 114
187 177 114
187 177 114
187 177 114
187 177 114
187 177 114
187 177 114
187 177 114
188 177 114
188 177 114
188 177 114
188 177 114
188 177 114
188 178 114
188 178 114
188 178 114
188 178 114
188 178 114
188 178 114
188 178 114
188 178 114
188 178 114
188 178 114
188 178 114
189 178 114
189 178 114
189 178 114
189 178 114
189 178 114
189 178 114
189 178 114
189 178 114
189 178 114
189 178 114
189 178 114
189 178 114
189 178 114
189 178 114
189 178 114
190 178 114
190 178 114
190 178 114
190 178 114
190 178 114
190 178 114
190 178 114
190 179 114
190 179 114
190 179 114
190 179 114
190 179 114
190 179 114
190 179 114
190 179 114
190 179 114
191 179 114
191 179 114
191 179 114
191 179 114
191 179 114
191 179 114
191 179 114
191 179 114
191 179 114
191 179 114
191 179 114
191 179 114
191 179 114
191 179 114
191 179 114
218 232 250
221 235 254
221 235 254
220 234 253
219 233 251
220 234 252
220 234 253
218 232 250
219 233 251
218 232 250
218 232 251
217 230 250
221 235 254
218 232 252
220 233 252
219 233 252
215 229 248
219 233 252
221 235 254
219 232 251
220 234 254
221 234 254
218 232 252
220 234 252
218 232 252
213 227 246
220 234 253
217 231 251
218 232 252
215 228 248
218 231 250
220 234 253
218 232 250
220 233 253
220 234 254
220 234 253
221 234 254
219 232 252
221 235 254
217 231 250
222 236 255
217 231 251
214 228 248
217 231 250
220 234 253
219 233 253
219 233 252
219 233 252
220 234 254
219 233 252
214 228 248
218 231 250
216 230 248
219 233 253
219 232 252
220 233 253
218 231 250
223 237 255
221 234 254
215 229 248
219 232 252
220 233 253
217 231 251
221 235 254
219 232 250
218 232 252
214 228 247
218 231 251
218 231 249
220 234 254
222 236 253
223 236 254
220 234 246
220 234 252
222 236 253
222 235 252
219 234 249
221 235 250
222 236 253
221 235 249
220 234 246
220 234 248
220 234 249
220 234 249
220 234 246
221 235 253
220 234 246
220 234 246
221 235 250
221 235 250
222 236 252
220 234 248
222 235 252
221 235 249
220 234 246
222 235 252
219 233 246
223 236 254
220 234 248
221 235 249
222 235 252
222 236 254
222 235 252
221 235 250
221 235 250
221 235 252
221 235 249
219 233 248
216 230 246
218 232 247
218 232 245
219 232 250
220 233 250
218 231 246
223 236 253
222 235 251
217 231 246
218 232 247
222 235 252
218 231 248
217 230 244
215 228 242
220 233 247
222 235 251
219 232 246
220 233 245
216 230 241
219 232 246
214 227 242
220 233 246
217 230 243
220 233 249
220 233 247
213 227 227
201 217 188
180 202 111
61 96 137
61 96 142
62 97 142
61 96 150
60 96 148
62 97 152
60 95 137
61 96 143
61 96 142
60 95 140
61 96 144
61 96 137
61 96 143
60 95 136
60 95 131
59 94 134
61 96 143
61 96 143
61 97 141
61 97 153
60 95 136
61 95 141
60 95 142
61 96 144
61 97 145
60 95 139
61 96 148
61 95 139
61 96 141
61 96 147
60 95 142
60 95 143
60 95 133
61 96 142
59 94 136
60 95 136
61 96 137
60 95 141
60 95 142
59 94 136
60 94 134
60 95 142
61 97 145
60 95 137
60 95 141
60 95 137
61 96 147
61 97 149
60 95 135
61 96 143
62 97 150
61 96 139
61 96 140
62 97 148
60 95 137
61 95 148
61 96 142
61 97 147
60 95 143
61 96 147
61 96 142
60 95 147
62 97 147
60 96 142
62 97 143
60 94 136
61 96 145
60 95 131
61 96 144
61 96 143
62 97 151
60 95 143
61 96 153
61 96 140
61 96 145
61 95 140
61 96 135
60 95 141
61 96 144
60 95 136
61 96 150
59 94 135
60 95 142
61 96 145
61 95 148
62 97 147
60 95 138
61 96 148
61 96 147
61 95 141
61 96 143
62 97 142
60 95 133
60 95 145
59 94 130
60 95 141
61 96 141
59 94 133
60 95 136
61 96 142
61 96 145
60 94 134
61 97 150
60 95 141
60 95 142
60 95 140
61 95 141
60 95 141
59 93 132
60 94 140
60 94 135
60 95 138
60 94 147
59 94 134
60 94 139
61 96 139
60 93 133
60 93 134
60 95 138
60 94 141
60 94 136
60 94 138
60 93 135
58 90 132
59 92 139
58 90 137
60 92 136
57 88 126
37 48 39
37 49 41
39 51 41
41 54 43
42 55 47
44 56 47
45 59 48
46 60 49
47 61 50
47 62 52
48 64 54
48 63 52
48 63 53
48 64 52
49 66 55
49 65 56
51 68 61
52 68 60
52 69 59
51 69 59
53 70 61
53 71 61
52 70 62
53 70 59
52 71 62
55 74 67
54 72 65
55 75 69
130 130 93
186 177 114
186 177 114
186 177 114
186 177 114
186 177 114
186 177 114
186 177 114
186 177 114
187 177 114
187 177 114
187 177 114
187 177 114
187 177 114
187 177 114
187 177 114
187 177 114
187 177 114
187 177 114
187 177 114
187 177 114
187 177 114
187 177 114
187 177 114
187 177 114
187 177 114
187 177 114
187 177 114
187 177 114
187 177 114
187 177 114
188 177 114
188 177 114
188 177 114
188 177 114
188 177 114
188 178 114
188 178 114
188 178 114
188 178 114
188 178 114
188 178 114
188 178 114
188 178 114
188 178 114
188 178 114
188 178 114
188 178 114
188 178 114
189 178 114
189 178 114
189 178 114
189 178 114
189 178 114
189 178 114
189 178 114
189 178 114
189 178 114
189 178 114
189 178 114
189 178 114
189 178 114
189 178 114
189 178 114
189 178 114
189 178 114
190 178 114
190 178 114
190 178 114
190 178 114
190 178 114
190 178 114
190 178 114
190 179 114
190 179 114
190 179 114
190 179 114
190 179 114
190 179 114
190 179 114
190 179 114
190 179 114
190 179 114
191 179 114
191 179 114
191 179 114
191 179 114
191 179 114
191 179 114
191 179 114
191 179 114
191 179 114
191 179 114
191 179 114
191 179 114
191 179 114
191 179 114
191 179 114
191 179 114
191 179 114
192 179 114
192 179 114
192 179 114
192 179 114
192 179 114
192 179 114
192 179 114
192 179 114
220 234 253
216 230 249
220 233 252
219 233 252
219 233 252
219 232 252
219 233 250
221 235 253
218 232 252
216 230 249
218 232 252
216 229 250
218 232 252
220 234 254
217 230 249
217 231 251
221 234 254
220 233 252
219 232 252
222 235 255
223 237 255
218 231 250
215 228 246
215 229 248
219 233 253
219 233 252
220 234 253
221 234 254
222 235 255
218 232 252
219 233 253
220 234 253
218 231 252
220 233 252
217 231 251
220 233 253
216 230 251
223 236 255
221 235 255
222 235 255
222 235 255
216 230 251
219 233 254
221 234 254
220 233 253
221 234 254
220 233 252
219 233 252
218 231 251
220 234 254
217 231 251
219 233 253
222 235 254
216 230 250
222 235 255
219 232 252
221 234 254
217 231 250
220 233 252
219 233 254
220 233 254
217 231 251
219 232 251
220 233 254
219 232 252
218 232 252
218 232 252
218 231 250
219 233 252
222 236 255
217 232 246
221 234 250
218 233 244
220 235 249
221 235 249
223 236 255
222 236 253
221 235 250
221 235 250
221 235 252
220 234 248
221 234 250
221 235 252
223 236 255
221 235 252
221 235 249
221 234 249
221 235 250
222 236 253
222 235 252
221 235 252
222 235 252
221 235 252
222 236 253
221 235 249
222 236 253
221 234 249
220 234 249
220 234 246
220 234 249
220 234 248
222 235 252
222 236 253
219 233 245
222 236 254
222 236 253
220 234 248
219 233 247
214 228 244
215 229 244
213 227 242
219 232 250
218 231 248
216 230 248
218 231 248
214 228 241
221 234 254
215 229 243
214 227 241
215 229 244
218 232 248
217 231 246
214 228 246
215 228 243
221 234 250
217 231 244
218 231 247
214 228 246
219 232 247
213 227 242
219 233 249
218 231 244
222 235 252
223 236 252
219 232 246
200 214 231
62 97 148
63 99 152
61 97 147
62 97 145
62 98 150
60 95 134
61 96 137
60 94 135
61 95 134
62 97 148
60 95 137
61 97 147
61 96 141
61 97 145
60 95 139
61 96 144
61 95 136
61 96 135
62 97 147
61 97 143
61 97 144
61 96 136
62 98 154
60 95 136
61 97 148
61 97 143
60 95 139
61 96 149
61 96 144
60 95 142
58 93 122
62 97 151
62 98 151
60 95 135
60 95 137
61 96 140
62 97 149
60 95 135
60 95 136
59 95 139
61 96 144
62 96 143
62 97 144
61 96 151
61 96 143
61 96 137
61 96 136
61 96 143
61 96 148
62 97 148
61 97 143
60 95 131
60 95 142
61 96 136
60 95 143
61 96 145
60 94 129
62 98 153
61 96 140
61 96 144
61 95 143
61 96 142
61 96 136
61 95 139
60 94 131
59 93 133
61 95 140
61 96 144
62 97 151
60 94 136
61 97 147
61 96 143
60 95 137
61 96 148
60 94 130
60 96 137
61 96 141
60 95 137
60 94 128
60 95 136
61 96 137
61 96 141
61 95 142
61 96 142
58 93 131
61 95 135
61 96 150
61 96 144
60 95 138
58 92 133
60 95 142
61 96 147
60 95 140
60 94 133
61 96 145
61 96 143
61 96 137
60 94 133
61 97 145
59 93 134
60 94 134
60 95 139
60 95 140
61 95 145
61 97 148
60 95 140
60 94 133
60 94 140
59 94 133
61 95 141
61 96 142
60 94 138
59 93 132
61 95 142
59 93 136
58 92 129
61 96 145
61 95 143
61 95 138
60 93 134
59 93 131
61 95 147
59 93 137
60 93 142
58 90 119
59 92 138
59 92 135
59 90 137
45 63 77
37 48 39
37 48 39
37 48 40
43 56 47
43 57 49
43 57 46
44 57 48
48 62 52
46 59 49
47 63 52
47 62 55
49 64 53
47 61 50
48 64 53
52 69 61
50 66 60
50 65 55
51 67 59
50 67 57
51 68 56
53 70 64
54 73 65
52 69 61
53 72 66
53 72 63
54 73 67
54 73 66
67 81 69
183 174 113
187 177 114
187 177 114
187 177 114
187 177 114
187 177 114
187 177 114
188 177 114
188 177 114
188 177 114
188 177 114
188 177 114
188 177 114
188 177 114
188 177 114
188 177 114
188 177 114
188 178 114
188 178 114
188 178 114
188 178 114
188 178 114
188 178 114
188 178 114
188 178 114
188 178 114
188 178 114
188 178 114
188 178 114
188 178 114
188 178 114
189 178 114
189 178 114
189 178 114
189 178 114
189 178 114
189 178 114
189 178 114
189 178 114
189 178 114
189 178 114
189 178 114
189 178 114
189 178 114
189 178 114
189 178 114
189 178 114
189 178 114
189 178 114
189 178 114
189 178 114
190 178 114
190 178 114
190 178 114
190 178 114
190 178 114
190 178 114
190 179 114
190 179 114
190 179 114
190 179 114
190 179 114
190 179 114
190 179 114
190 179 114
190 179 114
190 179 114
190 179 114
190 179 114
191 179 114
191 179 114
191 179 114
191 179 114
191 179 114
191 179 114
191 179 114
191 179 114
191 179 114
191 179 114
191 179 114
191 179 114
191 179 114
191 179 114
191 179 114
191 179 114
191 179 114
191 179 114
191 179 114
191 179 114
192 179 114
192 179 114
192 179 114
192 179 114
192 179 114
192 179 114
192 179 114
192 179 114
192 179 114
192 180 114
192 180 114
192 180 114
192 180 114
192 180 114
192 180 114
192 180 114
192 180 114
192 180 114
221 235 254
216 230 251
215 229 248
222 235 254
217 231 251
222 236 255
218 232 252
215 229 248
213 227 248
221 235 254
217 231 252
220 233 254
219 233 252
217 230 250
221 234 254
216 230 248
222 235 255
222 235 254
215 229 249
218 232 252
221 234 254
216 230 250
219 232 253
217 231 251
219 233 253
217 231 250
222 235 254
220 233 253
220 234 254
219 232 252
216 230 249
223 236 255
219 233 252
217 231 251
219 233 253
219 232 252
219 233 254
218 232 252
218 232 252
219 233 252
220 233 253
217 230 250
221 234 254
218 232 252
219 232 252
218 232 252
220 233 252
216 230 251
219 232 252
218 232 252
219 233 254
219 233 253
215 229 250
220 234 254
219 233 251
216 230 251
220 233 253
217 231 251
218 232 252
222 235 254
220 233 253
218 232 251
220 233 253
219 233 254
217 231 250
218 232 251
217 231 250
219 233 252
222 235 254
222 235 254
221 234 253
220 234 252
222 236 253
222 236 253
221 235 250
220 234 248
221 235 252
222 236 253
222 236 254
222 236 253
222 236 253
220 234 248
221 235 252
220 234 246
222 236 253
221 235 252
220 234 250
220 235 250
223 236 254
221 235 252
221 235 250
223 236 255
222 235 252
221 235 252
221 235 250
222 236 255
222 236 253
221 235 252
221 235 249
221 235 250
221 235 250
219 233 249
221 235 250
222 236 254
222 236 252
221 235 250
223 237 255
215 229 246
219 233 247
218 232 246
217 231 245
219 233 249
219 233 248
218 232 249
216 230 246
219 233 249
221 234 251
218 232 246
220 233 248
219 233 250
218 232 248
217 231 248
217 230 245
216 229 246
211 224 240
217 231 246
214 227 242
219 232 246
217 231 246
216 230 243
217 231 247
215 229 244
220 233 250
219 232 244
221 234 249
186 201 225
62 97 144
62 98 155
62 97 152
61 95 142
61 96 133
61 96 143
61 96 148
62 97 149
62 97 156
62 97 148
61 95 139
60 94 139
61 96 140
60 95 139
61 96 145
60 95 137
61 96 136
61 96 145
59 94 135
60 94 129
61 96 141
60 95 134
60 95 136
60 95 135
60 95 141
62 97 149
63 98 151
59 94 136
59 94 135
60 94 134
59 94 137
60 95 133
61 96 140
61 96 147
60 95 142
61 95 142
60 94 133
61 96 143
60 95 134
60 95 139
61 96 141
60 95 139
60 95 143
60 95 129
60 95 150
61 97 147
61 97 153
60 95 130
61 97 150
62 97 144
60 95 142
61 96 145
61 96 147
60 95 133
60 95 140
61 96 137
61 96 140
60 95 136
62 97 142
61 95 140
59 93 125
60 95 137
61 96 142
60 95 133
61 95 142
60 95 130
60 95 144
61 96 136
59 93 128
62 97 151
60 95 135
61 96 137
61 96 147
59 94 136
61 96 140
60 95 140
60 95 142
60 95 136
61 96 143
60 95 150
60 95 131
60 95 142
61 96 137
61 95 140
61 96 140
58 92 135
61 96 144
60 95 143
62 97 143
61 96 141
60 94 132
61 96 142
60 94 140
61 96 140
61 96 140
61 95 133
61 97 149
61 95 140
60 94 142
61 95 142
61 96 145
60 94 135
60 94 141
59 93 132
61 96 139
60 94 136
58 91 118
60 95 141
60 94 130
60 94 129
60 94 136
60 94 134
61 96 146
61 95 145
61 95 140
61 96 150
59 92 128
61 95 142
60 94 139
61 94 142
61 95 147
60 93 136
59 92 135
60 94 142
59 92 141
59 91 132
60 93 141
57 89 123
46 66 86
39 50 43
39 52 44
38 49 40
38 49 40
43 56 48
44 57 46
45 59 47
45 58 45
45 59 48
47 61 49
47 62 52
47 60 49
48 63 53
47 61 48
46 60 50
48 64 54
51 67 58
51 67 58
52 69 60
52 69 61
52 69 56
52 69 58
52 70 63
53 71 58
55 74 66
53 72 65
54 73 68
54 74 66
154 149 101
188 178 114
188 178 114
188 178 114
188 178 114
188 178 114
188 178 114
188 178 114
189 178 114
189 178 114
189 178 114
189 178 114
189 178 114
189 178 114
189 178 114
189 178 114
189 178 114
189 178 114
189 178 114
189 178 114
189 178 114
189 178 114
189 178 114
189 178 114
189 178 114
189 178 114
189 178 114
189 178 114
189 178 114
189 178 114
189 178 114
189 178 114
190 178 114
190 178 114
190 178 114
190 178 114
190 178 114
190 178 114
190 178 114
190 178 114
190 179 114
190 179 114
190 179 114
190 179 114
190 179 114
190 179 114
190 179 114
190 179 114
190 179 114
190 179 114
190 179 114
190 179 114
190 179 114
190 179 114
191 179 114
191 179 114
191 179 114
191 179 114
191 179 114
191 179 114
191 179 114
191 179 114
191 179 114
191 179 114
191 179 114
191 179 114
191 179 114
191 179 114
191 179 114
191 179 114
191 179 114
191 179 114
191 179 114
191 179 114
191 179 114
192 179 114
192 179 114
192 179 114
192 179 114
192 179 114
192 179 114
192 179 114
192 179 114
192 179 114
192 179 114
192 180 114
192 180 114
192 180 114
192 180 114
192 180 114
192 180 114
192 180 114
192 180 114
192 180 114
192 180 114
192 180 114
193 180 114
193 180 114
193 180 114
193 180 114
193 180 114
193 180 114
193 180 114
193 180 114
193 180 114
193 180 114
193 180 114
220 233 252
219 233 254
213 227 246
219 233 253
221 234 254
220 233 253
218 231 250
220 233 253
217 231 250
222 235 254
217 231 250
222 235 254
218 231 251
221 234 254
219 233 252
215 229 249
221 234 254
221 234 254
216 230 250
219 233 252
220 234 253
218 232 252
214 228 248
221 234 254
217 230 250
217 231 250
217 231 250
216 230 250
217 231 252
219 233 253
221 234 254
217 231 252
222 235 255
220 233 253
220 234 254
221 234 253
221 234 254
220 234 254
221 235 255
215 229 249
215 229 250
218 232 252
218 232 252
217 231 251
218 232 252
222 236 255
219 233 252
221 234 254
218 232 251
218 232 253
220 234 254
221 235 254
219 233 253
218 232 252
220 234 254
219 233 253
219 233 253
217 231 251
216 230 251
217 231 251
220 234 253
214 228 250
219 233 253
218 232 252
215 229 249
213 227 250
218 232 252
220 234 254
218 232 252
218 232 252
217 231 250
218 232 249
222 236 253
222 236 254
221 235 252
221 235 250
221 235 249
222 236 254
220 234 246
222 236 253
221 235 250
221 235 252
220 234 248
221 235 252
221 235 250
222 236 253
222 235 253
222 236 254
219 233 246
220 234 249
222 236 254
221 235 250
221 235 250
222 236 253
221 235 252
222 236 253
220 234 248
222 236 255
219 234 248
222 236 253
222 236 254
220 234 249
221 235 250
222 236 253
221 235 253
221 235 250
219 233 248
213 228 243
217 231 249
220 234 252
218 232 246
218 232 248
217 231 246
217 231 248
218 232 247
215 229 246
216 230 246
216 230 246
219 232 250
211 226 242
216 230 244
219 233 245
218 232 245
219 233 249
217 231 246
218 232 247
216 229 243
218 232 248
219 232 249
220 234 252
219 233 244
215 229 246
217 231 242
215 229 246
216 229 246
157 175 200
61 96 143
62 97 150
63 98 152
62 97 148
59 94 131
61 96 143
61 96 142
61 96 151
61 96 135
61 96 141
60 95 137
60 95 135
61 96 136
62 98 151
60 96 139
61 96 142
60 95 131
62 97 151
61 97 148
61 95 140
60 95 143
60 95 144
60 95 134
60 95 131
61 96 137
60 94 136
61 96 144
60 95 141
61 96 137
60 95 141
60 95 136
60 96 141
60 95 133
61 96 144
61 96 143
61 97 148
60 95 137
60 96 141
61 96 140
62 97 154
60 94 133
61 96 134
61 96 140
61 96 145
61 96 147
61 97 141
60 95 128
59 94 133
61 96 143
62 98 148
63 98 151
61 96 142
61 97 154
62 97 148
61 96 137
61 95 143
61 96 145
60 94 140
60 94 139
61 96 145
61 96 143
61 96 134
61 96 139
60 95 135
61 96 143
61 96 139
60 95 141
61 96 137
60 94 135
62 97 147
60 95 136
60 95 136
61 95 137
60 94 131
61 96 143
60 94 135
62 97 143
60 95 140
62 96 144
60 94 134
60 95 139
60 94 134
60 94 134
60 94 133
61 95 143
61 96 140
60 94 137
60 94 139
59 94 131
60 94 133
60 95 139
60 96 147
60 95 140
61 95 145
62 97 151
60 95 141
60 95 134
62 97 150
61 95 142
60 94 137
61 95 141
60 95 132
61 96 146
61 95 143
61 96 145
59 93 133
58 92 124
60 95 139
58 92 133
60 95 139
60 95 137
59 92 134
60 94 140
60 94 127
61 95 134
60 94 134
60 94 134
60 94 143
60 94 139
58 91 127
61 95 142
59 93 138
59 94 137
59 92 139
60 94 140
59 92 131
58 89 125
58 88 123
43 62 75
36 47 35
35 46 36
39 50 38
41 53 40
39 51 34
44 58 48
45 59 46
45 59 48
45 59 49
43 57 47
46 60 50
46 61 51
47 61 47
48 63 48
48 64 52
48 63 53
51 67 57
52 68 60
51 67 55
51 68 58
51 68 60
52 70 62
52 70 62
53 72 63
53 71 62
54 72 63
53 71 63
53 73 62
104 108 79
189 178 114
189 178 114
189 178 114
189 178 114
190 178 114
190 178 114
190 178 114
190 178 114
190 178 114
190 178 114
190 178 114
190 178 114
190 178 114
190 178 114
190 178 114
190 178 114
190 179 114
190 179 114
190 179 114
190 179 114
190 179 114
190 179 114
190 179 114
190 179 114
190 179 114
190 179 114
190 179 114
190 179 114
190 179 114
190 179 114
190 179 114
190 179 114
190 179 114
190 179 114
191 179 114
191 179 114
191 179 114
191 179 114
191 179 114
191 179 114
191 179 114
191 179 114
191 179 114
191 179 114
191 179 114
191 179 114
191 179 114
191 179 114
191 179 114
191 179 114
191 179 114
191 179 114
191 179 114
191 179 114
191 179 114
191 179 114
192 179 114
192 179 114
192 179 114
192 179 114
192 179 114
192 179 114
192 179 114
192 179 114
192 179 114
192 179 114
192 179 114
192 179 114
192 180 114
192 180 114
192 180 114
192 180 114
192 180 114
192 180 114
192 180 114
192 180 114
192 180 114
192 180 114
192 180 114
192 180 114
192 180 114
192 180 114
193 180 114
193 180 114
193 180 114
193 180 114
193 180 114
193 180 114
193 180 114
193 180 114
193 180 114
193 180 114
193 180 114
193 180 114
193 180 114
193 180 114
193 180 114
193 180 114
193 180 114
193 180 114
193 180 114
193 180 114
193 180 114
193 180 114
193 180 114
194 180 114
219 233 252
216 230 248
218 232 251
221 235 255
219 233 252
220 234 254
217 231 251
220 234 253
220 234 254
216 230 249
217 231 252
220 234 254
218 232 252
221 235 255
216 230 252
220 234 253
220 234 254
216 230 250
220 234 254
219 233 254
217 231 252
218 232 252
212 226 246
217 231 252
221 234 254
216 230 251
215 229 250
220 234 254
220 234 253
214 228 248
219 233 252
219 233 254
217 231 251
220 234 254
219 233 254
221 234 254
221 235 254
219 233 254
219 233 252
220 234 254
218 232 253
222 235 255
213 227 250
220 234 253
217 231 251
218 232 253
219 233 254
220 234 254
216 230 251
218 232 253
220 234 254
218 232 252
219 233 253
221 235 255
220 234 254
218 232 252
217 231 252
218 232 252
219 233 253
219 233 253
219 233 254
217 231 252
215 229 249
220 234 254
214 228 248
221 235 255
219 233 252
221 235 254
214 228 247
215 229 250
217 231 252
215 229 249
220 233 252
221 235 252
220 234 249
220 234 249
221 235 252
220 234 249
220 234 252
220 235 250
221 235 250
220 234 249
221 235 252
220 234 249
221 235 250
221 235 250
221 235 252
222 236 254
221 235 249
220 235 250
221 235 250
220 234 250
221 235 252
222 236 255
221 235 252
221 235 252
220 234 250
220 234 249
222 236 254
221 235 250
221 235 252
221 235 250
222 236 253
220 234 249
221 235 252
221 235 250
219 233 250
216 230 244
214 228 248
218 232 249
216 230 246
220 234 251
219 233 252
219 233 248
219 233 250
217 231 246
215 229 246
217 231 248
212 226 238
220 234 249
215 229 243
212 227 244
220 233 250
219 233 248
215 230 243
218 232 248
217 231 246
217 231 245
219 233 246
219 233 248
217 231 250
218 232 245
221 234 250
218 232 245
217 231 245
159 176 205
63 98 154
62 97 151
61 96 137
60 95 137
61 96 139
62 98 152
60 96 139
61 96 141
60 95 137
62 98 152
60 95 136
62 97 149
62 97 143
60 96 144
60 95 140
60 95 135
60 96 142
61 96 143
60 95 134
61 96 136
61 96 140
61 96 147
61 96 142
61 96 145
62 97 148
61 96 140
61 97 142
60 95 131
60 95 135
61 97 149
61 96 148
61 97 149
61 96 143
59 94 135
59 93 129
59 94 129
60 95 134
61 97 147
60 95 133
60 95 139
61 96 143
62 96 142
61 96 137
62 97 148
61 96 140
60 95 137
60 95 135
61 96 144
61 95 140
60 94 129
59 94 126
61 96 141
60 95 139
60 95 133
61 96 143
59 94 128
61 96 143
60 95 135
61 96 141
60 95 142
60 95 142
59 93 131
62 96 144
60 95 135
62 97 142
59 94 131
60 95 136
61 96 143
61 96 141
60 94 130
60 95 139
60 95 137
61 97 148
59 93 135
62 97 150
60 95 136
61 96 142
61 96 147
60 95 140
61 95 137
61 97 141
60 95 149
60 95 136
61 96 137
61 96 149
61 96 143
60 95 135
60 95 133
59 93 129
60 95 137
60 95 141
61 95 134
61 95 134
60 94 131
61 95 138
61 95 137
59 94 134
61 96 142
61 96 146
60 95 143
62 97 144
60 95 141
60 94 130
60 95 144
60 94 136
59 93 128
61 95 142
60 94 132
61 96 140
61 95 146
60 95 136
60 94 132
61 96 150
60 95 138
59 93 128
60 94 137
59 92 139
60 93 137
60 93 123
60 93 145
60 94 141
60 94 142
59 92 129
59 92 137
60 95 142
59 93 144
58 90 125
58 89 128
49 73 97
35 46 38
39 51 40
38 50 38
42 55 44
41 52 38
45 57 45
41 53 41
40 52 39
44 57 44
46 59 42
47 62 48
47 61 49
47 61 51
45 59 43
50 65 55
47 62 47
49 65 53
51 67 57
53 70 60
51 67 54
51 67 54
51 68 58
53 71 61
53 72 64
53 71 63
54 73 67
54 73 63
55 74 67
57 75 66
180 170 110
191 179 114
191 179 114
191 179 114
190 179 114
191 179 114
191 179 114
191 179 114
191 179 114
191 179 114
191 179 114
191 179 114
191 179 114
191 179 114
191 179 114
191 179 114
191 179 114
191 179 114
191 179 114
191 179 114
191 179 114
191 179 114
191 179 114
191 179 114
191 179 114
191 179 114
191 179 114
191 179 114
191 179 114
191 179 114
191 179 114
191 179 114
191 179 114
191 179 114
191 179 114
191 179 114
192 179 114
192 179 114
192 179 114
192 179 114
192 179 114
192 179 114
192 179 114
192 179 114
192 179 114
192 179 114
192 179 114
192 179 114
192 179 114
192 180 114
192 180 114
192 180 114
192 180 114
192 180 114
192 180 114
192 180 114
192 180 114
192 180 114
192 180 114
192 180 114
192 180 114
192 180 114
193 180 114
193 180 114
193 180 114
193 180 114
193 180 114
193 180 114
193 180 114
193 180 114
193 180 114
193 180 114
193 180 114
193 180 114
193 180 114
193 180 114
193 180 114
193 180 114
193 180 114
193 180 114
193 180 114
193 180 114
193 180 114
193 180 114
193 180 114
193 180 114
193 180 114
193 180 114
193 180 114
193 180 114
193 180 114
194 180 114
194 180 114
194 180 114
194 180 114
194 180 114
194 180 114
194 180 114
194 180 114
194 180 114
194 180 114
194 180 114
194 180 114
194 180 114
194 180 114
194 180 114
217 231 251
217 231 252
219 233 252
217 231 251
219 233 252
217 231 251
217 231 251
220 234 254
220 234 254
216 230 249
218 232 252
220 234 254
218 232 252
218 232 252
222 236 255
214 228 247
220 234 254
219 233 253
219 233 254
217 231 251
219 233 252
218 232 252
217 231 251
220 234 254
218 232 252
218 232 252
221 235 254
221 235 255
213 227 249
218 232 252
218 232 253
220 234 254
217 231 252
220 234 254
219 233 252
217 231 251
220 234 254
218 232 253
218 232 253
219 233 254
218 232 253
219 233 254
217 231 250
218 232 253
217 231 252
219 233 254
213 227 249
219 233 254
218 232 252
220 234 254
218 232 253
219 233 252
222 236 255
217 231 252
217 231 251
220 234 254
217 231 252
218 232 252
219 233 254
216 230 250
220 234 254
221 235 255
213 227 248
217 231 250
221 235 254
222 236 255
215 229 249
221 235 255
219 233 252
218 232 252
218 232 252
216 230 249
221 235 255
220 234 249
221 235 252
220 234 250
219 234 248
220 235 252
221 235 250
219 234 248
220 234 249
221 235 252
220 235 250
221 235 253
222 236 254
220 234 248
221 235 253
222 236 255
220 235 250
221 235 252
221 235 252
221 235 254
220 234 248
221 235 253
219 234 248
221 235 252
221 235 250
220 235 250
220 234 249
222 236 253
220 234 248
220 234 249
222 236 254
220 234 249
220 234 249
218 232 250
221 235 254
213 228 245
215 230 245
212 227 246
217 232 248
216 230 246
219 233 250
217 232 246
217 231 248
216 230 244
217 231 248
218 232 250
214 229 242
214 228 245
219 233 252
218 232 250
217 231 245
213 227 244
216 230 245
216 230 243
217 231 247
217 231 246
218 232 251
216 230 244
214 229 244
216 230 246
218 232 247
217 231 249
213 227 240
132 152 182
63 98 153
61 96 147
60 95 140
61 96 148
62 97 145
61 96 143
61 96 137
61 96 137
61 96 144
60 95 142
61 97 142
61 96 140
61 96 142
63 98 153
60 95 142
60 95 143
61 97 143
62 97 140
61 96 148
61 95 143
61 96 137
59 93 125
60 95 139
60 95 141
60 95 130
60 95 136
61 97 143
61 96 143
60 95 137
59 94 136
60 95 134
60 95 148
60 95 133
61 97 137
60 95 136
61 96 142
61 97 144
60 94 134
59 94 136
61 96 142
61 96 148
59 93 130
60 95 128
61 96 142
61 96 148
60 95 139
60 95 140
59 93 128
60 95 140
61 96 135
60 96 139
60 95 134
61 96 141
60 94 135
60 94 130
61 96 139
60 95 136
61 96 143
61 96 143
59 94 130
60 94 141
61 96 143
59 94 131
61 96 143
61 97 144
60 95 141
59 93 128
60 95 136
61 96 143
60 95 134
62 97 150
60 95 135
60 95 140
62 97 143
61 96 143
60 94 135
61 96 141
60 95 131
61 96 142
61 96 145
60 95 137
60 94 135
59 93 134
62 97 142
60 94 140
62 97 145
61 96 145
61 96 137
59 94 135
60 95 134
61 96 143
61 95 141
60 95 133
60 94 136
60 94 131
61 96 143
61 96 144
61 96 143
60 94 131
60 94 134
61 96 145
59 93 137
60 95 135
62 96 148
61 96 140
60 95 133
60 94 128
60 94 137
61 95 136
60 94 134
61 96 140
60 94 136
61 94 143
60 94 130
60 93 143
60 95 141
60 94 135
60 94 143
59 93 129
60 93 137
60 95 139
59 91 125
61 94 142
58 90 121
58 91 133
58 90 132
58 90 134
58 89 126
49 73 89
32 42 30
38 49 40
34 45 33
41 53 42
42 54 43
41 53 37
43 55 45
45 58 45
44 56 42
42 56 44
49 63 49
46 60 49
47 61 46
50 65 51
47 63 49
48 63 52
49 66 54
50 66 51
49 65 54
51 67 54
52 69 60
51 67 53
53 71 62
52 70 59
53 70 62
54 72 59
53 71 59
53 72 63
54 73 63
153 147 97
192 179 114
192 179 114
192 179 114
192 179 114
192 179 114
192 179 114
192 179 114
192 179 114
192 179 114
192 179 114
192 179 114
192 179 114
192 179 114
192 179 114
192 179 114
192 179 114
192 179 114
192 179 114
192 179 114
192 179 114
192 180 114
192 180 114
192 180 114
192 180 114
192 180 114
192 180 114
192 180 114
192 180 114
192 180 114
192 180 114
192 180 114
192 180 114
192 180 114
192 180 114
192 180 114
192 180 114
192 180 114
193 180 114
193 180 114
193 180 114
193 180 114
193 180 114
193 180 114
193 180 114
193 180 114
193 180 114
193 180 114
193 180 114
193 180 114
193 180 114
193 180 114
193 180 114
193 180 114
193 180 114
193 180 114
193 180 114
193 180 114
193 180 114
193 180 114
193 180 114
193 180 114
193 180 114
193 180 114
193 180 114
193 180 114
193 180 114
193 180 114
193 180 114
193 180 114
193 180 114
194 180 114
194 180 114
194 180 114
194 180 114
194 180 114
194 180 114
194 180 114
194 180 114
194 180 114
194 180 114
194 180 114
194 180 114
194 180 114
194 180 114
194 180 114
194 180 114
194 180 114
194 181 114
194 181 114
194 181 114
194 181 114
194 181 114
194 181 114
194 181 114
194 181 114
194 181 114
194 181 114
194 181 114
194 181 114
194 181 114
194 181 114
194 181 114
195 181 114
195 181 114
195 181 114
217 231 252
219 233 252
218 232 250
219 233 252
220 234 254
218 232 252
218 232 250
218 232 251
217 231 252
216 230 250
217 231 251
218 232 252
218 232 253
217 231 251
217 231 252
220 234 254
220 234 254
220 234 254
219 233 253
215 229 250
219 233 254
220 234 253
215 229 249
220 234 254
219 233 254
221 235 254
221 235 255
220 234 254
221 235 254
216 230 251
217 231 251
219 233 253
217 231 252
220 234 254
220 234 254
216 230 251
218 232 253
218 232 252
216 230 250
218 232 253
217 231 252
219 233 254
220 234 254
220 234 254
219 233 254
220 234 254
218 232 252
217 231 252
219 233 253
215 229 250
221 235 255
220 234 254
220 234 254
218 232 253
218 232 252
221 235 255
219 233 254
220 234 254
215 229 251
220 234 254
220 234 254
217 231 251
219 233 253
220 234 254
219 233 254
218 232 252
220 234 254
217 231 252
217 231 250
216 230 250
217 231 250
215 229 249
222 236 255
222 236 255
222 236 254
222 236 255
221 235 253
221 235 253
222 236 254
221 235 252
222 236 254
222 236 254
220 234 249
221 235 253
221 235 252
221 235 253
221 235 253
221 235 250
221 235 252
220 234 250
221 236 254
222 236 255
222 236 254
222 236 254
221 235 250
221 235 253
221 235 252
222 236 255
220 234 248
222 236 255
221 235 253
220 234 249
222 236 254
222 236 254
222 236 254
221 235 252
214 228 244
216 230 248
217 231 249
218 233 250
215 229 248
216 231 244
218 232 247
217 231 248
221 235 252
215 230 248
217 231 247
216 231 248
220 234 252
218 232 250
219 233 251
216 230 249
221 234 254
213 227 242
215 230 247
217 231 249
220 233 253
219 233 250
218 232 252
220 234 250
222 236 255
214 228 248
214 228 248
219 233 252
216 230 250
121 143 181
62 97 150
61 96 140
60 95 135
61 96 143
60 95 131
60 95 135
61 96 140
60 95 139
60 95 133
61 96 136
62 97 144
61 96 141
60 95 140
60 95 136
60 95 139
61 96 142
59 93 136
61 96 142
60 94 130
62 97 148
61 96 141
60 95 139
60 94 128
60 95 140
59 94 136
62 97 143
60 95 140
61 96 145
60 95 141
60 94 137
60 95 130
59 93 122
61 95 137
61 96 142
58 93 125
61 96 136
61 95 142
60 95 128
62 97 150
61 96 148
61 96 144
60 95 143
61 95 134
60 95 142
61 97 148
61 96 135
60 96 147
61 96 144
62 97 149
61 95 135
59 94 133
61 96 148
60 95 131
61 96 142
59 93 133
61 96 140
60 94 134
60 94 131
59 93 126
60 95 134
61 96 147
60 94 140
61 95 143
61 96 143
60 94 134
61 95 133
61 96 145
61 96 142
61 96 148
61 95 135
60 95 142
61 96 140
60 94 131
60 94 125
59 93 126
61 96 148
59 94 133
63 98 147
61 96 143
60 95 142
61 95 142
61 96 139
60 95 133
60 94 137
60 95 137
60 95 141
62 96 145
60 95 137
61 96 145
61 96 141
61 95 136
60 94 138
60 95 141
60 95 141
61 96 142
62 96 149
61 95 145
61 95 141
61 95 142
60 94 139
61 95 145
61 95 140
62 96 145
60 95 140
59 93 133
60 95 145
60 94 138
61 95 143
60 94 137
60 95 141
60 94 133
60 93 128
60 94 138
59 93 138
61 94 139
60 94 138
59 92 132
58 91 120
60 94 138
60 93 133
59 92 128
60 93 134
59 91 133
58 90 124
60 94 145
58 90 131
59 91 128
57 87 119
51 76 91
31 41 32
36 47 36
38 50 35
39 51 39
39 50 37
43 54 41
45 58 47
46 59 45
44 56 45
46 60 49
46 59 47
48 62 50
45 59 44
49 64 49
49 65 52
49 65 52
50 65 52
49 64 52
50 66 53
51 68 58
51 68 55
49 65 53
50 67 55
53 70 61
53 71 60
53 71 61
54 73 65
53 72 62
55 74 66
131 129 87
193 180 114
193 180 114
193 180 114
193 180 114
193 180 114
193 180 114
193 180 114
193 180 114
193 180 114
193 180 114
193 180 114
193 180 114
193 180 114
193 180 114
193 180 114
193 180 114
193 180 114
193 180 114
193 180 114
193 180 114
193 180 114
193 180 114
193 180 114
193 180 114
193 180 114
193 180 114
193 180 114
193 180 114
193 180 114
193 180 114
193 180 114
193 180 114
193 180 114
193 180 114
193 180 114
193 180 114
193 180 114
193 180 114
193 180 114
193 180 114
193 180 114
194 180 114
194 180 114
194 180 114
194 180 114
194 180 114
194 180 114
194 180 114
194 180 114
194 180 114
194 180 114
194 180 114
194 180 114
194 180 114
194 180 114
194 180 114
194 180 114
194 180 114
194 180 114
194 180 114
194 180 114
194 180 114
194 180 114
194 181 114
194 181 114
194 181 114
194 181 114
194 181 114
194 181 114
194 181 114
194 181 114
194 181 114
194 181 114
194 181 114
194 181 114
194 181 114
194 181 114
194 181 114
194 181 114
194 181 114
195 181 114
195 181 114
195 181 114
195 181 114
195 181 114
195 181 114
195 181 114
195 181 114
195 181 114
195 181 114
195 181 114
195 181 114
195 181 114
195 181 114
195 181 114
195 181 114
195 181 114
195 181 114
195 181 114
195 181 114
195 181 114
195 181 114
195 181 114
195 181 114
195 181 114
220 234 254
215 229 248
219 233 253
219 233 254
219 233 252
219 233 254
220 234 254
219 233 252
216 230 249
209 224 244
215 229 250
220 234 254
218 232 251
216 231 250
218 232 252
217 231 252
218 232 252
217 231 251
217 231 252
220 234 254
220 234 254
216 230 251
216 230 251
216 230 251
220 234 254
217 231 252
220 234 254
215 229 250
217 231 250
221 235 254
217 231 252
221 235 254
219 233 253
220 234 253
220 234 254
219 233 254
219 233 253
219 233 254
218 232 252
220 234 254
219 233 253
217 231 252
219 233 253
215 229 249
216 230 251
219 233 254
218 232 253
219 233 254
220 234 254
217 231 252
217 231 252
216 231 252
216 230 251
221 235 255
217 231 252
220 234 254
219 233 253
215 229 250
216 230 250
217 231 252
220 234 254
220 234 254
219 233 254
217 231 252
215 229 250
217 231 252
217 231 251
218 232 252
221 235 254
218 232 251
219 233 253
221 235 254
221 235 255
221 235 254
222 236 255
222 236 255
222 236 255
222 236 255
222 236 255
222 236 255
222 236 255
222 236 255
222 236 255
222 236 255
222 236 255
222 236 255
222 236 255
222 236 255
222 236 255
222 236 255
222 236 255
222 236 255
222 236 255
222 236 255
222 236 255
222 236 255
222 236 255
222 236 255
222 236 255
222 236 255
222 236 255
222 236 255
222 236 255
222 236 255
222 236 255
221 235 254
218 232 252
218 232 253
219 233 253
216 230 251
216 230 251
217 231 251
218 232 253
216 230 252
217 231 250
217 231 250
218 232 252
218 232 252
214 228 249
217 231 252
216 230 251
215 229 250
216 230 250
213 227 248
219 233 254
216 230 251
219 233 253
214 228 249
220 234 253
222 235 255
215 229 250
217 231 250
223 236 255
214 228 249
218 231 252
116 139 173
61 96 147
60 95 135
61 97 144
61 97 145
61 96 135
60 95 140
60 95 134
60 94 135
60 95 136
60 95 137
60 95 135
60 95 136
61 96 148
62 97 144
61 95 140
61 96 134
61 95 134
61 96 141
60 95 136
62 97 143
60 95 137
61 96 137
61 95 131
62 97 148
60 95 140
61 96 145
61 96 140
60 95 133
61 96 144
60 94 126
61 97 145
60 95 131
61 96 140
60 95 135
61 96 139
62 97 149
61 96 141
61 96 139
61 96 135
61 96 140
60 95 134
61 96 143
61 95 131
60 95 133
61 96 141
61 96 144
61 96 144
61 96 144
61 96 139
61 95 140
59 93 131
60 95 139
61 96 141
61 96 141
62 97 149
60 95 130
62 97 144
61 96 144
60 94 131
61 95 134
60 95 142
59 94 130
60 95 135
58 93 129
62 97 147
60 94 128
59 93 129
61 96 140
61 96 143
60 95 134
61 96 141
60 94 142
61 96 144
60 96 144
60 95 134
60 94 133
60 96 143
60 95 143
62 97 145
60 95 135
61 96 140
60 95 141
59 93 125
61 96 147
61 96 136
61 96 140
61 95 141
62 97 144
60 95 137
60 95 132
61 97 145
61 96 141
61 96 144
60 94 145
61 97 144
60 94 139
60 95 131
60 94 135
60 95 141
59 93 130
60 94 130
61 96 140
60 95 139
61 95 140
59 93 132
60 95 137
60 95 142
60 95 139
59 93 134
60 93 133
60 94 129
61 95 139
60 94 133
61 95 142
60 94 136
59 92 128
62 96 147
58 92 128
60 93 133
58 92 120
61 95 142
60 93 129
59 92 134
58 90 127
60 93 140
59 93 135
57 89 112
58 90 128
53 81 113
34 42 26
36 46 33
35 44 29
38 50 37
41 53 40
39 51 40
42 54 37
43 56 39
39 51 34
46 60 45
45 58 45
47 61 44
46 60 43
48 63 52
47 60 48
47 61 44
50 65 54
49 65 51
49 64 55
50 66 50
51 68 57
51 67 52
49 66 54
52 70 56
52 70 58
52 70 60
52 69 58
52 70 59
55 74 66
109 111 78
194 180 114
194 180 114
194 180 114
194 180 114
194 180 114
194 180 114
194 180 114
194 180 114
194 180 114
194 180 114
194 180 114
194 180 114
194 180 114
194 180 114
194 180 114
194 180 114
194 180 114
194 180 114
194 180 114
194 180 114
194 180 114
194 180 114
194 180 114
194 180 114
194 180 114
194 180 114
194 180 114
194 181 114
194 181 114
194 181 114
194 181 114
194 181 114
194 181 114
194 181 114
194 181 114
194 181 114
194 181 114
194 181 114
194 181 114
194 181 114
194 181 114
194 181 114
194 181 114
194 181 114
194 181 114
194 181 114
194 181 114
194 181 114
194 181 114
195 181 114
195 181 114
195 181 114
195 181 114
195 181 114
195 181 114
195 181 114
195 181 114
195 181 114
195 181 114
195 181 114
195 181 114
195 181 114
195 181 114
195 181 114
195 181 114
195 181 114
195 181 114
195 181 114
195 181 114
195 181 114
195 181 114
195 181 114
195 181 114
195 181 114
195 181 114
195 181 114
195 181 114
195 181 114
195 181 114
195 181 114
195 181 114
195 181 114
195 181 114
195 181 114
195 181 114
195 181 114
195 181 114
195 181 114
195 181 114
195 181 114
195 181 114
195 181 114
195 181 114
195 181 114
195 181 114
195 181 114
195 181 114
196 181 114
196 181 114
196 181 114
196 181 114
196 181 114
196 181 114
196 181 114
196 181 114
218 232 252
218 232 252
218 232 252
217 231 252
220 234 254
219 233 254
220 234 254
215 230 250
221 235 254
220 234 254
219 233 253
221 235 254
219 233 253
221 235 255
220 234 254
216 231 251
219 233 252
216 230 251
213 228 248
220 234 254
220 234 254
216 231 252
216 230 251
219 233 253
219 233 253
219 233 253
219 233 253
217 231 252
219 233 253
218 233 252
219 233 254
217 231 252
212 227 248
221 235 255
220 234 254
221 235 254
214 229 250
221 235 255
215 230 250
219 233 253
219 233 254
222 236 255
218 233 253
219 233 253
217 231 252
220 234 254
219 233 253
222 236 255
221 235 255
218 232 253
216 231 252
219 233 254
218 232 253
220 234 254
219 233 253
217 232 253
221 235 255
219 233 254
219 233 254
221 235 255
217 231 251
217 231 252
216 231 252
216 231 251
221 235 255
217 231 252
217 232 252
217 232 252
216 230 251
217 231 250
221 235 254
221 235 255
217 231 250
221 235 254
222 236 255
222 236 255
222 236 255
222 236 255
222 236 255
222 236 255
222 236 255
222 236 255
222 236 255
222 236 255
222 236 255
222 236 255
222 236 255
222 236 255
222 236 255
222 236 255
222 236 255
222 236 255
222 236 255
222 236 255
222 236 255
222 236 255
222 236 255
222 236 255
222 236 255
222 236 255
222 236 255
222 236 255
222 236 255
222 236 255
222 236 255
220 234 254
219 233 252
219 233 253
218 232 251
217 231 251
219 233 253
220 234 254
218 232 253
214 228 250
218 232 252
213 227 248
214 228 248
219 233 253
218 232 253
219 233 253
219 233 252
216 230 250
215 229 250
219 233 251
215 229 250
217 231 252
213 227 248
221 235 255
215 229 250
219 233 252
222 236 255
220 234 254
220 234 254
218 232 252
220 234 254
89 117 167
62 97 145
63 98 149
60 95 136
60 95 134
62 97 148
62 97 143
61 96 143
62 98 151
61 96 145
61 96 141
60 94 136
61 96 145
60 95 135
60 95 135
61 96 143
61 96 142
60 94 135
62 97 141
60 95 139
60 95 136
61 96 141
59 94 126
60 95 140
61 97 141
61 96 143
59 94 135
60 95 139
60 95 135
60 95 144
61 95 141
58 93 129
59 94 140
60 94 134
60 95 131
61 95 137
59 94 130
60 95 142
60 95 139
62 96 143
60 95 135
61 96 141
61 96 139
61 96 147
60 94 130
61 96 136
61 96 137
61 95 137
59 93 120
60 95 136
60 95 139
61 95 140
59 93 135
60 95 135
59 94 126
60 96 135
62 97 144
60 96 141
60 95 137
60 95 139
60 95 140
61 96 141
61 96 140
61 96 144
61 96 137
61 96 144
60 96 143
60 95 140
59 94 133
62 97 145
61 96 142
59 94 133
60 95 145
60 94 128
61 96 150
62 96 143
60 95 135
61 96 135
61 96 141
60 94 131
61 96 143
60 95 128
59 94 131
59 93 134
61 96 142
60 94 135
60 95 140
60 94 128
60 94 135
62 97 147
62 97 148
61 96 144
61 97 146
59 93 134
60 94 130
60 94 138
61 96 137
60 95 135
59 93 140
61 95 144
61 96 144
60 95 135
60 95 132
62 97 148
60 95 140
60 94 130
60 95 140
58 92 129
59 93 129
61 95 136
59 92 129
61 95 137
60 94 134
58 92 122
60 94 133
59 92 119
60 94 134
61 95 147
60 94 142
61 96 150
59 93 128
59 91 127
58 91 127
59 92 135
60 93 139
59 91 132
57 87 113
59 91 130
59 91 129
53 81 109
31 41 32
33 42 26
33 43 34
39 50 38
38 49 37
41 53 40
41 52 39
45 58 43
45 58 43
44 57 38
44 57 44
46 59 41
45 59 45
48 63 50
45 59 47
47 61 47
48 62 50
49 64 49
49 64 51
49 66 54
51 67 54
49 65 52
51 68 54
52 69 58
53 71 57
54 72 63
54 73 63
54 73 62
53 71 62
84 93 72
195 181 114
195 181 114
195 181 114
195 181 114
195 181 114
195 181 114
195 181 114
195 181 114
195 181 114
195 181 114
195 181 114
195 181 114
195 181 114
195 181 114
195 181 114
195 181 114
195 181 114
195 181 114
195 181 114
195 181 114
195 181 114
195 181 114
195 181 114
195 181 114
195 181 114
195 181 114
195 181 114
195 181 114
195 181 114
195 181 114
195 181 114
195 181 114
195 181 114
195 181 114
195 181 114
195 181 114
195 181 114
195 181 114
195 181 114
195 181 114
195 181 114
195 181 114
195 181 114
195 181 114
195 181 114
195 181 114
195 181 114
195 181 114
195 181 114
195 181 114
195 181 114
195 181 114
195 181 114
195 181 114
195 181 114
195 181 114
195 181 114
195 181 114
195 181 114
196 181 114
196 181 114
196 181 114
196 181 114
196 181 114
196 181 114
196 181 114
196 181 114
196 181 114
196 181 114
196 181 114
196 181 114
196 181 114
196 181 114
196 181 114
196 181 114
196 181 114
196 181 114
196 181 114
196 181 114
196 181 114
196 181 114
196 181 114
196 181 114
196 181 114
196 181 114
196 181 114
196 181 114
196 181 114
196 181 114
196 181 114
196 181 114
196 181 114
196 181 114
196 181 114
196 181 114
196 181 114
196 181 114
196 181 114
196 182 114
196 181 114
196 182 114
196 182 114
196 182 114
196 182 114
196 182 114
221 235 255
215 230 252
219 234 253
218 233 252
217 232 252
217 232 252
219 233 253
215 230 250
219 233 254
215 230 250
221 235 255
218 233 252
218 233 253
221 235 255
217 232 251
214 229 249
219 234 254
217 232 252
221 235 255
217 232 252
219 233 254
213 228 248
217 232 252
219 234 254
217 232 252
213 228 249
221 235 255
221 235 255
220 234 254
218 233 254
220 234 254
217 232 252
220 234 254
218 233 253
217 232 252
218 233 252
217 232 253
219 234 254
214 229 250
216 231 251
220 234 254
218 233 253
219 234 254
215 230 251
219 234 254
215 230 250
215 230 251
215 230 251
218 233 252
214 229 248
216 231 252
216 231 252
216 231 252
219 234 254
219 234 254
218 233 253
215 230 250
218 233 252
219 234 254
220 235 255
216 231 252
220 234 254
218 233 253
216 231 252
216 231 252
217 232 252
215 230 251
215 230 250
218 233 252
218 233 252
215 230 250
218 233 253
217 231 252
222 236 255
222 236 255
221 236 255
222 236 255
222 236 255
222 236 255
222 236 255
222 236 255
222 236 255
222 236 255
221 236 255
221 236 255
222 236 255
221 236 255
222 236 255
222 236 255
222 236 255
222 236 255
221 236 255
222 236 255
222 236 255
221 236 255
222 236 255
222 236 255
222 236 255
221 236 255
222 236 255
222 236 255
222 236 255
222 236 255
222 236 255
222 236 255
214 229 248
220 234 254
220 234 254
219 233 252
220 234 253
218 232 251
220 234 254
219 233 253
215 229 250
217 231 252
219 233 253
218 232 252
221 235 255
216 230 251
212 227 248
219 233 252
221 235 255
217 231 250
215 229 250
217 231 252
218 232 251
214 228 250
219 233 253
221 235 255
220 234 254
217 231 252
218 232 252
219 233 253
217 231 251
220 234 253
92 120 167
62 97 149
62 96 147
61 96 145
61 96 141
60 95 134
62 97 145
60 96 137
61 96 143
61 96 135
61 96 141
61 97 143
60 95 134
58 92 125
59 93 122
60 94 131
61 95 139
61 96 143
61 96 139
60 95 137
60 94 129
60 95 133
59 93 129
60 95 136
61 96 143
62 97 147
60 94 136
60 95 134
61 97 142
60 96 141
59 93 126
59 94 137
60 95 136
61 96 139
59 93 133
60 95 133
61 96 142
60 95 133
61 95 136
60 95 137
61 96 141
60 95 136
60 95 136
61 96 142
61 96 142
61 96 140
61 96 137
60 95 135
59 94 130
60 94 134
60 96 136
59 94 126
60 94 133
59 93 133
61 96 145
59 93 131
60 95 141
60 94 134
60 94 139
61 96 143
61 95 142
59 94 137
59 93 131
61 96 139
60 96 139
60 95 135
60 95 135
59 93 125
60 95 148
61 96 142
61 96 137
61 96 140
59 94 135
60 95 136
60 94 139
61 95 142
60 95 136
62 97 150
60 95 140
59 94 124
60 94 142
60 95 143
59 93 128
61 95 144
60 95 135
61 96 143
60 95 134
60 95 129
60 95 137
60 95 143
60 94 134
60 94 134
59 94 129
59 94 136
60 94 135
60 94 132
61 95 135
60 95 134
61 95 140
59 94 132
61 96 146
61 96 141
59 94 135
60 95 132
60 94 133
60 93 135
61 96 142
60 94 136
60 94 131
59 93 131
60 93 138
59 93 130
59 94 128
60 94 138
60 94 136
60 95 145
60 93 130
59 94 131
59 93 132
59 92 120
59 91 128
60 93 140
59 91 128
60 93 132
59 91 133
58 90 125
57 88 120
57 88 113
59 92 133
55 85 118
33 43 33
36 46 32
35 46 29
37 48 33
38 49 35
43 55 37
37 47 32
41 54 37
42 54 38
41 53 37
44 58 46
49 63 52
47 62 47
47 61 47
48 64 53
46 61 44
49 65 54
48 64 47
48 64 49
50 67 50
50 66 51
49 64 47
51 69 55
52 70 56
53 70 59
52 70 57
52 70 53
52 70 57
54 73 61
54 73 60
195 181 114
196 181 114
196 181 114
196 181 114
196 181 114
196 181 114
196 181 114
196 181 114
196 181 114
196 181 114
196 181 114
196 181 114
196 181 114
196 181 114
196 181 114
196 181 114
196 181 114
196 181 114
196 181 114
196 181 114
196 181 114
196 181 114
196 181 114
196 181 114
196 181 114
196 181 114
196 181 114
196 181 114
196 181 114
196 181 114
196 181 114
196 181 114
196 181 114
196 181 114
196 181 114
196 181 114
196 181 114
196 181 114
196 181 114
196 181 114
196 181 114
196 181 114
196 181 114
196 182 114
196 182 114
196 182 114
196 182 114
196 182 114
196 182 114
196 182 114
196 182 114
196 182 114
196 182 114
196 182 114
196 182 114
196 182 114
196 182 114
196 182 114
196 182 114
196 182 114
196 182 114
196 182 114
196 182 114
196 182 114
196 182 114
196 182 114
196 182 114
196 182 114
196 182 114
196 182 114
196 182 114
196 182 114
196 182 114
196 182 114
196 182 114
196 182 114
196 182 114
196 182 114
196 182 114
196 182 114
196 182 114
197 182 114
197 182 114
197 182 114
197 182 114
197 182 114
197 182 114
197 182 114
197 182 114
197 182 114
197 182 114
197 182 114
197 182 114
197 182 114
197 182 114
197 182 114
197 182 114
197 182 114
197 182 114
197 182 114
197 182 114
197 182 114
197 182 114
197 182 114
197 182 114
215 230 252
220 235 254
218 233 252
217 232 251
219 234 253
217 232 253
218 233 254
215 230 250
218 233 253
215 230 250
220 235 254
219 234 254
219 234 254
217 232 252
217 232 252
219 234 254
221 236 255
220 234 254
214 229 250
217 232 252
220 235 254
220 235 255
220 235 255
217 232 252
216 231 252
217 232 252
220 235 255
217 232 251
215 230 250
220 235 255
214 229 248
219 234 254
217 232 252
217 232 253
218 233 254
218 233 252
218 233 253
216 231 252
216 231 252
220 235 254
218 233 252
219 234 253
218 233 254
217 232 252
218 233 253
219 234 254
215 230 250
217 232 253
218 233 254
219 233 253
216 230 249
220 234 254
217 231 250
217 231 252
217 232 252
217 232 252
217 232 253
216 231 251
216 231 252
217 232 253
220 235 254
218 233 254
217 232 252
219 234 254
221 236 255
216 231 250
216 230 251
218 233 253
219 234 254
216 231 251
214 229 251
219 234 254
215 229 249
218 233 253
221 236 255
221 236 255
221 236 255
221 236 255
221 236 255
221 236 255
221 236 255
221 236 255
221 236 255
221 236 255
221 236 255
221 236 255
221 236 255
221 236 255
221 236 255
221 236 255
221 236 255
221 236 255
221 236 255
221 236 255
221 236 255
221 236 255
221 236 255
221 236 255
221 236 255
221 236 255
221 236 255
221 236 255
221 236 255
221 236 255
221 236 255
220 235 255
219 234 254
218 233 254
220 235 255
218 233 252
218 233 253
216 231 252
218 233 254
220 235 255
219 234 254
216 231 250
215 230 252
215 230 249
215 230 251
216 231 251
218 233 252
216 231 252
218 233 253
217 232 252
218 233 253
218 233 254
218 233 252
216 231 252
217 232 253
219 233 254
217 232 253
219 233 253
217 232 252
216 231 251
217 232 253
79 109 154
63 98 152
61 95 137
62 97 143
61 96 143
60 95 139
61 95 136
61 96 144
60 94 136
60 95 133
60 94 125
60 95 139
60 94 135
60 95 139
61 96 143
60 95 137
61 96 143
61 96 142
60 95 134
61 96 143
60 95 139
60 94 134
60 94 131
61 96 137
61 96 136
59 93 124
60 95 135
60 95 130
60 94 133
60 95 139
60 95 131
59 94 137
61 95 133
60 94 129
60 95 130
60 95 131
60 95 135
60 94 136
61 96 143
60 95 133
61 96 141
60 94 131
60 95 135
61 95 140
60 95 129
61 96 139
59 93 130
61 96 143
62 97 145
60 95 136
59 94 125
60 95 137
61 95 135
59 94 131
60 95 140
60 95 134
61 96 139
60 94 135
61 96 141
59 94 126
59 93 131
60 95 139
60 95 136
61 96 143
59 94 129
61 96 141
61 95 140
62 97 147
60 94 135
60 94 134
60 95 141
60 95 134
59 94 136
60 95 132
61 96 139
60 94 131
60 94 134
60 95 141
60 94 139
60 95 136
60 95 134
60 95 141
61 96 147
60 94 133
59 94 137
59 94 136
60 94 131
58 92 128
60 94 129
61 96 147
61 95 140
63 98 148
60 94 135
59 94 126
60 95 131
60 95 130
61 96 143
60 95 132
60 94 139
61 96 143
60 94 134
60 95 134
59 93 128
61 96 141
61 96 145
59 93 127
60 95 134
61 95 148
59 92 123
60 94 136
60 95 130
60 94 124
61 95 141
60 94 138
59 92 131
59 92 126
60 94 132
60 94 133
60 94 134
59 93 131
59 93 130
59 92 127
60 93 134
60 92 129
60 93 130
57 89 117
59 92 133
57 88 120
57 88 123
56 84 118
32 41 28
34 44 34
38 49 35
40 51 38
37 48 33
35 45 30
43 55 40
43 56 42
41 53 39
43 55 41
45 59 44
45 59 45
47 61 44
46 59 44
48 62 46
49 63 48
47 63 51
50 65 49
48 63 47
51 68 54
50 65 52
52 69 58
50 66 51
52 68 56
51 68 54
51 68 56
52 70 56
53 70 59
53 71 57
53 73 63
188 175 111
197 182 114
197 182 114
197 182 114
197 182 114
197 182 114
197 182 114
197 182 114
197 182 114
197 182 114
197 182 114
197 182 114
197 182 114
197 182 114
197 182 114
197 182 114
197 182 114
197 182 114
197 182 114
197 182 114
197 182 114
197 182 114
197 182 114
197 182 114
197 182 114
197 182 114
197 182 114
197 182 114
197 182 114
197 182 114
197 182 114
197 182 114
197 182 114
197 182 114
197 182 114
197 182 114
197 182 114
197 182 114
197 182 114
197 182 114
197 182 114
197 182 114
197 182 114
197 182 114
197 182 114
197 182 114
197 182 114
197 182 114
197 182 114
197 182 114
197 182 114
197 182 114
197 182 114
197 182 114
197 182 114
197 182 114
197 182 114
197 182 114
197 182 114
197 182 114
197 182 114
197 182 114
197 182 114
197 182 114
197 182 114
197 182 114
197 182 114
197 182 114
197 182 114
197 182 114
197 182 114
197 182 114
197 182 114
197 182 114
197 182 114
197 182 114
197 182 114
197 182 114
197 182 114
197 182 114
197 182 114
197 182 114
197 182 114
197 182 114
197 182 114
197 182 114
197 182 114
197 182 114
197 182 114
197 182 114
197 182 114
197 182 114
197 182 114
197 182 114
197 182 114
197 182 114
197 182 114
197 182 114
197 182 114
197 182 114
197 182 114
197 182 114
197 182 114
197 182 114
197 182 114
217 231 252
214 229 250
219 234 254
219 233 253
215 230 252
219 234 254
216 231 252
219 234 254
214 228 248
219 234 254
219 234 254
215 230 250
215 230 251
217 232 252
217 232 252
218 232 252
215 230 251
221 236 255
216 230 251
217 232 253
218 233 253
219 234 254
215 230 251
219 234 254
218 233 254
213 228 250
220 234 254
218 233 254
219 234 254
214 228 248
216 231 250
219 234 254
219 234 254
217 232 252
214 228 248
219 234 254
218 233 254
219 234 254
217 232 253
218 233 254
216 231 252
219 234 254
216 230 251
218 233 254
221 236 255
217 232 253
216 231 252
219 234 254
214 228 249
218 232 252
214 228 248
218 232 252
219 233 253
218 232 252
214 229 249
220 235 255
216 231 250
217 232 252
218 233 254
218 233 254
217 232 252
220 235 255
218 233 253
219 234 254
218 233 254
219 234 254
217 232 252
219 234 254
218 233 252
219 234 254
216 230 251
218 233 254
218 233 253
220 235 254
221 236 255
221 236 255
221 236 255
221 236 255
221 236 255
221 236 255
221 236 255
221 236 255
221 236 255
221 236 255
221 236 255
221 236 255
221 236 255
221 236 255
221 236 255
221 236 255
221 236 255
221 236 255
221 236 255
221 236 255
221 236 255
221 236 255
221 236 255
221 236 255
221 236 255
221 236 255
221 236 255
221 236 255
221 236 255
221 236 255
221 236 255
217 231 252
215 229 249
221 236 255
214 229 250
217 232 252
219 234 254
216 231 252
214 229 250
214 229 248
219 234 254
218 233 253
216 231 250
216 231 252
217 232 252
217 232 253
217 232 253
213 228 250
217 232 252
219 234 254
221 236 255
217 231 252
220 235 255
214 228 249
218 233 254
219 234 254
216 231 252
218 233 254
219 234 254
218 233 254
214 229 250
78 108 155
63 98 157
61 96 147
61 96 142
60 94 136
61 96 150
60 95 139
59 93 126
60 95 135
62 97 149
61 95 131
60 95 133
61 96 136
60 94 128
59 93 137
60 95 145
60 94 128
61 96 141
59 94 130
61 95 142
60 95 131
61 97 150
60 94 128
59 93 124
61 96 140
59 93 121
59 93 128
60 95 140
61 96 140
61 95 137
61 96 137
58 92 105
60 95 134
60 95 137
60 95 131
59 93 125
61 96 143
61 96 143
59 94 131
61 95 140
60 94 131
60 95 137
59 94 129
60 95 136
59 94 131
60 94 139
59 93 131
61 95 137
60 94 134
59 93 137
60 94 134
61 96 139
61 95 137
60 95 143
62 97 147
61 96 141
60 94 135
61 96 140
59 93 130
60 95 134
60 95 140
61 95 130
61 96 142
60 94 129
61 96 141
59 94 129
60 95 130
59 93 133
61 96 142
60 95 140
61 95 141
59 93 131
60 95 135
61 96 139
59 94 125
61 96 140
60 95 129
60 94 135
59 93 130
60 94 130
59 93 122
60 94 126
60 95 137
60 95 134
61 96 145
61 96 141
60 94 128
59 94 136
60 94 130
60 95 137
59 93 126
61 95 139
59 92 129
58 92 128
59 93 139
61 96 144
59 94 125
60 95 143
59 94 132
58 91 126
59 94 133
59 93 125
60 94 128
61 96 135
61 95 142
59 93 133
59 94 132
60 94 139
61 95 136
60 94 134
61 95 143
60 95 136
59 93 124
59 92 128
59 93 130
60 94 131
60 94 140
58 92 134
59 92 131
59 92 119
58 91 120
59 93 130
60 93 132
60 93 135
60 93 141
57 89 115
58 90 123
57 88 124
57 87 122
56 86 110
31 40 24
33 43 32
34 43 32
38 48 31
35 46 32
39 50 37
42 54 42
43 56 38
42 56 40
43 55 39
44 57 38
45 59 43
42 54 36
46 60 46
48 63 52
47 62 43
48 63 48
46 60 44
49 65 47
48 64 52
50 66 57
51 67 53
50 65 50
52 68 54
53 70 58
52 69 51
51 69 57
52 70 53
52 70 55
53 72 56
190 176 110
198 182 114
198 182 114
198 182 114
198 182 114
198 182 114
198 182 114
198 182 114
198 182 114
198 182 114
198 182 114
198 182 114
198 182 114
198 182 114
198 182 114
198 182 114
198 182 114
198 182 114
198 182 114
198 182 114
198 182 114
198 182 114
198 182 114
198 182 114
198 182 114
198 182 114
198 182 114
198 182 114
198 182 114
198 182 114
198 182 114
198 182 114
198 182 114
198 182 114
198 182 114
198 182 114
198 182 114
198 182 114
198 182 114
198 182 114
198 182 114
198 182 114
198 182 114
198 182 114
198 182 114
198 182 114
198 182 114
198 182 114
198 182 114
198 182 114
198 182 114
198 182 114
198 182 114
198 182 114
198 182 114
198 182 114
198 182 114
198 182 114
198 182 114
198 182 114
198 182 114
198 182 114
198 182 114
198 182 114
198 182 114
198 182 114
198 182 114
198 182 114
198 182 114
198 182 114
198 182 114
198 182 114
198 182 114
198 182 114
198 182 114
198 182 114
198 182 114
198 182 114
198 182 114
198 182 114
198 182 114
198 182 114
198 182 114
198 182 114
198 182 114
198 182 114
198 182 114
198 182 114
198 182 114
198 182 114
198 182 114
198 182 114
198 182 114
198 182 114
198 182 114
198 182 114
198 182 114
198 182 114
198 182 114
198 182 114
198 182 114
198 182 114
198 182 114
198 182 114
198 182 114
218 233 254
220 234 255
218 232 253
220 234 254
219 234 254
217 232 252
215 229 250
217 231 252
215 229 250
217 232 253
217 231 252
215 230 250
216 231 252
219 234 254
219 234 254
219 233 254
221 235 255
219 233 254
218 233 254
218 233 254
219 234 254
217 232 252
220 234 255
218 232 253
218 232 252
215 230 251
217 231 251
219 233 254
217 232 252
217 232 253
219 233 254
218 232 253
220 234 255
215 229 249
217 231 252
215 230 250
216 231 251
219 234 254
215 229 250
219 233 254
215 229 250
218 232 252
215 229 249
217 232 252
216 230 251
215 230 251
214 228 248
217 232 252
216 231 252
217 231 252
215 229 249
219 233 253
216 230 250
215 229 250
217 232 252
216 231 252
219 234 254
219 233 254
219 234 254
215 230 250
218 233 254
216 231 252
215 230 250
218 233 253
215 229 250
220 234 254
216 230 250
216 231 252
216 230 252
219 233 254
213 228 249
219 234 254
216 231 252
221 235 255
221 235 255
220 234 255
221 235 255
221 235 255
221 235 255
221 235 255
221 235 255
221 235 255
221 235 255
221 235 255
221 235 255
221 235 255
221 235 255
221 235 255
221 235 255
221 235 255
221 235 255
221 235 255
221 235 255
221 235 255
221 235 255
221 235 255
221 235 255
221 235 255
221 235 255
221 235 255
221 235 255
221 235 255
221 235 255
221 235 255
221 235 255
219 233 254
214 228 248
217 231 252
218 232 252
215 229 250
219 233 254
219 233 254
218 232 254
214 228 249
217 231 252
215 229 249
217 231 252
218 232 254
217 231 252
213 227 249
218 233 254
219 233 254
217 231 252
216 230 252
218 232 252
219 233 254
218 232 254
214 228 250
219 233 254
216 230 251
216 230 251
220 234 255
216 230 252
215 229 251
218 232 253
79 109 156
60 95 133
61 95 139
62 97 145
61 95 136
60 95 137
61 96 143
59 93 130
61 96 140
61 96 137
60 95 143
61 97 149
61 96 139
60 95 133
59 94 125
62 97 143
61 95 133
61 96 140
59 93 129
60 95 136
61 95 136
58 92 117
60 94 141
61 96 134
61 96 136
60 95 137
60 96 143
61 96 137
60 95 142
60 95 133
62 97 143
59 94 126
60 95 136
58 92 125
60 95 139
61 96 141
60 94 137
60 95 137
61 96 131
59 94 137
59 93 125
60 95 136
60 95 135
59 93 129
60 94 128
59 93 128
60 95 140
61 96 143
59 94 142
59 93 128
60 95 133
61 95 140
59 93 124
60 95 133
59 94 133
60 95 137
60 94 124
61 96 140
60 95 137
60 94 134
60 94 133
60 95 135
60 95 139
58 93 125
60 95 131
59 94 130
61 96 142
60 95 134
60 94 133
60 95 137
60 95 136
61 95 140
58 92 124
60 95 136
59 93 125
60 95 139
61 96 142
60 94 136
59 94 136
61 96 142
60 94 128
59 93 126
59 93 120
60 95 136
59 94 129
60 95 135
60 94 132
61 96 140
62 97 137
60 94 134
58 92 120
59 93 129
60 95 134
59 94 125
60 95 138
61 95 141
60 95 135
60 94 129
59 92 121
61 96 144
59 93 132
60 94 130
60 93 128
60 94 131
59 93 129
61 95 138
59 93 123
59 93 132
59 93 128
60 95 138
59 93 139
60 95 144
60 94 138
60 93 138
59 93 141
60 94 133
60 94 131
58 92 117
60 94 134
59 93 135
60 93 129
59 92 132
59 92 136
58 91 130
58 90 120
59 92 127
59 92 128
56 88 114
57 89 123
56 85 118
30 39 26
31 41 26
35 45 33
36 46 30
37 48 37
39 51 36
38 50 35
41 53 35
43 56 41
43 57 44
43 56 40
44 57 44
46 59 40
46 59 44
44 58 40
45 58 39
46 60 46
48 62 48
48 64 52
48 64 50
49 64 50
48 64 49
50 67 57
50 66 49
50 67 53
52 69 52
51 68 56
51 69 51
52 70 56
53 72 57
192 177 111
199 183 114
199 183 114
199 183 114
199 183 114
199 183 114
199 183 114
199 183 114
199 183 114
199 183 114
199 183 114
199 183 114
199 183 114
199 183 114
199 183 114
199 183 114
199 183 114
199 183 114
199 183 114
199 183 114
199 183 114
199 183 114
199 183 114
199 183 114
199 183 114
199 183 114
199 183 114
199 183 114
199 183 114
199 183 114
199 183 114
199 183 114
199 183 114
199 183 114
199 183 114
199 183 114
199 183 114
199 183 114
199 183 114
199 183 114
199 183 114
199 183 114
199 183 114
199 183 114
199 183 114
199 183 114
199 183 114
199 183 114
199 183 114
199 183 114
199 183 114
199 183 114
199 183 114
199 183 114
199 183 114
199 183 114
199 183 114
199 183 114
199 183 114
199 183 114
199 183 114
199 183 114
199 183 114
199 183 114
199 183 114
199 183 114
199 183 114
198 183 114
199 183 114
198 183 114
198 183 114
199 183 114
198 183 114
199 183 114
198 183 114
198 183 114
198 183 114
198 183 114
198 183 114
198 183 114
198 183 114
198 183 114
198 183 114
198 183 114
198 183 114
198 183 114
198 183 114
198 183 114
198 183 114
198 183 114
198 183 114
198 183 114
198 183 114
198 183 114
198 183 114
198 183 114
198 183 114
198 183 114
198 183 114
198 183 114
198 183 114
198 183 114
198 183 114
198 183 114
198 183 114
218 232 253
217 231 252
219 233 254
221 235 255
213 228 249
217 231 252
219 233 254
218 232 252
217 231 252
216 230 250
219 233 254
220 234 255
217 231 252
218 232 254
214 228 248
218 232 254
215 229 250
218 232 254
217 231 252
216 230 252
216 230 250
217 231 253
217 231 252
221 235 255
219 233 254
216 230 251
216 230 250
218 232 254
213 228 250
217 231 252
215 229 249
217 231 253
217 231 252
218 232 252
218 232 254
220 234 254
218 232 253
217 231 251
220 234 254
218 232 253
221 235 255
216 231 252
220 234 254
220 234 255
218 232 252
219 233 254
219 233 254
220 234 255
215 229 250
221 235 255
218 232 252
219 233 253
211 226 246
217 231 251
216 230 251
219 233 254
219 233 253
216 230 251
219 233 253
217 232 253
219 233 253
217 231 252
216 230 252
216 230 252
217 231 252
220 234 255
216 230 250
220 234 254
217 231 252
215 229 251
217 231 251
217 231 252
217 231 252
218 232 252
221 235 255
221 235 255
221 235 255
221 235 255
221 235 255
221 235 255
221 235 255
221 235 255
221 235 255
221 235 255
221 235 255
221 235 255
221 235 255
221 235 255
221 235 255
221 235 255
221 235 255
221 235 255
221 235 255
221 235 255
221 235 255
221 235 255
220 235 254
221 235 255
221 235 255
221 235 255
221 235 255
221 235 255
221 235 255
221 235 255
221 235 255
218 232 252
219 233 254
216 230 250
212 227 249
218 232 254
220 234 255
217 231 253
217 231 252
217 231 253
217 231 253
218 232 253
220 234 255
217 231 253
220 234 255
219 233 254
217 231 253
214 229 250
218 232 254
214 229 251
216 231 252
216 230 252
211 226 249
216 231 252
213 228 251
217 231 253
216 231 252
219 234 255
214 229 251
217 232 253
216 231 252
86 114 152
62 97 145
61 96 135
61 96 140
60 95 136
61 95 134
61 95 134
61 96 142
61 95 136
61 96 137
61 96 137
62 97 144
61 96 140
61 96 141
60 94 130
60 95 135
61 96 142
60 94 136
60 95 137
59 94 130
60 95 137
60 94 134
60 95 133
61 96 139
60 95 130
60 95 135
61 96 136
60 95 134
59 93 135
61 96 142
59 93 129
61 96 134
60 95 140
59 93 128
60 95 131
60 94 128
61 95 139
61 95 137
61 96 136
61 96 143
60 94 134
60 94 121
60 95 131
60 95 141
60 95 130
59 93 125
61 96 144
58 93 122
60 95 133
61 96 135
60 95 134
60 95 130
60 94 131
60 95 135
60 95 130
61 96 135
59 94 142
58 93 129
60 94 135
61 96 145
60 95 131
59 94 129
59 94 129
61 96 139
60 95 133
60 94 136
60 95 129
59 94 124
60 94 131
59 94 131
60 95 137
58 92 118
60 94 135
60 95 130
60 94 130
61 96 141
60 94 134
59 94 134
60 95 137
59 94 131
60 94 139
59 93 131
61 95 139
59 93 130
60 95 139
60 94 140
59 93 125
59 93 129
60 95 135
60 94 128
60 95 139
60 94 135
59 93 125
61 95 132
59 93 130
60 94 133
60 95 136
59 93 128
59 93 129
60 94 134
59 94 128
60 95 139
60 94 136
59 93 130
61 96 143
60 95 128
59 93 130
58 92 122
59 93 124
60 94 138
58 92 125
60 94 142
58 93 125
60 95 135
59 93 134
59 93 131
58 92 126
61 95 141
59 92 125
59 93 137
58 91 120
60 94 138
58 91 117
59 92 135
59 91 130
60 94 134
59 92 128
58 90 121
56 86 113
55 84 119
30 39 23
34 44 32
36 47 31
36 46 29
35 45 25
37 47 27
40 52 35
40 51 36
45 59 44
45 57 34
44 57 43
43 56 32
46 60 46
46 60 43
45 59 48
46 59 42
49 64 50
47 62 46
48 64 47
49 65 48
50 66 50
49 64 41
50 66 47
51 68 54
49 66 50
51 69 57
52 70 54
51 69 54
52 70 57
56 73 54
200 183 114
200 183 114
200 183 114
200 183 114
200 183 114
200 183 114
200 183 114
200 183 114
200 183 114
200 183 114
200 183 114
200 183 114
200 183 114
200 183 114
200 183 114
200 183 114
200 183 114
200 183 114
200 183 114
200 183 114
200 183 114
200 183 114
200 183 114
200 183 114
200 183 114
200 183 114
200 183 114
200 183 114
200 183 114
200 183 114
200 183 114
200 183 114
200 183 114
200 183 114
200 183 114
200 183 114
200 183 114
200 183 114
199 183 114
200 183 114
199 183 114
200 183 114
200 183 114
199 183 114
199 183 114
199 183 114
199 183 114
199 183 114
199 183 114
199 183 114
199 183 114
199 183 114
199 183 114
199 183 114
199 183 114
199 183 114
199 183 114
199 183 114
199 183 114
199 183 114
199 183 114
199 183 114
199 183 114
199 183 114
199 183 114
199 183 114
199 183 114
199 183 114
199 183 114
199 183 114
199 183 114
199 183 114
199 183 114
199 183 114
199 183 114
199 183 114
199 183 114
199 183 114
199 183 114
199 183 114
199 183 114
199 183 114
199 183 114
199 183 114
199 183 114
199 183 114
199 183 114
199 183 114
199 183 114
199 183 114
199 183 114
199 183 114
199 183 114
199 183 114
199 183 114
199 183 114
199 183 114
199 183 114
199 183 114
199 183 114
199 183 114
199 183 114
199 183 114
199 183 114
199 183 114
218 232 253
218 233 253
219 233 254
218 232 254
221 235 255
218 232 253
220 234 254
215 229 251
216 230 250
218 232 253
218 232 253
218 232 253
214 229 252
218 232 252
219 233 254
215 229 251
212 227 247
217 231 252
219 233 254
215 230 252
218 233 254
214 228 250
217 231 252
220 234 255
215 229 250
214 228 250
213 228 250
218 232 253
215 229 250
216 230 252
220 234 254
221 235 255
221 235 255
210 225 246
220 234 255
218 232 253
219 233 254
213 228 248
213 228 250
217 231 252
216 231 252
219 233 254
218 232 253
218 232 254
212 227 249
214 228 249
215 229 251
218 232 252
216 230 250
218 232 253
218 232 253
214 229 249
218 232 254
217 231 252
218 232 253
218 232 254
218 232 254
217 231 253
218 232 253
219 233 254
218 232 253
218 232 253
211 226 246
215 229 250
215 229 250
218 232 252
217 232 252
216 230 252
215 229 251
217 231 252
217 231 252
218 232 253
218 232 254
218 232 253
221 235 255
221 235 255
221 235 255
221 235 255
220 235 254
221 235 255
221 235 255
220 235 254
221 235 255
221 235 255
221 235 255
221 235 255
220 235 254
220 235 254
219 234 252
221 235 255
221 235 255
220 234 253
221 235 255
220 235 254
221 235 255
220 235 253
221 235 255
220 235 254
220 234 253
220 234 253
220 235 254
219 234 252
221 235 255
220 235 254
218 233 249
219 234 254
215 230 250
217 232 252
217 232 254
214 229 250
217 232 252
217 232 253
217 232 252
213 228 250
214 229 250
215 230 251
218 233 253
218 233 253
216 231 252
215 230 251
218 233 254
216 231 251
216 231 252
218 233 254
214 229 250
218 233 254
214 229 250
213 228 250
214 229 252
214 229 250
219 234 255
211 226 249
218 233 254
217 232 253
215 230 252
86 114 152
61 96 137
61 95 139
62 96 142
61 95 141
60 94 132
61 96 137
60 95 135
62 97 144
61 96 136
59 94 125
60 94 133
61 97 148
59 94 131
61 96 140
59 93 122
61 96 143
61 96 142
60 94 130
60 95 134
60 95 133
59 94 130
60 95 135
61 96 136
61 96 142
60 95 137
60 95 131
61 96 143
60 95 140
62 97 144
60 95 136
61 96 137
61 96 136
61 96 139
59 93 128
61 96 136
59 94 129
59 93 124
61 95 133
60 94 137
59 94 130
60 95 134
60 95 129
60 94 137
59 93 130
60 94 134
59 93 120
59 93 125
61 96 144
60 95 131
59 94 140
60 94 130
59 94 134
59 94 135
59 94 128
58 92 124
60 95 131
60 95 130
61 95 135
61 95 131
60 94 139
59 94 133
61 96 129
61 96 145
62 96 147
62 97 143
61 96 136
60 95 131
60 95 141
60 95 130
61 96 143
62 97 150
59 93 130
60 95 140
61 96 143
61 95 142
60 94 134
60 95 134
61 95 134
61 96 139
59 93 124
58 92 114
61 97 147
60 95 141
60 95 141
60 95 135
60 95 139
60 95 142
60 95 133
60 94 133
59 93 126
58 91 126
60 95 136
61 96 142
59 93 128
61 96 140
60 95 139
60 94 129
61 95 141
60 94 139
61 95 139
60 95 129
60 95 136
59 93 135
60 94 133
60 94 130
60 95 134
59 93 125
60 94 136
58 92 129
60 95 135
60 94 137
58 91 123
59 92 129
59 92 132
60 93 132
59 92 127
61 95 139
59 93 132
59 94 133
56 89 118
59 91 121
60 93 131
58 91 129
58 89 120
57 90 121
56 87 113
58 91 128
57 88 120
54 83 108
32 40 23
33 41 22
34 44 30
33 43 26
41 53 39
42 54 34
41 53 36
42 55 38
41 54 34
41 53 35
44 57 39
45 59 40
43 56 34
44 57 36
47 59 42
48 63 44
47 62 41
47 62 43
48 63 47
48 64 47
48 63 43
51 68 56
50 66 51
50 66 49
52 69 53
49 66 49
51 69 54
52 71 56
52 69 59
76 87 55
178 168 76
180 170 81
184 172 89
183 172 87
187 175 95
181 170 83
184 172 87
182 171 85
183 171 87
187 174 93
188 175 95
187 174 93
184 173 90
185 173 90
191 177 100
191 177 101
192 178 101
192 178 101
190 177 99
191 177 99
196 180 107
194 179 105
197 181 108
197 181 108
198 182 110
199 183 112
199 183 112
200 183 113
201 184 114
201 184 114
201 184 114
200 184 114
200 184 114
200 184 114
200 184 114
200 184 114
200 184 114
200 184 114
200 184 114
200 184 114
200 184 114
200 184 114
200 184 114
200 184 114
200 184 114
200 184 114
200 184 114
200 184 114
200 184 114
200 184 114
200 184 114
200 183 114
200 183 114
200 183 114
200 183 114
200 183 114
200 183 114
200 183 114
200 183 114
200 183 114
200 183 114
200 183 114
200 183 114
200 183 114
200 183 114
200 183 114
200 183 114
200 183 114
200 183 114
200 183 114
200 183 114
200 183 114
200 183 114
200 183 114
200 183 114
200 183 114
200 183 114
200 183 114
200 183 114
200 183 114
200 183 114
200 183 114
200 183 114
200 183 114
200 183 114
200 183 114
200 183 114
200 183 114
200 183 114
200 183 114
200 183 114
200 183 114
200 183 114
200 183 114
200 183 114
200 183 114
200 183 114
200 183 114
199 183 114
199 183 114
199 183 114
199 183 114
199 183 114
199 183 114
199 183 114
216 231 252
215 230 252
215 230 250
216 231 252
217 232 253
215 230 252
216 231 252
218 233 254
218 233 254
215 230 251
217 232 252
215 230 252
217 232 254
215 230 251
218 233 254
215 230 252
216 231 252
218 233 254
217 232 253
215 230 251
217 231 252
214 229 250
216 231 252
216 231 253
218 232 253
220 234 255
214 229 250
220 234 255
214 229 250
219 233 254
219 233 254
218 232 254
218 233 254
216 231 252
221 235 255
219 233 254
217 232 252
218 232 253
218 233 254
216 231 252
218 232 253
215 230 250
218 232 253
216 231 252
218 233 252
213 228 249
220 235 254
216 231 251
218 233 254
219 233 254
219 233 254
217 232 250
216 231 252
216 231 250
217 232 251
216 231 253
213 228 246
212 227 245
214 229 249
213 228 244
211 227 243
218 233 250
214 229 250
215 230 249
215 230 248
218 233 252
216 231 250
211 226 246
218 232 251
216 231 248
216 231 249
213 229 243
218 232 252
218 233 250
219 234 252
218 233 250
219 234 252
219 234 250
220 235 254
217 233 246
220 234 253
220 235 254
218 233 249
219 234 250
218 233 248
219 234 252
218 233 249
219 234 252
219 234 252
218 233 246
219 234 250
219 234 250
218 233 248
220 234 253
218 233 248
218 233 249
218 233 248
219 234 252
219 234 253
218 233 250
218 234 250
218 233 248
220 235 254
218 233 250
218 233 249
213 228 245
212 227 248
216 231 249
217 232 252
216 231 253
216 231 252
218 233 254
218 233 254
215 230 251
215 229 250
219 234 254
214 229 250
214 229 249
217 232 252
212 227 248
218 233 254
216 231 252
213 228 250
219 234 255
218 233 254
217 232 254
214 229 251
218 233 254
218 233 254
217 232 253
215 230 251
215 230 252
219 234 255
216 231 252
210 226 249
113 137 175
61 96 133
60 95 140
59 93 124
60 95 134
59 93 133
61 96 137
62 96 145
59 93 130
61 96 145
60 95 141
61 96 134
60 95 129
60 94 142
60 94 128
60 95 141
60 95 136
61 95 134
60 95 137
60 94 137
60 95 133
60 95 143
60 95 126
60 95 130
59 93 130
60 95 130
59 93 133
59 94 131
59 94 121
60 94 133
61 96 140
59 93 120
60 94 141
60 94 140
61 96 141
60 94 135
60 95 135
61 95 133
61 96 140
59 94 129
60 95 133
59 94 129
60 95 141
59 94 135
61 96 150
61 96 141
61 96 141
60 95 130
60 95 142
60 94 134
62 97 150
60 94 133
59 93 125
60 95 139
59 93 134
59 94 135
61 96 137
61 96 137
61 96 145
60 96 144
60 94 126
58 93 118
61 96 144
59 94 126
60 95 130
59 93 128
60 94 136
59 93 124
60 95 139
59 93 129
62 97 145
59 93 128
60 94 130
60 95 134
60 94 122
61 96 140
61 96 136
58 93 131
61 96 142
59 93 126
60 95 136
59 93 129
58 92 128
61 96 140
60 94 135
60 94 131
59 93 122
59 94 130
61 96 139
61 96 139
59 93 135
59 93 133
60 93 125
61 95 145
60 95 143
60 94 138
60 95 136
60 94 134
60 95 139
59 94 137
61 96 145
59 93 125
60 94 134
60 94 134
61 95 137
58 92 123
60 95 140
60 94 139
60 94 132
59 93 137
59 93 133
60 94 134
58 91 123
59 93 125
59 93 138
58 91 115
60 95 140
59 92 127
59 92 131
59 92 123
60 93 132
58 91 126
60 93 131
58 90 121
57 87 112
59 92 123
59 92 130
57 88 117
57 87 123
54 81 111
30 37 20
30 38 19
37 48 30
36 46 31
38 49 34
38 50 32
40 51 32
38 48 26
39 51 35
43 56 37
42 54 37
42 55 42
43 56 37
45 59 39
45 58 37
45 59 37
47 62 42
48 63 43
48 64 42
48 63 44
48 64 46
48 63 44
49 65 49
52 69 53
50 66 51
51 69 56
50 66 50
51 70 56
52 70 54
90 98 47
156 153 0
156 153 0
157 154 0
156 153 0
155 153 0
155 153 0
155 153 0
156 153 0
156 153 0
156 153 0
156 153 0
155 152 0
155 153 0
154 152 0
156 153 0
156 153 0
154 152 0
156 153 0
156 153 0
155 152 0
157 154 0
155 153 0
156 153 0
155 153 0
154 152 0
157 154 0
157 154 0
156 153 0
158 155 25
156 154 22
158 155 30
163 157 37
164 159 45
161 157 39
166 160 54
169 162 54
165 160 51
172 164 64
171 163 64
174 165 69
169 162 60
174 165 69
175 166 69
177 167 76
176 166 71
180 169 80
183 172 87
182 171 83
185 173 90
185 173 90
190 176 97
188 175 94
187 174 93
189 176 96
194 179 104
195 180 106
190 176 97
197 181 108
197 181 109
197 181 109
200 183 113
201 184 114
201 184 114
201 184 114
201 184 114
201 184 114
201 184 114
201 184 114
201 184 114
201 184 114
201 184 114
201 184 114
201 184 114
201 184 114
200 184 114
200 184 114
200 184 114
201 184 114
200 184 114
200 184 114
200 184 114
200 184 114
200 184 114
200 184 114
200 184 114
200 184 114
200 184 114
200 184 114
200 184 114
200 183 114
200 184 114
200 183 114
200 183 114
200 183 114
200 183 114
200 183 114
200 183 114
200 183 114
200 183 114
200 183 114
200 183 114
200 183 114
200 183 114
200 183 114
200 183 114
216 231 253
219 234 255
211 226 248
216 231 252
218 233 254
216 231 253
214 229 250
217 232 254
215 230 251
211 226 248
216 231 252
218 233 254
216 231 251
215 230 250
219 234 254
218 233 254
215 230 252
217 232 253
218 233 253
215 230 250
216 231 251
214 229 249
217 232 253
220 235 255
217 232 252
217 232 254
216 231 250
212 227 250
218 233 252
216 231 251
217 232 253
216 230 250
215 230 250
218 233 250
217 232 248
217 232 248
214 229 250
217 232 251
215 230 248
214 229 246
216 231 248
215 231 244
218 233 252
212 227 238
212 227 240
214 229 244
215 230 250
216 231 248
216 231 246
213 228 245
211 226 242
212 228 244
217 232 249
208 224 239
216 231 248
215 230 247
213 229 244
217 232 249
212 227 246
215 230 249
211 227 240
218 233 252
217 232 251
216 231 251
213 228 248
216 232 248
214 229 242
215 231 247
217 232 248
212 227 244
210 226 241
214 229 248
216 231 248
216 232 245
218 234 250
218 234 250
219 234 252
218 233 249
220 235 254
217 232 245
219 234 252
218 233 249
219 234 252
218 233 248
218 233 250
219 234 252
218 233 249
218 233 248
216 232 244
219 234 253
218 233 249
219 234 253
219 234 250
218 233 250
219 234 252
218 233 250
216 232 244
218 233 250
218 233 249
217 233 246
218 233 249
218 233 250
218 233 248
218 233 250
219 234 253
218 233 254
217 232 253
215 230 252
217 232 252
217 232 252
215 230 250
215 230 250
217 232 253
217 232 253
215 230 250
218 233 254
218 233 254
217 233 253
216 230 250
215 230 252
215 230 251
212 228 249
215 231 252
215 230 252
218 233 254
217 233 254
212 228 250
211 226 248
215 231 252
215 231 253
214 230 250
216 232 254
215 230 251
215 231 253
214 229 251
117 139 173
61 95 139
61 95 131
62 97 145
60 95 131
60 94 128
61 96 141
61 96 141
60 94 124
60 94 137
60 95 144
60 95 137
60 94 131
60 95 129
59 93 136
61 95 136
60 96 143
60 94 135
59 93 129
60 96 144
61 95 130
60 94 130
60 95 134
59 93 126
60 95 136
62 97 147
59 93 122
60 94 129
60 95 135
59 93 125
60 95 140
62 97 148
60 95 134
61 96 142
61 96 143
61 95 135
61 95 134
60 95 131
59 94 122
60 96 137
58 92 125
59 94 125
59 93 133
60 95 140
59 93 125
59 93 124
59 93 133
58 92 124
58 93 117
60 95 131
61 96 141
59 93 126
60 94 137
60 94 126
60 95 140
60 95 137
61 95 136
59 93 134
60 94 126
59 93 131
59 94 135
60 94 136
59 94 128
60 95 141
59 94 130
60 94 131
60 95 129
60 94 136
59 94 125
60 95 137
60 94 131
60 94 129
60 94 131
60 94 128
58 91 121
59 93 124
60 95 139
60 94 132
61 95 136
59 94 121
61 96 144
60 95 136
61 96 142
60 94 136
61 95 141
59 93 128
59 93 131
60 95 131
61 96 136
59 93 126
59 93 135
60 95 128
61 96 147
58 92 121
60 95 135
59 93 130
60 95 137
60 94 132
59 93 131
60 95 130
59 93 129
61 95 141
59 93 124
60 94 131
60 94 133
58 91 134
61 95 143
60 93 138
61 95 144
59 92 124
60 95 134
58 92 111
59 92 130
59 92 135
58 91 126
60 94 140
59 91 131
58 91 124
59 92 118
60 95 137
59 92 129
57 90 120
60 93 125
59 92 132
58 90 124
57 89 119
58 90 132
58 90 124
57 88 119
52 79 100
32 42 24
34 44 29
32 41 22
33 41 25
39 50 29
36 46 27
39 51 34
42 54 31
39 51 31
47 61 41
44 56 38
42 55 33
44 58 41
47 61 45
45 58 42
47 60 40
47 62 46
48 63 44
47 63 43
48 63 45
48 64 49
50 66 49
50 66 46
50 67 53
51 68 46
51 68 49
51 68 51
52 71 54
51 69 58
106 111 43
155 153 0
156 153 0
156 153 0
155 153 0
156 153 0
156 153 0
156 153 0
155 153 0
156 153 0
155 153 0
156 153 0
155 152 0
155 152 0
155 153 0
156 153 0
154 152 0
156 153 0
155 152 0
156 153 0
156 153 0
156 153 0
155 152 0
155 153 0
156 153 0
156 153 0
157 153 0
156 153 0
155 153 0
155 153 0
153 151 0
155 153 0
155 153 0
154 152 0
154 152 0
155 153 0
155 153 0
157 153 0
157 154 0
155 153 0
155 153 0
153 151 0
157 153 0
154 152 0
156 153 0
155 153 0
157 153 0
159 154 0
156 153 0
156 153 0
157 154 0
155 153 0
156 153 0
156 153 0
156 153 0
156 153 0
157 154 0
155 153 0
155 153 0
155 153 0
156 153 0
155 153 0
156 153 0
158 155 22
158 155 25
161 157 36
162 157 41
162 157 42
168 161 57
169 162 60
170 163 63
170 163 60
176 166 73
178 168 76
176 166 72
181 170 82
184 172 87
182 171 84
188 175 95
188 175 95
190 176 96
192 178 101
192 178 101
194 179 104
196 181 107
199 182 110
201 184 114
201 184 114
201 184 114
201 184 114
201 184 114
201 184 114
201 184 114
201 184 114
201 184 114
201 184 114
201 184 114
201 184 114
201 184 114
201 184 114
201 184 114
201 184 114
201 184 114
200 184 114
200 184 114
200 184 114
214 229 251
217 232 252
219 234 255
219 234 255
217 232 254
213 228 249
215 231 252
218 233 254
219 234 254
215 230 250
215 231 249
218 233 254
213 228 245
211 227 248
212 228 246
212 228 246
215 231 248
210 225 242
219 234 252
215 230 248
216 231 251
209 224 237
214 229 247
212 228 242
213 229 247
216 231 248
210 225 244
215 230 248
215 230 248
214 230 247
213 228 245
216 231 249
213 229 246
214 229 248
217 232 250
213 228 246
212 227 245
216 231 248
214 230 247
216 231 248
214 230 248
213 229 244
214 229 246
212 227 243
214 229 246
216 232 246
217 232 248
213 229 246
216 231 249
217 232 248
219 234 253
218 233 250
212 227 240
215 230 248
212 228 245
218 233 250
210 225 239
217 232 250
214 229 247
216 231 249
213 228 246
215 230 242
210 226 244
216 231 248
212 228 245
213 228 242
212 228 246
212 227 244
216 231 248
216 232 249
211 227 238
217 233 253
218 233 252
218 233 250
218 233 249
219 234 252
218 234 252
219 234 253
219 234 253
218 233 249
217 232 246
219 234 252
218 233 249
219 234 254
217 232 246
218 233 249
219 234 253
218 233 250
218 233 249
220 235 255
219 234 254
218 233 249
218 233 250
218 233 249
218 233 249
215 231 241
217 232 246
218 233 249
218 234 252
217 232 249
216 231 242
218 233 249
217 232 248
217 233 249
218 234 252
217 232 250
212 227 248
215 231 251
213 229 249
212 228 247
215 230 251
218 233 254
219 234 255
214 229 250
216 231 252
217 232 253
216 232 254
217 233 254
216 232 253
216 232 253
214 230 251
211 227 250
215 231 252
214 230 251
215 230 250
216 232 254
211 226 248
217 232 254
217 232 254
211 226 250
214 230 252
215 230 253
219 234 255
217 232 254
216 231 254
131 152 190
62 97 142
61 95 134
60 95 130
60 94 133
62 97 149
60 94 128
62 97 143
60 94 129
59 93 126
59 93 117
60 95 131
59 94 124
60 94 135
60 94 130
61 95 133
61 96 134
61 95 139
59 94 118
60 95 131
60 94 136
61 96 145
60 95 129
60 95 129
60 95 134
60 95 131
59 94 130
60 95 135
59 94 122
59 93 129
60 94 129
60 95 133
59 94 128
60 95 140
60 95 135
61 95 139
60 95 134
60 95 130
60 94 136
59 94 126
60 95 136
59 93 134
61 96 142
57 91 113
60 94 129
59 93 121
60 95 141
60 95 131
59 94 125
58 92 120
60 94 131
60 95 125
59 94 135
60 95 130
60 95 136
58 92 115
60 95 129
59 93 128
60 94 135
60 94 125
61 95 135
60 94 137
61 96 133
61 95 134
60 94 131
61 96 137
60 94 129
61 95 134
60 94 134
61 96 144
57 91 117
59 94 124
60 95 137
60 94 134
61 96 141
59 93 131
60 95 135
60 95 140
60 95 140
59 93 130
59 94 126
59 93 133
60 94 130
60 94 129
60 95 126
58 92 125
60 95 136
60 95 129
58 92 121
60 94 140
59 94 133
60 94 140
60 94 135
60 95 134
59 92 128
59 93 124
59 93 129
60 95 134
60 94 129
60 94 134
59 93 130
60 95 134
59 94 133
60 94 140
57 90 122
58 91 132
58 92 131
60 94 138
59 93 127
60 93 132
61 95 133
59 92 123
57 90 121
58 93 129
60 94 137
59 92 131
60 93 132
57 88 112
57 90 121
59 93 133
58 90 118
58 91 129
59 93 129
58 90 128
60 93 132
58 90 119
58 91 128
56 87 112
56 88 118
46 70 88
33 43 26
34 42 19
32 41 25
34 44 27
40 50 31
37 48 24
37 46 26
41 53 36
40 52 33
42 54 29
42 54 33
45 59 42
46 59 42
43 57 36
44 56 33
46 60 44
45 58 40
49 64 48
48 62 41
48 64 48
48 63 46
49 64 44
50 66 49
48 64 44
50 67 46
48 64 45
50 67 49
52 71 54
51 69 50
127 128 21
156 153 0
155 152 0
155 152 0
156 153 0
156 153 0
154 152 0
157 154 0
156 153 0
155 153 0
153 152 0
157 153 0
155 153 0
157 153 0
156 153 0
157 154 0
154 152 0
156 153 0
155 152 0
155 153 0
155 153 0
156 153 0
155 152 0
156 153 0
157 154 0
155 152 0
155 152 0
154 152 0
157 153 0
156 153 0
157 153 0
156 153 0
156 153 0
156 153 0
154 152 0
156 153 0
155 152 0
156 153 0
156 153 0
157 154 0
156 153 0
157 153 0
155 153 0
156 153 0
156 153 0
156 153 0
157 153 0
156 153 0
155 153 0
155 153 0
155 152 0
156 153 0
155 152 0
155 153 0
154 152 0
156 153 0
154 152 0
155 152 0
156 153 0
157 153 0
155 152 0
156 153 0
156 153 0
156 153 0
155 153 0
156 153 0
156 153 0
155 153 0
156 153 0
156 153 0
155 152 0
156 153 0
156 153 0
156 153 0
157 154 0
156 153 0
156 153 0
156 153 0
154 152 0
157 153 0
155 153 0
153 152 0
156 153 0
156 153 0
156 153 0
155 153 0
158 154 16
159 155 30
160 156 32
166 160 51
171 163 63
172 164 64
167 160 56
174 165 70
177 167 74
180 169 80
181 170 84
184 172 87
185 172 89
193 178 103
195 180 106
195 180 105
198 182 109
200 183 113
201 184 114
201 184 114
213 228 243
215 230 247
215 230 247
215 230 244
211 227 245
213 228 246
214 229 244
216 232 248
217 232 250
211 227 244
219 234 253
215 230 247
215 230 247
215 231 248
212 227 247
210 226 242
211 227 246
213 228 244
212 228 246
214 230 248
213 229 243
215 230 248
211 227 239
212 228 246
214 229 247
215 230 248
215 231 246
214 229 246
212 227 246
217 232 250
214 230 248
215 231 248
214 230 251
214 229 246
213 229 242
216 231 247
212 227 245
207 222 240
217 232 250
216 231 249
212 228 246
217 232 251
209 225 242
214 229 250
216 232 249
209 225 240
213 229 242
218 233 250
214 229 247
213 228 246
217 232 250
215 230 246
213 228 244
219 233 253
208 224 238
215 230 250
214 230 244
214 229 244
213 228 247
216 232 250
215 231 247
214 230 246
214 230 248
212 228 247
214 230 245
217 232 250
215 231 245
216 231 248
215 230 249
218 233 252
216 231 250
213 229 244
214 230 242
217 233 248
218 233 250
216 232 245
218 233 250
218 233 250
218 233 249
216 232 245
218 234 252
217 233 249
217 232 246
219 234 253
217 233 249
218 234 252
217 232 246
218 233 250
217 233 249
217 233 248
218 233 250
218 233 250
218 233 250
218 233 249
218 234 252
219 234 253
218 234 252
218 233 249
217 233 250
218 234 252
218 233 250
218 234 254
218 233 252
217 232 249
218 233 252
219 234 254
216 231 251
214 229 250
217 233 254
213 228 250
218 234 255
217 232 254
216 232 253
218 234 255
217 232 254
216 232 254
212 228 250
216 231 253
217 232 254
217 232 253
216 231 253
215 230 252
214 229 251
215 231 251
213 228 250
216 231 253
215 230 252
215 230 252
216 231 253
213 228 250
213 228 251
218 233 254
213 229 252
211 227 250
214 230 253
155 174 204
61 96 141
61 95 136
59 94 130
62 96 137
60 94 131
61 96 135
60 95 140
60 94 124
61 96 141
59 94 131
60 94 134
58 92 120
58 92 118
60 95 139
59 94 129
59 93 126
61 95 137
60 95 139
58 92 120
60 94 122
61 96 147
60 94 138
61 96 137
59 93 124
61 96 129
59 94 128
59 93 130
60 95 141
59 93 125
60 95 133
60 95 135
60 95 129
60 95 135
60 94 135
59 93 126
59 94 121
60 95 133
60 94 128
61 95 144
60 95 133
59 94 125
60 95 137
59 94 124
59 93 122
59 93 131
60 95 129
59 93 125
60 95 128
60 95 130
61 96 140
59 94 129
59 93 124
59 93 118
61 96 136
61 95 133
59 94 128
60 95 129
59 93 124
60 95 135
60 95 139
59 93 124
59 93 126
61 96 143
60 95 142
61 96 140
59 93 126
60 94 130
61 95 134
61 95 136
61 96 136
60 95 141
60 94 133
62 96 137
59 93 126
60 94 137
60 94 139
60 94 140
59 94 128
59 94 126
59 93 128
59 92 125
61 96 140
61 96 139
59 94 125
59 93 124
60 94 128
58 92 124
60 94 135
61 96 139
59 93 126
61 95 140
59 94 131
59 94 125
60 94 131
60 94 134
58 92 120
59 93 128
58 91 122
60 94 140
58 92 125
60 94 132
61 95 139
60 94 139
60 94 125
60 94 132
59 93 128
59 93 134
59 94 129
61 95 128
60 95 134
58 91 116
59 93 130
59 92 133
60 93 132
59 92 120
60 94 135
58 91 115
58 90 122
60 94 139
59 93 128
58 91 128
59 92 131
59 92 121
57 89 119
56 87 126
57 89 120
57 88 120
55 85 109
44 65 78
34 43 22
37 47 27
33 41 18
31 41 22
37 47 29
38 48 22
41 53 33
41 53 32
40 51 30
39 50 31
42 54 33
43 56 40
44 57 41
47 61 44
43 56 38
46 60 43
46 60 43
46 61 48
49 65 48
48 63 47
49 64 46
50 66 50
50 67 53
50 67 47
50 66 47
51 67 49
49 66 49
51 68 53
50 68 51
149 147 0
154 152 0
156 153 0
155 152 0
156 152 0
152 151 0
156 153 0
156 153 0
154 152 0
155 152 0
157 153 0
155 152 0
155 152 0
155 152 0
156 153 0
153 151 0
156 153 0
156 153 0
154 151 0
154 152 0
155 152 0
154 151 0
154 152 0
153 151 0
156 153 0
157 153 0
155 153 0
155 152 0
156 153 0
153 151 0
156 153 0
154 152 0
155 153 0
155 152 0
155 152 0
155 152 0
156 153 0
153 151 0
156 153 0
155 152 0
156 153 0
155 153 0
155 152 0
156 152 0
155 153 0
155 152 0
155 153 0
156 153 0
156 153 0
157 153 0
154 152 0
157 154 0
157 154 0
156 153 0
155 153 0
155 153 0
155 153 0
155 153 0
155 153 0
156 153 0
157 154 0
155 153 0
154 152 0
154 152 0
156 153 0
155 153 0
155 153 0
156 153 0
155 153 0
154 152 0
155 153 0
157 153 0
156 153 0
156 153 0
155 152 0
155 152 0
156 153 0
156 153 0
156 153 0
155 153 0
156 153 0
157 154 0
156 153 0
156 153 0
155 153 0
155 153 0
156 153 0
156 153 0
156 153 0
155 153 0
156 153 0
156 153 0
156 153 0
156 153 0
156 153 0
156 153 0
157 154 0
156 153 0
155 153 0
156 153 0
156 153 0
156 153 0
155 153 0
156 153 0
160 156 32
164 158 42
215 230 248
213 229 248
214 230 246
213 229 246
212 227 243
214 229 248
214 229 246
216 231 249
213 229 244
213 229 248
214 230 248
217 232 249
217 233 251
216 232 252
215 230 251
213 229 245
214 229 246
216 231 248
215 231 247
211 227 243
211 227 243
217 233 249
213 229 243
212 228 244
212 228 242
215 231 246
214 229 249
209 225 238
208 224 237
211 226 244
213 228 248
214 230 248
214 229 246
215 231 246
217 232 251
216 231 249
215 231 246
215 230 248
215 231 247
212 228 241
214 230 244
214 230 248
212 227 242
215 230 250
211 227 243
218 233 252
214 230 245
214 229 249
215 230 248
216 231 247
213 229 240
213 228 246
209 224 238
214 229 248
214 230 247
217 233 250
215 230 248
211 227 241
217 233 250
217 232 251
217 232 250
210 226 240
214 229 243
211 227 240
217 232 251
217 233 250
214 229 244
214 229 247
211 227 242
212 228 242
215 230 246
218 233 249
218 233 250
218 233 252
219 234 253
217 232 248
218 233 250
218 233 250
218 233 249
218 233 250
217 233 249
218 234 252
219 234 253
218 233 250
219 234 253
219 234 254
218 233 252
218 234 252
216 232 245
217 233 249
218 233 250
217 233 248
218 233 253
218 233 253
218 233 252
217 233 249
219 234 254
216 231 246
217 232 248
215 231 245
216 232 246
218 233 250
218 234 253
218 233 252
215 231 245
218 233 250
216 232 254
218 233 255
210 225 246
215 230 250
216 231 252
215 231 253
219 234 255
214 229 251
206 222 244
215 230 252
214 229 251
214 229 251
212 227 249
215 230 252
216 231 253
216 231 252
213 229 251
214 229 252
212 228 250
215 230 252
213 229 252
217 233 255
217 233 254
212 228 251
213 229 252
211 227 249
214 230 252
212 228 251
214 230 252
167 185 214
60 94 136
61 95 135
60 94 133
61 95 130
60 95 135
60 94 131
60 95 129
61 96 141
60 95 135
59 93 130
60 95 136
59 93 131
60 95 136
59 93 135
59 93 130
60 94 125
60 94 136
59 93 118
58 92 129
61 95 134
61 96 143
60 95 134
61 95 139
60 94 131
60 94 137
60 94 129
59 93 130
61 96 134
60 94 133
58 92 126
60 95 134
60 94 130
60 94 130
59 94 126
59 93 126
61 96 142
59 93 124
58 91 128
60 94 136
60 95 130
59 93 125
60 95 126
62 97 149
61 96 140
60 94 129
60 95 137
60 94 133
58 92 124
60 94 133
60 95 133
60 95 129
58 93 114
58 92 125
60 95 128
60 95 130
60 94 122
60 94 135
59 93 128
61 95 136
61 96 140
58 91 126
61 95 134
59 93 125
60 94 130
60 94 134
59 94 124
60 95 140
59 94 131
61 96 141
59 94 130
60 95 131
60 95 136
59 92 130
60 94 129
59 93 126
60 94 131
60 94 128
60 94 129
59 93 124
60 94 131
60 95 133
60 94 129
60 94 136
59 94 134
59 94 128
61 96 137
61 95 141
59 93 126
60 94 135
61 95 135
60 94 130
60 94 136
59 92 126
59 93 128
60 94 141
60 95 133
59 93 128
60 94 132
59 93 128
60 95 135
59 94 130
59 93 125
60 94 131
58 91 124
60 94 122
59 93 121
59 93 130
59 94 131
58 91 121
59 93 121
61 94 136
59 92 134
58 92 126
61 95 143
58 92 128
59 93 119
57 90 116
61 94 143
59 92 123
59 92 131
59 91 126
58 89 121
57 89 114
59 92 130
58 90 115
60 92 135
57 89 121
56 87 115
43 61 67
30 40 22
33 42 24
34 44 23
33 42 23
36 47 27
38 50 33
37 48 28
42 55 35
39 50 33
41 53 33
39 51 27
43 56 37
45 59 43
43 56 32
44 58 38
45 59 33
44 57 38
47 62 42
47 62 44
48 63 41
49 65 46
48 65 48
49 65 43
50 66 51
52 69 51
50 67 48
52 69 52
49 67 47
98 104 47
153 151 0
154 151 0
154 150 0
156 152 0
154 151 0
155 152 0
154 151 0
156 153 0
154 152 0
153 151 0
151 149 0
155 152 0
155 152 0
155 152 0
152 150 0
154 151 0
155 152 0
153 150 0
157 153 0
153 152 0
152 150 0
154 151 0
156 153 0
156 152 0
156 153 0
155 152 0
155 152 0
155 152 0
154 152 0
156 153 0
155 153 0
156 153 0
154 152 0
156 152 0
157 154 0
155 152 0
154 151 0
155 153 0
155 152 0
155 153 0
157 153 0
155 152 0
157 153 0
156 153 0
156 153 0
156 153 0
155 153 0
155 152 0
155 152 0
155 153 0
155 152 0
157 153 0
156 153 0
154 152 0
157 153 0
155 152 0
156 153 0
155 152 0
155 152 0
155 152 0
156 153 0
156 152 0
156 153 0
155 153 0
156 153 0
156 153 0
155 153 0
156 153 0
154 152 0
156 153 0
155 153 0
156 153 0
157 153 0
156 153 0
156 153 0
156 153 0
155 153 0
157 153 0
156 153 0
155 152 0
154 152 0
156 153 0
156 153 0
157 154 0
157 153 0
155 152 0
156 153 0
156 153 0
156 153 0
157 153 0
157 153 0
155 153 0
155 152 0
156 153 0
157 154 0
155 153 0
155 153 0
157 153 0
155 153 0
157 153 0
156 153 0
157 153 0
155 153 0
155 153 0
155 153 0
154 152 0
212 228 244
212 228 247
215 231 244
210 226 244
210 226 242
213 229 246
212 228 242
214 229 248
214 230 242
212 228 242
214 229 248
217 232 250
216 232 248
214 230 244
214 229 247
216 231 250
212 227 247
214 230 244
213 229 248
218 233 250
209 225 236
215 231 249
215 231 246
217 232 251
213 229 245
216 232 246
214 230 250
213 229 246
215 231 248
214 229 248
212 228 242
212 228 240
212 228 247
215 230 248
218 233 252
211 227 244
212 228 244
212 228 246
215 230 247
215 230 248
211 227 246
213 229 248
216 231 248
215 231 248
211 227 240
213 229 242
217 233 250
213 228 245
217 232 249
213 228 246
213 229 245
214 230 248
217 232 249
216 232 249
213 229 247
213 229 241
211 228 241
215 230 248
212 228 241
217 232 250
216 231 250
214 229 249
214 230 246
213 229 242
217 232 249
215 231 249
214 230 246
217 232 252
212 227 242
215 230 246
215 231 247
218 233 252
218 233 249
216 232 246
217 232 248
216 232 246
217 232 249
218 234 253
218 233 252
218 233 250
217 233 249
219 234 255
217 233 249
218 233 250
217 232 250
218 233 250
216 232 248
217 233 249
216 232 246
216 232 246
216 232 246
217 232 248
216 232 246
216 232 249
218 233 252
215 231 244
217 233 249
216 231 250
216 232 248
217 232 252
216 232 246
218 233 250
216 231 248
216 231 249
217 232 250
219 234 255
213 229 250
217 232 253
215 230 252
207 223 244
217 232 254
218 233 255
209 225 244
215 230 252
212 227 250
216 231 254
213 229 252
216 232 253
216 231 252
215 231 252
215 230 252
216 232 254
213 229 250
212 227 248
212 228 251
212 228 251
213 228 249
217 233 254
213 229 251
217 233 255
214 230 252
213 229 252
215 231 254
209 226 250
216 232 254
180 198 225
61 95 133
60 95 137
61 96 137
60 95 133
61 95 142
62 97 142
58 92 129
60 95 141
59 94 128
61 96 141
60 94 126
60 95 133
59 93 124
61 95 137
61 96 143
59 93 130
60 95 135
61 96 137
60 94 133
59 94 134
60 94 130
60 94 129
61 96 140
60 94 135
60 95 137
60 95 142
59 93 120
60 94 130
61 96 141
60 94 129
60 95 136
60 95 134
61 95 136
59 94 128
61 95 131
59 94 128
61 96 140
59 93 129
59 94 131
59 93 124
61 96 137
60 94 126
59 92 111
60 94 134
61 96 141
58 93 126
60 94 133
60 95 135
61 95 137
60 95 137
61 96 143
60 94 136
59 93 128
59 93 121
60 95 130
60 95 130
59 93 130
60 95 134
58 92 124
60 94 126
60 95 130
59 94 125
58 92 122
59 94 128
60 95 131
59 93 128
61 95 135
60 95 136
59 93 118
59 93 122
57 91 120
61 95 137
59 93 131
60 94 133
60 94 130
61 95 135
59 93 124
59 93 130
61 96 135
59 92 130
59 94 130
59 93 129
57 91 118
59 94 124
58 92 121
60 94 130
60 94 131
61 95 135
60 94 134
61 95 136
59 93 126
60 94 135
60 94 140
59 93 129
59 93 124
61 95 142
59 93 130
59 93 128
61 96 144
59 93 135
60 93 134
60 95 134
59 93 126
60 95 138
58 91 127
59 93 132
60 94 131
59 93 135
60 95 138
59 93 124
60 93 126
58 91 115
59 92 128
58 92 131
58 92 125
58 91 115
59 93 128
59 92 123
58 90 120
59 92 134
59 92 122
59 91 126
58 90 119
59 91 122
57 88 117
55 85 102
56 87 110
56 86 111
42 61 71
31 40 22
32 41 21
36 45 27
36 46 27
39 50 28
37 48 30
38 48 29
39 51 31
38 49 29
40 53 32
41 53 31
41 53 32
43 56 34
44 56 36
46 60 39
45 58 37
43 57 37
45 59 37
47 61 38
49 65 45
49 65 49
48 63 45
48 63 37
51 68 50
48 64 45
49 66 48
51 68 51
51 69 48
125 127 30
153 151 0
152 149 0
152 149 0
154 151 0
148 146 0
153 150 0
152 149 0
153 150 0
154 152 0
149 148 0
153 150 0
153 151 0
153 151 0
153 150 0
151 149 0
151 149 0
155 152 0
154 152 0
154 151 0
154 151 0
153 151 0
154 151 0
153 151 0
155 153 0
153 151 0
155 152 0
155 152 0
156 153 0
154 152 0
154 152 0
154 152 0
154 151 0
154 152 0
155 152 0
156 153 0
155 152 0
156 153 0
154 152 0
156 152 0
155 152 0
156 153 0
154 152 0
155 152 0
157 154 0
156 152 0
155 153 0
157 153 0
154 151 0
157 154 0
157 154 0
156 152 0
155 152 0
155 152 0
154 152 0
157 154 0
156 153 0
156 153 0
155 153 0
156 152 0
156 153 0
155 152 0
156 153 0
155 153 0
157 153 0
155 152 0
155 153 0
156 153 0
156 153 0
155 153 0
155 152 0
156 153 0
154 152 0
156 153 0
154 152 0
155 152 0
156 153 0
155 153 0
157 153 0
155 153 0
157 154 0
156 153 0
156 152 0
156 153 0
156 153 0
156 153 0
156 153 0
155 152 0
156 153 0
154 152 0
156 153 0
155 152 0
155 153 0
157 154 0
157 153 0
154 152 0
156 153 0
157 153 0
156 153 0
157 153 0
156 153 0
156 153 0
155 153 0
155 152 0
155 153 0
156 153 0
156 153 0
214 229 246
214 230 248
215 231 249
214 230 246
212 228 246
211 226 242
211 227 246
215 231 248
211 227 244
210 226 245
212 228 244
211 227 247
216 231 249
213 229 245
213 228 244
217 233 252
215 231 247
210 225 245
214 229 248
213 229 249
214 230 246
213 229 246
216 231 250
217 232 252
215 231 246
211 226 242
215 230 246
215 230 249
209 225 244
215 231 247
212 227 244
211 227 243
212 227 242
212 228 246
216 232 248
215 230 247
216 232 248
215 231 249
216 231 252
212 228 247
216 231 248
215 230 248
214 230 248
211 227 243
214 230 248
213 229 244
210 226 242
212 228 242
212 228 244
214 229 244
214 230 248
215 231 250
210 225 241
217 232 251
216 231 249
215 231 248
217 233 252
213 228 244
213 229 248
214 230 246
214 229 247
211 227 242
213 228 248
217 232 251
215 231 248
213 228 242
214 229 248
213 229 246
215 231 250
213 229 246
213 229 248
218 234 253
218 233 253
218 233 252
218 234 253
218 233 250
217 233 252
217 233 250
216 232 246
217 232 248
215 231 245
217 232 248
216 231 246
217 232 249
215 231 248
217 232 249
218 233 250
218 234 253
216 231 246
218 234 253
218 234 254
218 234 254
216 232 248
216 232 248
217 232 252
217 233 250
218 233 254
215 231 248
217 232 249
215 231 246
219 234 255
216 232 250
215 231 245
215 231 246
217 232 250
217 232 252
217 232 252
215 231 251
215 230 252
216 232 253
211 227 249
214 230 252
216 232 254
214 230 252
214 230 251
214 230 251
213 229 251
214 230 253
214 230 252
217 233 255
213 229 252
213 229 251
215 231 252
216 232 254
217 233 255
214 230 252
214 230 253
215 231 252
210 227 249
212 229 252
215 232 254
212 228 251
211 227 251
213 229 253
213 229 252
189 207 233
59 93 118
59 93 128
60 95 141
61 96 148
60 94 124
59 94 134
62 96 139
60 95 131
60 94 130
59 94 126
59 94 129
60 94 131
60 94 133
59 93 124
60 95 126
61 96 145
59 94 124
59 93 130
59 93 129
59 94 131
58 93 125
59 93 135
59 93 118
57 91 114
60 94 135
59 93 117
60 95 139
60 94 128
59 94 124
59 93 117
60 95 134
59 93 125
59 93 125
60 94 133
60 94 136
59 92 126
60 95 133
61 96 135
61 96 139
60 94 135
60 95 135
60 94 134
61 96 135
60 94 121
59 93 126
59 94 133
59 93 117
61 96 135
59 94 131
61 95 133
59 93 118
60 95 131
59 93 131
60 94 133
59 93 122
61 96 133
59 93 124
58 92 118
59 94 128
61 96 140
60 94 125
61 96 137
59 93 126
60 95 137
59 93 126
62 97 141
60 94 126
60 94 129
59 93 122
58 92 120
60 94 128
60 95 130
59 93 118
59 93 130
60 94 130
59 94 131
59 94 125
60 94 126
60 94 129
60 94 126
60 94 133
59 93 130
60 95 131
60 94 126
60 94 131
58 92 117
59 92 121
61 95 135
59 93 126
58 92 120
60 94 131
60 95 135
58 92 117
60 94 132
61 95 139
61 95 134
58 92 121
59 93 129
60 93 131
59 93 124
58 91 121
59 93 122
59 93 124
58 91 120
60 94 132
59 93 140
58 92 124
60 94 132
59 93 129
58 90 107
60 93 126
58 92 121
58 91 118
59 92 127
57 90 120
58 91 121
59 93 128
58 91 118
60 93 128
56 88 109
57 89 122
59 92 132
59 91 123
57 88 121
57 88 119
56 86 112
54 84 112
54 83 97
36 49 51
30 39 19
31 40 16
35 45 24
37 48 26
34 45 21
36 47 31
35 45 25
38 49 32
38 50 33
43 54 33
41 53 28
43 55 35
44 57 33
41 53 33
44 58 35
45 59 40
46 59 39
48 63 47
45 60 38
45 60 37
49 64 41
49 65 48
48 64 46
49 65 41
49 65 43
48 65 49
51 68 48
59 74 45
144 143 0
150 147 0
151 149 0
153 150 0
146 144 0
152 150 0
149 147 0
153 151 0
151 149 0
152 150 0
150 148 0
153 151 0
155 151 0
153 151 0
152 150 0
148 147 0
152 149 0
154 152 0
153 150 0
152 149 0
153 150 0
154 151 0
151 149 0
153 151 0
152 150 0
155 151 0
155 152 0
154 151 0
153 150 0
154 151 0
153 151 0
152 150 0
154 151 0
154 151 0
155 152 0
155 152 0
154 151 0
152 150 0
155 153 0
155 153 0
154 152 0
154 152 0
155 152 0
155 152 0
154 152 0
154 151 0
155 152 0
155 152 0
154 151 0
154 151 0
156 153 0
154 152 0
153 151 0
156 153 0
156 153 0
154 152 0
156 153 0
155 153 0
157 154 0
153 152 0
155 152 0
154 152 0
154 151 0
155 152 0
155 152 0
155 152 0
156 153 0
154 152 0
155 153 0
156 153 0
156 153 0
155 152 0
156 153 0
156 153 0
155 153 0
154 152 0
155 153 0
156 153 0
157 153 0
156 153 0
156 153 0
156 153 0
155 153 0
155 152 0
156 153 0
156 153 0
156 153 0
156 153 0
156 153 0
157 154 0
155 153 0
156 153 0
156 153 0
155 153 0
155 153 0
156 153 0
155 153 0
156 153 0
155 153 0
155 152 0
155 153 0
154 152 0
157 153 0
155 152 0
156 153 0
158 154 0
157 154 0
214 230 245
216 231 252
213 229 247
213 229 246
212 228 246
211 227 244
214 230 248
214 230 248
212 228 246
210 226 242
215 231 250
214 230 247
217 232 251
210 226 239
214 230 248
210 226 246
215 231 252
212 228 246
214 229 248
213 229 248
212 228 242
209 225 244
216 232 248
212 228 244
213 228 246
214 230 246
212 227 244
213 229 248
213 229 245
209 225 242
213 229 244
207 223 241
215 230 251
214 230 246
210 226 240
211 227 242
212 228 243
217 233 250
214 230 244
214 230 249
214 230 247
211 226 242
211 227 245
214 229 247
212 228 244
215 231 250
209 224 241
213 228 245
212 228 243
214 230 246
214 230 247
214 230 245
215 231 248
216 232 249
216 232 250
212 228 245
210 226 242
216 232 248
214 230 247
215 230 245
214 230 245
214 230 246
214 230 241
210 226 245
217 232 253
218 233 252
212 228 245
214 230 247
212 228 244
215 231 250
217 232 250
217 232 250
218 233 254
217 232 249
217 233 249
217 232 250
217 232 252
217 233 249
217 232 248
217 233 252
215 231 242
217 232 250
217 233 252
216 232 250
218 234 253
216 232 249
218 233 253
216 232 249
218 233 253
217 233 252
218 234 255
217 232 249
216 232 246
217 232 249
217 233 250
215 231 244
216 232 246
217 232 250
217 232 250
217 233 250
216 232 252
217 232 252
217 233 253
215 231 249
215 231 246
217 232 252
215 231 249
217 233 252
214 230 252
212 228 248
213 229 250
215 231 252
216 232 254
214 230 252
216 232 254
212 228 249
215 231 253
216 232 254
211 227 248
211 227 249
215 231 252
215 231 252
215 231 253
215 231 254
214 230 253
212 228 251
213 230 252
215 231 253
212 228 251
215 231 254
215 231 254
214 230 252
213 229 253
215 231 254
212 228 250
209 226 250
64 97 135
61 95 131
60 94 120
59 93 128
61 96 137
59 93 133
61 95 134
61 96 147
59 94 126
58 92 129
59 93 128
61 95 134
59 94 128
59 94 135
58 92 117
60 94 133
61 95 128
59 93 125
59 93 126
60 95 135
59 93 124
58 92 124
60 95 135
60 94 134
60 94 131
60 95 129
61 95 134
59 93 128
59 94 128
59 94 131
59 94 130
61 95 137
58 91 114
59 94 126
59 94 131
61 96 137
59 93 118
59 94 133
60 95 129
59 93 126
60 94 136
58 93 125
59 93 126
61 95 137
58 93 115
59 93 121
60 95 126
59 94 129
60 95 128
58 92 121
58 92 125
60 94 124
58 92 118
59 93 120
59 94 122
61 95 133
61 96 136
59 93 125
59 93 126
59 93 118
59 93 126
59 94 130
58 92 120
60 94 135
60 94 133
58 92 117
60 95 136
60 95 136
60 94 126
60 94 137
60 94 128
59 94 125
60 94 129
61 96 142
60 95 134
59 93 139
59 93 128
60 94 137
60 94 135
60 94 126
60 94 128
58 92 118
60 95 128
60 94 133
59 93 125
58 92 118
59 93 124
58 92 128
60 94 136
58 92 115
59 93 131
61 95 134
59 93 122
60 94 129
59 93 125
60 94 131
59 93 122
60 94 137
61 95 134
60 94 134
59 94 123
59 93 128
60 94 133
59 93 130
60 93 131
59 92 122
58 91 118
58 92 125
59 93 130
59 93 133
58 91 127
59 93 128
58 90 132
59 92 132
59 93 130
60 94 121
58 91 120
58 90 125
58 90 121
57 89 121
58 91 121
57 88 123
58 89 124
55 86 112
56 87 111
57 88 119
56 86 113
53 81 101
29 38 23
28 34 12
34 44 22
32 41 18
36 46 26
37 47 26
38 48 26
35 45 27
37 47 31
40 51 30
41 53 33
42 54 33
42 55 36
44 56 38
43 55 33
44 58 36
45 59 38
47 62 46
47 62 44
48 62 42
46 61 38
46 61 36
46 61 40
49 65 43
47 64 45
49 64 42
48 64 40
49 66 39
113 115 32
145 144 0
147 145 0
145 143 0
147 145 0
148 146 0
147 145 0
149 147 0
150 148 0
148 146 0
151 149 0
147 145 0
149 148 0
152 149 0
144 143 0
149 148 0
153 151 0
150 148 0
149 147 0
151 149 0
155 152 0
153 150 0
153 150 0
152 148 0
154 152 0
154 152 0
154 151 0
153 151 0
151 149 0
153 150 0
153 150 0
156 153 0
155 152 0
154 152 0
154 151 0
153 151 0
155 152 0
155 153 0
154 150 0
154 151 0
153 151 0
156 153 0
154 151 0
155 152 0
155 152 0
154 151 0
156 153 0
155 152 0
155 152 0
154 151 0
151 149 0
154 151 0
154 152 0
157 154 0
154 152 0
156 153 0
156 152 0
155 152 0
153 150 0
155 152 0
155 152 0
156 152 0
157 153 0
156 153 0
154 151 0
154 152 0
156 153 0
156 152 0
155 152 0
155 152 0
155 153 0
156 153 0
155 152 0
156 153 0
156 153 0
155 152 0
155 152 0
154 151 0
154 151 0
155 153 0
155 153 0
156 153 0
156 153 0
156 153 0
156 153 0
154 152 0
157 153 0
157 153 0
157 154 0
155 153 0
156 153 0
154 152 0
156 153 0
155 152 0
155 152 0
156 153 0
156 153 0
156 153 0
153 151 0
156 153 0
156 153 0
155 153 0
156 153 0
155 152 0
157 153 0
155 152 0
156 153 0
156 153 0
211 227 246
213 229 247
206 222 236
212 228 244
213 229 244
211 227 244
212 228 246
212 228 246
212 228 243
212 228 245
214 229 246
211 227 246
213 229 248
213 229 248
216 232 253
216 232 249
214 230 245
213 229 245
212 228 245
215 231 246
211 228 242
212 228 246
213 229 249
214 230 248
213 229 245
211 227 246
214 229 246
215 231 248
209 225 242
213 229 247
215 231 247
211 227 244
214 229 248
214 230 245
216 232 248
216 231 251
212 228 248
209 225 240
214 229 248
212 228 244
210 226 240
212 228 247
214 230 245
214 230 248
211 226 242
213 228 245
213 228 248
218 233 253
212 228 248
210 226 241
213 228 247
212 228 244
212 228 244
208 224 238
214 230 246
211 227 244
214 229 248
215 230 247
214 230 248
213 229 246
214 229 245
216 232 250
212 228 244
214 230 247
213 229 247
213 229 246
213 229 247
214 230 249
215 231 248
216 232 249
218 233 252
217 233 252
218 233 253
218 233 253
216 232 248
216 232 249
216 232 246
215 231 245
218 233 253
218 233 253
218 233 253
218 233 253
215 231 246
215 231 245
218 233 253
216 232 249
216 232 249
218 234 254
217 233 252
218 233 254
215 231 250
217 233 252
216 232 249
217 233 253
216 232 250
218 233 253
216 232 249
215 231 248
218 233 253
216 232 250
216 232 249
214 230 246
216 232 250
216 232 249
217 233 253
217 232 253
214 229 248
217 233 254
215 231 252
211 226 247
213 229 251
212 228 249
216 232 253
216 232 254
215 231 253
214 230 252
214 230 252
214 231 254
213 228 250
209 225 249
212 229 251
215 231 254
211 227 250
213 229 252
214 230 253
214 230 252
214 230 252
215 231 254
213 229 252
208 224 248
214 230 252
215 231 254
211 228 252
210 227 250
211 228 250
210 227 251
94 121 164
61 95 137
59 94 130
59 93 122
61 95 137
61 96 139
58 93 124
59 94 122
60 95 131
60 94 130
60 95 126
58 93 122
58 93 131
60 95 130
59 94 121
60 94 130
60 94 131
59 93 131
59 93 126
60 95 129
59 93 125
59 93 126
61 96 135
60 94 133
61 95 135
60 95 130
60 94 131
58 92 125
60 95 133
59 93 129
57 91 124
59 94 120
59 93 126
60 94 126
58 92 122
61 96 140
59 93 128
59 93 129
60 94 134
59 94 130
58 92 126
59 94 128
59 94 136
60 95 134
59 93 135
58 92 122
60 94 126
61 95 135
60 94 131
60 93 129
60 95 131
59 94 122
59 93 126
59 94 122
60 94 129
59 93 135
59 94 129
59 93 121
60 94 137
59 93 126
59 93 122
60 94 128
58 92 125
59 94 130
61 95 130
59 93 124
59 94 126
59 93 113
59 93 125
60 95 131
60 94 135
59 93 122
59 93 121
59 93 129
58 92 117
58 93 125
60 94 128
58 92 130
58 92 125
59 94 134
60 95 139
59 93 121
60 95 135
60 94 133
58 92 117
60 93 129
58 92 128
59 94 133
59 93 130
59 93 124
59 93 126
59 93 129
59 93 128
60 95 136
58 92 120
60 94 135
59 93 128
58 92 116
59 93 125
58 91 126
61 96 141
58 91 117
58 91 117
60 93 129
59 93 126
59 93 126
60 94 129
61 95 134
59 92 133
60 93 133
58 92 124
59 93 133
59 92 126
57 89 116
59 93 131
59 93 132
58 91 126
58 92 124
58 91 117
59 92 120
58 90 124
57 89 115
58 91 123
58 90 115
56 86 111
56 86 112
56 85 100
48 72 80
34 43 18
31 40 21
34 44 22
33 43 19
34 45 20
34 43 25
36 46 28
37 47 21
35 45 23
42 54 36
40 52 29
40 52 30
40 53 33
42 56 34
45 59 37
46 60 40
42 55 36
45 58 39
43 57 35
45 60 36
45 58 31
48 64 44
48 63 42
49 65 42
49 65 46
46 61 38
46 62 42
54 68 42
134 133 11
142 140 0
146 144 0
149 146 0
148 146 0
144 143 0
149 146 0
145 143 0
147 144 0
146 144 0
148 146 0
154 152 0
142 139 0
145 143 0
152 149 0
149 147 0
151 149 0
152 149 0
150 148 0
150 147 0
150 148 0
149 145 0
153 150 0
153 150 0
152 150 0
154 151 0
153 150 0
151 149 0
153 150 0
155 152 0
154 151 0
153 151 0
150 149 0
154 151 0
152 150 0
152 150 0
155 152 0
156 153 0
153 151 0
155 151 0
154 151 0
156 152 0
152 150 0
155 152 0
154 151 0
155 152 0
152 150 0
153 151 0
155 152 0
156 153 0
154 152 0
152 150 0
155 152 0
156 153 0
154 151 0
155 152 0
153 150 0
155 152 0
154 151 0
152 149 0
156 153 0
154 151 0
155 152 0
155 152 0
154 151 0
154 151 0
155 153 0
154 152 0
153 151 0
155 152 0
154 151 0
155 152 0
156 153 0
153 151 0
152 150 0
154 152 0
156 153 0
154 151 0
154 150 0
155 153 0
153 151 0
157 153 0
156 153 0
155 152 0
155 152 0
154 152 0
155 152 0
154 152 0
155 152 0
156 153 0
155 152 0
154 152 0
156 153 0
155 153 0
154 152 0
155 152 0
155 152 0
156 153 0
156 153 0
156 153 0
155 153 0
156 153 0
156 153 0
156 153 0
156 153 0
155 152 0
155 153 0
156 153 0
214 230 250
214 230 250
213 230 245
216 232 253
210 226 242
216 232 250
211 227 246
213 230 248
215 231 251
213 229 243
213 229 248
214 230 245
213 229 248
210 226 240
208 224 234
212 228 243
213 229 247
213 229 246
217 232 252
214 230 248
212 228 242
210 226 246
214 230 248
214 229 246
214 229 250
216 231 252
214 230 244
211 227 244
213 229 248
214 230 246
212 228 249
213 229 247
214 230 248
214 230 249
211 227 240
213 229 248
212 228 244
216 232 250
216 232 250
209 225 244
211 227 243
212 228 246
214 230 249
213 229 248
215 230 250
214 229 248
212 228 245
209 226 242
215 231 250
214 230 246
216 231 249
214 230 244
214 230 248
216 232 248
214 230 245
212 228 248
214 230 247
213 228 248
216 232 251
211 228 243
213 229 250
212 228 245
209 226 244
210 226 244
214 230 248
209 225 246
211 227 244
215 231 250
216 232 249
216 231 248
217 233 252
216 232 246
216 232 250
216 232 246
216 232 249
215 231 248
217 233 252
215 231 248
216 232 248
218 234 254
216 232 249
217 233 253
216 232 249
217 233 253
215 231 248
217 233 250
216 232 248
217 233 252
218 234 254
217 233 252
216 232 249
217 233 252
215 230 249
215 231 248
216 232 252
215 231 249
217 233 252
216 232 253
216 232 249
214 230 246
216 232 249
216 232 249
216 233 252
215 231 248
215 231 250
214 230 248
217 233 254
217 233 254
216 232 252
215 231 252
211 227 248
215 231 254
214 230 252
216 232 254
209 225 248
213 229 251
212 228 251
208 224 246
213 229 252
214 230 252
211 227 250
216 232 254
210 226 249
211 227 250
217 233 255
215 231 254
214 230 253
210 227 250
208 225 248
212 229 252
213 230 252
207 224 246
208 225 249
211 228 252
212 229 253
210 227 251
143 163 192
61 96 134
59 93 125
61 96 136
60 95 126
60 94 122
61 96 133
60 94 131
61 95 136
58 92 118
59 93 124
58 92 128
60 95 131
59 93 125
58 92 128
59 94 125
59 93 124
59 93 120
60 95 134
58 92 118
60 94 129
60 95 134
60 94 129
59 93 115
59 93 124
59 93 122
60 94 135
60 94 131
59 94 135
59 93 126
60 94 134
61 96 137
60 95 142
61 95 135
59 94 125
59 93 125
59 94 125
61 95 131
61 95 136
59 93 126
60 94 137
59 94 121
59 93 125
60 94 128
59 92 120
60 94 130
60 95 131
60 95 129
59 93 122
60 95 139
58 92 115
60 95 134
60 94 130
58 92 115
59 94 133
60 95 129
59 93 130
61 95 136
60 94 126
60 95 131
57 91 122
59 93 128
60 94 129
60 94 136
60 95 131
58 92 125
60 94 125
60 94 134
60 94 126
60 94 131
60 94 139
59 94 129
60 94 122
59 93 118
60 95 134
59 93 128
60 94 134
60 94 137
59 93 126
58 91 114
59 93 128
60 94 135
60 94 134
59 93 126
59 93 135
59 93 126
58 91 114
59 93 129
60 94 131
60 94 135
59 92 122
60 94 126
59 93 118
59 93 125
59 93 124
59 93 128
59 94 133
58 92 123
59 92 128
59 92 123
60 94 134
60 95 136
59 93 125
60 94 130
58 91 114
58 91 118
57 90 123
60 93 133
61 95 134
58 91 117
58 91 121
58 90 118
58 91 115
60 93 132
58 91 118
59 93 125
57 90 108
58 91 121
58 90 116
57 88 108
58 91 117
57 89 117
56 87 115
57 89 123
58 90 125
57 87 115
55 85 102
49 72 95
30 39 10
29 38 17
35 44 20
33 41 15
34 44 22
38 48 27
40 51 26
36 47 25
35 45 26
40 51 28
42 54 26
42 55 35
42 54 30
43 56 35
44 57 36
45 59 38
43 56 30
46 60 36
44 58 33
46 60 38
46 60 40
47 63 38
46 62 41
48 64 42
47 63 44
46 62 36
48 64 44
114 116 21
139 137 0
138 137 0
143 141 0
139 137 0
144 143 0
144 143 0
145 142 0
144 142 0
143 141 0
148 145 0
139 137 0
144 143 0
147 145 0
152 149 0
145 143 0
148 146 0
152 149 0
146 145 0
145 144 0
146 145 0
151 148 0
151 149 0
152 150 0
149 146 0
148 146 0
153 150 0
151 149 0
151 149 0
150 148 0
153 151 0
152 150 0
152 150 0
151 149 0
151 148 0
150 148 0
153 150 0
153 149 0
154 151 0
154 151 0
155 151 0
155 152 0
152 150 0
153 151 0
153 151 0
153 151 0
154 151 0
154 151 0
154 151 0
154 151 0
151 149 0
153 150 0
153 151 0
153 150 0
155 152 0
153 150 0
154 151 0
156 152 0
154 151 0
153 150 0
154 152 0
156 152 0
154 151 0
154 151 0
155 151 0
156 153 0
153 151 0
154 151 0
153 151 0
154 151 0
155 152 0
155 152 0
155 152 0
156 153 0
156 152 0
154 152 0
154 152 0
155 153 0
157 153 0
156 153 0
157 153 0
155 153 0
155 152 0
156 153 0
157 153 0
154 152 0
156 153 0
157 153 0
153 151 0
155 152 0
156 153 0
156 153 0
155 152 0
154 152 0
156 153 0
154 151 0
157 153 0
157 154 0
153 151 0
156 153 0
156 153 0
155 152 0
155 152 0
154 152 0
155 152 0
155 152 0
156 153 0
157 153 0
155 152 0
217 233 252
212 228 249
212 228 244
214 230 250
213 229 246
211 227 246
214 230 248
215 231 250
212 228 247
214 230 245
216 232 250
214 230 246
209 226 242
210 226 245
214 230 248
212 228 245
214 230 251
213 229 247
213 228 248
215 231 250
214 230 250
207 223 237
215 230 248
215 231 249
209 226 241
214 230 247
213 229 249
214 230 247
215 231 248
213 229 245
213 229 247
214 230 249
212 228 244
209 225 244
210 226 246
213 229 248
213 229 247
213 228 247
215 230 251
212 228 245
211 227 241
215 231 250
213 229 248
215 231 248
210 226 246
213 228 248
207 223 242
213 229 244
214 230 248
214 230 250
207 224 235
214 230 246
214 230 248
214 230 250
216 232 254
214 230 248
212 228 244
211 227 244
213 229 244
215 231 247
214 230 246
214 230 250
216 232 252
215 231 245
213 229 246
214 230 246
216 232 251
215 231 247
216 232 248
216 232 250
217 233 254
217 233 253
217 233 253
218 233 254
218 233 254
217 233 254
216 232 249
218 233 254
215 231 245
217 233 252
217 233 253
217 233 252
217 233 252
217 233 253
216 232 249
216 232 248
216 232 248
216 233 252
215 231 249
216 232 249
216 232 250
215 231 246
216 232 248
215 231 248
214 230 249
215 230 250
215 231 248
217 233 253
215 231 248
217 233 252
217 233 253
213 229 248
216 232 252
215 231 249
216 232 250
217 233 253
215 231 250
215 231 250
216 232 253
214 230 253
213 229 250
216 232 254
216 232 255
209 225 248
215 231 254
214 230 254
213 229 253
215 231 254
210 226 250
214 230 252
213 229 252
213 229 252
213 230 252
208 225 246
212 229 252
211 228 250
214 231 254
212 229 252
211 228 252
214 231 254
213 230 253
212 229 253
211 227 251
210 227 252
209 226 250
211 228 252
169 188 210
60 95 139
60 94 130
61 96 143
59 93 130
60 95 122
61 96 137
59 93 127
59 93 125
60 95 131
60 95 130
59 93 118
60 95 139
58 92 121
58 92 122
60 95 129
58 92 115
60 94 130
59 93 124
58 92 120
60 95 136
60 94 126
59 93 129
59 93 124
61 95 135
60 95 139
58 93 125
58 91 121
59 93 126
60 94 129
59 93 125
59 93 120
59 94 126
60 94 129
59 94 134
59 93 121
58 92 115
59 94 126
59 93 129
59 94 124
60 94 125
60 95 129
60 95 133
58 92 121
61 96 139
59 93 126
58 92 126
57 90 111
60 94 126
59 93 118
58 92 120
60 95 134
59 92 129
60 94 126
59 94 121
59 94 130
60 94 131
58 92 120
59 92 121
61 96 135
60 95 140
60 95 136
59 93 124
59 93 125
60 94 129
59 93 131
59 94 125
60 94 134
59 93 122
60 95 137
60 95 130
58 91 124
59 93 124
60 95 130
59 94 133
60 95 130
59 94 135
59 93 122
59 92 115
61 95 135
59 93 122
58 91 125
60 95 133
58 91 120
59 93 126
58 92 124
57 91 120
59 92 118
60 95 135
60 94 133
60 94 130
61 95 133
60 94 125
60 95 130
57 90 117
58 92 128
58 92 123
59 93 131
58 91 116
60 93 134
59 93 122
59 93 126
58 92 124
59 92 125
58 92 119
58 92 121
58 91 121
62 97 141
59 92 127
58 91 125
60 93 139
59 92 130
58 90 118
57 90 118
58 91 119
58 89 124
57 90 118
57 89 113
58 91 120
57 89 115
58 90 119
58 91 118
57 88 116
57 89 126
56 86 106
56 86 107
55 84 112
41 60 60
27 35 5
34 45 18
32 41 16
31 41 17
38 49 20
38 49 23
36 46 20
38 48 25
39 49 25
39 50 29
40 51 32
41 54 31
41 54 30
43 54 27
40 51 28
43 56 29
46 59 32
44 57 34
45 59 34
45 59 40
45 60 37
47 62 41
45 60 37
46 61 37
49 66 45
46 62 35
80 86 38
136 135 0
136 135 0
137 135 0
138 136 0
130 129 0
138 136 0
138 137 0
144 142 0
141 140 0
150 148 0
141 139 0
143 142 0
141 140 0
144 143 0
148 145 0
145 143 0
147 145 0
143 142 0
146 145 0
142 141 0
150 149 0
146 143 0
148 146 0
148 147 0
153 150 0
148 146 0
148 146 0
150 148 0
147 144 0
151 149 0
149 146 0
152 150 0
147 145 0
149 147 0
151 148 0
151 148 0
152 149 0
152 149 0
154 150 0
149 147 0
150 147 0
153 150 0
152 149 0
151 148 0
153 149 0
153 151 0
154 151 0
155 151 0
154 151 0
152 150 0
153 151 0
155 152 0
153 151 0
155 151 0
152 150 0
155 152 0
154 152 0
153 150 0
155 152 0
154 151 0
154 152 0
153 150 0
155 152 0
155 152 0
156 153 0
154 152 0
153 151 0
154 151 0
154 152 0
154 152 0
154 152 0
156 153 0
153 150 0
154 152 0
154 151 0
155 152 0
154 151 0
156 152 0
154 151 0
155 152 0
155 153 0
156 153 0
154 151 0
155 152 0
155 152 0
153 150 0
154 152 0
154 151 0
154 152 0
154 151 0
156 153 0
155 152 0
155 152 0
155 152 0
156 153 0
156 153 0
155 152 0
156 153 0
155 152 0
155 152 0
155 152 0
155 152 0
153 151 0
156 153 0
156 153 0
155 152 0
156 153 0
156 153 0
156 153 0
216 232 250
212 228 242
211 228 243
208 224 244
215 231 248
213 229 247
208 224 242
215 231 252
212 228 244
213 229 246
213 229 242
211 227 242
212 228 245
210 227 243
211 228 242
214 230 247
213 229 248
213 229 245
211 227 248
210 226 246
215 231 251
213 229 248
210 226 245
212 228 246
215 231 252
209 225 241
215 230 251
213 229 246
213 229 248
215 231 251
215 231 247
217 233 252
213 229 246
215 231 246
214 230 249
214 230 248
217 232 254
216 231 252
210 226 246
213 229 248
211 227 246
213 229 246
211 227 244
216 232 251
212 228 242
211 227 247
210 226 244
213 229 246
213 229 246
214 230 249
215 231 250
216 232 254
213 229 248
214 230 251
217 233 252
213 229 246
208 225 242
213 229 249
214 230 248
214 230 250
217 233 254
212 228 248
214 230 247
213 229 245
215 231 250
216 232 252
215 231 248
217 233 253
216 232 249
216 232 250
217 233 252
216 232 252
216 232 250
216 233 252
215 231 249
216 232 253
216 232 249
217 233 252
216 232 250
216 232 248
217 233 254
216 233 252
218 233 254
217 233 252
215 231 248
218 234 255
214 230 246
216 232 252
215 231 246
217 233 253
216 232 250
217 233 254
217 233 253
217 233 252
217 233 254
216 232 252
217 233 255
215 231 249
216 232 252
216 232 249
216 232 254
215 232 249
217 233 254
216 232 252
217 233 254
214 230 246
216 232 253
216 232 254
215 231 253
216 232 254
209 225 247
216 232 255
214 230 253
210 226 248
213 230 251
211 228 250
216 232 254
211 228 252
211 227 250
209 226 248
209 226 246
214 231 254
211 228 250
213 230 253
210 227 251
213 230 253
212 229 252
214 231 254
211 228 252
212 228 252
205 223 247
211 228 252
202 219 244
210 227 251
209 226 248
206 223 249
191 209 232
58 91 118
60 94 128
61 95 137
59 93 124
59 93 120
60 94 128
61 95 136
59 93 129
60 95 134
59 94 130
60 93 122
58 92 122
59 93 121
58 92 118
60 94 128
60 94 129
57 91 115
58 92 108
60 95 133
60 95 133
59 94 129
60 94 126
59 93 128
60 94 125
61 96 139
59 93 126
57 90 114
58 92 118
60 94 126
59 93 128
59 94 131
59 93 129
60 93 124
59 93 128
59 93 122
59 93 129
60 95 126
60 94 135
60 95 128
59 94 128
60 95 135
60 94 126
59 94 124
59 93 128
60 94 128
60 95 126
59 93 128
59 93 130
59 93 125
58 92 122
59 93 129
60 94 128
58 92 126
59 93 125
57 91 120
58 92 118
59 93 130
60 94 125
60 94 131
59 93 125
59 93 125
59 93 126
59 93 126
60 94 126
59 93 122
58 92 120
61 95 131
61 95 136
60 94 128
59 93 122
59 93 122
58 92 121
59 94 122
58 92 120
59 93 122
59 94 125
59 94 131
60 95 131
59 93 125
60 95 133
58 92 117
59 93 128
58 92 123
59 93 125
59 92 128
59 93 126
59 92 128
59 93 134
59 94 126
58 92 117
58 93 133
60 94 124
59 92 134
59 93 133
59 94 128
59 93 120
57 91 113
58 92 122
61 95 136
57 89 110
59 92 125
58 90 115
57 91 115
58 91 124
59 92 119
59 93 131
59 92 124
58 92 123
59 93 133
60 94 140
58 91 117
59 92 124
59 93 130
58 90 119
60 94 125
58 91 126
56 88 115
58 90 120
57 89 110
57 89 122
56 88 105
56 88 110
57 89 112
57 88 117
55 85 103
57 87 118
36 51 50
32 40 12
33 42 14
35 45 17
34 43 17
35 45 15
39 49 19
38 49 28
40 52 30
38 49 20
40 51 26
40 52 28
41 54 34
41 53 35
41 55 30
43 54 31
42 56 31
44 58 33
43 56 31
43 57 32
42 55 31
45 59 37
47 62 38
44 60 35
46 62 43
45 61 38
69 79 39
121 121 0
122 122 0
131 130 0
131 130 0
127 126 0
138 136 0
130 129 0
137 136 0
138 137 0
145 143 0
139 137 0
141 140 0
141 139 0
139 138 0
137 137 0
141 139 0
142 140 0
141 140 0
146 144 0
144 142 0
145 143 0
144 143 0
151 148 0
144 142 0
145 143 0
149 147 0
148 146 0
145 143 0
152 149 0
149 147 0
149 147 0
145 144 0
151 148 0
147 145 0
150 149 0
155 152 0
150 148 0
153 149 0
153 150 0
150 148 0
153 150 0
151 148 0
153 150 0
152 150 0
150 147 0
153 150 0
153 151 0
153 150 0
154 150 0
154 150 0
151 148 0
152 150 0
154 151 0
153 151 0
151 148 0
152 149 0
155 152 0
154 151 0
152 150 0
154 151 0
153 151 0
154 152 0
152 149 0
154 152 0
154 151 0
154 151 0
156 152 0
152 150 0
155 152 0
155 152 0
156 152 0
155 152 0
154 151 0
154 152 0
154 152 0
154 152 0
153 151 0
153 150 0
155 152 0
154 152 0
154 151 0
156 153 0
152 150 0
154 152 0
156 153 0
155 152 0
154 151 0
156 153 0
157 154 0
155 152 0
155 152 0
155 153 0
154 152 0
154 151 0
155 152 0
155 153 0
156 153 0
154 152 0
156 153 0
154 151 0
155 152 0
153 151 0
155 152 0
154 152 0
155 153 0
154 152 0
155 151 0
156 153 0
156 153 0
156 153 0
210 226 240
215 231 251
214 231 249
213 230 248
211 227 247
211 227 246
210 227 245
213 229 247
211 228 248
213 230 248
210 226 244
214 230 252
209 225 241
215 231 250
210 226 240
213 229 246
212 229 246
211 228 244
214 230 248
213 229 248
209 225 242
214 230 252
212 228 248
214 230 249
213 229 247
209 225 245
213 230 247
215 231 250
215 231 252
210 226 238
215 231 251
212 229 247
207 223 240
211 227 246
212 228 246
213 230 245
212 228 248
211 228 241
214 230 252
213 229 245
214 230 248
212 229 245
209 225 240
209 226 242
209 226 244
215 231 247
212 228 246
211 227 244
209 225 238
209 225 242
209 225 246
215 230 251
210 227 242
212 228 247
216 232 250
213 229 244
214 230 247
213 229 248
212 228 249
208 224 244
208 225 242
216 232 252
215 230 252
211 227 246
213 229 249
215 231 249
217 233 252
214 230 246
216 232 250
217 233 252
217 233 253
217 233 252
216 232 250
217 233 254
215 231 246
217 233 253
216 232 250
217 233 253
215 231 248
215 232 249
215 231 250
214 230 246
217 233 253
215 232 248
216 232 250
216 232 250
215 232 252
216 232 249
215 231 249
216 232 252
215 231 249
214 231 246
217 233 254
217 233 253
217 233 254
214 230 248
214 230 246
214 230 249
216 232 252
216 232 250
216 232 254
215 232 252
216 232 252
215 231 252
215 231 250
216 232 252
216 232 253
216 232 253
212 228 246
212 228 246
211 227 248
214 230 252
210 227 250
208 225 246
212 229 250
212 229 250
212 229 251
211 227 250
216 233 255
212 229 250
213 230 252
214 231 254
213 229 252
209 226 250
214 231 254
212 229 253
214 230 254
212 229 252
213 230 253
210 227 250
210 227 252
215 232 255
209 226 251
211 229 253
208 226 251
206 224 248
205 222 246
73 104 148
60 94 131
59 93 125
61 96 141
60 95 122
61 96 133
58 92 112
60 94 129
59 93 124
58 92 120
58 92 114
58 92 115
59 94 128
59 94 128
59 93 122
59 93 121
58 92 117
59 93 117
60 94 122
60 95 140
61 96 136
60 94 135
58 92 121
59 93 114
59 93 117
59 93 117
59 94 128
59 93 126
60 94 130
60 94 129
60 94 128
58 92 133
59 93 126
59 93 130
59 93 121
59 93 126
60 95 136
60 94 125
59 93 125
59 93 125
59 94 130
58 92 115
59 93 122
60 94 133
59 93 125
60 95 134
58 91 118
61 95 136
58 92 121
58 92 124
60 94 122
59 93 124
60 94 136
59 93 126
60 95 131
59 93 128
59 93 129
61 96 140
57 90 115
57 90 114
58 92 120
57 91 120
59 93 114
59 93 120
60 94 126
61 95 139
61 95 131
59 93 124
59 93 134
60 95 134
60 95 134
59 93 133
58 92 120
59 93 130
58 92 118
59 93 129
60 94 131
58 92 124
59 93 120
58 92 121
59 94 122
60 94 133
59 92 122
59 93 115
60 94 125
59 93 123
60 94 128
57 90 113
60 95 133
58 91 117
58 91 125
61 95 139
59 93 124
59 92 128
59 93 127
58 92 125
59 93 126
60 94 129
59 92 131
58 91 123
59 93 127
58 91 118
59 93 128
60 94 139
57 91 117
59 92 126
59 93 125
57 90 111
57 90 111
59 93 133
57 90 115
57 90 110
59 92 122
57 90 116
59 92 134
56 88 113
58 91 126
57 89 113
58 90 119
57 89 121
57 89 114
57 89 114
56 87 111
56 88 109
54 83 104
51 78 89
34 42 14
33 43 12
32 40 18
37 48 20
37 47 21
36 46 16
38 49 23
39 49 22
36 47 22
39 49 17
39 51 24
40 52 24
38 50 26
41 53 27
43 55 33
41 53 29
44 57 29
45 59 35
42 56 28
44 58 39
45 59 35
45 60 39
45 61 37
47 62 36
44 59 38
54 68 32
100 102 12
117 117 0
130 128 0
133 132 0
126 125 0
128 127 0
132 131 0
136 135 0
134 133 0
134 133 0
135 133 0
140 139 0
142 140 0
141 139 0
138 135 0
142 141 0
137 135 0
144 142 0
142 139 0
145 143 0
147 145 0
146 144 0
144 142 0
151 148 0
146 144 0
145 143 0
146 144 0
146 144 0
145 143 0
143 142 0
151 148 0
149 146 0
149 145 0
149 147 0
147 146 0
150 147 0
151 148 0
149 146 0
151 149 0
151 148 0
153 151 0
149 147 0
154 150 0
152 150 0
151 150 0
156 152 0
153 149 0
154 151 0
151 149 0
156 152 0
153 150 0
151 148 0
154 152 0
153 151 0
153 150 0
152 149 0
150 147 0
155 151 0
152 150 0
154 152 0
153 151 0
153 149 0
155 152 0
152 150 0
152 150 0
153 151 0
155 151 0
153 150 0
155 152 0
156 152 0
154 152 0
156 153 0
153 151 0
154 152 0
155 152 0
154 151 0
156 153 0
154 152 0
155 152 0
156 153 0
155 152 0
154 152 0
153 150 0
154 152 0
151 148 0
156 153 0
157 154 0
153 151 0
153 150 0
152 150 0
156 153 0
157 153 0
155 153 0
154 152 0
154 151 0
156 153 0
155 152 0
154 151 0
155 151 0
153 150 0
156 153 0
155 153 0
156 153 0
156 153 0
155 152 0
158 154 0
155 153 0
155 152 0
155 153 0
155 152 0
156 152 0
209 226 241
215 232 250
211 228 243
210 226 243
214 230 250
209 225 241
209 226 248
214 230 250
214 230 250
214 230 249
212 228 248
209 226 244
214 230 248
214 230 252
211 228 244
209 225 246
213 229 245
210 226 245
215 232 251
210 227 241
212 229 246
211 227 242
211 227 244
215 231 249
213 229 249
216 232 252
213 230 246
213 230 246
212 228 246
215 231 252
211 227 248
213 229 249
213 229 247
214 230 249
213 229 245
214 230 249
210 226 247
210 227 242
213 230 246
213 230 246
207 223 241
211 227 245
212 228 243
208 224 240
209 225 243
211 227 246
212 229 246
210 226 242
216 232 252
214 231 247
210 226 246
212 229 246
213 229 246
213 230 250
212 228 248
208 224 244
214 231 250
211 228 247
208 225 241
214 230 246
212 228 249
215 231 248
213 230 246
214 231 248
215 231 249
217 233 253
217 233 254
215 231 249
217 233 253
215 232 249
215 231 250
216 232 250
216 232 250
216 232 252
216 232 252
214 230 248
214 231 245
216 232 254
215 232 249
217 233 254
215 231 248
215 231 248
216 232 253
217 233 254
216 232 250
216 232 252
216 232 252
214 230 246
216 232 252
214 230 250
215 231 250
214 231 249
217 233 253
214 230 248
214 231 248
214 230 248
212 229 245
214 231 248
217 233 255
214 231 246
215 231 252
210 227 242
216 232 252
215 232 253
215 231 250
213 230 249
215 231 252
217 233 255
214 231 249
214 231 252
211 227 245
211 228 248
212 229 251
212 229 252
212 229 250
212 229 252
212 228 250
212 229 252
210 227 250
211 228 250
211 228 250
214 230 254
211 228 250
210 227 249
211 228 252
212 229 252
212 229 252
210 227 250
211 228 252
214 231 255
210 227 252
213 231 254
208 226 250
206 223 247
210 228 252
207 225 250
210 228 253
117 140 174
59 93 128
60 93 133
59 93 130
60 95 129
59 93 124
60 94 130
60 94 133
59 93 125
59 94 126
60 94 134
58 92 114
61 96 134
60 94 134
61 95 134
58 91 120
59 93 122
59 93 124
59 94 128
60 94 136
59 93 129
61 95 133
60 94 124
57 91 115
57 91 115
60 94 125
60 95 134
59 93 133
58 92 121
60 94 126
59 93 128
59 93 125
58 92 124
60 95 122
57 91 121
59 93 126
59 93 129
59 94 128
59 94 122
58 92 108
59 93 118
59 93 120
60 94 125
59 94 131
59 93 128
59 93 128
59 93 126
60 94 130
60 94 130
58 92 122
58 92 120
61 96 134
59 94 128
59 94 130
59 93 121
57 90 126
60 94 128
57 91 108
59 93 124
59 92 122
59 94 131
60 94 136
59 93 124
58 92 124
57 91 117
60 94 125
58 92 120
59 92 125
59 92 121
61 95 134
60 94 125
59 93 133
58 91 124
60 94 134
61 95 129
59 93 125
58 91 108
59 92 118
59 93 120
58 92 118
56 89 108
59 93 125
58 92 120
57 91 117
61 95 135
59 93 129
59 93 120
58 91 120
59 92 125
58 92 115
59 93 120
60 94 134
58 92 124
58 91 120
58 92 125
59 94 126
59 92 124
57 90 118
60 93 130
59 93 124
59 92 124
59 93 131
58 92 114
57 90 114
58 91 120
59 93 124
57 89 118
59 92 113
58 92 120
58 92 124
60 93 125
59 92 124
57 89 110
57 90 118
57 89 117
58 90 115
57 88 117
58 90 120
59 92 131
57 88 115
57 90 120
57 88 117
57 89 115
55 86 103
56 86 103
49 74 94
35 45 17
35 45 17
32 41 17
33 42 12
36 46 14
36 47 21
35 44 18
37 47 22
36 47 18
39 51 17
39 51 24
41 53 32
39 50 23
40 52 26
43 56 28
41 54 28
43 56 34
45 60 35
43 57 33
44 59 38
42 55 31
42 56 32
46 60 36
44 59 38
46 61 30
99 100 8
112 112 0
118 117 0
116 116 0
116 116 0
129 127 0
125 123 0
131 129 0
129 128 0
132 130 0
134 133 0
131 131 0
134 133 0
134 132 0
140 138 0
137 136 0
139 137 0
137 137 0
138 137 0
141 140 0
142 140 0
140 137 0
146 143 0
141 139 0
148 146 0
144 142 0
146 143 0
144 142 0
149 146 0
148 146 0
150 147 0
146 144 0
145 143 0
148 146 0
147 145 0
153 149 0
149 146 0
145 143 0
150 148 0
152 150 0
148 146 0
149 147 0
152 149 0
151 149 0
148 146 0
151 149 0
149 146 0
152 149 0
151 148 0
153 150 0
153 150 0
149 146 0
151 148 0
149 147 0
152 150 0
155 151 0
150 148 0
154 151 0
152 150 0
153 150 0
152 149 0
150 147 0
154 152 0
154 151 0
154 152 0
153 150 0
154 152 0
152 149 0
154 151 0
153 150 0
154 152 0
156 153 0
151 149 0
155 151 0
154 151 0
155 151 0
153 150 0
153 150 0
155 152 0
154 151 0
153 151 0
154 152 0
154 152 0
154 152 0
154 151 0
156 152 0
154 152 0
156 153 0
152 150 0
153 151 0
154 152 0
156 153 0
154 151 0
154 151 0
155 152 0
156 153 0
155 153 0
154 151 0
154 152 0
155 151 0
157 154 0
155 153 0
154 152 0
155 152 0
155 151 0
155 152 0
156 153 0
155 152 0
155 153 0
156 153 0
154 152 0
155 152 0
212 229 246
209 226 244
211 227 248
210 227 249
213 230 251
213 230 251
212 229 251
211 228 247
213 229 250
213 230 251
211 227 245
213 229 248
212 228 247
214 230 246
211 227 250
210 226 244
210 227 244
213 229 251
213 230 245
211 227 249
213 229 252
212 228 246
213 229 250
211 227 247
211 228 246
212 228 244
213 230 247
209 226 244
211 227 247
212 228 247
212 228 247
214 230 244
214 230 252
209 225 244
211 227 244
214 231 251
212 229 247
216 232 254
210 226 246
210 227 244
213 229 250
211 228 245
209 225 244
210 227 241
214 230 250
212 228 243
211 228 248
208 225 242
212 229 249
214 230 252
211 228 248
210 227 244
214 230 250
212 229 248
211 227 245
212 229 248
211 227 246
211 228 246
210 227 247
213 229 248
213 229 248
213 230 246
214 231 248
216 232 250
216 232 252
216 233 253
214 231 246
215 231 246
215 231 252
215 231 248
215 231 248
216 232 252
214 231 248
216 232 253
216 232 253
217 233 253
215 231 249
215 231 250
216 232 252
216 232 252
216 232 253
215 231 252
215 231 248
214 230 246
215 231 248
213 229 244
216 232 252
213 229 249
217 233 254
215 232 250
215 232 252
215 232 250
215 232 253
215 232 252
212 229 244
213 229 249
215 232 253
213 229 249
215 231 252
216 233 254
216 232 253
213 229 246
212 229 249
211 228 248
215 232 250
215 232 250
213 230 248
210 226 245
214 231 252
212 228 249
212 229 249
211 227 248
214 231 253
208 225 248
215 232 254
214 230 253
214 230 253
209 226 249
208 225 250
209 226 248
210 227 250
208 225 248
210 227 251
212 229 252
206 223 246
210 227 251
209 227 250
210 227 250
210 228 252
206 223 248
208 225 249
210 228 252
202 220 245
208 226 252
206 224 250
208 226 250
206 224 247
170 190 211
57 91 120
59 94 131
60 94 131
59 92 130
58 92 117
60 94 130
59 94 121
59 93 121
58 92 122
59 93 129
60 94 134
60 94 133
57 90 105
60 95 131
60 95 133
59 94 120
59 94 131
60 95 134
60 95 131
57 90 108
59 93 130
59 93 120
59 94 120
60 94 125
60 94 130
60 94 121
60 95 133
59 93 126
59 93 128
59 93 131
59 93 121
59 93 124
59 93 122
59 92 134
60 95 133
58 92 124
59 93 120
59 93 115
57 91 121
59 93 124
58 92 121
59 93 122
59 93 125
59 92 121
58 91 111
60 94 129
60 94 122
59 94 120
59 93 130
59 93 122
60 95 133
58 92 117
59 93 126
61 95 135
59 94 136
59 93 131
58 92 115
59 93 120
60 94 128
59 93 128
59 93 122
60 94 125
59 93 129
59 94 134
60 94 124
60 95 139
59 93 125
58 92 125
58 92 124
59 93 124
59 93 129
57 90 105
59 93 121
58 92 118
60 95 136
57 90 120
59 93 118
59 93 130
59 94 128
58 91 117
59 93 128
58 91 117
59 93 122
59 93 124
58 92 122
59 92 125
60 95 135
58 92 121
60 94 130
57 90 113
61 95 135
58 92 121
60 94 131
59 92 116
60 94 131
58 91 118
59 93 122
57 89 110
60 94 126
59 92 126
58 92 121
55 87 102
56 89 111
59 92 128
60 94 125
60 93 126
57 90 110
58 90 123
58 90 116
56 88 101
57 90 115
58 91 119
57 89 111
59 92 121
55 86 95
57 89 120
57 89 118
59 91 119
58 90 116
57 88 112
58 90 121
56 87 112
55 85 97
54 83 103
84 93 65
43 51 20
35 46 8
36 45 12
32 40 10
35 44 19
33 43 21
35 45 15
38 49 18
39 49 25
36 47 19
39 50 24
38 49 17
42 55 29
40 52 18
40 51 25
42 55 31
41 53 28
44 58 31
43 57 33
41 54 34
44 59 33
42 56 26
43 58 28
64 72 26
92 94 12
108 108 0
112 112 0
109 109 0
118 116 0
120 118 0
110 111 0
127 126 0
128 127 0
122 121 0
127 126 0
130 129 0
130 128 0
136 135 0
128 126 0
134 132 0
142 140 0
134 132 0
138 136 0
139 137 0
141 139 0
134 134 0
142 140 0
143 141 0
143 140 0
147 144 0
141 139 0
149 146 0
144 142 0
148 145 0
144 141 0
150 147 0
146 144 0
148 146 0
144 142 0
147 145 0
151 148 0
147 144 0
150 146 0
146 145 0
151 150 0
150 147 0
145 144 0
147 145 0
147 145 0
150 148 0
150 147 0
146 144 0
151 148 0
152 149 0
152 149 0
149 148 0
149 147 0
153 151 0
150 147 0
155 151 0
152 149 0
154 151 0
154 150 0
151 147 0
149 146 0
152 149 0
153 151 0
155 152 0
151 148 0
150 148 0
153 150 0
150 146 0
156 153 0
153 150 0
154 152 0
154 152 0
152 150 0
153 150 0
151 149 0
153 150 0
151 148 0
153 151 0
152 150 0
155 152 0
149 147 0
155 152 0
153 150 0
154 151 0
154 151 0
155 152 0
151 149 0
155 151 0
151 148 0
154 151 0
155 152 0
153 150 0
153 149 0
155 152 0
155 152 0
154 151 0
154 152 0
155 152 0
154 151 0
155 151 0
155 152 0
153 151 0
156 153 0
156 153 0
154 151 0
156 153 0
155 152 0
154 151 0
154 152 0
156 153 0
155 152 0
156 152 0
155 152 0
206 223 243
211 228 242
210 227 242
212 229 248
207 224 243
211 227 248
213 230 247
214 230 248
211 228 247
212 228 248
208 225 244
212 228 250
208 225 244
210 226 246
205 222 242
214 231 253
210 227 246
214 230 247
214 230 250
211 227 244
212 228 243
212 229 250
209 226 242
211 227 248
209 226 245
216 232 254
211 228 244
212 229 247
209 225 246
214 230 250
209 225 240
215 231 249
214 231 248
213 229 249
214 230 250
213 230 251
214 230 250
208 225 242
210 227 246
212 229 244
211 228 246
210 226 246
212 228 244
209 226 244
212 229 247
213 230 250
213 230 248
214 230 250
213 229 247
210 227 244
211 227 244
213 230 247
213 229 250
213 230 249
209 225 243
215 231 252
208 225 244
211 228 246
213 229 249
210 227 245
211 227 247
214 231 248
216 232 252
215 232 250
214 230 249
216 232 252
217 233 255
216 233 253
215 232 250
215 231 249
216 232 253
212 229 245
215 231 249
216 232 252
215 232 250
216 232 254
216 232 252
214 231 249
214 230 246
215 232 250
216 232 253
216 232 252
215 232 253
215 232 250
214 231 250
215 231 252
214 230 252
214 231 250
214 230 249
216 232 253
214 230 250
213 229 245
215 231 252
216 232 253
215 232 252
213 230 248
213 229 248
216 232 254
215 231 253
215 232 252
214 231 250
212 228 248
213 230 248
213 229 249
214 231 249
214 231 252
214 231 250
213 230 250
213 229 250
210 226 245
211 228 246
211 228 249
213 229 249
215 231 254
208 225 246
210 227 251
211 228 252
209 226 250
211 228 252
210 227 250
210 227 251
212 229 254
208 225 247
211 229 252
208 225 248
207 225 248
209 226 250
206 224 248
207 224 246
211 228 253
207 225 249
211 229 254
208 226 250
209 227 252
204 223 247
206 224 247
204 222 240
197 216 240
59 93 122
59 93 122
60 94 130
59 93 129
59 93 120
58 91 118
58 92 120
59 93 121
59 94 124
59 93 121
59 93 121
59 94 118
58 92 120
59 93 122
58 93 125
59 94 117
60 94 128
59 93 121
59 93 115
58 92 120
58 91 114
58 92 118
59 93 122
60 93 124
60 95 130
58 92 114
58 92 117
60 94 134
58 92 120
59 94 122
59 93 125
58 91 113
60 95 130
57 90 113
59 94 124
59 93 126
58 91 117
60 94 129
59 92 124
59 92 121
59 93 126
59 93 118
59 93 126
60 95 135
57 91 117
59 93 121
58 92 115
59 93 126
60 94 130
58 91 114
58 92 117
60 94 134
58 92 110
59 93 117
59 92 124
58 92 122
61 95 140
58 91 118
58 91 113
58 92 124
58 92 113
59 93 110
58 92 115
59 93 113
58 92 117
60 95 131
59 94 134
59 94 133
58 92 113
59 94 124
59 92 130
60 94 125
60 93 121
61 95 130
59 93 128
59 93 124
60 94 129
58 92 117
59 93 124
57 91 115
61 96 144
58 91 122
59 92 132
59 92 116
61 95 134
59 93 128
58 92 120
58 92 121
58 91 121
60 94 129
59 92 131
59 93 121
59 93 114
57 89 114
58 92 114
59 93 126
61 95 134
58 91 115
56 89 110
60 93 127
59 93 118
56 88 111
57 91 126
59 92 128
59 92 126
59 92 119
59 92 117
57 91 126
57 89 104
59 93 128
57 89 107
57 89 112
57 90 123
57 89 109
57 90 117
57 89 118
60 93 131
57 88 107
56 89 109
56 86 100
56 87 111
55 86 106
56 86 103
56 83 91
129 127 18
123 121 1
78 79 13
37 48 12
36 45 16
36 47 14
34 43 13
40 52 25
34 44 14
36 48 23
38 48 18
35 46 19
39 50 20
38 50 29
39 51 27
40 52 27
45 58 30
41 52 23
39 51 26
43 57 38
38 51 27
45 59 25
45 60 35
74 79 21
93 94 8
95 95 0
113 111 0
112 110 0
118 117 0
116 114 0
117 116 0
122 121 0
128 125 0
131 129 0
125 123 0
125 124 0
133 131 0
131 128 0
134 133 0
138 136 0
129 128 0
134 132 0
135 133 0
140 137 0
138 136 0
141 139 0
142 140 0
139 136 0
139 137 0
141 140 0
144 141 0
143 140 0
146 144 0
138 137 0
143 141 0
146 143 0
143 140 0
148 146 0
145 142 0
148 144 0
147 145 0
146 143 0
145 143 0
147 144 0
149 147 0
148 145 0
149 147 0
148 146 0
148 145 0
145 143 0
146 144 0
147 145 0
147 146 0
147 144 0
150 147 0
148 145 0
149 146 0
148 145 0
148 146 0
152 149 0
152 149 0
151 147 0
148 146 0
150 147 0
152 149 0
149 145 0
152 149 0
153 150 0
155 151 0
152 149 0
150 148 0
151 147 0
154 150 0
152 150 0
152 149 0
154 151 0
154 151 0
150 147 0
153 150 0
153 150 0
154 151 0
151 148 0
151 149 0
155 152 0
152 150 0
153 150 0
155 152 0
152 149 0
154 151 0
155 152 0
154 151 0
154 151 0
155 151 0
153 150 0
153 150 0
155 152 0
154 152 0
153 151 0
154 150 0
153 149 0
154 152 0
155 152 0
154 151 0
155 152 0
155 153 0
155 152 0
153 150 0
153 151 0
155 152 0
155 152 0
157 153 0
156 153 0
156 153 0
155 151 0
156 153 0
156 152 0
155 152 0
156 153 0
212 228 247
211 228 249
210 227 246
211 228 248
211 227 249
206 223 244
213 230 254
209 226 242
212 228 246
212 229 246
212 229 250
215 231 252
213 229 251
206 223 241
212 229 249
210 227 242
211 228 246
211 228 246
210 227 242
213 229 250
213 229 247
213 229 248
213 229 249
212 228 243
212 229 244
210 227 248
210 227 246
209 226 247
212 229 250
212 229 252
209 226 244
210 227 244
215 231 249
211 228 247
212 229 250
211 228 243
212 228 248
208 225 244
211 227 244
210 227 242
214 231 248
214 230 250
209 226 246
211 228 246
214 230 250
210 227 239
213 229 250
215 231 253
213 229 246
215 232 249
211 228 250
211 227 244
216 232 253
213 230 251
214 230 252
211 228 250
210 226 248
214 231 251
212 229 250
215 232 250
216 232 252
215 231 250
215 232 250
216 233 253
214 231 249
216 232 253
215 232 250
216 232 252
214 231 248
214 231 249
216 233 254
216 232 253
216 232 252
215 231 249
214 231 248
216 232 253
214 230 248
214 231 246
215 231 250
215 231 252
214 231 249
213 229 248
215 232 252
216 232 253
215 231 252
214 231 248
213 230 245
216 232 253
215 232 250
215 232 252
214 231 252
213 230 252
214 230 248
212 229 246
216 232 253
215 232 253
215 231 252
213 230 250
215 231 253
213 230 249
213 230 252
213 230 252
215 231 253
209 226 244
215 231 252
212 229 249
214 231 249
211 228 248
214 231 252
214 231 252
206 223 240
211 227 248
213 230 252
208 225 246
211 228 249
210 227 248
210 227 249
211 228 251
211 229 252
211 228 250
211 228 252
211 228 252
209 227 250
212 230 254
212 230 253
212 229 253
210 227 252
207 225 249
210 228 252
208 226 250
207 225 248
204 222 246
206 225 249
206 224 247
208 226 246
209 227 246
209 228 245
207 226 246
108 132 155
59 93 122
60 94 131
61 95 125
61 95 136
59 94 126
59 94 128
58 92 125
59 93 124
59 93 125
60 95 133
57 90 115
58 92 124
58 92 118
58 92 122
60 94 126
60 95 135
58 92 124
58 91 118
57 91 118
58 91 125
57 91 108
59 93 118
59 93 120
59 93 122
59 93 124
58 92 121
58 92 124
59 93 128
60 94 131
57 91 114
59 92 121
60 94 126
60 94 126
59 92 115
58 92 113
58 92 122
59 92 122
58 92 114
61 95 128
57 90 111
60 94 126
58 92 126
58 92 118
60 95 130
60 94 133
57 91 115
59 93 130
58 91 118
56 90 111
59 93 125
59 93 121
60 94 125
60 94 130
59 93 126
60 94 124
59 93 122
61 95 136
59 94 126
58 92 120
59 93 122
60 94 128
58 92 120
59 94 128
59 93 131
59 93 124
58 92 117
59 93 130
58 91 117
58 92 118
59 93 120
59 92 111
57 91 117
57 90 114
58 92 121
60 94 125
59 93 125
58 93 115
60 94 124
59 93 131
59 93 129
58 91 120
58 92 121
60 94 128
58 92 117
59 93 125
59 92 120
58 92 118
59 93 124
59 92 114
59 93 129
59 92 121
58 91 111
60 93 130
57 91 115
58 91 116
59 93 121
59 92 123
59 93 121
59 92 128
57 91 117
58 91 110
59 94 140
57 89 113
58 90 120
58 91 113
58 91 114
59 92 123
59 91 113
56 88 107
58 92 125
58 91 130
56 89 116
58 90 113
58 91 130
60 94 133
54 84 90
56 88 110
57 90 123
57 89 114
56 87 108
54 83 101
54 82 104
76 91 82
128 126 0
128 126 0
118 117 0
99 99 14
50 57 18
35 46 15
37 49 20
34 44 17
37 47 15
38 49 16
38 50 20
37 48 15
37 47 17
38 48 14
43 56 25
41 54 24
41 54 23
41 53 22
40 54 30
42 56 30
41 54 33
55 63 20
71 73 0
91 91 0
88 88 0
103 101 0
97 97 0
106 105 0
105 105 0
109 109 0
113 113 0
117 116 0
122 121 0
117 117 0
127 125 0
120 118 0
130 128 0
125 125 0
129 128 0
140 138 0
130 128 0
131 130 0
130 129 0
128 126 0
130 128 0
144 142 0
141 138 0
137 135 0
142 139 0
139 137 0
137 135 0
144 142 0
142 140 0
142 139 0
139 137 0
143 142 0
144 142 0
144 141 0
146 144 0
146 143 0
140 138 0
147 144 0
145 143 0
145 142 0
141 139 0
145 142 0
147 143 0
150 147 0
148 145 0
144 142 0
149 146 0
153 150 0
151 149 0
151 148 0
150 147 0
149 145 0
151 148 0
147 145 0
150 147 0
149 147 0
152 149 0
149 147 0
153 150 0
149 148 0
150 147 0
152 149 0
150 146 0
151 149 0
154 151 0
150 148 0
150 148 0
154 150 0
153 151 0
153 150 0
150 148 0
152 149 0
153 150 0
151 148 0
152 150 0
153 151 0
153 150 0
150 148 0
153 150 0
152 150 0
154 151 0
152 150 0
153 150 0
154 150 0
152 149 0
151 149 0
152 149 0
154 151 0
154 151 0
153 150 0
153 150 0
156 152 0
155 152 0
154 151 0
155 152 0
154 150 0
153 150 0
156 153 0
154 151 0
153 150 0
153 150 0
154 151 0
152 150 0
154 150 0
153 151 0
154 152 0
154 151 0
154 151 0
154 151 0
156 153 0
156 152 0
155 151 0
155 152 0
153 150 0
213 230 251
211 228 248
209 226 242
214 230 249
215 231 253
211 228 247
211 228 245
210 227 244
210 227 248
212 229 248
213 230 247
211 228 244
213 230 253
213 229 250
213 230 245
213 230 250
214 231 251
211 228 249
213 230 246
208 225 246
209 226 246
209 226 244
207 224 238
212 228 250
210 227 242
215 232 250
214 231 249
210 226 245
210 227 243
214 230 248
209 226 241
208 225 241
210 227 247
211 228 245
207 224 239
212 228 246
209 226 243
211 228 245
214 230 253
211 228 248
206 223 238
211 228 245
213 229 248
213 230 248
212 229 250
206 223 245
210 227 248
211 228 248
212 229 250
210 227 243
213 230 250
210 227 246
211 228 247
214 230 248
209 226 246
213 230 251
213 230 250
215 232 250
215 231 252
215 232 252
215 232 250
214 231 249
215 232 250
215 232 250
216 233 254
214 231 248
215 232 252
215 231 250
214 231 252
215 232 252
215 232 252
214 231 249
213 230 244
215 232 252
215 231 249
215 231 250
214 230 246
214 231 249
214 230 249
213 230 248
215 232 253
214 230 250
216 233 255
213 230 252
214 231 252
213 230 249
215 232 254
214 230 249
213 230 246
215 232 252
214 230 250
213 230 249
214 230 252
212 229 250
213 229 248
214 230 250
212 230 248
214 230 250
214 231 250
212 229 246
215 232 254
213 230 249
212 229 250
214 231 253
215 232 253
211 228 250
210 227 248
211 228 248
212 229 249
214 231 253
209 226 248
210 227 249
214 231 254
209 226 246
212 229 250
211 228 252
210 227 246
212 230 253
209 226 250
209 227 250
211 228 252
207 224 247
208 226 250
210 227 252
210 227 250
209 227 250
210 228 252
207 225 249
210 228 252
207 226 249
210 228 254
208 227 249
207 226 250
206 224 247
206 225 244
203 222 240
205 224 242
206 225 244
154 175 198
58 92 124
58 92 126
58 92 118
60 94 124
58 92 124
61 95 134
58 91 110
60 95 122
60 94 128
60 94 132
59 93 126
59 93 128
59 93 128
59 93 121
58 92 115
60 94 118
58 92 124
58 92 113
58 92 120
59 93 121
58 92 115
58 92 120
59 93 131
59 93 121
58 92 113
59 94 124
58 92 117
57 91 115
60 94 128
58 92 117
60 94 129
58 92 126
59 93 125
59 93 120
59 93 115
59 93 118
58 92 115
58 93 114
60 95 129
60 94 129
60 93 128
59 93 118
58 91 117
59 93 124
59 93 124
58 92 120
59 92 128
60 95 135
59 93 125
59 93 129
59 93 133
59 93 121
59 93 124
58 91 115
57 90 107
58 92 121
58 91 114
58 92 124
59 93 125
58 93 126
60 95 129
57 90 121
58 91 114
59 93 129
59 93 117
57 91 118
58 92 122
61 95 133
59 93 130
57 91 117
60 94 126
58 92 117
57 90 113
60 94 128
58 92 129
59 94 128
59 93 118
58 91 117
60 94 130
57 91 114
58 92 118
59 93 128
58 92 117
59 92 131
59 93 129
59 92 124
57 90 115
57 90 124
59 94 130
58 92 129
58 91 115
59 94 120
58 92 120
59 92 122
56 88 115
58 92 114
59 93 126
58 92 115
57 89 120
59 92 113
59 92 125
58 91 118
57 89 114
58 92 124
58 91 124
60 93 122
59 92 128
58 91 120
58 90 113
57 89 113
56 88 103
57 90 111
57 89 107
56 88 118
58 89 107
59 92 128
58 90 115
57 88 112
56 86 116
54 84 97
57 89 110
53 81 101
93 105 87
129 126 0
125 123 0
116 113 0
112 111 0
98 99 0
79 81 20
50 57 12
35 46 9
39 51 23
37 49 24
38 50 19
38 49 19
36 47 12
40 53 31
39 52 18
39 52 24
39 51 25
41 54 29
43 55 26
51 57 18
56 60 16
77 77 0
85 83 0
88 88 0
96 95 0
84 84 0
98 98 0
100 100 0
107 107 0
106 105 0
110 111 0
106 106 0
122 121 0
120 117 0
125 124 0
118 117 0
126 124 0
123 122 0
125 124 0
131 130 0
136 133 0
142 140 0
134 132 0
135 133 0
132 131 0
139 137 0
138 136 0
137 135 0
139 137 0
137 136 0
135 134 0
140 138 0
139 137 0
142 138 0
143 141 0
144 141 0
141 138 0
145 142 0
144 142 0
148 145 0
144 142 0
145 142 0
150 148 0
144 142 0
151 147 0
147 144 0
146 143 0
148 145 0
148 146 0
143 141 0
145 142 0
146 145 0
144 141 0
148 145 0
149 146 0
150 147 0
150 147 0
151 148 0
146 144 0
149 146 0
150 147 0
152 149 0
149 146 0
150 147 0
151 148 0
148 145 0
151 148 0
153 150 0
152 149 0
152 149 0
151 147 0
150 148 0
152 150 0
153 150 0
153 149 0
153 150 0
155 151 0
152 150 0
153 151 0
150 148 0
149 146 0
154 151 0
151 148 0
152 149 0
152 150 0
153 150 0
152 150 0
155 151 0
151 148 0
153 150 0
153 150 0
153 149 0
153 150 0
154 151 0
155 151 0
152 150 0
153 150 0
153 151 0
152 150 0
152 150 0
153 151 0
155 151 0
157 153 0
154 151 0
155 152 0
155 151 0
154 150 0
156 153 0
155 152 0
155 152 0
153 150 0
155 152 0
156 153 0
154 151 0
153 150 0
155 151 0
154 151 0
153 150 0
212 229 244
211 228 248
209 226 242
211 228 244
208 226 247
208 226 240
214 231 251
205 222 236
211 229 246
210 227 245
212 229 246
209 226 244
212 229 250
211 228 248
214 231 252
214 231 252
212 229 248
211 228 244
211 228 246
214 230 249
208 225 246
209 226 244
213 229 251
211 228 247
211 228 246
213 229 249
211 228 246
211 228 248
212 228 248
213 230 252
212 229 247
213 230 250
207 224 244
209 226 247
212 228 250
210 226 246
210 227 246
208 225 246
213 230 253
209 226 246
210 227 246
211 228 246
211 227 246
211 228 247
213 230 250
214 230 248
209 226 242
213 230 246
211 228 250
209 226 246
210 226 249
212 229 248
210 227 244
211 228 248
212 229 250
215 232 252
215 232 250
214 231 248
214 231 252
215 231 253
215 232 253
215 232 254
215 231 250
214 231 250
214 231 252
214 231 248
214 231 248
214 231 252
214 231 249
213 230 249
215 231 252
215 232 252
215 232 252
215 231 250
213 229 246
215 231 250
213 230 249
216 233 255
212 229 245
213 230 246
214 231 248
213 230 248
215 232 253
213 230 248
215 231 252
212 229 245
214 230 249
214 231 250
214 231 253
215 231 254
213 230 252
214 230 250
214 231 252
215 231 254
215 232 254
214 231 253
214 231 253
214 230 250
211 228 245
212 229 249
213 230 249
212 229 249
211 228 248
215 232 253
211 229 246
212 229 250
214 231 250
211 228 249
211 228 249
214 231 252
213 230 253
209 226 246
211 228 250
210 228 249
209 226 246
211 228 252
214 231 255
213 230 254
209 227 249
210 227 250
209 227 250
207 224 245
212 230 254
213 231 254
207 225 248
212 230 254
208 226 250
209 227 252
209 227 252
209 227 250
209 227 252
207 226 248
207 226 249
203 222 244
209 228 250
208 228 250
205 224 244
203 223 238
190 210 223
62 95 124
58 92 124
58 92 113
59 94 128
59 92 128
58 92 115
60 94 125
58 92 118
58 93 115
58 92 121
59 93 126
59 93 118
59 93 113
58 92 118
59 93 124
59 93 120
58 92 122
60 95 124
57 90 115
59 93 126
57 91 111
57 90 113
60 94 128
58 92 117
59 93 122
60 94 120
60 95 134
59 93 122
60 94 139
58 92 120
60 94 130
58 92 120
60 94 136
58 91 113
59 93 118
59 93 117
59 93 124
59 92 120
59 94 121
59 93 130
58 92 121
58 92 126
58 92 114
58 92 122
59 93 121
58 91 115
60 94 131
57 91 117
59 93 121
60 94 129
59 93 121
57 90 118
60 95 133
59 93 124
59 93 125
59 93 125
59 94 120
58 92 115
58 91 114
59 92 126
59 93 126
59 93 122
60 94 133
59 93 121
58 92 129
60 95 133
59 92 130
58 91 113
59 93 125
58 91 113
58 92 124
57 89 117
57 89 113
58 91 120
58 92 118
59 92 128
57 90 111
58 92 117
60 94 134
59 92 118
57 90 120
58 92 120
58 92 124
58 91 122
58 92 124
60 93 124
59 93 122
59 93 128
57 91 117
59 93 130
57 91 111
58 91 121
57 90 121
58 91 114
57 90 112
58 91 118
57 91 124
57 90 120
58 91 118
56 88 113
60 94 135
58 91 114
57 90 113
57 90 108
57 90 113
56 88 107
59 92 120
57 89 116
57 90 111
58 91 113
57 88 114
60 93 123
57 89 117
58 90 116
56 87 101
57 88 106
57 89 111
57 90 114
57 89 114
56 87 111
54 83 89
56 85 115
128 128 32
132 130 0
119 116 0
128 126 0
117 114 0
102 100 0
110 107 0
108 104 0
85 85 8
76 74 8
61 64 8
50 56 20
46 53 20
45 52 16
42 50 20
38 47 16
49 55 16
49 54 14
73 72 11
65 65 0
67 68 0
55 57 0
76 75 0
88 86 0
86 85 0
91 89 0
93 91 0
102 100 0
102 101 0
107 105 0
100 100 0
112 111 0
117 115 0
121 119 0
124 122 0
128 126 0
122 120 0
127 124 0
127 125 0
124 124 0
126 125 0
134 131 0
123 123 0
131 129 0
132 129 0
138 137 0
129 126 0
132 130 0
140 138 0
138 135 0
142 139 0
139 137 0
134 133 0
145 142 0
141 138 0
141 139 0
145 142 0
142 139 0
144 140 0
143 140 0
142 141 0
143 140 0
152 149 0
146 143 0
148 145 0
141 139 0
146 143 0
148 144 0
147 143 0
146 144 0
150 147 0
147 144 0
142 140 0
149 146 0
153 150 0
149 146 0
147 146 0
148 144 0
151 148 0
147 145 0
149 147 0
150 147 0
152 149 0
146 145 0
151 147 0
150 147 0
152 148 0
150 148 0
150 148 0
152 149 0
151 147 0
149 146 0
152 150 0
152 149 0
153 150 0
153 150 0
152 149 0
152 149 0
150 147 0
154 151 0
151 148 0
149 148 0
151 148 0
153 150 0
154 150 0
153 148 0
154 150 0
152 150 0
154 151 0
150 146 0
152 149 0
153 149 0
155 151 0
152 150 0
153 150 0
153 150 0
154 151 0
150 148 0
155 151 0
154 151 0
152 150 0
153 149 0
153 150 0
153 150 0
153 151 0
153 150 0
154 150 0
152 149 0
153 150 0
151 148 0
154 151 0
155 152 0
154 151 0
153 151 0
155 152 0
152 150 0
152 148 0
153 150 0
156 153 0
206 223 243
211 228 247
211 228 247
208 226 245
208 225 245
210 227 245
211 229 244
210 227 246
210 227 248
210 228 247
212 229 247
210 227 242
210 227 249
214 231 250
209 226 247
212 229 248
211 228 248
212 229 248
211 228 248
211 228 245
209 226 244
210 227 246
209 226 246
211 228 247
209 227 240
212 229 249
211 228 249
211 228 247
210 227 244
208 225 245
211 228 243
210 227 246
213 229 249
210 227 248
212 229 249
211 227 248
208 225 240
211 228 248
211 228 248
203 221 236
210 227 246
209 226 246
212 229 246
214 230 253
213 230 249
211 228 250
211 228 250
214 231 253
210 227 244
206 223 242
208 225 243
214 231 249
216 233 255
215 232 253
215 232 252
214 231 250
214 230 249
215 231 253
214 231 252
215 231 252
213 230 246
215 231 253
213 230 248
214 231 250
214 231 253
215 232 253
215 232 253
215 232 254
215 232 253
214 231 252
215 232 253
213 230 249
214 231 252
215 232 253
212 230 246
213 230 249
213 230 249
214 230 250
214 231 250
213 230 248
215 232 252
213 230 246
214 231 253
214 231 252
212 229 245
213 230 249
214 231 249
214 231 252
215 232 253
212 229 246
214 231 252
212 229 246
214 231 253
214 231 252
212 229 248
213 230 249
212 230 252
214 232 254
212 229 248
213 230 250
213 230 252
213 230 248
212 229 249
212 229 252
211 228 250
210 227 248
210 227 246
210 227 248
212 229 250
214 232 254
211 228 248
211 229 250
211 228 248
208 226 248
213 230 253
212 229 252
211 229 252
209 226 246
211 228 252
211 228 250
210 227 250
210 228 250
209 227 249
209 227 252
208 226 248
210 229 253
206 225 246
209 228 252
203 221 244
208 227 248
208 227 250
205 224 245
206 225 248
205 224 246
208 227 248
204 224 241
202 222 241
203 222 241
200 221 236
119 143 172
58 92 125
59 92 124
59 93 130
58 92 110
59 94 121
59 93 126
58 91 120
57 90 118
60 95 133
60 94 128
58 91 114
60 94 129
58 93 115
57 90 115
58 92 114
58 92 118
59 93 124
60 94 126
59 92 122
58 92 122
59 93 124
59 93 124
57 90 117
59 93 129
58 92 120
59 92 120
58 91 120
59 93 124
57 91 107
58 92 118
59 93 122
61 95 133
57 90 111
60 94 130
58 92 124
59 93 115
58 92 117
57 91 113
60 94 136
60 95 126
59 92 121
59 93 122
58 91 113
58 92 122
58 92 108
59 93 125
60 94 125
59 92 115
57 91 117
58 92 121
57 91 114
59 94 125
59 93 122
59 93 126
62 96 137
59 93 118
58 92 118
58 91 115
58 92 114
59 93 126
59 93 126
57 91 103
59 93 124
58 91 118
58 92 121
59 93 134
59 93 121
59 93 121
57 91 114
60 94 130
58 92 114
57 91 118
58 93 121
58 92 123
59 93 124
60 94 126
59 93 121
58 93 124
58 92 118
58 92 120
59 93 130
59 92 126
57 90 115
57 90 103
55 87 94
58 92 124
59 93 122
59 93 125
59 93 131
58 91 121
58 91 114
58 90 120
60 94 124
60 93 118
59 93 120
59 92 119
57 90 103
57 90 114
58 92 128
59 93 124
58 90 120
60 94 123
58 91 123
57 91 113
58 91 117
57 90 108
57 90 113
57 89 115
58 91 112
56 88 111
58 90 130
57 89 116
56 88 107
57 90 112
57 88 104
57 88 112
55 86 99
54 85 97
56 88 109
54 84 88
88 102 82
134 128 0
134 130 0
127 124 0
117 115 0
121 119 0
108 106 0
112 110 0
93 92 0
96 92 0
92 90 0
90 86 0
72 72 0
79 77 0
75 72 0
81 77 0
73 70 0
58 57 0
59 60 0
80 78 0
73 72 0
84 80 0
75 74 0
83 81 0
94 92 0
93 91 0
81 81 0
102 102 0
100 100 0
105 104 0
106 106 0
107 107 0
116 114 0
104 103 0
122 120 0
114 114 0
115 114 0
115 115 0
123 121 0
123 123 0
130 127 0
136 132 0
124 121 0
128 125 0
135 133 0
128 127 0
126 125 0
135 133 0
138 134 0
137 135 0
135 132 0
136 134 0
139 137 0
139 138 0
141 140 0
140 137 0
138 136 0
146 142 0
137 134 0
143 140 0
139 137 0
146 144 0
143 141 0
148 144 0
143 141 0
148 144 0
147 144 0
146 143 0
151 148 0
146 142 0
149 145 0
145 143 0
148 145 0
142 139 0
146 143 0
144 141 0
150 146 0
151 147 0
149 145 0
146 143 0
148 145 0
150 147 0
150 148 0
151 148 0
149 146 0
147 144 0
148 145 0
146 144 0
150 147 0
148 146 0
153 149 0
150 147 0
151 149 0
148 146 0
149 146 0
151 148 0
151 148 0
151 148 0
155 151 0
151 149 0
153 150 0
148 144 0
151 148 0
154 151 0
154 151 0
152 150 0
152 149 0
155 151 0
152 150 0
154 150 0
154 151 0
153 150 0
153 150 0
152 149 0
153 150 0
151 148 0
151 149 0
155 152 0
153 151 0
153 150 0
151 147 0
152 149 0
153 150 0
155 152 0
153 150 0
152 149 0
152 148 0
152 148 0
154 151 0
154 151 0
153 150 0
155 152 0
153 150 0
155 152 0
153 151 0
153 150 0
155 151 0
152 150 0
154 152 0
156 153 0
209 226 248
209 226 248
209 226 248
211 228 248
211 228 249
213 230 252
210 227 245
210 227 249
208 225 248
210 227 245
208 226 240
210 227 249
213 230 250
209 226 244
213 230 246
208 225 246
210 227 242
213 230 248
208 225 245
213 230 254
209 226 246
213 230 253
212 229 250
211 228 246
213 230 248
209 226 248
212 229 248
213 230 250
211 228 250
207 224 246
213 230 247
211 228 245
209 226 244
213 230 250
210 227 248
211 228 246
210 227 246
211 228 249
210 226 247
207 225 239
207 223 244
207 224 241
210 227 244
210 227 250
212 228 252
208 225 247
213 230 251
212 229 249
207 224 245
211 228 250
214 231 251
212 229 245
214 231 252
213 230 245
214 231 249
215 231 250
215 232 254
214 231 252
214 231 253
214 231 252
215 232 252
215 232 253
214 231 252
213 230 250
214 231 250
214 231 253
211 228 245
211 229 245
214 230 250
215 232 252
215 232 253
213 230 249
215 232 254
214 231 248
213 230 249
214 231 252
213 230 245
212 229 248
211 228 246
213 231 248
214 231 252
215 232 254
213 230 250
215 232 254
215 232 255
214 231 250
215 232 255
213 230 248
212 229 244
214 231 252
214 231 250
212 229 250
213 230 252
213 230 249
213 230 250
212 230 248
212 230 250
210 227 248
213 230 253
212 229 250
213 230 249
214 231 252
214 231 254
212 230 248
214 231 254
212 230 250
213 231 252
210 228 249
210 227 248
208 225 244
211 229 250
211 229 250
208 225 246
210 228 250
213 231 252
210 228 250
209 227 249
210 228 249
206 224 245
211 229 253
207 225 248
211 230 254
209 227 252
206 224 246
208 226 248
208 226 248
209 228 252
208 227 252
209 228 252
207 225 250
209 228 252
207 226 252
207 226 249
204 223 242
204 223 240
204 225 241
199 220 236
202 223 238
203 224 238
158 180 188
59 93 120
58 92 117
59 94 120
57 91 118
58 92 107
60 94 122
59 93 129
60 94 128
58 92 110
57 91 120
57 91 110
59 92 125
59 93 117
58 92 115
58 92 120
59 94 125
57 91 105
59 93 120
60 94 124
58 92 122
59 93 120
59 93 118
58 91 115
58 92 111
60 94 125
60 94 129
59 93 115
59 93 122
58 92 115
61 95 131
59 93 124
58 91 115
60 95 130
60 95 137
57 91 118
60 94 124
60 94 129
59 93 120
56 90 107
59 93 121
59 93 128
59 93 129
59 93 126
58 92 122
59 93 121
58 92 125
59 93 121
59 93 120
58 92 120
60 94 128
59 93 122
58 92 120
60 95 131
60 94 129
58 92 115
58 92 122
59 93 125
57 91 117
60 93 129
58 92 113
60 94 126
60 94 134
56 89 115
60 94 133
58 91 115
59 93 118
59 93 122
58 92 125
57 91 121
58 92 125
58 92 117
58 91 115
60 94 125
60 93 124
58 92 125
59 93 125
58 91 120
58 92 117
59 93 125
58 91 124
58 92 113
59 92 120
58 91 115
57 89 115
58 91 118
58 92 115
60 94 128
57 90 117
58 91 124
57 91 118
58 91 104
58 92 111
57 90 110
56 89 110
58 91 117
57 90 124
59 93 128
60 93 125
58 92 115
58 90 115
58 91 110
57 90 116
58 91 117
58 91 120
57 90 103
56 88 105
58 91 120
57 89 115
57 90 115
56 88 110
56 88 112
56 87 96
55 87 100
57 88 119
57 88 120
55 86 97
55 85 115
56 87 102
54 84 98
54 83 104
118 121 49
129 126 0
129 124 0
119 117 0
122 121 0
121 118 0
115 111 0
105 103 0
95 93 0
87 85 0
103 100 0
71 73 0
84 81 0
84 82 0
77 75 0
64 65 0
83 80 0
76 74 0
71 70 0
78 74 0
83 80 0
66 65 0
78 77 0
82 82 0
89 88 0
94 92 0
104 102 0
102 100 0
108 106 0
96 96 0
109 108 0
100 99 0
106 104 0
116 113 0
116 113 0
117 116 0
121 119 0
123 120 0
122 120 0
126 125 0
113 112 0
130 128 0
124 121 0
123 121 0
130 130 0
132 130 0
128 126 0
135 134 0
137 135 0
136 134 0
137 133 0
136 133 0
137 134 0
131 130 0
144 141 0
141 139 0
145 141 0
139 136 0
141 139 0
147 144 0
145 141 0
140 138 0
143 140 0
144 142 0
145 141 0
149 146 0
145 142 0
143 140 0
146 144 0
146 143 0
146 142 0
146 143 0
150 146 0
147 144 0
146 143 0
145 143 0
149 146 0
147 145 0
143 140 0
145 143 0
146 144 0
150 147 0
149 145 0
146 144 0
151 147 0
150 147 0
148 146 0
149 146 0
148 145 0
150 148 0
150 147 0
150 147 0
150 147 0
152 149 0
151 148 0
152 148 0
151 148 0
150 147 0
152 149 0
154 150 0
151 149 0
148 146 0
151 147 0
150 147 0
150 147 0
149 147 0
152 148 0
152 149 0
153 149 0
151 148 0
152 149 0
155 151 0
153 149 0
150 147 0
152 149 0
152 149 0
150 146 0
153 150 0
150 146 0
154 151 0
153 149 0
153 150 0
155 151 0
154 151 0
154 150 0
152 149 0
152 149 0
155 151 0
153 150 0
153 150 0
153 150 0
152 149 0
152 148 0
153 150 0
152 149 0
155 151 0
153 151 0
154 152 0
153 150 0
154 151 0
210 227 247
208 226 240
208 225 244
211 229 245
213 230 250
206 224 242
210 227 244
208 226 242
210 228 245
210 227 242
211 229 244
211 228 245
207 225 240
212 229 247
213 230 250
210 228 250
210 227 243
212 229 247
205 223 243
208 225 246
212 229 250
210 228 249
211 228 250
209 227 246
207 224 242
212 229 250
213 230 251
208 225 247
212 229 244
209 226 246
211 228 248
212 229 250
211 228 248
209 226 245
210 227 247
210 227 248
214 231 252
209 226 245
211 228 250
215 232 253
214 231 250
211 228 250
206 224 236
213 230 250
211 228 245
210 228 247
213 230 246
214 231 253
213 231 248
214 231 250
213 230 249
214 231 252
214 231 250
214 232 253
214 231 250
214 231 249
214 231 252
213 230 248
213 230 248
214 231 250
212 229 246
214 231 250
214 231 250
214 231 250
214 231 252
213 230 248
214 231 253
213 230 248
211 228 248
214 231 252
215 232 253
214 231 253
215 232 253
213 230 249
214 231 252
213 230 253
214 231 252
214 231 252
214 231 252
214 231 253
212 230 246
213 230 252
212 230 248
215 232 254
213 230 249
213 230 252
214 231 252
211 229 245
213 230 248
213 230 249
213 231 250
214 231 253
211 229 245
214 231 252
215 232 255
212 230 249
214 231 253
213 230 250
211 229 250
211 228 248
214 232 255
211 228 252
212 229 250
213 230 252
211 229 250
213 230 254
211 229 248
211 228 252
212 229 253
213 231 254
209 227 248
210 227 249
211 229 250
208 226 249
213 231 255
208 226 245
210 228 250
207 225 245
208 226 248
209 227 250
212 230 254
209 228 250
210 228 249
209 228 252
205 223 248
208 227 250
209 228 249
208 227 249
205 224 246
204 223 246
207 227 248
208 227 253
205 224 248
205 225 246
205 225 246
200 220 236
199 219 237
197 217 233
197 219 224
192 213 219
80 109 125
58 92 128
59 93 128
60 94 125
59 93 122
58 91 111
57 90 117
58 92 113
60 94 133
58 91 126
58 92 117
59 93 124
59 93 124
59 93 125
60 94 130
59 92 120
58 92 129
57 90 103
59 93 126
58 91 118
59 93 125
58 91 125
58 91 126
58 92 125
59 94 124
58 91 124
59 92 122
58 92 108
58 92 124
57 91 107
59 92 122
57 91 124
58 91 115
59 93 130
59 93 118
59 93 125
57 91 120
60 94 130
59 93 124
58 92 121
58 91 110
60 95 137
59 93 128
58 92 121
59 93 130
59 93 124
58 92 125
59 92 125
59 93 128
58 92 122
61 95 134
60 95 130
57 91 115
58 91 121
59 93 122
58 92 122
59 93 133
59 93 129
60 95 130
58 91 115
59 93 125
59 94 128
59 94 131
60 94 124
58 91 111
58 91 115
57 91 110
59 92 122
57 89 97
59 93 121
58 92 121
58 92 118
58 92 118
58 91 123
58 92 125
59 93 124
59 93 121
57 91 120
58 92 118
59 93 118
58 92 128
58 91 120
59 93 120
57 90 111
59 93 122
58 91 115
56 89 105
56 89 114
58 92 120
58 91 121
60 94 126
58 91 120
57 90 115
57 90 101
59 93 128
58 90 117
58 91 126
57 90 102
59 93 121
58 91 121
59 92 123
57 88 111
57 89 104
58 90 116
57 89 117
57 90 117
56 88 104
57 90 113
59 92 115
56 88 102
57 89 116
58 91 116
56 88 103
56 89 107
58 89 120
57 89 111
57 87 109
57 88 113
54 83 107
65 89 85
137 134 19
133 128 0
129 126 0
123 121 0
131 128 0
120 115 0
106 104 0
113 109 0
93 91 0
95 93 0
96 93 0
102 98 0
90 89 0
82 80 0
81 79 0
88 84 0
81 77 0
89 86 0
84 82 0
77 75 0
81 80 0
88 87 0
88 85 0
88 85 0
82 82 0
92 89 0
94 93 0
115 112 0
97 96 0
94 93 0
112 109 0
105 103 0
116 114 0
116 114 0
116 114 0
119 118 0
124 122 0
124 121 0
118 117 0
133 129 0
121 120 0
132 130 0
132 129 0
137 132 0
135 132 0
130 128 0
135 132 0
129 127 0
137 135 0
134 131 0
138 135 0
138 135 0
142 139 0
139 137 0
138 135 0
139 137 0
141 139 0
137 134 0
137 134 0
144 141 0
139 136 0
140 137 0
140 136 0
138 136 0
143 140 0
143 140 0
146 143 0
142 139 0
144 140 0
149 145 0
146 141 0
145 142 0
147 143 0
149 144 0
147 144 0
147 145 0
148 145 0
146 142 0
148 145 0
148 144 0
147 144 0
148 144 0
148 145 0
148 146 0
147 143 0
147 144 0
149 145 0
149 147 0
148 146 0
152 148 0
150 146 0
148 144 0
147 143 0
151 147 0
147 144 0
148 145 0
150 148 0
149 146 0
150 148 0
154 149 0
152 148 0
150 147 0
150 147 0
150 147 0
150 148 0
153 149 0
153 148 0
149 145 0
153 150 0
152 149 0
153 151 0
153 149 0
153 149 0
153 151 0
152 149 0
150 147 0
153 150 0
154 151 0
152 149 0
151 148 0
151 148 0
155 152 0
153 149 0
153 150 0
154 151 0
153 150 0
152 149 0
156 152 0
151 147 0
154 151 0
154 151 0
153 149 0
153 151 0
154 151 0
153 150 0
154 152 0
156 153 0
153 150 0
153 150 0
155 152 0
207 225 244
209 226 246
208 225 243
208 226 247
205 223 241
208 226 249
210 228 244
211 228 246
208 226 249
209 226 244
209 226 246
208 226 241
213 230 251
209 227 246
210 227 248
208 225 248
208 226 245
211 228 250
210 227 245
210 227 249
209 227 249
209 226 249
212 230 252
212 230 248
212 229 252
207 224 242
210 228 243
210 227 251
212 230 248
212 229 249
208 225 246
209 226 248
211 229 248
210 227 246
211 228 251
212 229 250
214 231 249
208 225 243
208 225 249
211 228 248
212 229 250
211 228 247
213 231 252
213 231 252
212 229 248
212 229 246
213 230 248
212 229 250
214 231 250
212 230 248
214 231 253
214 231 250
213 230 249
214 231 250
212 230 245
213 230 249
214 231 252
214 231 253
214 231 253
214 231 253
213 231 249
214 231 252
213 231 249
214 231 250
212 230 245
213 230 252
214 231 250
212 229 248
214 232 253
214 231 250
214 232 253
213 231 252
214 231 250
213 230 249
214 231 253
213 230 253
214 231 253
212 230 246
214 232 254
214 231 253
214 231 252
212 229 249
213 230 248
212 229 248
212 230 249
215 232 254
214 231 254
213 230 253
213 230 253
213 230 250
214 231 254
214 231 253
213 231 252
213 230 250
212 230 246
212 229 252
213 230 250
211 229 250
213 230 249
214 231 254
210 228 249
213 231 254
213 230 252
210 228 245
212 230 253
212 230 253
212 229 250
209 226 248
213 231 254
209 226 248
211 229 249
210 228 250
212 230 252
209 227 249
210 228 250
211 229 252
207 225 248
207 225 249
207 226 246
209 227 250
206 224 246
210 228 250
209 227 250
211 230 255
208 227 252
205 224 248
205 224 248
210 229 255
204 224 246
206 226 250
204 224 246
206 226 249
205 224 248
205 225 249
200 220 240
201 221 241
198 219 227
199 220 237
194 216 215
188 210 198
134 157 143
58 91 121
58 92 124
58 91 120
58 91 111
59 94 128
58 92 121
59 93 120
60 94 126
58 92 121
57 91 121
59 93 122
60 94 124
59 93 128
58 92 111
57 90 115
57 90 110
58 92 114
57 91 107
59 93 120
59 93 125
58 92 120
58 92 111
60 94 126
58 92 124
57 91 110
59 93 120
58 92 117
59 93 129
58 92 124
58 91 111
58 92 114
59 93 120
58 92 122
58 92 113
59 93 118
60 94 135
59 93 121
58 92 122
59 92 118
58 92 115
59 93 126
58 91 118
59 92 108
59 93 121
58 91 117
58 92 117
58 92 122
59 93 129
58 92 122
56 90 102
58 92 115
57 90 102
56 89 113
58 92 121
59 93 114
58 92 125
58 91 108
59 92 130
59 93 122
59 92 118
57 91 115
57 91 111
58 91 114
59 92 114
59 93 126
58 92 126
57 90 122
59 93 121
58 92 133
59 93 120
57 90 114
57 90 124
59 92 118
59 92 122
57 90 111
57 91 114
58 92 118
58 91 113
56 88 108
58 91 113
58 91 116
58 91 117
58 91 126
59 92 124
58 93 122
57 91 111
58 91 118
58 92 114
57 91 118
58 92 124
60 94 128
58 90 123
60 94 131
59 92 116
58 92 124
58 92 126
56 89 118
58 90 126
57 90 115
59 92 117
57 90 113
56 89 110
55 87 95
56 89 111
58 91 121
57 89 112
56 88 102
58 91 122
56 89 107
56 87 103
60 93 126
55 86 105
57 88 108
56 88 99
58 91 117
54 85 96
54 83 100
55 85 108
108 115 82
140 136 0
138 134 0
126 123 0
135 131 0
120 117 0
114 113 0
122 118 0
113 111 0
106 103 0
103 99 0
104 101 0
103 100 0
90 86 0
97 93 0
91 87 0
84 82 0
93 89 0
86 83 0
86 85 0
82 80 0
82 81 0
83 81 0
99 96 0
91 90 0
94 91 0
99 96 0
90 89 0
103 101 0
97 95 0
107 104 0
117 113 0
118 116 0
114 112 0
114 111 0
122 120 0
111 109 0
123 119 0
121 120 0
123 119 0
129 128 0
124 123 0
126 123 0
128 125 0
127 125 0
131 129 0
124 122 0
131 129 0
132 129 0
136 134 0
138 135 0
133 130 0
136 132 0
135 133 0
137 133 0
145 141 0
143 139 0
141 137 0
145 142 0
139 136 0
140 137 0
140 136 0
140 136 0
130 127 0
144 140 0
142 139 0
145 140 0
139 135 0
141 138 0
142 140 0
146 143 0
148 145 0
147 144 0
143 140 0
145 140 0
147 144 0
147 144 0
146 144 0
143 141 0
148 144 0
144 142 0
146 143 0
144 140 0
148 144 0
148 145 0
147 144 0
146 143 0
152 149 0
151 147 0
146 143 0
151 147 0
149 146 0
148 146 0
152 147 0
151 147 0
150 147 0
150 146 0
148 146 0
151 148 0
150 147 0
148 145 0
149 146 0
151 149 0
152 148 0
153 149 0
150 147 0
150 147 0
152 149 0
150 148 0
151 147 0
149 147 0
152 148 0
150 146 0
154 151 0
154 151 0
148 144 0
155 151 0
151 147 0
152 148 0
153 150 0
151 148 0
153 150 0
151 149 0
153 150 0
151 147 0
152 149 0
153 149 0
152 149 0
152 149 0
150 147 0
153 150 0
154 151 0
153 150 0
153 149 0
153 150 0
154 151 0
156 152 0
155 151 0
152 150 0
155 152 0
155 151 0
206 224 244
211 229 250
212 229 252
209 227 243
208 225 246
212 230 249
204 221 242
209 226 249
208 225 246
211 228 246
210 227 247
206 224 235
208 225 245
211 228 250
210 228 246
210 227 244
208 226 244
206 223 245
206 223 244
207 224 244
211 229 249
211 228 248
212 229 254
211 228 251
211 229 249
211 229 246
209 227 244
212 229 248
209 226 245
213 230 250
208 226 248
212 229 250
210 227 251
213 230 253
210 228 247
204 222 240
211 228 248
211 229 251
211 228 245
210 228 248
210 228 245
214 231 253
213 231 250
213 231 250
214 231 250
213 230 249
213 230 248
211 229 246
214 231 252
213 230 249
213 230 250
215 232 255
212 229 248
212 229 245
213 231 252
213 230 249
215 232 254
214 232 253
214 231 253
214 231 252
213 230 249
214 231 252
212 230 249
214 232 254
214 231 250
213 231 249
214 231 253
213 231 253
214 231 252
213 230 249
214 231 252
213 231 252
213 230 250
211 229 246
213 230 250
212 230 248
213 230 250
214 232 254
213 230 252
212 230 250
213 231 252
213 231 252
212 229 249
213 230 249
212 230 250
213 230 250
212 230 249
212 230 252
211 229 245
212 230 250
211 228 248
212 230 249
211 228 248
212 230 252
213 231 253
213 230 252
213 230 250
213 230 252
212 230 253
212 230 249
211 228 249
210 227 249
209 227 246
211 229 248
210 228 248
210 228 250
212 230 252
208 226 246
211 229 253
210 228 250
209 227 249
210 228 250
210 228 252
211 229 253
210 228 253
208 226 249
209 227 250
207 225 248
208 226 249
207 225 248
206 225 246
210 229 254
205 223 246
207 226 248
206 225 249
208 227 253
207 226 248
204 224 246
205 224 249
205 225 250
203 223 249
204 225 249
204 224 249
199 220 242
202 223 242
197 218 234
195 217 230
196 217 227
194 216 215
190 213 191
169 191 86
62 94 103
58 91 108
56 89 107
60 94 124
58 92 117
59 93 126
58 91 110
56 89 115
61 95 135
58 91 122
58 91 121
57 90 105
60 93 117
59 93 120
59 93 128
58 91 117
57 91 113
58 90 120
56 89 102
59 93 129
59 93 117
58 92 113
59 93 114
58 92 117
58 92 115
58 92 113
59 93 130
59 93 129
57 90 111
57 90 110
58 91 110
59 93 120
58 92 118
58 91 118
57 91 115
58 92 128
59 93 121
57 90 115
59 92 113
56 89 110
59 92 120
58 91 113
54 87 94
59 94 122
58 91 111
56 90 113
57 91 115
58 92 118
58 91 115
59 92 118
58 91 115
58 92 111
57 91 121
58 92 115
58 92 118
58 92 115
58 92 117
57 90 120
56 89 110
58 92 124
59 93 124
58 92 121
58 93 121
58 92 118
57 90 117
57 90 115
59 93 131
59 93 130
58 91 114
59 93 117
58 91 117
59 93 120
59 93 125
58 91 108
57 90 113
58 92 124
59 92 124
57 90 110
58 92 124
58 92 120
59 92 115
59 93 122
59 92 126
56 89 110
58 92 128
59 92 115
59 93 117
59 93 128
58 91 120
57 91 114
58 92 122
59 92 118
59 92 113
57 90 104
59 93 135
58 91 117
58 90 123
56 88 99
56 90 108
57 90 116
58 90 116
59 93 126
59 92 117
56 88 117
57 89 114
56 88 107
55 87 103
56 88 107
57 89 110
57 89 113
56 87 106
56 87 104
55 87 113
56 88 113
54 85 103
54 84 101
56 88 113
53 81 96
158 174 18
145 142 0
135 132 0
134 129 0
128 124 0
129 124 0
119 115 0
118 113 0
120 116 0
111 107 0
104 101 0
110 105 0
93 91 0
100 96 0
94 90 0
93 89 0
97 94 0
84 83 0
98 94 0
81 79 0
89 86 0
97 94 0
86 82 0
91 87 0
92 90 0
100 98 0
115 110 0
106 103 0
102 98 0
106 105 0
103 99 0
114 111 0
114 110 0
109 109 0
108 106 0
123 121 0
108 107 0
118 114 0
116 113 0
123 121 0
122 120 0
122 120 0
127 125 0
126 124 0
129 126 0
122 119 0
129 126 0
129 127 0
137 132 0
128 125 0
140 136 0
134 131 0
137 134 0
135 131 0
138 135 0
135 132 0
136 132 0
141 136 0
134 131 0
135 132 0
141 138 0
144 140 0
139 135 0
138 135 0
140 137 0
136 133 0
141 139 0
139 136 0
138 134 0
140 136 0
144 141 0
144 141 0
145 141 0
137 135 0
146 142 0
141 138 0
148 144 0
148 145 0
150 146 0
143 138 0
148 145 0
140 137 0
148 142 0
147 144 0
150 147 0
147 143 0
147 143 0
146 143 0
147 144 0
146 143 0
150 148 0
152 148 0
147 144 0
150 146 0
147 142 0
149 146 0
152 148 0
149 145 0
151 147 0
148 144 0
151 148 0
150 147 0
152 148 0
152 148 0
149 145 0
151 146 0
151 148 0
150 147 0
153 150 0
153 149 0
153 149 0
152 149 0
151 148 0
155 150 0
149 146 0
153 148 0
150 148 0
152 149 0
153 149 0
152 149 0
152 147 0
152 149 0
150 147 0
153 151 0
152 148 0
150 146 0
152 149 0
154 150 0
154 150 0
154 150 0
153 149 0
152 149 0
152 150 0
154 151 0
151 147 0
153 148 0
154 151 0
153 150 0
153 150 0
152 149 0
155 151 0
209 227 247
206 224 246
208 226 244
209 227 244
209 227 246
209 227 250
208 226 245
208 226 246
209 226 244
207 225 246
207 225 244
209 227 245
208 226 240
211 229 248
207 224 246
206 224 242
211 229 247
212 229 248
212 230 250
209 227 248
208 226 248
209 227 248
207 225 246
208 226 244
208 225 246
208 226 247
208 226 245
208 226 248
209 227 248
208 226 247
208 225 242
210 228 250
212 230 246
210 228 245
211 229 248
212 230 246
211 229 245
213 231 250
213 230 249
213 230 250
210 228 241
213 230 253
213 230 249
214 231 253
213 230 250
213 231 250
213 230 250
213 231 252
213 231 250
213 230 250
211 229 246
213 230 249
212 229 249
211 229 248
211 229 246
210 227 241
214 232 255
213 230 250
213 230 250
213 231 252
214 231 254
213 230 250
211 229 249
213 230 250
213 231 252
212 230 246
213 231 250
214 231 253
212 229 252
212 229 245
211 228 245
213 230 250
212 230 248
213 231 252
212 229 246
211 228 248
212 230 248
212 230 252
213 230 250
213 230 250
212 229 249
211 229 244
213 231 252
211 229 250
212 229 250
212 229 249
211 229 250
213 231 252
213 231 253
211 229 248
213 231 253
211 228 248
209 227 245
211 228 250
212 229 250
209 226 245
210 228 250
211 228 250
213 231 254
213 231 253
207 226 246
209 227 244
208 227 248
212 230 250
208 226 249
209 227 249
209 227 249
213 231 254
209 228 248
210 228 250
212 230 255
208 227 250
206 224 246
211 229 253
209 227 249
208 227 248
210 229 252
208 227 250
208 226 250
209 228 252
205 224 246
208 227 253
209 228 253
206 225 249
206 226 250
203 222 244
205 225 246
207 227 250
206 226 246
202 222 244
201 221 242
203 223 244
201 221 241
199 220 234
196 217 238
200 222 237
193 215 217
191 214 220
188 211 199
174 197 108
176 199 0
119 143 80
59 93 117
59 94 122
57 91 114
58 92 126
57 91 120
56 89 114
57 91 111
57 91 105
58 91 120
58 92 118
57 90 111
58 91 115
61 95 135
58 92 122
57 90 108
57 91 110
57 91 103
57 91 117
59 92 118
56 89 114
58 92 118
57 91 115
57 90 113
56 89 97
58 92 117
59 93 113
57 91 113
57 90 108
58 92 114
58 91 115
57 90 117
58 91 108
59 93 121
57 90 118
59 92 122
60 95 126
57 90 111
58 92 110
60 94 120
57 91 108
57 90 107
58 92 120
58 92 121
60 94 129
59 92 121
58 91 121
55 88 95
57 91 115
58 92 118
59 93 117
57 91 120
57 90 107
58 91 110
59 93 124
58 92 118
58 92 121
57 91 107
57 90 115
58 92 120
58 91 113
59 93 121
58 91 125
58 91 108
59 94 134
58 92 122
57 91 120
59 93 122
58 91 114
58 92 120
60 93 130
57 90 110
58 91 117
57 90 111
59 93 124
59 93 129
56 89 108
57 90 117
57 90 113
59 92 124
59 93 118
57 89 111
58 92 115
57 90 115
58 92 120
58 92 121
57 90 108
58 92 115
58 92 113
58 91 118
59 93 132
59 93 121
58 91 111
57 90 113
58 91 110
58 91 117
56 87 103
56 89 107
58 91 120
58 91 114
57 90 114
56 88 99
56 89 116
58 91 114
57 90 110
56 87 110
55 87 102
56 88 114
58 90 113
55 86 109
56 88 104
57 88 124
56 87 110
55 85 97
55 86 101
52 80 92
53 83 100
119 139 64
169 192 0
160 170 0
141 136 0
136 132 0
132 128 0
118 115 0
117 113 0
114 109 0
122 118 0
113 109 0
115 110 0
111 107 0
99 96 0
102 98 0
105 100 0
90 87 0
96 92 0
86 83 0
94 89 0
80 79 0
100 97 0
89 85 0
96 94 0
103 98 0
106 101 0
104 100 0
89 87 0
111 107 0
105 101 0
100 97 0
108 105 0
101 100 0
107 104 0
109 106 0
117 113 0
120 117 0
116 112 0
122 118 0
119 115 0
125 121 0
128 125 0
121 119 0
122 120 0
121 118 0
127 125 0
129 126 0
135 132 0
127 125 0
130 127 0
125 123 0
134 133 0
135 130 0
134 132 0
141 138 0
135 131 0
130 128 0
136 132 0
140 135 0
141 137 0
133 129 0
142 139 0
138 135 0
143 138 0
139 134 0
138 134 0
146 143 0
147 144 0
137 132 0
142 139 0
140 138 0
143 138 0
147 144 0
143 140 0
143 139 0
140 139 0
144 142 0
143 139 0
146 141 0
150 146 0
142 139 0
146 142 0
142 140 0
145 142 0
148 144 0
149 144 0
143 138 0
145 141 0
147 143 0
147 144 0
148 144 0
150 146 0
147 144 0
154 150 0
147 143 0
148 145 0
148 142 0
149 145 0
149 146 0
149 144 0
146 145 0
152 148 0
152 150 0
150 147 0
148 146 0
148 144 0
150 147 0
149 146 0
151 147 0
150 148 0
151 147 0
153 149 0
154 151 0
151 146 0
153 149 0
150 147 0
151 147 0
152 149 0
152 148 0
153 150 0
153 150 0
152 149 0
150 147 0
154 149 0
150 147 0
152 148 0
150 147 0
152 150 0
154 150 0
154 151 0
153 150 0
152 149 0
153 150 0
154 150 0
152 149 0
155 151 0
153 150 0
153 150 0
154 151 0
153 150 0
154 150 0
152 149 0
210 228 247
210 228 248
211 229 246
209 227 246
209 227 248
205 224 243
208 226 245
209 227 244
206 224 245
209 227 250
211 228 250
209 226 244
207 225 248
209 227 246
208 226 246
212 230 252
205 223 247
211 228 252
208 226 250
211 228 251
210 228 242
209 227 246
209 227 252
209 226 247
209 227 249
212 229 253
211 229 247
213 231 253
212 230 252
212 229 253
213 231 252
213 230 249
213 230 250
210 228 245
213 230 248
211 229 246
213 231 252
211 228 246
212 230 248
212 229 245
212 230 248
211 229 246
213 231 250
212 230 249
212 230 248
213 230 250
212 230 248
212 230 249
213 230 252
213 230 249
212 230 250
212 230 249
213 230 252
212 230 248
212 229 249
214 231 253
213 231 252
211 229 249
213 230 250
209 227 241
210 227 246
213 230 250
213 231 250
212 230 248
213 231 250
213 231 253
212 230 252
213 230 250
214 231 254
211 229 245
213 230 250
213 231 252
212 229 249
214 231 254
212 229 250
212 229 253
213 231 253
212 230 249
212 230 250
212 229 250
211 229 250
209 227 248
213 230 252
212 230 249
212 230 249
211 229 249
213 231 253
212 230 250
212 230 249
212 230 253
213 231 253
212 230 253
212 230 252
210 228 248
212 230 250
212 230 252
213 230 253
210 228 248
211 229 250
211 229 246
212 230 252
210 228 252
209 228 245
209 228 250
208 226 244
209 227 246
212 230 254
209 228 249
210 229 254
208 226 248
210 229 252
210 229 253
210 229 253
210 229 252
209 227 249
207 226 249
210 229 254
210 229 252
206 226 249
206 225 245
207 227 250
207 227 250
207 227 252
209 229 254
207 227 250
207 227 252
204 224 244
205 225 249
207 227 252
205 225 250
203 224 248
200 221 242
199 220 240
202 223 241
196 218 231
195 218 233
196 218 228
188 211 194
182 205 147
173 197 25
172 195 0
164 188 40
59 90 113
60 94 128
58 92 120
58 92 122
58 91 115
59 92 115
58 92 111
58 93 118
57 91 108
58 93 114
58 92 115
59 93 120
57 90 108
58 92 117
56 89 102
58 91 111
59 93 125
58 92 117
60 94 118
57 90 113
58 91 113
56 90 113
58 92 124
59 93 118
58 91 118
58 91 114
59 93 125
57 90 124
58 91 117
58 91 113
59 93 117
59 93 121
59 93 120
58 91 110
57 90 108
58 91 118
58 91 120
60 94 121
59 93 121
58 92 118
58 92 121
59 92 122
59 93 118
59 92 113
59 93 113
58 92 113
58 92 124
60 94 125
59 93 118
58 92 118
59 93 121
57 91 115
59 93 125
59 93 118
59 93 120
58 91 118
59 92 124
57 91 105
57 90 114
59 92 120
57 90 115
58 91 117
57 91 111
58 91 107
57 91 107
59 93 122
58 91 115
57 90 108
57 90 118
57 90 117
59 93 124
58 91 118
59 92 114
59 92 124
56 90 107
58 91 118
59 94 125
58 91 124
59 92 124
59 93 125
58 92 116
58 92 115
57 90 113
58 92 126
58 90 113
58 91 107
57 91 107
58 91 121
55 88 90
58 92 111
58 91 120
58 91 110
59 92 123
56 89 102
57 90 118
56 89 105
57 89 112
57 89 115
58 91 113
56 90 110
58 90 115
58 91 125
57 89 111
59 92 120
57 89 109
57 88 105
55 86 99
56 87 107
56 88 116
55 87 102
54 85 101
58 90 113
55 86 106
55 85 104
55 86 101
54 83 95
157 180 26
167 188 0
165 186 0
149 153 0
144 138 0
128 124 0
127 121 0
125 120 0
120 113 0
126 119 0
103 99 0
105 103 0
110 105 0
114 110 0
104 100 0
102 97 0
103 98 0
99 93 0
98 95 0
96 92 0
104 98 0
108 102 0
91 89 0
105 101 0
110 106 0
104 101 0
94 91 0
106 102 0
101 98 0
112 107 0
109 106 0
117 114 0
115 111 0
114 111 0
107 105 0
116 111 0
116 115 0
120 114 0
120 117 0
109 106 0
128 123 0
114 112 0
127 124 0
129 125 0
132 128 0
125 122 0
125 120 0
129 126 0
128 125 0
131 127 0
131 128 0
135 131 0
133 131 0
137 133 0
132 127 0
136 134 0
134 130 0
137 133 0
137 133 0
142 138 0
134 132 0
137 133 0
134 130 0
142 137 0
138 135 0
146 142 0
143 140 0
142 138 0
143 139 0
142 141 0
142 138 0
143 140 0
144 140 0
146 142 0
149 145 0
144 140 0
143 141 0
140 137 0
141 139 0
146 143 0
144 140 0
149 145 0
141 139 0
145 142 0
146 142 0
145 140 0
149 145 0
150 146 0
147 143 0
148 143 0
149 145 0
150 146 0
147 144 0
146 142 0
148 143 0
148 144 0
149 145 0
151 146 0
153 150 0
153 150 0
150 147 0
147 143 0
150 147 0
148 144 0
151 147 0
148 144 0
151 148 0
152 149 0
150 146 0
152 148 0
144 139 0
152 147 0
149 145 0
152 148 0
153 149 0
151 148 0
153 149 0
151 147 0
152 149 0
149 146 0
152 148 0
153 150 0
149 147 0
152 148 0
154 149 0
154 151 0
152 148 0
154 149 0
154 150 0
152 149 0
153 149 0
152 148 0
152 148 0
156 151 0
152 149 0
152 147 0
151 147 0
152 148 0
154 150 0
153 150 0
150 146 0
154 150 0
210 228 250
210 228 249
210 228 245
212 230 252
209 227 246
208 226 246
209 227 243
207 225 244
205 224 240
207 225 241
210 228 248
210 228 251
209 227 246
208 226 248
210 228 249
212 230 252
209 227 245
212 230 252
212 230 252
213 231 254
212 230 250
213 230 252
213 230 252
211 229 245
211 229 248
213 230 252
211 229 245
213 230 249
213 231 252
212 230 249
213 230 250
213 231 253
214 231 254
212 230 249
213 231 253
212 230 249
212 230 249
213 230 250
212 229 246
213 231 253
211 228 246
210 228 248
212 230 252
213 231 253
212 230 249
211 229 246
212 229 246
211 229 248
213 230 250
213 231 253
211 229 245
214 232 255
212 230 246
212 230 253
212 230 248
212 230 252
211 229 248
211 229 246
213 231 253
213 231 254
211 228 248
214 231 254
211 229 246
211 228 248
211 229 248
210 228 245
214 231 254
214 231 254
212 230 250
213 230 252
213 231 253
213 231 252
209 226 248
212 230 252
212 230 248
209 227 245
212 230 250
209 227 245
211 229 248
213 231 253
213 231 253
213 231 254
213 230 252
211 229 250
212 230 249
212 229 252
212 230 249
212 230 249
214 231 255
211 229 250
212 230 252
210 228 249
211 230 250
211 229 252
208 226 245
209 227 248
210 228 249
210 229 249
211 229 250
208 227 248
211 229 253
208 226 246
209 228 249
210 228 249
208 227 249
210 228 249
210 229 252
206 225 244
207 226 248
209 228 249
205 223 246
208 227 248
210 229 254
205 224 246
207 226 246
208 227 252
209 228 252
206 225 248
207 226 252
208 227 252
206 226 249
207 227 253
201 220 242
204 223 246
205 225 249
205 225 248
205 226 249
204 224 250
201 222 245
203 224 248
202 223 245
200 222 236
197 219 237
197 219 240
198 220 233
187 209 207
188 212 198
183 207 173
172 194 36
172 195 0
173 196 0
173 196 0
121 145 82
57 89 109
58 92 117
55 87 103
57 90 110
58 91 114
60 94 125
57 90 115
58 92 113
59 93 114
60 94 130
58 91 113
58 91 103
56 89 103
58 91 118
58 92 121
58 91 118
59 92 115
57 91 115
57 91 115
58 92 115
58 91 117
59 93 125
57 91 113
59 92 122
58 92 110
58 92 105
58 91 120
58 92 108
59 92 122
59 93 121
57 91 111
57 90 121
56 89 111
59 93 121
58 92 117
58 92 120
59 94 125
58 92 114
58 92 124
59 93 122
58 93 122
58 92 121
57 90 107
56 89 103
59 93 115
56 89 105
57 90 110
58 91 115
56 89 110
57 90 110
58 91 117
58 91 115
57 91 118
58 92 117
59 93 121
58 92 122
58 92 113
58 92 115
59 93 122
59 92 115
58 92 115
58 91 117
57 90 105
57 90 114
57 90 114
59 93 117
57 91 124
57 90 115
57 90 117
59 92 126
59 93 122
59 93 122
59 93 122
58 91 124
57 90 102
57 90 118
56 89 113
58 92 120
57 89 114
59 93 117
58 91 113
56 90 113
57 91 108
59 92 118
58 91 118
56 90 97
55 87 88
57 90 102
56 88 111
57 89 108
56 89 122
58 91 115
57 90 120
57 90 118
56 88 105
55 87 100
56 88 116
56 88 104
56 88 113
57 90 105
57 89 113
58 91 114
55 86 118
55 86 110
55 87 110
56 88 105
55 87 105
58 90 113
56 87 109
57 89 114
54 84 104
54 84 101
56 86 103
55 84 98
121 142 73
165 186 0
169 190 0
171 191 0
168 188 0
147 146 0
138 133 0
134 129 0
128 125 0
128 121 0
119 116 0
112 108 0
121 115 0
116 111 0
101 97 0
97 93 0
99 94 0
94 88 0
99 93 0
97 93 0
107 104 0
101 96 0
101 96 0
100 95 0
90 88 0
95 91 0
96 94 0
108 103 0
109 105 0
108 105 0
114 109 0
115 109 0
110 107 0
106 101 0
110 106 0
109 105 0
117 113 0
117 114 0
116 112 0
127 121 0
123 119 0
122 119 0
119 115 0
116 113 0
124 121 0
125 122 0
122 119 0
121 117 0
134 130 0
123 119 0
127 124 0
127 124 0
131 128 0
135 132 0
133 129 0
136 133 0
129 126 0
134 131 0
136 133 0
139 136 0
142 139 0
140 134 0
136 132 0
131 127 0
138 135 0
145 140 0
136 133 0
138 136 0
139 136 0
139 135 0
142 138 0
144 140 0
142 139 0
140 137 0
145 140 0
143 139 0
143 141 0
148 144 0
142 140 0
142 139 0
143 140 0
145 141 0
146 142 0
144 139 0
147 142 0
149 146 0
147 143 0
145 141 0
149 145 0
147 143 0
147 142 0
149 144 0
142 138 0
150 145 0
144 140 0
147 143 0
148 145 0
148 143 0
147 143 0
148 145 0
147 143 0
147 143 0
149 146 0
148 142 0
150 148 0
148 144 0
149 146 0
153 148 0
147 142 0
147 144 0
151 147 0
152 149 0
150 146 0
151 148 0
149 146 0
150 147 0
150 146 0
153 149 0
144 141 0
152 148 0
150 145 0
149 146 0
148 144 0
153 149 0
152 149 0
151 147 0
152 148 0
148 146 0
152 148 0
152 150 0
151 148 0
155 151 0
152 148 0
154 149 0
152 149 0
152 148 0
154 150 0
153 150 0
152 148 0
154 151 0
154 150 0
155 151 0
151 147 0
207 225 247
206 225 246
211 229 252
209 227 240
211 230 249
211 230 250
209 228 249
209 227 247
211 229 249
212 230 252
212 230 252
212 230 250
211 229 246
211 229 248
210 228 245
211 229 249
212 230 250
211 229 252
211 229 249
212 230 250
212 230 252
212 230 252
212 230 250
210 228 246
212 230 250
211 229 249
212 229 252
211 229 250
212 230 250
212 230 250
212 230 249
213 231 253
211 229 246
211 228 244
213 231 254
212 229 248
212 230 252
211 229 250
213 231 253
213 230 252
210 228 246
211 229 246
212 229 250
210 229 248
213 231 254
211 229 248
212 230 250
212 230 252
211 229 249
210 228 242
212 230 250
211 228 246
213 230 252
211 229 248
211 229 249
212 229 250
213 231 253
211 229 249
212 230 252
213 230 250
212 230 252
212 230 249
213 231 253
212 230 253
210 228 245
213 230 252
213 231 253
212 229 250
212 230 250
210 228 242
212 230 250
212 230 250
212 230 249
211 229 250
210 228 249
211 229 249
212 230 250
212 230 249
211 229 250
212 230 254
212 230 252
209 227 246
208 226 249
211 230 250
209 227 246
212 230 253
212 230 252
208 227 244
210 229 249
211 229 250
210 228 245
211 229 252
210 228 245
211 229 252
211 230 250
210 228 246
212 230 252
211 230 252
210 228 250
211 229 253
211 229 252
211 230 253
210 228 249
211 229 250
209 227 250
209 227 250
209 228 248
210 229 252
209 228 249
208 227 249
210 229 254
206 225 248
210 229 253
209 228 254
209 229 253
207 226 249
208 227 250
206 225 250
206 226 248
206 226 250
206 226 246
203 223 244
207 227 252
206 226 248
204 224 248
203 223 249
203 224 249
203 224 244
200 221 244
204 225 250
199 220 238
199 222 241
196 218 237
197 219 236
193 216 223
193 216 220
184 208 179
177 199 76
175 197 0
171 194 0
172 195 0
171 194 0
165 187 44
57 90 121
57 90 105
58 91 117
58 91 110
57 91 108
58 91 121
58 91 125
57 90 113
61 95 134
57 90 115
58 92 124
57 91 117
59 92 128
59 92 118
59 92 113
58 92 102
56 89 105
57 91 114
57 90 115
57 90 111
59 92 120
57 91 108
58 92 117
57 90 117
57 91 114
57 90 111
58 91 105
58 92 117
58 91 111
58 92 118
58 92 125
59 93 117
58 91 114
58 91 107
58 91 113
59 92 117
57 90 113
57 92 105
60 94 122
57 90 110
56 89 108
57 90 113
60 94 129
57 90 107
58 91 118
58 91 117
59 92 118
59 93 124
56 90 107
55 88 99
56 89 103
57 90 121
56 89 111
58 92 120
58 91 113
59 93 124
58 92 122
58 92 113
58 91 121
58 91 118
58 93 121
58 92 122
59 92 113
57 90 117
57 91 115
58 92 121
59 93 126
58 91 111
58 91 120
58 91 121
57 90 107
58 92 120
59 92 114
56 89 107
57 91 110
58 92 120
57 89 115
57 91 117
55 87 105
58 92 128
56 88 113
57 90 115
58 92 110
59 92 121
57 90 117
58 91 120
56 89 108
59 93 117
55 86 105
56 89 108
57 89 110
59 92 124
58 91 111
57 90 109
57 89 107
57 90 114
56 88 102
56 88 110
55 87 102
57 89 111
56 87 103
55 86 105
58 91 119
56 88 111
54 85 84
56 87 104
58 90 117
55 85 110
54 85 101
56 87 111
53 84 89
54 84 96
52 80 83
56 83 84
162 181 0
167 189 0
165 184 0
168 187 0
165 186 0
165 182 0
137 132 0
130 125 0
126 119 0
123 117 0
118 111 0
117 111 0
120 115 0
110 105 0
108 101 0
101 95 0
99 94 0
104 99 0
99 95 0
113 106 0
94 90 0
91 87 0
95 89 0
109 103 0
97 92 0
106 100 0
114 108 0
107 101 0
112 108 0
109 106 0
111 106 0
120 114 0
110 107 0
118 115 0
114 110 0
112 107 0
108 104 0
111 108 0
119 116 0
119 115 0
112 110 0
115 113 0
114 111 0
127 123 0
119 115 0
125 121 0
124 120 0
130 125 0
131 127 0
122 119 0
128 124 0
136 132 0
134 130 0
131 127 0
125 123 0
131 127 0
127 123 0
129 124 0
135 131 0
135 132 0
138 134 0
133 129 0
138 133 0
138 132 0
140 136 0
134 130 0
141 136 0
138 135 0
137 132 0
142 139 0
135 132 0
143 137 0
136 133 0
138 135 0
145 141 0
144 140 0
140 138 0
146 143 0
141 137 0
144 139 0
145 141 0
148 145 0
144 140 0
142 138 0
148 145 0
145 142 0
146 142 0
147 143 0
142 139 0
146 141 0
148 144 0
141 136 0
147 142 0
145 141 0
147 143 0
144 140 0
149 146 0
150 146 0
147 144 0
150 146 0
148 142 0
148 143 0
148 144 0
145 142 0
150 147 0
143 139 0
148 144 0
150 146 0
149 145 0
151 147 0
151 147 0
152 147 0
148 142 0
150 146 0
149 144 0
150 146 0
150 146 0
152 149 0
152 150 0
150 146 0
150 146 0
150 146 0
151 147 0
155 149 0
152 148 0
150 146 0
152 147 0
151 147 0
151 147 0
150 147 0
152 148 0
151 146 0
154 150 0
151 147 0
153 150 0
153 149 0
151 147 0
151 147 0
153 149 0
155 151 0
150 147 0
151 148 0
153 149 0
209 227 246
211 229 249
209 228 242
211 229 248
210 228 244
212 230 252
211 229 249
210 229 248
211 230 250
211 229 248
211 229 246
210 229 249
212 230 250
213 231 254
211 229 249
211 229 246
210 228 244
211 229 248
212 230 250
210 228 245
211 229 248
211 230 249
211 229 250
211 229 248
211 229 249
211 230 250
211 229 248
212 230 250
213 231 253
212 230 252
212 230 252
212 230 252
212 230 253
211 229 249
209 227 244
212 230 250
212 230 250
212 230 253
210 228 248
212 230 250
213 230 253
210 228 245
210 228 249
213 231 254
211 229 246
211 229 249
211 229 252
212 230 249
212 230 252
212 230 250
211 229 249
213 231 253
213 231 253
212 230 252
212 230 249
212 230 250
211 229 250
211 229 250
212 230 252
212 230 250
211 229 249
211 229 249
213 231 254
211 229 246
212 230 252
212 230 252
212 230 250
210 228 244
212 230 252
210 228 250
208 226 246
212 230 252
213 231 254
212 229 252
213 231 254
211 229 248
211 230 250
211 230 249
212 230 253
213 231 254
212 230 253
211 229 253
210 229 246
210 228 248
208 226 246
210 228 246
211 229 248
211 229 249
210 228 253
211 229 253
207 226 246
210 228 249
210 229 249
206 225 240
208 227 245
208 227 246
210 229 249
209 228 250
208 227 248
209 228 252
209 228 250
209 228 248
210 229 254
210 228 252
208 227 249
209 228 249
210 229 254
208 226 249
207 225 248
210 229 250
206 226 248
207 226 248
208 228 253
206 225 250
207 226 250
209 229 255
206 226 249
208 228 252
203 223 246
206 227 252
205 225 249
207 227 253
203 224 246
205 225 250
203 224 246
200 221 241
204 225 250
200 221 246
199 221 242
200 222 245
199 221 244
196 218 234
197 220 240
191 215 215
189 212 212
183 207 177
173 196 92
171 194 0
173 196 0
173 196 0
170 193 0
171 195 0
169 192 0
133 157 88
58 91 111
55 87 102
58 91 117
58 91 110
56 89 110
56 89 103
56 89 103
59 93 118
55 87 102
57 89 100
56 89 102
58 91 110
57 90 113
57 90 117
58 92 118
58 92 118
59 93 117
57 90 113
56 89 111
57 91 117
57 90 102
59 94 115
59 92 113
59 93 120
59 93 117
57 90 114
58 92 115
57 91 103
57 89 108
58 92 117
60 94 124
58 92 117
58 91 115
58 92 105
57 91 110
59 93 129
58 91 115
56 89 115
58 92 108
59 93 128
58 92 115
57 91 120
58 92 111
59 92 122
56 89 108
58 92 113
57 91 105
57 90 108
58 91 113
59 93 122
57 90 115
58 92 128
58 92 124
57 90 124
58 91 113
58 92 115
56 90 100
57 90 117
59 93 122
58 92 115
59 93 121
56 88 102
56 89 111
57 90 95
57 90 113
57 90 105
57 90 115
56 89 105
58 91 121
58 91 111
57 90 108
58 91 115
57 90 105
57 90 117
58 91 118
58 91 122
56 89 111
56 88 110
58 91 113
56 89 102
59 92 121
57 89 103
56 88 115
59 92 120
56 89 113
57 90 104
57 90 117
56 88 118
59 92 124
58 91 118
58 91 116
57 90 110
58 91 119
56 89 111
54 85 89
59 92 117
57 90 113
57 91 114
56 88 115
54 86 90
56 88 115
54 86 96
56 88 102
58 90 117
55 86 111
55 86 89
56 87 99
57 88 109
55 85 103
55 85 92
55 85 101
52 79 83
110 129 66
166 186 0
165 186 0
164 183 0
166 187 0
164 185 0
165 185 0
163 176 0
135 127 0
126 120 0
126 118 0
125 118 0
120 113 0
118 110 0
112 107 0
108 102 0
106 100 0
111 106 0
110 104 0
121 115 0
98 93 0
101 97 0
101 94 0
99 96 0
95 92 0
100 95 0
93 90 0
103 97 0
97 95 0
107 104 0
112 108 0
110 104 0
107 104 0
116 113 0
107 105 0
118 115 0
116 112 0
110 106 0
110 106 0
119 114 0
123 119 0
109 107 0
118 115 0
126 120 0
123 120 0
122 118 0
121 117 0
119 115 0
130 126 0
129 123 0
128 122 0
121 117 0
130 127 0
129 124 0
137 133 0
130 125 0
138 133 0
132 129 0
135 132 0
136 131 0
138 134 0
137 133 0
140 135 0
133 129 0
136 130 0
133 127 0
134 131 0
139 135 0
136 132 0
141 137 0
136 133 0
141 136 0
141 137 0
143 138 0
138 134 0
139 136 0
139 134 0
143 139 0
138 133 0
139 133 0
140 135 0
144 139 0
146 141 0
142 138 0
148 142 0
143 139 0
142 138 0
147 142 0
144 139 0
147 143 0
143 140 0
147 143 0
148 141 0
147 144 0
142 137 0
147 143 0
149 143 0
147 143 0
147 143 0
151 146 0
142 138 0
144 139 0
147 144 0
146 142 0
147 143 0
148 144 0
147 144 0
150 148 0
146 142 0
147 144 0
151 147 0
144 140 0
150 146 0
149 144 0
150 147 0
149 145 0
147 143 0
152 148 0
149 144 0
152 147 0
150 147 0
153 148 0
149 146 0
149 146 0
153 149 0
150 147 0
151 147 0
150 146 0
150 145 0
150 146 0
153 148 0
150 146 0
149 146 0
149 145 0
153 148 0
155 150 0
152 148 0
152 149 0
152 148 0
154 151 0
153 147 0
153 149 0
151 147 0
152 148 0
211 230 253
211 229 250
210 229 248
209 228 245
211 229 250
211 229 249
210 229 248
209 228 242
211 230 252
210 228 246
210 229 246
212 230 253
211 229 249
210 229 248
211 229 250
210 228 248
211 230 250
212 230 253
210 228 245
211 229 249
211 229 249
210 228 246
211 230 250
212 230 254
210 229 248
211 229 248
210 228 249
211 230 250
212 230 252
211 229 249
211 229 246
212 230 254
210 228 246
212 230 253
212 230 252
212 230 252
212 230 253
212 230 253
212 230 253
211 229 249
213 231 254
211 229 249
212 230 250
211 229 249
212 230 250
211 229 246
212 230 252
210 228 249
211 229 249
211 229 246
211 229 246
211 229 250
211 229 250
211 229 248
211 230 250
212 230 250
212 230 253
212 230 252
211 229 249
213 231 254
209 227 244
212 230 253
210 228 248
210 229 246
212 230 253
212 230 252
210 228 245
209 228 246
211 229 250
211 229 252
210 228 250
210 228 246
211 229 249
213 231 254
212 230 250
211 229 249
209 227 248
210 229 249
210 228 250
212 230 253
209 227 248
212 230 252
209 228 242
209 227 248
212 230 254
210 229 249
208 226 248
208 226 246
207 225 246
210 228 252
208 226 249
209 227 250
209 228 248
212 230 254
211 230 254
209 227 250
209 227 246
210 228 250
208 227 248
210 228 249
209 228 252
209 228 252
209 228 252
208 227 249
208 227 250
210 229 253
207 226 249
208 227 248
208 227 249
209 228 252
207 226 248
205 225 249
207 227 250
207 226 252
207 227 249
207 227 253
206 226 246
205 225 248
208 228 255
201 221 241
206 227 250
204 225 248
202 223 246
204 225 249
202 223 248
201 223 246
201 223 244
196 217 237
198 220 245
200 222 245
198 221 240
195 218 231
190 214 224
187 211 211
181 205 186
175 198 102
173 195 0
168 192 0
170 193 0
169 192 0
174 197 0
169 192 0
167 191 0
172 195 0
70 101 110
56 88 107
57 90 114
56 89 105
55 88 107
57 90 107
58 91 118
58 91 114
57 90 108
58 91 105
57 91 108
56 89 108
57 90 115
57 90 114
58 92 113
58 92 115
58 91 121
58 92 124
57 91 117
58 91 117
58 91 120
58 92 118
57 91 111
59 93 130
58 91 118
57 89 108
58 92 105
57 90 125
56 89 105
58 92 117
57 90 115
60 95 130
56 89 107
57 90 117
56 88 113
57 90 117
57 90 113
57 90 115
58 91 107
57 91 107
56 89 113
57 90 113
58 91 110
59 93 117
57 91 117
58 92 122
58 92 111
58 91 111
56 90 107
58 91 108
54 86 95
58 91 121
57 91 121
59 94 125
57 89 111
59 92 115
57 90 117
58 91 113
58 91 108
56 89 110
59 93 124
58 91 115
58 92 114
58 91 121
57 90 107
58 92 117
55 87 114
56 89 114
58 91 113
57 90 111
57 90 122
57 90 107
57 90 107
58 91 111
58 91 114
57 89 121
59 93 121
56 88 111
58 91 114
56 89 117
57 90 114
56 88 107
56 88 99
57 90 105
57 90 113
58 91 115
57 91 120
57 90 119
56 88 90
58 91 113
57 89 121
58 90 119
58 91 108
58 91 117
57 90 118
58 90 116
59 92 121
56 88 110
57 90 111
55 87 104
56 89 107
57 89 114
56 88 105
54 84 99
56 87 107
54 86 102
53 82 93
55 86 97
56 87 104
54 84 98
54 83 96
71 95 71
156 176 8
163 182 0
160 178 0
164 182 0
166 187 0
169 186 0
162 181 0
166 186 0
159 170 0
133 127 0
133 124 0
117 110 0
117 110 0
119 113 0
115 108 0
105 101 0
106 101 0
103 98 0
103 100 0
110 106 0
105 100 0
113 107 0
93 90 0
106 102 0
108 104 0
110 104 0
107 101 0
109 103 0
111 106 0
108 104 0
108 101 0
110 104 0
103 98 0
96 92 0
119 113 0
113 107 0
113 109 0
118 114 0
131 125 0
107 105 0
118 111 0
116 110 0
123 117 0
116 112 0
116 111 0
127 123 0
128 123 0
128 123 0
125 120 0
121 117 0
121 116 0
123 120 0
134 130 0
135 129 0
132 127 0
137 133 0
130 126 0
138 134 0
136 131 0
134 129 0
131 125 0
132 129 0
131 127 0
136 132 0
132 129 0
141 137 0
142 136 0
139 136 0
134 131 0
139 135 0
140 135 0
137 134 0
140 136 0
139 135 0
139 135 0
143 140 0
144 139 0
140 137 0
143 138 0
140 136 0
145 140 0
143 135 0
145 141 0
138 136 0
144 137 0
146 142 0
142 138 0
141 137 0
148 144 0
142 137 0
148 145 0
145 140 0
147 143 0
144 140 0
146 141 0
151 146 0
145 141 0
146 142 0
149 144 0
145 140 0
147 144 0
144 138 0
146 143 0
147 143 0
147 142 0
144 141 0
145 141 0
149 144 0
149 145 0
148 144 0
151 146 0
150 146 0
150 145 0
147 143 0
152 146 0
150 146 0
151 148 0
149 145 0
152 148 0
150 146 0
151 148 0
148 144 0
148 144 0
147 143 0
150 147 0
151 147 0
153 150 0
152 147 0
150 145 0
152 148 0
152 148 0
154 149 0
153 149 0
151 146 0
155 150 0
152 148 0
153 148 0
152 148 0
152 149 0
151 148 0
153 149 0
155 151 0
151 147 0
153 149 0
211 229 252
209 228 244
210 229 248
210 228 248
210 228 248
211 229 253
208 227 244
210 229 249
210 229 248
210 229 249
209 228 246
211 230 252
209 228 245
211 229 249
210 229 246
210 229 249
210 229 249
211 229 250
211 229 250
211 230 252
209 228 245
211 230 252
210 229 246
211 229 250
210 229 249
211 230 252
211 229 249
210 229 246
211 230 250
208 227 241
212 230 252
212 230 252
212 230 253
211 229 250
211 230 250
211 229 252
212 230 253
209 228 244
211 229 248
211 229 252
211 230 252
211 229 253
211 230 252
212 230 252
212 230 253
211 229 248
210 229 248
212 230 252
212 230 253
211 229 250
211 229 250
212 231 254
211 229 253
210 229 248
210 229 249
211 229 248
209 228 245
211 229 249
212 230 250
210 229 248
208 227 240
212 230 252
211 229 252
211 229 250
211 229 250
212 230 253
212 230 254
210 228 252
210 229 250
211 229 248
211 229 249
210 229 249
211 229 250
210 229 250
210 228 249
212 230 254
212 230 254
211 229 249
211 230 252
210 229 249
212 230 254
211 229 250
210 229 249
210 229 250
211 229 253
209 228 249
210 229 249
209 228 252
210 229 250
210 228 250
209 228 248
209 228 253
210 229 252
209 228 250
210 228 252
211 230 254
210 229 254
209 228 252
209 228 250
209 228 253
209 228 252
209 228 250
208 227 249
209 229 253
208 227 252
209 228 252
205 224 248
209 228 252
209 228 253
207 226 249
207 227 246
206 225 248
205 225 245
207 227 252
206 226 253
205 225 248
206 226 250
207 227 253
205 226 249
200 221 242
203 224 250
205 226 252
202 223 249
200 221 242
202 223 248
200 221 242
200 221 245
198 220 238
196 218 236
196 218 238
195 218 237
188 212 226
187 211 209
182 206 191
177 199 114
166 190 0
165 188 0
172 194 0
169 192 0
171 193 0
170 193 0
168 191 0
172 195 0
169 193 0
149 172 74
56 89 108
55 88 97
58 91 115
56 89 113
56 89 113
57 90 108
56 89 104
56 89 105
58 92 117
59 93 126
57 91 100
57 91 111
59 93 122
58 91 114
59 93 128
55 87 108
59 92 117
57 90 108
57 90 110
58 91 120
58 91 108
56 88 120
56 90 110
58 92 117
58 92 113
59 92 115
56 89 108
57 91 113
56 89 96
56 89 108
57 90 111
57 91 117
57 90 110
58 91 113
56 89 117
58 91 111
56 89 111
58 91 114
56 89 105
59 93 121
59 93 120
59 93 113
57 91 110
58 91 117
58 92 117
57 91 113
58 91 118
59 92 115
56 90 108
56 89 103
57 90 117
58 91 120
57 90 113
57 91 108
58 91 108
58 91 117
57 90 118
58 92 113
57 91 117
56 88 100
58 91 115
57 90 117
57 90 113
59 92 129
58 91 113
57 90 103
58 91 117
56 88 105
58 91 117
57 90 114
57 91 113
58 92 115
57 90 118
57 89 115
56 89 107
56 88 107
56 89 113
57 90 113
57 90 114
59 93 114
57 91 114
57 89 105
57 90 115
56 89 108
56 89 110
58 91 113
57 90 107
58 90 113
56 88 106
58 91 113
55 87 102
59 92 111
56 88 107
55 87 96
56 89 107
57 89 111
56 88 87
56 88 113
55 87 100
54 85 92
57 90 107
54 85 92
57 88 109
57 89 110
56 87 107
58 90 109
55 85 102
52 82 104
53 83 91
55 84 101
128 146 52
159 177 0
162 178 0
161 180 0
162 180 0
159 175 0
165 183 0
166 185 0
162 180 0
164 183 0
153 160 0
131 124 0
119 112 0
123 118 0
115 106 0
108 103 0
110 104 0
110 103 0
113 108 0
111 103 0
101 96 0
111 105 0
102 95 0
115 109 0
107 101 0
96 91 0
108 101 0
114 108 0
101 96 0
104 99 0
110 105 0
113 108 0
118 112 0
106 101 0
119 113 0
115 112 0
116 111 0
107 105 0
120 114 0
117 112 0
116 110 0
116 110 0
122 116 0
117 113 0
124 118 0
119 113 0
118 114 0
123 119 0
121 115 0
120 117 0
119 115 0
127 122 0
129 122 0
131 126 0
133 128 0
137 132 0
129 124 0
130 125 0
123 119 0
128 123 0
131 129 0
137 131 0
138 132 0
133 131 0
139 135 0
128 124 0
141 137 0
137 132 0
139 136 0
140 135 0
136 132 0
147 140 0
148 143 0
142 136 0
141 136 0
139 133 0
140 135 0
144 138 0
145 140 0
141 136 0
139 135 0
143 139 0
144 137 0
140 137 0
145 142 0
146 140 0
144 139 0
144 138 0
145 141 0
142 138 0
149 144 0
138 133 0
145 140 0
146 143 0
148 142 0
144 140 0
147 143 0
141 138 0
146 140 0
143 138 0
147 143 0
148 144 0
149 145 0
151 146 0
150 145 0
149 145 0
151 146 0
149 144 0
146 142 0
147 143 0
148 144 0
150 146 0
149 145 0
144 140 0
151 145 0
150 145 0
148 143 0
151 146 0
149 144 0
150 146 0
149 144 0
149 145 0
153 148 0
150 146 0
151 147 0
152 147 0
151 147 0
149 144 0
150 147 0
150 145 0
149 145 0
151 146 0
153 149 0
150 145 0
150 146 0
153 149 0
155 150 0
154 149 0
151 147 0
150 145 0
152 148 0
152 148 0
154 150 0
150 148 0
154 151 0
209 228 246
210 229 250
208 227 241
210 229 249
209 228 244
209 228 248
209 228 245
210 228 248
210 229 250
209 228 246
210 229 249
210 228 248
210 228 248
211 229 250
210 229 250
210 228 248
211 229 250
210 229 252
210 228 246
210 228 246
210 229 248
210 229 248
211 230 252
210 229 249
211 229 250
211 230 252
211 229 250
210 228 246
210 229 248
211 230 252
210 229 249
211 230 252
211 230 252
212 230 253
211 229 250
208 226 245
212 230 253
211 230 250
210 229 250
209 228 245
212 230 253
212 230 252
210 228 248
211 229 252
210 229 248
211 229 252
210 229 249
210 229 249
212 230 253
212 230 252
211 230 252
209 227 245
210 228 249
210 229 250
211 229 252
209 228 246
210 229 248
211 229 250
210 228 249
212 230 254
211 229 250
211 229 252
211 230 252
211 230 252
209 227 245
209 228 246
208 227 246
210 229 248
211 229 250
210 229 252
210 228 248
210 229 248
210 228 252
208 227 248
210 229 252
207 226 241
211 230 253
210 228 250
210 229 249
210 229 250
210 228 248
208 227 249
211 229 250
208 227 246
210 228 250
210 229 252
208 226 249
209 228 246
208 226 248
210 228 253
209 228 252
209 228 250
209 227 252
209 228 250
209 228 249
210 229 253
207 226 246
208 227 245
207 226 250
208 228 248
208 228 250
208 228 250
209 228 253
208 228 250
207 227 250
204 223 246
208 227 252
206 226 249
208 228 252
204 224 245
205 224 248
206 226 250
205 224 249
203 223 249
206 226 252
205 226 249
203 224 245
206 226 252
204 225 249
201 222 245
202 223 249
203 224 250
204 225 250
201 223 245
199 221 241
201 224 245
197 220 241
195 217 234
194 217 238
195 218 231
192 216 228
183 207 207
177 201 173
174 198 99
172 195 0
172 195 0
171 193 0
169 192 0
171 194 0
171 194 0
168 191 0
171 194 0
170 193 0
170 193 0
167 190 0
108 133 96
57 90 114
57 89 105
59 92 114
58 92 121
57 90 107
55 87 102
57 91 105
56 89 110
56 89 107
58 91 121
58 92 121
58 92 113
58 91 118
57 91 121
56 90 110
56 89 111
57 90 114
57 90 111
58 92 114
56 88 110
59 93 111
58 91 120
58 91 113
59 93 121
56 90 102
59 92 115
59 92 111
58 91 117
59 93 110
57 90 107
57 91 107
58 91 103
58 91 115
58 91 122
58 91 100
55 88 102
57 90 111
58 92 122
58 92 121
59 93 122
57 90 99
58 92 111
58 91 114
57 90 113
59 93 124
56 89 105
59 93 126
57 90 108
58 91 118
58 92 115
56 89 103
57 91 117
59 92 113
56 88 102
58 92 117
59 92 124
56 89 110
58 92 114
57 90 114
58 91 115
59 93 128
57 90 110
57 90 114
59 93 117
56 89 105
58 91 108
57 89 117
56 90 114
57 90 108
57 90 114
56 89 110
58 91 117
56 88 111
56 88 107
56 89 107
59 92 125
58 91 118
55 88 107
56 89 105
55 87 97
56 89 121
58 92 118
55 87 95
56 89 105
56 88 111
58 92 118
55 87 97
55 87 107
57 90 113
57 89 116
57 90 108
57 89 108
59 92 121
58 91 123
57 90 116
57 89 114
53 83 101
54 85 96
56 88 94
55 87 103
55 87 101
54 84 100
55 85 107
52 81 102
57 89 112
54 85 96
54 84 96
54 83 96
89 110 68
164 183 0
158 173 0
159 179 0
160 175 0
166 186 0
160 178 0
163 182 0
162 181 0
162 179 0
167 184 0
167 182 0
149 153 0
125 116 0
123 114 0
119 112 0
113 109 0
118 111 0
116 110 0
112 103 0
106 99 0
104 99 0
110 105 0
107 99 0
113 107 0
113 106 0
113 108 0
111 105 0
117 110 0
107 100 0
108 103 0
109 104 0
108 102 0
111 105 0
119 113 0
112 107 0
114 110 0
110 105 0
112 107 0
112 109 0
124 119 0
116 110 0
113 106 0
127 121 0
124 118 0
124 121 0
122 117 0
121 115 0
122 117 0
124 119 0
126 121 0
119 113 0
131 126 0
129 123 0
127 123 0
131 125 0
128 123 0
134 127 0
132 128 0
136 131 0
135 129 0
125 119 0
127 124 0
127 123 0
124 121 0
132 127 0
138 133 0
135 132 0
140 135 0
135 131 0
141 134 0
134 130 0
133 128 0
142 138 0
141 137 0
140 135 0
145 140 0
142 137 0
143 138 0
136 132 0
137 131 0
142 136 0
143 137 0
145 139 0
147 142 0
138 132 0
143 138 0
138 133 0
143 139 0
145 139 0
142 139 0
146 142 0
144 138 0
140 136 0
148 143 0
145 141 0
142 136 0
144 138 0
146 141 0
150 144 0
147 141 0
147 142 0
146 143 0
144 141 0
146 142 0
147 142 0
149 145 0
150 146 0
144 141 0
148 143 0
150 146 0
146 141 0
148 141 0
150 145 0
147 142 0
149 145 0
150 144 0
149 144 0
150 145 0
149 146 0
152 146 0
151 145 0
152 148 0
153 149 0
149 146 0
151 146 0
153 149 0
153 148 0
152 148 0
151 147 0
152 148 0
153 149 0
146 140 0
149 144 0
151 147 0
152 148 0
151 147 0
151 147 0
150 145 0
152 148 0
152 147 0
151 147 0
152 148 0
152 148 0
154 149 0
154 151 0
207 227 242
209 228 246
210 229 250
209 228 249
210 229 250
209 228 246
210 229 252
210 229 250
210 229 248
210 229 252
210 229 250
209 227 244
208 227 245
210 229 250
211 229 252
211 229 252
210 229 250
210 229 250
209 228 246
209 228 246
209 228 245
210 228 248
210 229 249
210 229 249
210 229 248
210 228 248
210 228 248
211 229 250
209 228 248
211 229 252
212 230 254
209 228 246
211 230 253
212 230 255
211 229 252
209 228 246
212 230 254
210 229 248
211 229 250
209 227 246
211 230 252
210 229 249
211 229 252
210 228 250
209 228 249
212 231 255
211 230 252
210 229 248
209 228 246
210 229 248
209 228 244
211 229 250
209 228 249
211 230 253
210 229 250
208 226 248
210 229 250
211 230 253
211 230 253
211 229 250
210 228 249
210 229 250
211 230 252
211 230 254
209 228 249
211 230 253
209 228 249
210 229 250
210 229 249
211 230 254
210 229 249
210 228 250
212 230 255
209 228 250
209 228 249
209 228 246
210 229 250
209 228 249
208 227 245
210 228 252
208 227 246
208 227 248
209 228 249
209 228 249
208 227 248
210 229 252
209 228 248
208 227 250
210 229 253
208 227 249
209 228 249
210 229 252
204 223 244
208 227 249
208 228 252
209 229 252
207 226 246
208 227 250
208 227 252
208 227 252
208 227 252
208 228 250
208 227 250
207 227 250
208 228 253
206 226 248
205 225 245
199 219 236
207 227 250
205 225 250
204 224 248
205 226 250
207 227 252
206 226 252
206 227 252
203 224 249
201 222 245
205 227 253
201 222 245
201 223 246
199 220 244
203 225 248
199 221 241
198 220 240
201 223 244
198 221 245
191 214 237
190 213 223
191 214 231
189 213 227
190 214 217
178 203 189
176 200 108
165 188 0
173 195 0
169 191 0
172 195 0
166 188 0
167 190 0
168 192 0
170 192 0
163 186 0
164 188 0
167 190 0
167 190 0
159 182 31
63 95 99
57 91 121
55 88 95
57 90 105
58 91 115
56 89 102
57 90 105
59 93 126
55 88 103
58 91 121
56 88 114
58 92 120
56 89 103
58 91 120
59 93 115
58 91 108
55 87 95
57 90 102
58 91 118
59 92 115
56 89 103
56 89 103
57 91 114
58 91 118
57 89 108
58 92 113
58 92 118
57 91 103
56 90 113
59 93 113
56 89 103
58 92 114
57 90 111
56 89 110
56 89 99
56 89 103
55 87 90
57 91 120
56 89 103
55 88 95
59 93 121
56 89 108
56 90 115
56 88 105
60 93 121
57 90 111
57 91 113
56 88 102
56 90 97
56 88 108
58 91 105
58 92 118
57 90 113
56 89 103
57 91 105
56 88 107
56 89 102
57 91 113
57 90 102
57 91 110
58 91 114
57 90 114
56 89 110
54 87 103
59 93 125
58 91 113
58 92 115
57 89 117
58 91 115
56 89 99
56 89 103
56 89 103
58 92 114
58 92 122
58 91 111
55 86 103
57 89 113
55 87 107
56 89 108
57 90 105
56 88 108
57 90 113
57 89 115
58 90 115
56 89 102
55 87 90
57 90 116
57 89 118
55 86 102
55 87 103
54 85 81
56 88 107
55 87 105
55 87 99
58 90 113
58 91 116
56 88 107
55 86 89
54 84 104
55 86 99
54 85 106
56 87 113
55 86 99
55 87 101
54 84 93
52 81 84
55 85 100
65 90 96
148 163 33
150 166 0
164 180 0
159 178 0
158 174 0
156 173 0
163 180 0
159 176 0
165 183 0
156 172 0
156 171 0
165 183 0
160 178 0
148 150 0
134 127 0
123 116 0
115 104 0
123 113 0
107 99 0
104 97 0
110 103 0
115 106 0
100 92 0
106 99 0
115 109 0
106 101 0
100 94 0
112 106 0
117 109 0
106 102 0
104 99 0
109 104 0
112 105 0
105 98 0
117 111 0
117 109 0
118 111 0
111 106 0
118 111 0
112 105 0
124 116 0
119 113 0
115 109 0
124 118 0
118 114 0
117 111 0
125 119 0
123 115 0
123 119 0
125 120 0
129 123 0
119 115 0
128 122 0
127 122 0
122 117 0
123 119 0
127 122 0
126 122 0
134 128 0
125 120 0
137 132 0
133 127 0
135 129 0
131 125 0
138 132 0
130 126 0
135 130 0
132 127 0
126 121 0
131 127 0
147 142 0
136 131 0
143 138 0
138 132 0
131 127 0
137 131 0
137 133 0
140 135 0
136 131 0
146 140 0
140 136 0
137 132 0
143 138 0
147 143 0
146 141 0
141 136 0
142 137 0
144 139 0
142 139 0
143 138 0
144 140 0
145 140 0
143 137 0
144 139 0
145 140 0
141 137 0
144 139 0
148 144 0
144 138 0
148 144 0
146 140 0
145 140 0
149 143 0
147 142 0
147 143 0
150 145 0
145 141 0
146 143 0
149 144 0
147 142 0
149 144 0
147 141 0
147 142 0
148 143 0
151 146 0
147 142 0
149 143 0
150 147 0
148 142 0
150 144 0
150 146 0
150 147 0
151 145 0
148 144 0
154 149 0
152 148 0
147 143 0
149 145 0
150 145 0
150 144 0
149 145 0
154 149 0
150 146 0
151 147 0
151 146 0
151 146 0
153 149 0
154 149 0
153 148 0
148 145 0
152 146 0
153 148 0
152 147 0
152 150 0
154 149 0
151 146 0
208 227 249
208 227 245
208 227 246
208 227 244
208 227 245
208 227 245
208 227 245
210 229 253
209 228 246
209 228 250
209 228 252
210 229 252
207 226 240
209 228 250
208 227 244
210 229 253
211 229 253
209 228 248
210 229 250
210 228 249
209 228 248
210 228 252
210 229 252
209 228 248
209 228 248
210 229 250
210 228 248
210 229 250
209 227 245
209 227 244
209 227 246
210 228 250
210 229 250
209 228 246
211 229 252
210 229 252
211 229 252
209 228 248
210 229 249
210 228 249
211 229 252
211 229 253
211 230 253
209 228 249
210 229 249
211 230 253
208 227 244
210 229 248
212 230 255
211 229 254
210 229 249
210 229 249
210 229 250
210 229 248
210 229 250
210 229 253
210 229 253
211 229 253
210 229 249
207 226 245
210 229 250
208 227 246
209 228 248
210 229 252
211 229 252
210 228 252
211 229 253
210 229 253
210 229 250
210 229 250
209 227 248
208 227 248
211 230 254
209 228 250
211 229 254
209 228 246
209 228 248
207 226 244
208 227 250
207 227 245
209 228 252
207 226 248
209 228 248
210 229 253
208 227 249
208 228 250
209 228 249
208 227 249
208 228 249
209 228 250
207 226 249
208 227 249
209 228 250
209 229 253
209 228 252
206 225 245
207 227 249
206 226 246
208 227 252
208 228 252
208 228 252
208 228 253
207 227 252
206 226 249
207 227 250
206 226 252
207 227 250
207 227 252
204 225 248
205 226 248
203 224 245
207 228 255
204 225 250
202 223 248
201 222 244
202 223 244
205 226 252
202 224 245
201 223 249
198 220 241
202 224 249
200 222 246
200 223 245
197 220 241
196 219 237
198 222 249
189 213 221
191 214 231
188 212 212
186 210 214
185 209 194
174 198 105
169 192 0
171 194 0
169 192 0
170 192 0
168 191 0
169 192 0
169 191 0
170 194 0
169 193 0
166 189 0
167 189 0
157 181 0
162 184 0
161 184 0
125 149 74
55 87 110
55 87 105
57 90 100
57 90 110
56 89 108
58 92 113
56 89 109
55 88 108
57 89 107
57 91 105
57 90 107
55 87 107
57 90 103
57 91 111
58 91 117
57 91 102
58 91 117
56 90 108
57 90 108
59 93 126
56 89 99
56 90 100
57 91 117
57 91 108
57 90 100
57 90 108
58 91 118
56 89 111
56 88 105
58 91 117
58 92 122
56 89 110
57 90 108
57 90 108
58 91 113
57 90 111
56 89 102
56 88 102
57 89 102
57 90 115
56 90 108
57 90 113
58 90 114
58 91 117
57 90 110
56 89 100
59 93 114
58 91 118
57 91 111
57 91 114
57 90 105
58 91 113
57 90 110
56 89 99
59 93 113
56 88 94
57 90 118
57 90 103
57 89 105
58 92 118
56 89 102
56 88 102
58 91 107
57 90 108
57 90 111
55 87 99
56 88 103
54 86 94
56 87 97
59 92 120
56 88 105
57 90 111
58 91 114
58 92 122
56 90 102
56 88 105
58 91 120
58 91 124
56 88 108
55 87 105
58 91 120
57 90 106
56 89 105
58 92 111
56 89 114
57 90 103
55 87 92
56 88 114
55 87 99
57 88 106
57 89 102
55 86 99
56 88 100
55 87 95
53 84 94
57 89 120
54 84 96
54 86 99
53 84 91
55 87 92
54 85 103
52 82 104
53 82 86
53 82 84
53 83 87
52 81 85
127 144 52
152 168 0
156 171 0
160 175 0
159 176 0
148 163 0
156 172 0
160 174 0
156 172 0
157 172 0
155 169 0
158 174 0
159 173 0
165 180 0
167 183 0
144 146 0
126 116 0
121 112 0
108 100 0
110 103 0
108 102 0
108 100 0
96 91 0
104 96 0
108 100 0
106 99 0
106 99 0
112 106 0
105 97 0
97 92 0
103 95 0
117 111 0
109 102 0
95 90 0
114 106 0
112 106 0
111 105 0
111 105 0
110 103 0
111 105 0
123 116 0
110 104 0
118 113 0
114 110 0
122 118 0
120 112 0
122 117 0
120 114 0
118 114 0
121 114 0
121 117 0
129 122 0
125 120 0
125 120 0
134 129 0
124 116 0
123 119 0
132 127 0
135 129 0
130 124 0
129 125 0
132 124 0
127 121 0
130 123 0
131 125 0
130 126 0
133 126 0
139 132 0
133 129 0
138 133 0
138 132 0
141 136 0
139 131 0
130 126 0
137 129 0
135 131 0
141 136 0
138 131 0
134 130 0
142 137 0
140 135 0
143 138 0
143 137 0
140 134 0
133 128 0
138 134 0
143 137 0
138 134 0
146 139 0
142 137 0
143 137 0
144 139 0
143 138 0
148 142 0
144 140 0
139 134 0
145 140 0
148 143 0
143 139 0
144 139 0
141 136 0
142 138 0
145 140 0
146 141 0
146 141 0
146 141 0
148 142 0
146 140 0
146 142 0
148 141 0
143 139 0
147 143 0
147 141 0
144 140 0
147 143 0
150 144 0
150 144 0
149 143 0
152 146 0
147 142 0
150 147 0
152 146 0
150 145 0
150 145 0
147 141 0
147 141 0
150 145 0
151 146 0
152 148 0
150 145 0
150 145 0
153 148 0
151 146 0
153 148 0
151 148 0
153 149 0
151 146 0
152 148 0
150 145 0
153 149 0
150 147 0
153 147 0
153 148 0
151 147 0
152 149 0
153 148 0
153 148 0
208 227 246
207 226 240
210 229 255
208 227 245
209 228 250
208 228 246
208 227 244
207 227 242
209 228 248
208 227 245
210 229 252
208 228 246
209 228 248
209 228 246
210 229 252
209 228 250
209 228 249
210 229 252
209 228 249
210 229 250
209 228 250
209 228 250
211 229 253
210 229 250
208 227 246
210 229 250
208 228 246
211 230 254
210 229 250
209 228 246
207 226 240
210 229 252
210 229 252
210 229 252
209 228 249
210 229 250
209 228 248
210 229 249
209 228 246
210 229 250
210 229 252
209 228 248
210 229 249
209 228 248
210 229 250
210 229 252
210 229 250
209 228 248
207 226 241
210 229 250
210 229 252
208 227 248
210 229 250
210 229 250
210 229 250
209 228 248
209 228 248
210 228 252
209 228 250
209 228 248
209 228 249
210 229 253
210 229 250
210 229 253
210 229 253
209 228 249
209 229 250
209 228 252
209 229 250
210 229 253
208 227 250
210 229 252
208 228 249
209 228 249
208 227 246
209 228 250
210 229 252
209 228 250
209 228 250
208 227 248
209 228 252
208 228 250
206 225 244
209 228 250
210 229 254
207 226 249
208 227 250
209 228 249
208 228 249
208 228 252
208 227 249
206 225 246
207 226 246
207 227 250
208 228 252
207 226 250
207 226 248
208 228 252
205 225 248
207 228 252
207 227 249
205 226 248
207 227 250
205 225 248
205 226 252
204 224 241
206 227 250
205 225 252
207 227 253
205 226 250
205 226 250
202 223 246
202 223 246
203 224 246
203 225 248
202 224 249
203 225 253
200 222 248
200 222 245
199 221 246
200 222 248
199 221 242
196 219 242
194 217 240
195 219 238
194 217 237
191 215 226
189 213 223
184 209 209
179 204 188
171 195 88
165 188 0
169 192 0
170 193 0
167 190 0
168 192 0
169 192 0
166 188 0
164 187 0
171 194 0
166 188 0
171 193 0
163 186 0
163 186 0
158 181 0
161 184 0
164 187 0
108 132 82
55 88 99
56 89 108
56 89 113
56 89 100
57 91 110
55 87 102
56 88 105
58 91 118
56 89 107
55 88 107
56 88 110
54 86 108
55 88 102
57 90 113
56 89 111
56 88 102
55 87 94
55 88 97
57 89 102
58 92 115
57 90 105
58 91 105
56 89 103
55 87 100
57 90 107
57 91 111
57 90 113
55 87 107
57 90 105
58 92 124
59 92 113
57 89 105
57 89 103
58 92 114
58 92 115
57 90 110
57 90 110
55 88 99
58 91 110
57 90 113
56 89 114
56 89 103
58 91 115
56 89 107
58 91 113
58 92 108
58 91 114
57 90 108
57 90 113
55 87 92
58 90 118
56 89 113
56 88 107
57 90 107
56 89 100
55 87 99
57 91 105
57 89 105
57 90 120
57 91 103
58 91 115
57 89 103
56 88 90
58 92 114
56 89 110
56 89 105
56 89 105
60 94 126
55 87 103
56 89 107
56 88 107
54 86 90
58 92 117
56 89 108
60 93 122
57 89 105
57 90 115
56 89 100
58 92 114
56 88 108
56 88 111
55 87 102
57 90 107
56 88 104
54 85 95
57 89 116
55 87 100
57 89 107
56 88 99
56 88 107
55 87 104
54 85 94
55 86 108
56 88 91
58 90 112
56 87 106
55 87 103
49 79 84
53 83 86
57 89 110
53 83 107
53 83 95
52 81 86
52 81 71
93 112 71
150 168 0
148 163 0
151 169 0
150 163 0
149 165 0
155 171 0
154 168 0
162 179 0
155 171 0
154 167 0
149 162 0
158 174 0
155 168 0
159 173 0
160 173 0
160 174 0
145 150 0
128 118 0
122 113 0
119 110 0
110 102 0
109 98 0
105 99 0
101 95 0
108 101 0
103 94 0
111 103 0
102 97 0
111 104 0
108 102 0
104 98 0
106 101 0
105 98 0
114 108 0
112 105 0
105 99 0
113 109 0
115 108 0
121 114 0
117 110 0
112 104 0
117 111 0
124 116 0
119 111 0
117 111 0
117 112 0
122 116 0
117 112 0
120 113 0
126 119 0
121 116 0
121 115 0
127 121 0
128 121 0
128 122 0
121 116 0
129 122 0
128 122 0
125 118 0
128 123 0
123 117 0
132 127 0
129 123 0
131 127 0
124 118 0
133 126 0
135 129 0
134 128 0
131 124 0
136 131 0
143 136 0
141 134 0
133 129 0
134 130 0
134 127 0
141 134 0
136 132 0
136 131 0
143 135 0
136 130 0
137 131 0
138 132 0
135 129 0
142 136 0
142 136 0
139 134 0
145 140 0
145 138 0
142 136 0
143 137 0
147 140 0
141 135 0
141 136 0
145 140 0
147 141 0
140 134 0
144 139 0
142 137 0
145 139 0
144 139 0
144 139 0
145 141 0
143 137 0
144 141 0
147 140 0
144 140 0
149 143 0
149 143 0
148 143 0
142 136 0
148 144 0
145 142 0
145 140 0
146 141 0
151 145 0
149 144 0
145 138 0
147 140 0
150 145 0
150 146 0
144 137 0
148 143 0
151 144 0
149 145 0
152 146 0
146 140 0
151 145 0
151 146 0
150 145 0
151 147 0
149 144 0
149 144 0
150 145 0
151 146 0
149 143 0
151 145 0
150 145 0
150 145 0
151 146 0
152 148 0
150 144 0
150 146 0
152 147 0
154 149 0
149 145 0
152 147 0
150 145 0
207 227 245
206 226 240
207 227 246
208 227 246
209 228 250
209 228 249
208 227 245
207 227 245
209 228 252
208 227 245
208 228 246
208 227 249
209 228 250
210 229 254
209 228 248
208 227 246
208 227 249
209 228 250
209 228 249
208 228 246
210 229 253
209 228 249
209 228 252
209 228 248
211 230 255
209 228 249
208 227 248
209 228 248
208 227 245
209 229 252
209 228 250
210 229 250
208 227 245
208 227 244
210 229 253
209 228 249
210 229 250
209 228 250
209 228 250
210 229 252
209 228 248
210 229 253
208 227 245
210 229 252
208 227 244
211 230 255
210 229 253
210 228 250
210 229 254
209 228 249
209 228 249
209 228 250
210 229 252
209 228 248
209 228 248
209 228 249
207 226 246
209 228 252
208 227 242
209 228 250
210 229 253
209 228 252
209 228 253
210 229 253
207 226 248
209 229 250
209 228 250
210 229 254
209 229 253
208 228 249
209 228 250
208 227 246
208 228 248
208 227 248
210 229 254
209 228 249
209 229 253
207 227 245
208 228 252
208 228 249
208 228 252
208 227 249
209 228 253
207 226 248
209 229 254
208 227 249
207 227 248
207 227 246
206 226 249
207 227 252
208 228 253
207 227 250
206 226 246
207 227 248
207 227 252
207 227 253
206 226 250
207 227 250
208 228 254
206 226 250
207 228 254
206 227 250
208 228 255
206 226 252
205 226 249
205 225 249
203 224 249
205 226 250
201 222 246
201 222 244
202 223 249
203 224 249
200 221 245
201 223 249
204 226 253
200 222 246
201 223 248
199 221 242
201 224 252
200 223 248
193 216 234
194 217 238
196 219 241
195 218 238
196 220 244
192 216 223
186 210 215
186 211 214
181 206 177
174 197 84
162 186 0
170 193 0
168 191 0
162 185 0
166 190 0
169 192 0
167 190 0
169 192 0
157 181 0
163 186 0
157 179 0
168 191 0
169 192 0
166 189 0
166 188 0
155 177 0
160 183 0
155 177 25
67 96 95
56 89 108
54 86 88
56 88 102
55 88 97
57 91 114
56 88 108
57 90 108
57 90 114
55 88 94
58 91 110
58 92 111
56 88 92
56 89 100
57 90 117
56 88 102
57 90 102
57 90 105
56 89 95
56 90 102
56 89 107
56 88 103
56 89 100
57 90 102
57 90 97
57 90 107
60 93 122
56 89 103
58 92 117
55 88 86
57 90 110
59 93 113
57 90 103
58 92 121
58 91 115
57 90 113
56 89 110
56 89 97
56 89 108
57 90 105
56 89 108
55 88 103
58 92 117
57 90 103
58 91 115
56 88 108
57 91 100
56 89 99
57 89 107
56 89 111
58 91 108
57 90 107
57 90 111
54 86 90
57 90 110
59 93 122
56 89 108
57 90 115
56 89 113
57 90 111
55 88 100
58 91 111
56 88 99
58 91 117
56 90 92
56 89 113
58 91 108
57 90 107
54 85 97
56 89 105
56 89 105
58 91 113
56 88 100
56 88 103
58 91 107
54 86 102
58 90 107
56 89 103
55 88 110
56 89 111
56 89 108
57 89 108
59 93 120
56 88 107
56 88 114
57 90 107
55 87 111
57 89 107
53 83 92
55 87 100
54 86 94
56 89 104
57 89 110
54 84 94
54 84 87
57 88 111
55 86 101
55 86 100
54 86 96
53 83 95
54 85 98
51 80 84
53 82 84
77 99 66
143 158 25
153 171 0
156 169 0
155 170 0
148 162 0
147 160 0
147 162 0
150 162 0
158 172 0
151 163 0
150 163 0
157 171 0
153 168 0
149 162 0
155 166 0
157 170 0
157 172 0
150 163 0
145 146 0
128 120 0
113 103 0
115 106 0
111 102 0
114 105 0
112 104 0
110 100 0
109 104 0
103 94 0
109 99 0
102 96 0
101 93 0
108 99 0
103 97 0
99 94 0
107 101 0
116 108 0
112 106 0
114 108 0
110 101 0
110 103 0
108 102 0
107 101 0
111 105 0
117 112 0
114 107 0
119 112 0
113 106 0
116 109 0
122 115 0
121 115 0
131 125 0
121 117 0
118 114 0
119 113 0
130 122 0
121 114 0
132 125 0
126 120 0
123 115 0
130 123 0
128 121 0
129 123 0
125 119 0
133 126 0
127 121 0
137 133 0
123 119 0
132 126 0
136 129 0
132 126 0
135 129 0
136 130 0
136 130 0
136 130 0
135 129 0
139 131 0
144 138 0
143 137 0
141 135 0
137 131 0
142 136 0
134 128 0
139 132 0
137 131 0
130 123 0
142 136 0
136 130 0
137 130 0
145 141 0
137 133 0
138 132 0
141 135 0
141 136 0
147 141 0
145 137 0
146 141 0
136 131 0
147 140 0
143 138 0
148 142 0
146 141 0
149 141 0
143 137 0
145 139 0
144 138 0
147 141 0
148 143 0
147 142 0
143 137 0
149 144 0
144 139 0
146 140 0
150 142 0
147 141 0
148 144 0
147 142 0
149 145 0
147 141 0
148 143 0
148 143 0
152 146 0
149 143 0
150 144 0
152 147 0
151 146 0
153 148 0
148 144 0
149 145 0
148 143 0
151 147 0
152 147 0
151 145 0
148 142 0
149 145 0
150 144 0
148 142 0
149 145 0
152 147 0
150 145 0
151 145 0
151 146 0
151 148 0
153 147 0
154 150 0
151 146 0
152 146 0
149 144 0
154 148 0
206 225 242
209 229 254
207 227 245
206 226 245
207 226 244
206 226 242
208 227 248
205 225 237
210 229 255
206 226 242
209 229 253
209 228 252
208 228 248
208 228 249
210 229 254
210 229 254
208 227 248
208 227 248
209 228 252
208 227 250
208 228 249
209 229 252
209 228 249
209 228 250
207 226 244
207 226 244
209 229 252
209 228 250
207 227 246
208 227 245
209 228 250
210 229 253
208 227 246
209 229 252
210 229 252
208 228 246
208 228 248
208 227 245
209 228 249
209 228 248
209 228 249
207 227 246
210 229 252
210 229 253
209 228 250
208 227 248
209 228 249
210 229 253
208 227 245
206 225 244
209 228 249
209 229 252
210 229 254
206 226 245
209 229 252
209 229 252
209 228 252
206 225 246
208 227 246
208 227 248
207 227 248
208 227 248
209 229 252
209 228 250
209 228 252
210 229 254
208 228 249
207 227 248
208 227 249
208 228 248
209 228 252
209 228 250
208 228 249
209 228 250
208 228 250
209 228 253
207 227 249
209 229 254
207 227 248
206 226 246
208 227 249
207 227 245
209 228 253
207 227 250
208 227 249
206 226 248
206 226 249
207 227 246
207 228 252
208 228 253
206 226 246
206 226 250
208 228 254
206 226 246
203 222 246
207 227 250
203 223 246
206 226 252
204 225 246
205 226 250
205 225 248
203 224 249
204 225 248
206 227 252
205 226 253
205 226 254
203 224 249
202 223 248
203 224 246
203 224 248
201 223 248
203 224 249
203 225 253
201 224 249
202 224 248
196 218 241
198 221 244
197 219 241
200 223 249
196 219 238
197 220 242
196 219 244
193 216 233
193 218 237
191 216 231
188 213 220
183 208 204
180 205 171
166 189 57
164 187 0
163 186 0
164 187 0
164 187 0
163 186 0
164 186 0
164 187 0
166 189 0
164 187 0
167 190 0
168 191 0
161 184 0
161 185 0
167 189 0
159 182 0
162 185 0
160 183 0
161 183 0
161 183 0
148 170 36
56 89 107
53 85 100
56 89 94
57 90 113
57 91 111
56 88 95
56 89 99
55 88 108
56 89 108
55 88 97
56 89 95
56 88 102
58 91 102
56 88 115
57 90 107
56 89 108
54 85 84
55 87 97
59 93 118
58 91 100
56 89 102
55 88 95
56 88 97
58 91 107
55 88 97
56 89 94
58 91 108
56 88 97
57 90 111
56 88 102
57 89 103
56 89 108
57 90 111
57 90 108
54 86 90
55 88 102
55 88 90
57 91 117
57 91 111
57 91 105
57 89 105
56 89 105
56 89 102
58 91 107
57 89 118
56 88 110
55 87 92
57 89 111
57 91 97
58 91 122
56 88 110
57 90 113
58 91 103
55 87 105
56 88 108
55 87 100
57 91 111
54 86 103
57 89 102
57 89 103
57 89 111
57 90 118
58 91 122
57 90 110
57 89 107
56 88 115
56 89 100
58 90 120
56 88 104
58 91 114
57 89 108
57 90 113
57 89 110
57 90 115
58 91 121
57 90 107
58 91 115
53 84 85
56 89 95
54 85 100
54 86 92
55 87 95
57 90 121
55 87 111
57 89 108
54 86 104
55 88 101
55 86 96
53 83 83
53 84 94
55 87 106
52 82 86
56 88 103
54 84 94
53 84 87
54 85 93
53 83 79
54 84 98
56 87 103
53 83 89
50 79 86
56 84 83
135 152 44
147 160 0
155 171 0
156 171 0
153 168 0
151 166 0
144 158 0
148 161 0
143 155 0
152 164 0
146 159 0
151 164 0
152 164 0
154 164 0
151 165 0
156 170 0
154 166 0
152 164 0
161 174 0
148 158 0
148 154 0
126 118 0
117 107 0
113 102 0
110 98 0
105 96 0
104 95 0
109 101 0
107 97 0
105 96 0
111 102 0
100 93 0
109 102 0
109 100 0
114 107 0
107 100 0
113 106 0
110 102 0
112 104 0
113 103 0
117 110 0
108 100 0
110 103 0
120 113 0
115 107 0
106 101 0
116 109 0
120 115 0
126 120 0
117 109 0
116 111 0
126 120 0
123 115 0
126 121 0
132 125 0
116 109 0
122 115 0
122 116 0
123 117 0
131 123 0
128 120 0
126 120 0
127 123 0
131 125 0
130 125 0
138 131 0
132 125 0
117 112 0
128 120 0
135 130 0
132 125 0
130 124 0
137 131 0
135 129 0
136 129 0
134 128 0
139 133 0
140 132 0
139 132 0
140 134 0
141 135 0
140 133 0
141 134 0
140 134 0
140 135 0
139 132 0
138 131 0
136 130 0
143 137 0
143 137 0
143 137 0
144 139 0
142 135 0
139 134 0
139 134 0
141 137 0
145 137 0
144 139 0
143 136 0
147 141 0
141 136 0
147 142 0
140 134 0
146 141 0
146 140 0
142 135 0
144 138 0
143 137 0
150 144 0
145 139 0
144 140 0
142 137 0
146 141 0
146 139 0
150 146 0
147 140 0
145 138 0
146 140 0
151 144 0
150 143 0
150 144 0
149 142 0
149 145 0
149 145 0
149 143 0
150 146 0
152 147 0
149 145 0
152 146 0
152 146 0
148 142 0
150 145 0
149 143 0
148 143 0
151 147 0
150 146 0
150 145 0
147 140 0
148 143 0
149 143 0
148 144 0
150 145 0
151 147 0
152 146 0
150 146 0
152 147 0
151 146 0
153 148 0
149 144 0
206 225 238
205 225 241
207 227 246
206 226 242
205 225 241
207 227 248
207 227 246
207 227 246
205 225 241
207 226 249
207 227 246
208 228 250
207 227 246
207 227 246
208 228 249
207 227 245
208 228 249
206 226 245
208 227 249
209 228 252
207 227 249
207 227 246
207 226 244
208 228 249
208 228 249
208 228 249
209 228 252
207 227 246
207 226 242
208 227 248
207 227 246
208 228 249
209 228 252
209 228 250
209 229 253
208 227 248
209 229 252
208 227 246
210 229 253
209 229 253
209 228 250
208 228 248
207 227 245
208 227 248
208 227 248
210 229 254
207 227 246
208 227 250
208 227 246
207 227 248
208 228 249
207 226 246
209 228 250
209 228 250
207 226 246
209 228 252
209 228 252
209 228 252
207 226 242
209 228 253
207 226 246
208 228 248
207 226 246
208 228 250
208 228 250
207 226 250
209 228 250
205 225 245
210 229 255
207 227 248
208 227 252
207 227 248
208 227 250
209 229 254
207 226 246
207 227 248
206 226 249
206 226 249
208 228 253
208 227 253
207 227 250
207 227 248
208 228 252
206 226 249
208 228 252
207 227 253
206 226 250
207 227 252
206 226 250
205 225 248
204 224 246
206 227 253
207 227 252
206 226 253
206 227 252
203 224 245
206 227 250
204 225 244
204 224 245
204 225 246
206 227 252
204 225 250
203 224 246
205 226 253
201 222 248
203 225 249
203 225 249
204 226 250
201 223 248
203 225 252
202 224 249
200 222 244
200 222 248
197 219 241
202 224 252
197 220 244
199 222 245
195 218 238
196 219 238
193 217 234
194 218 240
194 219 236
193 217 236
186 211 223
189 214 223
177 202 194
169 194 144
166 189 44
167 190 0
165 188 0
163 186 0
164 187 0
166 189 0
164 187 0
163 186 0
163 186 0
156 180 0
164 187 0
163 186 0
162 185 0
165 188 0
163 187 0
162 184 0
162 185 0
161 183 0
164 187 0
159 182 0
158 180 0
160 182 0
123 146 67
54 85 94
54 87 88
54 87 92
56 89 105
56 88 100
56 88 97
55 87 97
54 86 92
55 88 99
57 90 107
59 93 111
57 90 113
56 88 92
57 90 105
56 88 107
55 88 111
56 89 102
55 88 105
57 89 121
56 89 103
56 89 103
57 89 114
56 89 117
54 86 94
55 88 99
56 88 113
58 91 105
57 90 113
56 89 113
56 90 108
57 91 102
56 89 107
56 88 110
57 89 110
57 90 103
55 87 95
56 89 102
57 90 108
58 92 118
57 90 113
57 90 113
55 88 105
58 91 117
58 91 102
56 89 107
57 90 105
58 91 118
54 87 97
56 90 103
58 91 114
56 89 100
57 91 107
55 88 97
58 92 122
56 89 102
57 91 113
55 87 97
55 87 90
57 90 113
56 89 103
55 87 100
59 92 120
56 88 108
57 90 111
56 89 113
55 88 92
56 89 99
56 88 102
55 87 105
56 89 108
57 90 110
56 88 105
57 90 107
57 90 105
56 89 107
58 91 113
56 88 110
57 90 110
54 85 94
55 88 100
55 86 92
56 88 105
57 90 100
54 85 111
53 84 90
55 87 101
55 87 102
54 85 100
55 87 94
55 87 99
53 83 88
54 85 103
53 83 89
54 85 95
54 85 82
55 86 93
56 87 99
53 84 97
50 78 77
52 81 98
122 139 31
145 159 0
147 157 0
150 164 0
148 162 0
152 168 0
144 158 0
155 168 0
153 166 0
145 160 0
147 156 0
149 162 0
146 158 0
153 164 0
146 159 0
151 165 0
150 160 0
152 166 0
149 159 0
149 155 0
156 164 0
149 159 0
148 157 0
134 130 0
114 103 0
114 104 0
105 95 0
110 100 0
109 101 0
105 95 0
107 96 0
108 98 0
98 91 0
112 105 0
102 94 0
104 97 0
105 98 0
103 98 0
110 103 0
111 105 0
103 96 0
116 109 0
110 103 0
112 105 0
124 117 0
108 103 0
115 108 0
113 105 0
114 109 0
117 112 0
122 114 0
121 115 0
121 114 0
131 121 0
121 114 0
122 116 0
119 113 0
130 123 0
124 116 0
130 121 0
126 120 0
133 127 0
133 127 0
125 118 0
130 123 0
123 117 0
129 123 0
131 123 0
132 124 0
131 125 0
136 129 0
132 125 0
131 125 0
127 121 0
137 130 0
131 122 0
139 131 0
133 127 0
133 128 0
140 132 0
138 133 0
136 130 0
138 131 0
138 131 0
145 138 0
138 131 0
137 130 0
139 135 0
138 132 0
136 128 0
143 137 0
136 130 0
141 134 0
146 138 0
138 131 0
141 133 0
141 135 0
143 137 0
139 134 0
144 137 0
138 133 0
142 137 0
143 138 0
144 138 0
145 138 0
147 140 0
145 141 0
145 138 0
149 143 0
148 143 0
147 141 0
148 141 0
146 139 0
147 141 0
147 142 0
145 141 0
147 141 0
143 137 0
144 138 0
145 138 0
141 135 0
148 140 0
147 141 0
149 144 0
146 141 0
150 143 0
147 141 0
147 142 0
147 142 0
150 144 0
149 143 0
153 147 0
152 147 0
151 146 0
151 145 0
149 145 0
147 143 0
152 146 0
152 147 0
150 146 0
149 144 0
149 144 0
150 145 0
152 146 0
146 140 0
153 148 0
151 146 0
150 145 0
152 148 0
154 148 0
204 224 238
207 227 248
206 226 245
207 227 250
208 228 250
206 226 241
207 227 248
205 225 241
205 225 238
205 225 241
208 228 252
207 227 248
207 227 246
207 227 248
207 227 246
207 227 248
207 227 246
207 227 248
208 227 249
208 227 249
206 226 244
207 227 246
206 226 245
208 228 250
207 227 245
208 228 250
208 228 249
208 228 250
207 227 248
208 227 249
209 228 253
208 227 249
207 227 249
209 228 252
209 228 253
209 228 252
208 228 252
207 227 245
209 228 252
207 227 250
208 227 249
207 226 250
208 228 252
208 228 249
209 228 252
207 227 249
208 228 250
207 227 248
208 227 252
206 226 248
208 228 250
208 227 249
207 227 248
209 228 253
207 227 250
209 228 252
206 225 248
208 227 252
207 227 249
208 227 248
207 227 249
207 226 249
208 227 249
209 228 252
209 228 253
208 227 248
209 228 252
209 228 253
207 227 250
208 228 252
208 228 253
209 228 254
208 228 253
206 225 248
208 228 254
207 227 250
206 226 245
206 226 248
207 227 250
206 226 248
207 227 252
207 227 250
207 227 249
205 225 246
206 226 250
204 224 248
206 227 248
203 224 245
206 226 250
206 227 252
206 226 250
205 225 249
205 225 248
204 225 246
205 226 252
202 223 246
203 224 250
205 226 254
205 226 254
205 226 252
204 225 249
205 226 252
203 224 249
203 225 250
200 222 245
204 226 253
201 223 249
202 224 252
201 223 249
200 222 244
199 221 246
201 223 249
201 224 249
199 222 250
198 222 244
198 221 246
193 217 238
194 218 240
192 216 236
187 211 228
193 218 240
188 212 223
183 208 218
183 209 204
180 206 201
172 197 120
168 191 25
169 192 0
167 191 0
163 186 0
161 184 0
165 189 0
167 190 0
163 187 0
167 190 0
161 185 0
161 184 0
164 187 0
165 187 0
167 189 0
161 184 0
166 188 0
161 184 0
160 183 0
158 181 0
165 188 0
164 187 0
160 183 0
157 180 0
161 183 0
113 137 74
55 87 88
55 87 107
57 90 100
55 87 103
56 88 94
55 88 103
55 88 95
56 88 108
53 85 90
55 88 108
54 87 88
54 85 90
56 89 99
56 88 102
58 91 118
53 85 97
52 84 80
54 86 92
55 88 97
57 89 103
55 88 82
56 89 102
56 89 97
57 90 111
56 88 107
57 91 108
55 87 108
57 90 118
56 89 110
58 91 117
58 91 114
57 90 107
56 89 105
56 89 105
57 90 110
56 89 103
56 89 102
55 88 95
56 90 99
55 88 102
56 88 99
57 90 108
56 89 102
53 85 94
57 90 110
56 89 114
55 87 99
58 91 114
56 89 107
58 91 118
57 90 107
56 89 102
57 90 114
58 91 107
53 84 90
56 88 107
56 88 102
56 89 105
55 87 99
55 87 103
56 88 100
57 90 108
56 88 99
56 89 110
56 89 95
57 90 103
54 85 95
58 91 122
56 88 103
57 90 107
56 89 113
56 89 108
55 86 108
57 89 119
56 88 101
56 88 105
55 87 105
55 87 100
52 83 102
55 87 103
54 85 97
55 87 102
55 86 109
54 85 95
56 87 102
56 89 107
54 85 101
54 85 113
56 87 107
53 84 90
55 87 100
54 85 96
53 83 97
53 84 85
53 82 84
52 82 94
53 83 101
51 79 75
101 120 60
145 160 0
143 156 0
142 156 0
141 155 0
140 154 0
143 156 0
151 166 0
152 164 0
133 143 0
144 155 0
144 158 0
146 157 0
151 162 0
147 159 0
148 160 0
145 154 0
150 157 0
147 154 0
154 164 0
147 158 0
155 166 0
156 166 0
148 156 0
154 164 0
130 129 0
114 101 0
115 101 0
104 94 0
111 100 0
113 102 0
103 95 0
110 101 0
115 104 0
104 95 0
101 90 0
103 93 0
107 98 0
111 101 0
111 102 0
114 106 0
113 105 0
114 106 0
109 104 0
109 102 0
119 113 0
117 109 0
117 109 0
119 110 0
120 112 0
118 110 0
113 106 0
123 114 0
126 117 0
124 115 0
120 114 0
130 122 0
119 111 0
130 124 0
120 114 0
131 122 0
123 116 0
125 119 0
130 124 0
130 122 0
136 130 0
132 125 0
132 125 0
129 121 0
125 117 0
132 125 0
134 125 0
132 123 0
129 122 0
123 114 0
137 129 0
139 131 0
133 125 0
137 130 0
139 131 0
134 125 0
133 126 0
138 132 0
142 134 0
136 129 0
141 133 0
139 132 0
142 135 0
141 135 0
141 136 0
136 129 0
142 135 0
142 136 0
143 136 0
140 133 0
142 136 0
146 140 0
144 138 0
142 136 0
144 137 0
145 138 0
138 132 0
141 133 0
142 135 0
142 137 0
144 138 0
145 138 0
146 140 0
143 137 0
140 134 0
146 140 0
145 139 0
143 138 0
145 137 0
141 136 0
147 141 0
144 137 0
144 138 0
145 139 0
149 144 0
144 136 0
146 140 0
146 139 0
145 140 0
149 144 0
149 144 0
148 142 0
146 140 0
145 140 0
148 142 0
149 143 0
148 143 0
151 145 0
150 143 0
150 142 0
147 141 0
148 143 0
151 145 0
148 142 0
149 143 0
148 143 0
150 146 0
149 144 0
149 143 0
150 144 0
150 146 0
146 141 0
150 146 0
151 146 0
152 146 0
153 149 0
205 226 246
205 226 244
205 226 245
206 226 245
205 225 241
205 225 241
205 225 245
206 226 246
205 225 241
204 224 237
206 227 248
205 225 240
206 226 248
206 226 246
207 227 246
205 225 240
207 227 248
207 227 248
207 227 246
206 226 245
207 227 249
207 227 248
207 227 246
205 225 238
207 227 246
208 227 249
208 228 252
207 227 248
208 228 250
208 228 250
205 225 246
207 227 248
207 227 249
205 225 238
207 227 249
207 226 248
208 228 250
205 225 241
207 227 250
209 228 253
208 228 252
208 228 249
209 228 254
208 228 250
208 227 249
207 227 246
208 228 250
205 225 242
206 226 248
207 227 248
208 227 249
208 228 249
207 227 248
207 227 248
207 227 252
207 227 249
208 228 250
207 227 246
208 228 250
207 227 249
206 226 249
208 228 252
207 227 250
208 228 253
207 227 248
208 228 250
208 228 252
207 227 252
208 228 252
206 226 246
206 226 246
207 227 250
207 227 250
208 228 255
207 227 253
207 227 249
208 228 254
206 226 248
207 227 252
205 225 249
206 226 248
205 226 248
207 227 252
203 224 244
206 226 248
207 228 254
204 225 248
206 227 252
204 225 249
203 224 248
207 227 254
203 224 244
204 225 248
205 225 249
205 226 250
204 225 250
204 225 250
201 223 244
204 225 249
202 223 245
204 225 253
203 224 246
202 224 249
202 224 245
202 224 250
202 224 250
202 224 250
201 223 245
200 223 245
198 220 241
201 224 254
199 222 245
200 224 252
196 220 240
197 220 241
197 221 248
191 216 231
191 215 228
193 218 237
192 217 237
187 213 227
187 213 223
182 207 203
177 203 179
170 194 72
169 192 0
160 184 0
168 191 0
160 184 0
168 192 0
159 182 0
165 188 0
164 188 0
166 189 0
164 187 0
161 184 0
165 188 0
161 184 0
165 188 0
159 182 0
162 185 0
161 183 0
160 182 0
159 181 0
162 185 0
158 179 0
161 183 0
153 176 0
154 176 0
150 173 0
149 171 0
98 121 70
56 88 102
53 84 84
55 88 90
56 89 108
54 85 95
54 86 97
55 87 103
56 88 102
55 88 102
56 89 100
56 89 107
56 89 103
56 88 103
54 86 107
57 90 103
56 88 105
56 89 102
53 84 92
56 88 97
55 87 99
57 90 115
57 90 113
56 89 110
55 88 88
55 88 99
58 91 113
57 90 110
54 87 107
58 91 108
58 92 111
58 91 108
56 89 105
56 89 99
56 89 103
58 91 110
56 89 107
57 90 108
57 89 107
58 91 121
56 88 99
55 87 103
57 89 110
57 90 103
56 89 100
56 89 102
57 89 108
56 88 111
57 90 103
56 89 113
57 90 108
56 89 107
57 89 105
57 90 118
57 90 113
56 89 103
54 86 103
56 89 107
54 86 94
56 88 102
54 85 94
57 90 111
57 89 113
54 87 80
53 84 95
58 91 110
56 89 97
56 88 105
57 90 107
54 85 90
55 87 95
54 87 90
55 86 105
56 88 99
56 88 105
55 87 103
55 86 96
54 86 95
52 82 86
55 86 96
55 86 99
53 85 90
54 86 95
54 85 104
54 85 94
52 82 90
57 88 97
54 85 103
55 86 94
56 89 95
55 87 107
56 88 99
53 83 90
54 85 92
53 82 80
53 83 94
50 77 79
88 106 72
134 148 0
142 157 0
133 145 0
136 149 0
138 152 0
138 152 0
144 154 0
134 144 0
140 152 0
138 151 0
147 157 0
138 150 0
147 159 0
141 152 0
146 155 0
136 148 0
145 152 0
145 154 0
144 154 0
139 147 0
142 152 0
149 159 0
138 144 0
139 146 0
147 157 0
147 154 0
139 140 0
112 100 0
121 110 0
107 95 0
105 95 0
108 97 0
98 86 0
104 92 0
99 89 0
108 99 0
112 103 0
105 97 0
106 96 0
111 101 0
112 103 0
106 98 0
113 105 0
110 102 0
115 106 0
116 109 0
113 102 0
118 111 0
120 111 0
120 111 0
109 101 0
119 109 0
109 103 0
126 118 0
118 109 0
110 102 0
116 109 0
121 113 0
123 118 0
115 107 0
126 119 0
123 119 0
128 118 0
118 111 0
124 117 0
133 124 0
132 124 0
128 121 0
133 124 0
125 119 0
137 128 0
137 129 0
133 127 0
131 123 0
136 129 0
134 126 0
127 121 0
135 127 0
132 126 0
141 134 0
139 131 0
140 133 0
136 128 0
133 128 0
134 129 0
136 127 0
135 128 0
138 129 0
134 128 0
135 128 0
140 132 0
140 133 0
144 138 0
136 129 0
137 130 0
138 132 0
140 134 0
142 134 0
140 135 0
144 137 0
140 132 0
141 135 0
140 135 0
145 138 0
142 136 0
141 135 0
146 141 0
146 140 0
146 141 0
145 140 0
147 141 0
145 137 0
142 136 0
147 142 0
150 143 0
148 143 0
144 138 0
146 139 0
144 137 0
145 140 0
149 143 0
147 141 0
146 139 0
147 142 0
147 141 0
148 140 0
151 145 0
148 142 0
147 143 0
145 138 0
147 141 0
148 142 0
147 142 0
145 139 0
147 139 0
147 142 0
149 143 0
143 138 0
150 145 0
152 147 0
149 142 0
152 147 0
150 145 0
153 148 0
151 142 0
151 146 0
154 150 0
151 144 0
152 144 0
149 143 0
152 147 0
204 224 238
205 225 244
204 224 238
204 225 240
204 225 240
203 224 234
205 225 244
206 226 245
205 226 244
204 225 238
206 226 250
205 225 242
206 227 248
206 227 248
206 227 248
208 228 253
206 227 248
208 228 252
207 228 252
207 227 249
207 227 250
206 226 246
207 227 250
205 225 242
205 226 242
205 225 242
206 227 248
208 228 253
207 227 248
207 227 245
206 226 244
206 226 248
206 226 249
208 228 252
207 227 249
207 227 246
207 227 250
207 227 250
208 227 250
207 227 250
208 228 252
207 227 249
207 227 246
205 225 246
208 227 253
206 226 246
208 228 253
206 226 248
207 227 250
207 227 249
206 227 246
208 228 253
205 225 245
207 227 248
206 226 250
206 226 244
204 224 244
208 228 254
205 225 245
206 226 246
206 226 250
207 227 250
208 228 253
208 228 253
206 226 248
207 228 253
207 228 252
207 227 252
205 225 249
205 226 244
207 228 254
206 226 249
205 225 245
205 226 248
203 223 241
206 227 250
207 227 253
206 227 250
207 227 253
206 226 252
206 227 253
206 226 253
206 227 254
205 225 250
205 226 252
206 227 252
206 226 252
204 225 246
205 226 249
205 226 252
203 225 246
205 227 253
203 224 246
205 226 252
203 224 246
204 226 252
205 226 252
203 225 252
204 225 252
201 223 246
204 226 255
202 224 250
201 223 248
201 223 248
203 225 253
199 222 246
199 222 244
198 220 240
198 221 245
197 221 238
196 219 240
195 218 241
196 220 248
194 218 240
197 221 249
197 221 248
188 213 231
188 213 236
187 212 220
188 214 223
185 210 207
177 202 193
174 198 151
163 188 36
163 187 0
165 189 0
167 191 0
162 186 0
166 189 0
167 191 0
165 189 0
163 187 0
167 190 0
162 186 0
160 183 0
161 183 0
161 184 0
156 179 0
159 182 0
162 185 0
159 181 0
159 181 0
156 179 0
153 176 0
159 181 0
159 182 0
159 181 0
156 179 0
158 180 0
158 180 0
160 182 0
144 167 31
90 115 84
56 89 92
55 87 92
56 88 111
54 86 86
53 84 95
58 92 103
54 86 90
54 86 88
55 88 114
53 84 78
57 90 111
56 89 100
56 88 108
56 89 100
56 88 110
52 84 90
56 89 110
57 91 103
55 87 97
56 88 110
57 90 108
55 88 102
55 87 99
57 90 107
54 86 103
55 87 103
58 91 100
56 89 97
53 84 95
57 90 102
54 86 90
55 88 102
55 88 111
56 90 100
55 87 105
56 88 108
56 89 102
56 88 102
54 86 97
55 87 97
57 90 111
54 85 90
55 88 97
54 86 102
56 89 99
55 87 92
55 88 103
55 87 102
57 90 118
56 89 102
54 86 97
58 90 117
56 89 108
57 91 120
57 90 108
57 91 110
58 91 118
58 91 111
55 87 99
56 89 107
56 88 102
59 92 111
53 85 99
55 87 96
55 88 97
54 86 103
55 87 107
57 90 108
57 89 114
56 89 105
57 89 113
54 85 102
54 86 89
55 86 102
55 87 103
54 85 90
54 85 97
56 88 107
57 89 95
55 87 94
55 87 100
54 85 95
52 81 87
55 86 101
53 84 90
53 84 97
56 88 108
52 82 89
53 83 84
52 81 77
55 87 106
50 78 76
49 76 78
50 78 75
77 97 61
132 145 0
134 146 0
143 154 0
137 148 0
135 148 0
140 153 0
136 149 0
137 147 0
142 155 0
134 145 0
126 137 0
139 149 0
139 152 0
136 147 0
134 144 0
145 158 0
145 156 0
143 154 0
138 148 0
142 151 0
145 156 0
145 152 0
147 156 0
141 147 0
136 141 0
142 150 0
149 160 0
145 148 0
136 140 0
128 117 0
109 98 0
102 91 0
105 94 0
102 94 0
107 97 0
108 98 0
105 96 0
119 107 0
103 93 0
109 100 0
105 95 0
106 95 0
106 96 0
111 101 0
111 101 0
110 101 0
116 108 0
113 105 0
108 100 0
120 110 0
122 113 0
117 110 0
122 111 0
121 112 0
120 114 0
129 120 0
118 109 0
125 118 0
122 113 0
128 118 0
125 116 0
127 117 0
122 115 0
126 118 0
132 122 0
125 117 0
125 117 0
125 119 0
130 122 0
132 122 0
126 119 0
132 123 0
130 124 0
136 129 0
132 125 0
134 127 0
139 130 0
133 123 0
135 128 0
135 126 0
135 128 0
134 125 0
138 130 0
138 131 0
140 131 0
140 132 0
142 134 0
137 129 0
139 133 0
141 134 0
143 134 0
138 132 0
134 128 0
142 135 0
137 130 0
142 134 0
132 125 0
141 137 0
141 131 0
137 131 0
141 134 0
139 131 0
141 133 0
145 138 0
139 133 0
144 139 0
143 136 0
138 132 0
146 138 0
145 138 0
145 139 0
146 137 0
145 138 0
146 138 0
146 140 0
145 139 0
144 137 0
148 142 0
145 139 0
147 142 0
144 135 0
146 139 0
144 139 0
147 140 0
148 142 0
149 143 0
149 142 0
148 141 0
150 145 0
149 141 0
152 146 0
150 144 0
147 142 0
147 139 0
149 143 0
147 141 0
151 145 0
152 145 0
148 140 0
149 143 0
147 140 0
150 145 0
151 146 0
149 143 0
150 144 0
151 144 0
150 144 0
149 143 0
150 144 0
155 149 0
150 143 0
152 146 0
202 223 234
204 224 241
204 225 244
204 224 240
203 224 238
202 223 234
202 223 236
204 225 242
204 225 240
205 225 248
204 225 240
205 226 246
205 226 245
207 227 250
204 225 240
206 226 248
203 223 234
206 227 249
205 226 249
205 225 248
206 227 248
206 227 248
204 224 241
205 226 244
206 226 246
206 226 248
205 226 244
206 226 249
207 227 252
207 227 250
204 225 238
207 227 250
206 226 245
207 227 252
207 227 249
207 227 252
207 227 249
207 227 252
206 226 246
207 227 249
207 227 250
206 226 248
207 227 252
208 228 254
206 226 250
207 227 250
207 227 249
206 226 250
208 228 254
207 227 253
206 227 249
205 226 246
207 227 252
207 227 249
207 227 253
207 227 249
206 226 248
206 227 249
207 227 250
207 227 253
207 227 250
205 226 244
206 226 249
206 227 252
207 227 252
206 226 248
207 228 254
206 227 249
206 226 250
206 226 248
206 227 250
205 226 244
207 227 252
206 226 249
206 226 252
206 227 252
205 226 250
206 227 252
205 226 250
205 226 249
205 226 250
205 226 250
203 224 250
205 226 250
205 226 252
204 225 249
204 225 250
203 224 245
205 226 250
201 223 246
204 226 250
203 224 250
202 223 245
204 226 252
202 223 248
199 221 241
202 224 250
201 223 246
201 223 245
202 224 250
201 224 246
201 224 252
198 221 241
200 223 246
199 221 245
196 219 244
197 221 241
199 222 249
197 221 248
197 221 245
197 221 246
197 221 246
191 215 231
191 215 236
189 213 227
190 215 234
189 214 231
186 212 220
188 214 223
184 211 209
173 199 182
172 198 122
166 189 0
161 184 0
160 184 0
165 189 0
167 191 0
165 189 0
159 182 0
166 190 0
160 184 0
157 180 0
167 190 0
162 185 0
159 183 0
162 185 0
161 184 0
159 182 0
158 181 0
156 179 0
163 185 0
156 179 0
154 177 0
154 176 0
150 172 0
152 174 0
152 175 0
153 175 0
154 176 0
156 178 0
159 181 0
152 176 0
148 171 25
96 119 73
54 86 99
55 88 94
53 84 78
52 84 82
56 89 100
56 88 103
53 85 94
57 90 102
53 84 88
57 90 99
54 86 90
53 85 90
57 90 103
54 86 97
57 90 113
56 89 111
57 90 122
55 87 103
57 91 115
56 88 95
55 87 100
57 89 110
55 87 108
54 86 102
55 87 97
56 89 105
56 89 92
58 91 111
55 88 95
56 89 97
57 90 111
56 88 102
57 89 111
55 87 102
57 89 110
57 89 118
57 90 114
55 87 94
57 89 102
56 88 90
57 89 108
54 86 107
55 88 102
56 90 111
56 89 107
53 84 95
55 86 100
57 89 108
55 87 111
56 89 108
57 90 113
57 90 107
55 88 103
53 85 90
53 85 86
56 89 103
57 90 103
58 91 110
55 88 105
57 89 105
55 88 102
55 87 102
55 87 94
55 88 107
56 89 103
56 88 111
56 88 104
57 89 110
54 85 82
54 86 99
56 88 102
55 87 90
56 88 110
54 86 99
54 86 90
55 87 102
55 87 99
55 86 101
54 84 102
54 84 102
55 87 86
54 85 87
54 86 99
56 87 106
52 81 79
53 84 94
57 89 110
53 83 90
52 81 89
54 85 97
54 84 77
49 78 79
82 102 79
120 135 18
132 144 0
139 153 0
134 148 0
138 149 0
128 139 0
137 149 0
134 145 0
128 139 0
134 147 0
141 154 0
146 157 0
139 152 0
127 134 0
136 146 0
140 150 0
137 148 0
137 147 0
140 148 0
141 148 0
135 142 0
136 140 0
136 143 0
143 148 0
142 151 0
134 138 0
148 157 0
129 131 0
140 145 0
133 134 0
142 146 0
129 127 0
114 100 0
107 96 0
103 92 0
110 96 0
102 91 0
101 92 0
106 94 0
112 101 0
104 92 0
116 106 0
110 99 0
115 106 0
113 102 0
112 103 0
117 105 0
108 96 0
115 103 0
117 108 0
108 96 0
117 110 0
110 102 0
115 107 0
121 114 0
113 105 0
111 103 0
123 113 0
123 114 0
119 110 0
124 116 0
122 112 0
128 118 0
122 113 0
117 109 0
126 117 0
124 116 0
128 118 0
127 118 0
123 114 0
125 117 0
132 125 0
129 122 0
128 119 0
138 130 0
135 127 0
132 124 0
130 122 0
130 122 0
137 128 0
137 128 0
135 125 0
134 124 0
136 128 0
134 127 0
140 131 0
135 127 0
136 128 0
135 129 0
140 130 0
135 127 0
137 131 0
137 131 0
138 130 0
135 129 0
139 131 0
134 126 0
136 127 0
142 133 0
139 133 0
139 132 0
142 132 0
142 132 0
137 131 0
144 136 0
140 133 0
144 137 0
144 137 0
142 135 0
140 133 0
145 136 0
142 136 0
147 140 0
142 134 0
140 134 0
141 135 0
143 137 0
143 137 0
147 140 0
146 141 0
147 139 0
145 139 0
146 139 0
144 136 0
148 143 0
149 142 0
148 143 0
149 143 0
150 144 0
146 139 0
149 143 0
145 140 0
147 140 0
151 145 0
148 141 0
149 144 0
151 145 0
151 145 0
150 143 0
148 142 0
149 142 0
151 146 0
150 143 0
151 145 0
146 140 0
152 146 0
152 147 0
152 146 0
151 145 0
147 140 0
152 146 0
151 147 0
151 145 0
205 226 249
202 224 238
201 222 231
204 225 248
201 222 231
203 224 241
202 222 237
201 222 230
204 225 242
204 225 242
205 226 246
206 227 252
203 224 240
205 226 245
205 225 248
205 226 246
204 225 244
206 226 248
205 226 245
206 227 250
204 225 245
204 225 245
206 226 248
206 227 252
205 226 248
206 226 246
205 226 245
206 227 250
205 225 245
205 225 246
205 226 246
206 227 249
205 226 245
204 224 241
207 227 253
206 226 248
206 226 248
206 227 250
204 224 246
206 226 248
206 226 250
206 227 250
206 226 248
205 225 248
207 227 249
206 226 246
205 226 246
207 227 252
205 225 246
205 226 250
206 227 250
205 226 246
206 226 248
206 227 249
206 227 249
205 225 246
206 227 250
203 224 244
207 227 253
206 226 249
206 226 246
204 225 248
206 227 252
206 226 248
206 226 246
205 226 250
205 226 245
206 226 249
205 226 248
205 226 252
205 226 248
204 225 249
206 227 252
204 225 246
206 227 252
205 226 250
204 225 249
206 227 254
204 225 249
204 225 250
203 225 248
205 226 253
204 225 249
203 224 250
204 226 250
205 226 253
203 225 250
203 225 248
201 222 242
203 225 250
201 223 245
204 225 250
202 224 248
202 224 248
203 225 250
203 225 250
202 224 248
202 225 250
200 223 246
199 222 244
201 223 250
199 222 245
199 222 249
200 223 249
198 221 245
198 221 245
199 222 246
194 218 240
194 218 240
197 221 248
195 220 242
194 218 242
191 216 236
192 218 242
186 211 227
188 214 231
184 210 227
181 208 211
184 211 211
170 196 144
166 192 72
165 189 0
165 190 0
166 190 0
163 187 0
155 179 0
163 187 0
163 187 0
160 183 0
156 180 0
161 184 0
161 185 0
159 182 0
160 183 0
154 178 0
161 185 0
152 175 0
157 180 0
161 184 0
155 178 0
156 178 0
153 176 0
153 175 0
157 180 0
156 179 0
157 179 0
153 176 0
152 175 0
154 176 0
150 172 0
151 172 0
145 168 0
145 167 0
152 174 18
79 107 80
55 87 95
54 86 102
55 87 108
52 83 82
54 86 99
53 86 80
54 86 100
53 84 86
57 90 113
55 87 88
56 89 105
55 87 99
55 87 103
54 85 100
56 88 90
54 86 99
55 88 90
55 87 92
55 88 107
53 84 102
54 85 95
58 91 120
57 89 97
56 89 108
56 88 102
57 90 107
56 89 102
56 88 103
56 88 92
54 86 97
57 90 111
55 88 97
56 89 107
57 90 115
57 90 113
56 89 102
55 86 107
56 88 102
56 89 108
56 89 103
54 86 94
55 87 105
56 89 108
55 87 99
54 86 105
57 90 110
56 89 102
56 88 103
55 87 110
56 89 108
56 89 100
53 84 90
57 90 105
57 90 95
54 87 94
55 87 102
55 87 90
58 91 114
56 88 102
57 90 107
55 87 110
56 88 94
55 87 100
55 87 99
55 87 111
54 86 105
56 88 103
55 87 92
54 84 95
55 87 103
54 85 103
54 85 101
53 84 79
54 85 99
54 86 95
55 87 105
55 87 102
53 83 92
56 88 107
52 82 96
56 88 110
53 83 100
53 84 92
53 83 97
55 86 99
52 81 100
50 78 81
51 80 90
51 80 88
52 80 86
72 94 79
133 148 0
133 148 0
133 147 0
124 137 0
135 147 0
127 141 0
133 147 0
125 138 0
133 142 0
129 140 0
126 137 0
128 138 0
135 145 0
135 146 0
130 138 0
130 136 0
139 148 0
134 142 0
136 142 0
133 141 0
127 137 0
140 148 0
141 147 0
137 145 0
136 144 0
135 140 0
135 137 0
130 132 0
139 145 0
135 139 0
131 131 0
134 135 0
135 140 0
130 130 0
117 107 0
105 90 0
108 95 0
109 96 0
105 94 0
98 88 0
98 89 0
115 103 0
104 94 0
103 92 0
101 90 0
99 91 0
109 100 0
113 103 0
118 108 0
121 110 0
118 108 0
117 106 0
117 107 0
116 107 0
119 109 0
117 107 0
120 112 0
116 105 0
118 108 0
118 110 0
120 110 0
120 111 0
126 118 0
121 112 0
127 117 0
127 118 0
121 112 0
125 115 0
127 117 0
129 120 0
129 120 0
130 119 0
131 123 0
133 122 0
132 123 0
130 121 0
128 120 0
138 130 0
127 119 0
135 125 0
129 121 0
128 121 0
139 128 0
134 126 0
132 123 0
136 126 0
136 127 0
140 132 0
133 125 0
140 133 0
141 133 0
137 131 0
141 130 0
140 132 0
142 133 0
146 139 0
140 131 0
144 136 0
144 136 0
143 137 0
141 134 0
137 130 0
145 138 0
136 126 0
142 135 0
143 135 0
143 134 0
139 130 0
140 133 0
142 135 0
148 141 0
141 133 0
145 138 0
145 137 0
139 131 0
141 134 0
150 143 0
144 135 0
144 136 0
147 139 0
148 140 0
144 137 0
145 138 0
145 138 0
144 136 0
150 143 0
146 138 0
146 140 0
149 143 0
147 139 0
148 141 0
148 141 0
151 145 0
150 142 0
148 141 0
151 145 0
149 141 0
148 143 0
147 138 0
150 145 0
145 140 0
148 141 0
151 145 0
149 143 0
148 140 0
150 145 0
151 145 0
147 138 0
151 145 0
149 143 0
151 146 0
152 145 0
151 145 0
150 145 0
200 222 233
203 225 245
204 225 248
203 225 244
200 222 233
203 225 242
203 224 238
203 224 241
204 225 244
203 224 241
204 225 246
204 225 244
204 225 244
204 225 244
203 224 241
204 225 246
205 226 248
205 226 249
203 224 242
205 226 248
206 226 249
206 226 250
204 225 245
205 226 245
204 225 244
206 227 253
206 227 250
205 225 245
205 226 248
206 226 250
206 227 250
205 225 248
205 226 245
205 226 249
206 227 249
206 227 253
204 225 246
205 225 245
205 226 252
206 227 250
205 226 248
206 227 250
206 226 249
206 227 249
206 227 252
205 226 250
205 226 249
206 226 249
206 227 252
205 226 248
206 227 250
206 227 250
205 226 249
205 226 250
206 226 252
205 226 248
205 226 249
204 225 245
206 227 252
206 226 250
205 226 249
206 226 250
205 225 249
205 226 249
205 226 246
205 226 248
205 226 249
204 225 249
206 227 253
206 226 254
206 226 252
206 227 253
204 225 248
202 223 245
204 225 248
206 227 255
204 225 246
204 226 249
203 224 250
205 226 252
204 225 249
202 224 246
204 225 253
203 225 249
202 223 248
204 225 252
203 225 249
203 225 250
203 224 250
200 222 244
201 224 248
203 225 252
200 222 241
201 224 249
202 224 250
201 224 248
200 223 246
199 222 246
200 223 246
199 222 250
199 222 249
197 221 245
200 223 250
198 221 244
195 219 241
197 221 244
195 219 245
192 216 238
195 220 244
195 219 240
192 217 234
190 215 234
189 215 234
191 217 234
186 212 223
185 211 212
180 206 203
177 203 175
166 191 92
166 191 0
164 189 0
161 186 0
162 187 0
160 184 0
161 185 0
158 182 0
166 190 0
161 186 0
164 188 0
156 180 0
162 186 0
161 184 0
152 175 0
159 182 0
156 180 0
156 179 0
150 173 0
160 183 0
155 177 0
155 178 0
158 181 0
155 177 0
156 178 0
160 183 0
148 171 0
150 172 0
153 176 0
157 179 0
145 166 0
145 167 0
150 172 0
151 172 0
157 178 0
144 166 0
147 169 18
81 106 74
56 88 99
54 85 97
55 87 101
54 86 97
52 84 90
57 90 105
57 89 107
56 89 107
54 85 82
55 87 92
53 85 78
53 85 97
57 89 94
54 86 94
55 87 105
56 88 108
54 86 95
56 88 108
57 89 97
54 86 90
56 88 99
54 86 92
54 86 82
56 89 103
56 89 99
56 88 103
56 88 94
54 86 94
55 87 102
56 89 99
56 88 100
54 85 97
56 88 108
56 88 114
56 88 107
55 88 99
56 89 99
54 86 90
56 88 99
55 86 105
56 89 108
55 87 110
55 87 100
57 89 100
56 88 105
54 85 97
56 89 95
53 85 95
56 88 108
54 86 94
55 87 100
53 85 90
55 88 100
57 89 107
54 86 90
56 88 110
56 89 99
56 89 107
55 87 108
55 87 97
54 85 96
57 89 108
53 84 95
55 87 104
52 83 92
56 88 99
56 89 113
54 86 92
55 87 102
54 85 103
54 86 92
54 85 94
53 84 94
54 85 86
53 84 97
54 85 94
53 83 94
53 85 99
55 87 96
52 82 81
54 86 107
53 82 94
55 86 94
55 86 104
52 82 76
50 79 78
52 81 97
51 79 82
77 98 73
128 144 25
126 140 0
124 136 0
140 154 0
126 136 0
128 137 0
128 140 0
130 143 0
128 138 0
122 131 0
138 148 0
135 147 0
133 145 0
130 141 0
126 136 0
124 131 0
143 153 0
134 142 0
142 148 0
126 132 0
131 136 0
120 124 0
133 139 0
128 135 0
137 141 0
131 136 0
124 128 0
133 139 0
123 126 0
129 131 0
129 134 0
137 143 0
131 132 0
136 139 0
128 131 0
131 133 0
123 118 0
110 97 0
110 96 0
107 95 0
106 92 0
106 93 0
107 95 0
92 84 0
110 97 0
101 88 0
113 103 0
98 87 0
111 100 0
111 100 0
118 106 0
108 97 0
115 105 0
113 102 0
125 115 0
118 106 0
115 106 0
120 111 0
116 105 0
116 107 0
124 115 0
122 113 0
123 113 0
125 115 0
116 106 0
123 114 0
126 118 0
126 118 0
123 115 0
121 113 0
124 116 0
125 117 0
133 125 0
121 110 0
128 119 0
134 124 0
130 121 0
124 117 0
129 121 0
132 124 0
141 131 0
138 127 0
130 120 0
128 119 0
133 124 0
135 125 0
132 123 0
138 130 0
129 121 0
137 126 0
131 122 0
139 132 0
137 129 0
145 138 0
141 134 0
137 129 0
137 129 0
141 133 0
138 130 0
144 136 0
141 133 0
140 129 0
138 129 0
140 133 0
143 135 0
140 132 0
140 132 0
143 136 0
144 137 0
147 140 0
143 137 0
141 133 0
140 133 0
147 140 0
140 130 0
142 136 0
140 132 0
148 140 0
146 139 0
146 136 0
148 140 0
147 138 0
145 137 0
146 139 0
144 136 0
148 140 0
147 139 0
147 139 0
145 139 0
145 138 0
147 138 0
148 141 0
152 145 0
152 145 0
146 140 0
150 143 0
147 139 0
148 140 0
150 142 0
146 140 0
149 143 0
147 139 0
145 138 0
148 141 0
150 144 0
150 143 0
154 146 0
152 146 0
154 146 0
150 143 0
153 148 0
151 146 0
152 145 0
148 141 0
155 149 0
199 221 228
201 222 234
201 223 237
202 224 241
201 223 236
200 222 234
202 224 241
201 223 238
201 223 240
202 223 237
204 225 246
202 223 237
202 224 240
204 225 246
202 223 238
205 226 249
203 225 244
203 224 240
205 226 248
204 225 246
205 226 250
204 225 245
203 224 244
204 225 245
204 225 245
204 225 242
206 227 252
202 223 242
205 226 250
205 226 246
204 225 244
205 226 249
205 226 248
204 225 246
205 226 246
202 223 241
204 225 246
205 226 252
204 225 242
206 227 253
204 225 244
204 225 245
205 226 246
206 227 252
203 225 242
205 226 250
203 224 246
202 223 244
204 225 250
206 227 253
206 227 252
205 226 252
205 226 252
206 227 254
205 226 250
204 225 246
205 226 250
203 224 245
205 226 250
205 226 250
205 226 252
204 226 249
204 225 252
204 225 249
205 226 250
204 225 250
205 226 250
206 227 254
204 225 248
205 226 253
202 224 246
205 226 250
204 226 250
202 223 245
204 226 250
204 225 249
204 226 252
204 226 252
202 224 246
203 224 249
203 225 249
203 225 250
203 224 250
202 224 246
202 224 246
202 224 252
202 224 249
199 222 244
199 222 246
201 223 249
200 222 246
200 223 248
201 224 253
200 223 252
201 224 248
200 223 250
198 221 242
197 221 240
198 221 244
199 222 249
199 223 249
197 221 249
197 221 240
195 219 237
195 219 245
196 221 246
193 218 237
193 218 238
189 215 230
190 216 240
188 214 234
188 214 233
185 211 220
184 211 217
182 208 191
179 206 188
170 196 140
162 188 67
158 183 0
166 190 0
166 190 0
165 190 0
158 183 0
161 185 0
155 180 0
163 187 0
165 189 0
163 188 0
159 183 0
160 184 0
159 183 0
159 183 0
159 181 0
160 183 0
155 177 0
156 179 0
147 169 0
156 179 0
153 176 0
155 178 0
153 175 0
157 179 0
152 175 0
150 173 0
150 172 0
151 173 0
143 164 0
147 168 0
144 166 0
150 171 0
151 173 0
149 171 0
139 160 0
145 167 0
149 171 0
134 154 18
83 108 70
56 88 99
52 83 95
55 87 92
54 86 97
55 87 99
55 88 99
57 89 102
54 86 100
56 89 105
54 86 97
55 88 103
54 86 94
56 88 110
56 88 111
55 88 99
55 88 94
54 86 95
55 87 88
54 87 90
56 89 107
55 88 90
56 88 94
56 89 100
55 87 100
54 86 97
57 90 113
55 87 97
57 90 105
55 88 97
56 89 111
54 86 99
56 89 102
58 91 114
55 87 108
55 87 99
54 87 100
56 89 108
55 88 94
55 87 103
57 89 102
53 85 97
56 88 97
57 90 100
52 83 92
57 89 102
54 86 103
56 89 103
54 86 99
55 88 102
56 89 100
54 86 105
55 88 107
56 88 105
52 83 80
55 87 105
55 86 105
57 89 111
56 88 105
55 87 102
55 87 105
55 87 94
55 87 97
53 84 95
53 84 88
53 83 94
55 86 100
57 90 111
55 87 102
52 82 92
54 85 92
52 83 90
54 85 95
53 83 86
52 83 86
54 85 102
54 85 101
54 85 82
52 82 85
54 84 95
53 83 75
51 81 88
52 83 84
51 80 89
51 80 88
53 83 89
51 80 86
67 89 62
131 145 0
120 130 0
130 143 0
134 148 0
123 136 0
128 145 0
121 132 0
134 146 0
125 136 0
128 138 0
131 142 0
129 141 0
129 141 0
126 137 0
130 141 0
133 141 0
132 140 0
133 141 0
130 140 0
129 139 0
131 139 0
135 144 0
135 141 0
134 139 0
123 131 0
129 134 0
129 136 0
125 131 0
126 125 0
129 134 0
122 123 0
119 118 0
127 128 0
139 144 0
129 132 0
128 130 0
129 129 0
122 123 0
132 127 0
116 104 0
100 88 0
113 100 0
107 93 0
96 81 0
102 88 0
95 85 0
96 86 0
108 96 0
108 99 0
115 103 0
103 93 0
106 95 0
111 100 0
110 97 0
115 104 0
110 102 0
121 110 0
113 102 0
119 109 0
132 121 0
118 106 0
121 112 0
130 119 0
124 114 0
116 106 0
120 110 0
119 108 0
125 117 0
120 110 0
122 112 0
126 113 0
124 116 0
128 118 0
128 120 0
124 115 0
134 123 0
128 119 0
127 119 0
134 124 0
128 119 0
128 120 0
126 115 0
132 124 0
133 124 0
130 123 0
133 122 0
132 123 0
135 125 0
135 127 0
132 122 0
132 122 0
133 124 0
137 127 0
144 135 0
136 128 0
142 133 0
133 124 0
141 130 0
139 132 0
140 131 0
136 129 0
138 129 0
138 129 0
137 126 0
140 132 0
144 136 0
139 131 0
144 134 0
142 132 0
140 131 0
143 134 0
142 133 0
146 138 0
147 139 0
140 132 0
144 135 0
142 135 0
143 135 0
143 137 0
144 137 0
145 137 0
139 130 0
143 136 0
146 137 0
143 136 0
144 134 0
147 138 0
148 141 0
149 140 0
145 136 0
146 137 0
148 140 0
145 139 0
147 140 0
146 138 0
147 138 0
149 142 0
148 140 0
149 142 0
150 143 0
146 139 0
152 146 0
149 141 0
147 140 0
148 141 0
149 143 0
153 147 0
148 142 0
149 142 0
153 147 0
149 142 0
151 142 0
149 141 0
150 143 0
149 142 0
149 143 0
198 220 221
200 222 234
202 223 241
198 220 224
201 223 236
201 222 241
200 222 238
199 221 231
202 224 244
203 224 244
202 224 244
200 222 236
200 222 233
203 224 245
203 224 244
203 225 246
203 224 244
203 225 245
202 223 237
204 225 248
204 226 249
203 225 245
204 225 248
204 225 248
202 223 237
204 225 248
204 226 249
204 225 246
204 225 249
204 225 248
205 226 253
203 224 241
204 226 249
203 224 246
203 224 245
205 226 249
205 226 250
204 225 246
204 225 246
205 226 250
203 225 244
203 224 246
204 226 248
204 225 244
204 226 249
204 225 250
205 226 250
205 226 249
205 226 250
204 226 249
205 226 250
205 226 253
203 225 244
204 225 249
203 224 246
204 225 249
205 226 252
204 225 249
204 225 250
204 225 248
205 226 252
206 227 255
204 225 249
204 225 248
204 225 250
204 225 253
205 226 253
202 224 246
203 225 248
202 223 245
204 225 249
204 226 250
201 223 246
199 221 241
203 224 250
200 222 241
203 225 249
202 224 245
202 224 248
203 225 253
202 224 248
201 223 249
202 224 250
203 225 252
200 222 246
201 223 249
200 222 246
202 225 252
201 224 252
199 222 248
200 223 249
202 225 254
199 222 248
200 223 252
198 222 248
196 220 246
198 222 244
197 221 242
198 222 245
199 223 250
196 220 245
197 221 246
193 217 241
194 219 241
193 218 237
193 218 240
192 217 236
191 216 234
189 215 226
184 210 221
188 214 226
184 210 218
180 207 203
177 203 193
169 195 144
165 191 62
160 185 0
158 184 0
164 189 0
161 187 0
157 183 0
157 182 0
157 182 0
160 184 0
164 188 0
159 183 0
161 185 0
157 181 0
157 181 0
159 183 0
156 179 0
161 185 0
158 181 0
152 175 0
153 176 0
161 184 0
160 182 0
156 179 0
152 175 0
149 171 0
152 174 0
150 173 0
147 170 0
153 176 0
155 177 0
154 176 0
150 171 0
144 166 0
142 163 0
147 169 0
151 171 0
143 164 0
148 169 0
138 159 0
147 168 0
136 157 0
144 164 0
90 114 60
51 81 76
55 87 102
54 86 94
53 85 95
55 87 102
52 83 94
56 89 102
54 87 100
54 86 94
56 88 99
55 87 94
53 84 82
53 85 88
54 86 95
56 88 100
55 87 90
54 85 90
55 87 105
54 85 84
51 82 78
53 85 88
53 85 94
56 89 103
56 88 102
55 88 95
55 86 99
55 88 88
53 84 92
54 86 110
54 86 99
55 86 99
57 89 110
56 89 110
55 87 99
53 84 107
54 85 100
56 89 102
57 90 110
56 88 105
56 88 102
54 86 102
52 83 86
54 86 94
56 89 105
56 88 99
54 85 84
53 84 94
56 88 100
56 89 107
55 86 95
56 88 105
54 86 94
58 91 114
51 82 76
55 87 105
55 86 105
52 83 90
56 88 107
53 84 80
55 86 102
54 86 92
56 88 103
53 83 97
53 85 86
54 86 102
55 86 100
55 87 90
56 89 103
55 87 95
53 84 92
52 83 90
55 86 99
52 83 87
53 83 85
54 84 94
51 82 90
52 83 94
57 89 105
55 85 102
50 79 67
49 77 70
52 82 85
52 83 86
51 80 80
78 97 60
115 127 18
108 122 0
123 134 0
131 145 0
127 141 0
118 130 0
122 135 0
120 129 0
127 139 0
118 129 0
120 133 0
122 131 0
123 134 0
125 135 0
126 137 0
132 142 0
120 130 0
123 129 0
125 137 0
127 137 0
121 128 0
125 129 0
138 148 0
128 137 0
119 131 0
136 141 0
122 126 0
138 143 0
124 128 0
125 126 0
120 123 0
127 129 0
120 120 0
125 127 0
125 130 0
127 128 0
129 128 0
136 136 0
120 118 0
117 116 0
128 125 0
101 93 0
111 95 0
106 91 0
94 82 0
102 88 0
105 90 0
111 98 0
112 98 0
106 94 0
114 100 0
108 97 0
111 101 0
115 103 0
107 95 0
106 95 0
115 107 0
121 110 0
116 107 0
122 109 0
104 93 0
114 103 0
118 109 0
110 100 0
117 105 0
119 108 0
121 112 0
124 114 0
118 106 0
117 109 0
123 111 0
132 123 0
125 117 0
127 116 0
124 118 0
120 111 0
126 118 0
129 121 0
132 121 0
119 109 0
134 124 0
131 122 0
138 127 0
128 117 0
133 124 0
126 113 0
134 123 0
141 130 0
129 122 0
127 117 0
132 122 0
140 132 0
132 123 0
135 123 0
137 126 0
137 127 0
137 127 0
135 125 0
138 129 0
140 130 0
141 132 0
138 130 0
141 131 0
137 128 0
139 132 0
142 133 0
133 124 0
145 136 0
142 134 0
142 134 0
140 131 0
142 133 0
144 138 0
142 133 0
146 138 0
145 136 0
143 135 0
142 134 0
145 136 0
143 135 0
143 134 0
142 134 0
144 137 0
144 138 0
148 139 0
142 135 0
146 136 0
150 141 0
147 139 0
146 138 0
150 143 0
144 135 0
144 135 0
147 138 0
145 138 0
148 141 0
148 140 0
144 136 0
149 141 0
148 139 0
148 141 0
152 143 0
148 141 0
147 139 0
143 136 0
146 138 0
150 143 0
148 141 0
146 140 0
147 139 0
151 145 0
149 142 0
150 142 0
151 142 0
152 146 0
148 143 0
152 146 0
198 220 231
200 222 237
199 221 230
199 221 231
198 220 226
198 220 224
200 222 238
201 223 240
201 223 245
201 223 242
201 223 237
203 224 248
200 222 233
201 223 241
202 224 246
201 223 241
201 223 238
202 224 240
202 224 242
201 223 236
202 224 242
202 224 241
204 225 250
203 224 244
204 225 248
204 225 249
203 224 248
204 226 250
202 224 242
204 225 248
203 224 246
204 226 250
203 225 246
203 225 245
203 225 246
202 224 240
203 225 246
205 226 252
204 225 248
204 226 250
204 225 249
202 223 244
204 225 248
204 225 248
205 226 252
202 224 242
205 226 252
203 225 245
203 224 250
204 225 249
203 225 250
204 225 248
203 224 245
203 224 248
204 225 250
204 225 248
203 225 246
203 225 248
203 224 248
202 224 245
201 223 241
203 225 248
202 224 244
204 225 250
203 225 252
202 224 246
203 225 249
201 223 242
202 224 246
202 224 246
203 225 248
201 223 249
201 223 242
199 221 240
201 223 244
202 224 249
202 224 250
203 225 249
201 224 248
202 224 249
200 223 248
202 225 252
201 224 249
200 223 248
200 222 248
201 224 250
199 222 248
200 223 249
201 224 249
198 221 244
200 223 253
198 222 242
197 221 245
198 222 249
198 222 245
196 220 244
194 218 238
194 219 236
193 218 240
195 220 241
194 219 242
194 219 242
192 217 237
187 212 220
194 220 246
192 218 237
191 217 241
185 211 233
186 213 220
184 211 218
184 211 215
174 201 175
168 195 155
168 194 84
161 187 36
164 189 0
163 188 0
160 185 0
156 182 0
161 186 0
163 188 0
158 183 0
164 189 0
156 180 0
160 184 0
155 180 0
158 182 0
160 184 0
156 180 0
157 180 0
153 176 0
161 185 0
158 181 0
158 181 0
156 179 0
157 179 0
157 179 0
154 177 0
151 174 0
148 171 0
155 178 0
146 168 0
152 174 0
151 173 0
146 168 0
150 172 0
142 164 0
156 177 0
145 166 0
141 163 0
151 172 0
148 170 0
146 167 0
142 163 0
141 162 0
144 164 0
142 163 0
137 158 0
102 125 51
58 87 80
53 84 88
51 81 84
56 89 103
52 82 90
54 86 94
55 86 90
55 87 88
55 87 90
54 86 97
54 86 100
52 83 94
53 84 95
54 86 97
55 87 97
54 85 92
55 88 99
55 87 92
54 87 100
54 86 84
53 85 86
53 84 90
55 87 94
55 87 95
55 87 97
54 86 97
56 88 82
56 89 103
53 85 88
55 87 94
55 86 97
54 87 95
52 83 94
55 88 95
54 86 92
55 87 103
55 87 102
55 87 100
53 84 78
54 86 84
55 87 99
54 86 94
54 85 95
55 87 100
54 85 88
52 83 82
54 86 102
55 87 92
55 88 103
55 87 95
55 88 99
55 86 95
55 87 99
56 88 100
56 89 103
54 86 105
53 85 90
53 84 78
52 84 86
53 84 94
56 88 100
55 87 103
53 85 90
53 83 95
53 84 95
57 89 114
53 83 92
53 84 97
55 87 100
51 81 82
54 85 102
52 83 88
52 82 85
54 85 103
51 80 81
52 82 94
52 82 90
51 81 81
49 77 85
52 80 88
50 78 83
52 79 62
94 110 57
113 125 0
116 130 0
114 127 0
115 127 0
123 135 0
130 141 0
119 134 0
119 132 0
126 136 0
127 137 0
123 135 0
131 144 0
136 144 0
127 139 0
122 134 0
127 134 0
116 124 0
127 135 0
120 130 0
130 140 0
131 143 0
129 136 0
127 135 0
123 132 0
119 128 0
116 122 0
121 127 0
125 131 0
115 120 0
127 132 0
127 130 0
118 118 0
130 134 0
120 122 0
132 135 0
110 108 0
124 126 0
121 121 0
127 127 0
119 115 0
113 112 0
128 126 0
112 105 0
120 116 0
114 107 0
99 85 0
105 92 0
99 86 0
102 88 0
101 87 0
104 92 0
111 100 0
113 98 0
108 96 0
104 93 0
108 98 0
113 100 0
102 90 0
104 93 0
116 103 0
112 100 0
111 100 0
122 113 0
120 108 0
115 104 0
114 103 0
121 109 0
117 106 0
116 103 0
109 97 0
120 111 0
120 110 0
127 117 0
127 116 0
126 114 0
131 119 0
126 116 0
127 117 0
117 106 0
123 114 0
127 116 0
133 125 0
130 121 0
130 119 0
129 119 0
131 121 0
128 120 0
133 122 0
129 117 0
134 126 0
125 117 0
138 127 0
134 124 0
137 129 0
139 129 0
133 124 0
133 126 0
140 132 0
135 126 0
133 122 0
135 127 0
129 121 0
140 132 0
138 131 0
142 132 0
136 125 0
140 132 0
140 131 0
142 133 0
141 133 0
142 133 0
138 130 0
142 134 0
146 138 0
146 137 0
141 130 0
142 133 0
143 133 0
147 137 0
147 140 0
142 133 0
146 136 0
144 134 0
145 137 0
143 133 0
144 135 0
144 136 0
150 142 0
145 138 0
145 137 0
146 137 0
146 138 0
148 138 0
150 141 0
142 133 0
147 140 0
148 138 0
148 139 0
143 135 0
147 138 0
145 137 0
148 138 0
146 140 0
149 141 0
149 139 0
150 143 0
150 142 0
150 142 0
147 140 0
150 144 0
148 141 0
151 143 0
151 145 0
149 143 0
148 142 0
149 141 0
151 144 0
150 142 0
196 219 220
197 220 226
201 223 241
195 218 217
199 221 236
196 218 220
198 220 228
199 221 233
198 220 230
199 221 230
201 223 240
201 223 241
200 222 237
203 225 249
199 221 236
200 222 236
201 223 241
201 223 242
202 224 245
201 223 241
202 224 244
201 223 241
203 225 246
202 223 241
203 225 248
201 222 241
203 225 246
202 224 246
204 226 252
203 225 249
203 224 245
204 225 250
204 225 250
202 223 240
202 224 246
203 225 248
202 224 248
204 225 249
203 225 250
202 224 242
203 224 249
203 225 248
201 223 245
202 224 248
202 224 246
203 225 249
204 226 254
203 225 249
202 224 245
204 226 254
203 225 249
202 224 245
204 226 254
203 225 250
203 225 248
202 224 248
201 223 245
203 225 249
202 224 246
203 225 249
203 225 249
203 224 246
202 224 246
203 225 249
201 223 244
203 225 250
201 223 248
199 221 236
201 223 249
201 223 246
200 222 242
201 224 249
200 223 244
201 223 249
200 222 246
201 224 246
201 223 249
200 223 245
201 223 249
200 223 246
200 223 248
200 223 250
200 223 248
199 222 245
201 224 252
201 224 250
199 223 252
200 223 250
198 222 245
197 221 245
199 222 245
198 222 249
196 220 244
198 222 250
195 219 244
196 221 244
193 217 241
195 219 238
191 216 237
192 217 237
191 217 234
191 216 228
189 215 226
187 213 233
190 217 236
185 212 224
184 210 215
186 213 223
182 209 214
176 203 191
169 195 144
165 192 95
162 188 36
165 190 0
157 183 0
161 187 0
158 184 0
161 187 0
165 189 0
156 180 0
163 188 0
157 181 0
161 185 0
161 186 0
158 183 0
157 181 0
161 185 0
161 184 0
158 182 0
145 168 0
161 185 0
160 183 0
156 179 0
156 178 0
151 174 0
149 171 0
147 170 0
152 175 0
152 175 0
138 160 0
144 166 0
154 177 0
150 173 0
150 172 0
141 163 0
144 166 0
142 163 0
148 169 0
143 164 0
136 158 0
144 166 0
141 162 0
141 162 0
141 162 0
137 158 0
141 162 0
140 160 0
127 146 0
133 153 0
111 132 25
61 89 76
51 81 78
51 83 76
52 83 92
51 81 86
53 84 84
53 85 97
54 86 90
55 87 95
54 86 86
54 86 99
53 84 92
55 88 103
54 86 97
55 87 95
53 84 92
53 83 84
55 88 95
54 85 82
54 86 90
52 83 82
56 88 92
56 88 102
53 85 88
55 87 92
52 83 99
55 88 105
54 86 95
54 86 88
54 86 92
52 83 84
54 86 90
55 87 99
54 85 105
55 87 94
54 85 99
54 86 99
56 89 110
55 87 97
55 87 99
54 85 92
55 88 94
53 85 99
54 86 108
54 85 90
54 85 95
54 86 84
53 84 90
53 84 95
57 89 108
53 85 94
55 87 94
54 85 94
52 82 92
54 86 94
54 86 94
53 84 78
55 87 99
55 86 88
57 89 105
54 85 84
55 86 105
55 87 92
55 87 99
53 84 99
55 87 90
54 85 92
54 85 92
49 77 67
50 79 88
52 83 90
53 84 92
52 82 81
52 81 81
51 80 87
50 80 74
49 78 83
51 81 83
49 77 82
53 78 72
88 106 54
111 123 0
128 143 0
121 132 0
115 128 0
116 129 0
114 127 0
116 130 0
122 133 0
124 134 0
125 137 0
126 139 0
122 134 0
127 139 0
129 141 0
111 122 0
115 123 0
113 124 0
125 133 0
119 128 0
110 120 0
116 124 0
121 129 0
113 118 0
121 129 0
115 122 0
132 140 0
117 121 0
112 117 0
126 131 0
123 127 0
128 132 0
130 134 0
129 134 0
124 132 0
126 129 0
118 123 0
124 123 0
122 124 0
122 123 0
113 110 0
116 114 0
119 119 0
114 113 0
123 119 0
114 111 0
120 115 0
123 120 0
106 97 0
98 84 0
100 85 0
97 82 0
99 85 0
108 94 0
95 82 0
106 92 0
112 101 0
110 96 0
99 88 0
115 102 0
114 101 0
105 96 0
112 100 0
111 98 0
120 108 0
112 101 0
120 111 0
123 111 0
117 107 0
124 114 0
119 111 0
115 100 0
116 107 0
126 113 0
119 109 0
122 110 0
122 111 0
124 111 0
117 109 0
132 119 0
125 113 0
127 120 0
123 111 0
127 117 0
131 120 0
124 114 0
136 125 0
131 121 0
129 118 0
133 123 0
131 121 0
129 119 0
130 120 0
131 123 0
135 123 0
133 123 0
130 119 0
135 126 0
135 126 0
137 127 0
132 123 0
145 135 0
137 128 0
135 126 0
138 127 0
141 132 0
135 126 0
143 134 0
141 131 0
137 128 0
138 130 0
144 134 0
140 133 0
143 133 0
138 128 0
143 134 0
143 135 0
142 133 0
140 131 0
137 129 0
143 132 0
145 136 0
139 129 0
136 129 0
145 136 0
146 136 0
145 137 0
143 134 0
142 133 0
144 135 0
142 134 0
147 138 0
144 135 0
143 136 0
147 139 0
146 136 0
148 142 0
148 139 0
146 137 0
147 138 0
144 136 0
149 140 0
147 138 0
149 139 0
148 139 0
148 140 0
147 140 0
145 138 0
151 143 0
148 139 0
149 140 0
148 141 0
147 139 0
152 146 0
151 143 0
150 143 0
150 142 0
150 143 0
151 145 0
152 145 0
194 217 214
196 219 226
196 219 224
197 220 230
198 221 228
197 220 226
197 220 227
199 221 236
198 220 227
199 221 231
200 222 238
199 221 236
198 220 233
199 222 234
200 222 242
200 223 240
198 221 230
200 222 238
200 222 237
201 224 245
200 222 236
200 222 240
201 223 240
199 221 231
203 225 250
203 225 249
201 223 244
201 223 246
202 224 246
199 221 234
201 223 241
201 223 237
202 224 248
203 225 252
202 224 244
203 225 250
203 225 252
203 225 248
202 223 242
202 225 249
204 225 252
202 224 244
203 225 250
202 224 246
201 223 246
201 223 245
201 223 242
202 224 248
203 225 252
203 226 253
201 223 245
201 223 246
200 222 245
202 225 249
202 224 248
202 224 248
199 221 241
202 224 248
202 225 249
202 224 248
201 223 245
203 225 252
201 223 248
202 225 250
201 223 246
202 224 252
202 225 252
201 223 245
202 224 252
200 223 246
201 224 250
199 222 245
201 224 248
199 221 245
200 223 248
200 223 248
199 222 242
200 224 250
200 223 248
198 222 241
199 222 246
200 223 250
199 223 248
198 222 244
200 223 250
199 222 246
196 220 242
198 222 250
198 222 248
196 220 248
197 221 245
196 220 244
195 219 244
192 216 234
195 219 242
192 217 231
192 217 240
191 216 236
190 215 236
190 216 236
190 216 234
188 214 231
189 216 231
181 207 209
186 213 224
183 210 220
182 210 211
170 197 175
176 204 177
166 194 99
164 190 36
163 190 0
163 189 0
160 185 0
159 186 0
158 183 0
161 186 0
158 183 0
160 185 0
162 186 0
156 181 0
161 185 0
164 189 0
160 184 0
157 180 0
157 181 0
156 179 0
157 181 0
154 178 0
155 179 0
157 181 0
157 181 0
153 176 0
155 177 0
156 179 0
152 175 0
149 171 0
142 164 0
147 170 0
151 173 0
150 173 0
150 172 0
146 168 0
147 168 0
147 169 0
147 168 0
135 157 0
144 166 0
147 168 0
151 172 0
142 162 0
139 160 0
149 169 0
139 159 0
141 160 0
136 157 0
141 162 0
136 156 0
127 147 0
129 149 0
128 147 31
78 103 78
50 80 88
51 82 76
53 84 90
52 83 86
54 85 90
52 83 84
54 87 95
51 82 90
53 84 88
53 84 82
52 84 90
56 89 111
54 85 95
52 82 92
56 89 100
53 84 94
54 85 90
53 85 100
51 82 82
52 84 86
54 85 76
55 87 95
54 85 97
53 84 84
53 84 86
56 88 103
54 85 95
57 90 105
57 90 115
54 85 88
55 87 99
52 83 72
53 84 95
54 85 88
54 86 94
54 86 92
53 84 88
54 85 94
55 88 99
54 86 90
53 84 94
54 86 94
57 89 95
54 87 82
53 85 86
54 86 99
54 85 90
56 88 108
55 87 94
52 82 102
55 86 97
51 82 74
55 87 97
55 86 99
54 86 94
53 84 92
54 85 92
54 85 86
54 86 94
55 87 88
55 87 90
52 83 90
51 80 82
52 82 90
51 81 82
52 83 78
53 85 86
53 83 90
50 80 86
52 82 83
51 80 85
51 81 84
51 79 84
50 78 72
51 81 76
47 74 78
71 91 70
109 123 18
102 115 0
118 131 0
116 128 0
107 117 0
107 119 0
119 130 0
123 133 0
127 141 0
112 125 0
123 134 0
117 128 0
116 125 0
131 143 0
125 136 0
118 128 0
119 130 0
125 137 0
115 125 0
125 135 0
119 125 0
125 134 0
125 131 0
129 136 0
121 133 0
128 136 0
125 137 0
121 132 0
121 130 0
125 133 0
122 129 0
131 134 0
116 122 0
128 131 0
124 129 0
133 137 0
121 123 0
130 133 0
121 124 0
122 123 0
112 110 0
124 126 0
121 121 0
110 109 0
109 104 0
117 114 0
114 109 0
127 124 0
110 106 0
120 117 0
105 99 0
95 85 0
85 72 0
91 76 0
96 83 0
100 87 0
102 87 0
108 95 0
104 90 0
102 89 0
119 106 0
109 97 0
115 99 0
107 96 0
119 108 0
113 102 0
118 105 0
118 105 0
122 110 0
113 101 0
115 103 0
122 110 0
127 114 0
109 99 0
121 109 0
128 116 0
123 111 0
123 113 0
127 117 0
120 106 0
128 115 0
122 112 0
126 113 0
128 116 0
124 113 0
131 119 0
124 113 0
128 118 0
129 119 0
135 124 0
128 117 0
132 121 0
132 121 0
132 123 0
139 128 0
127 117 0
138 127 0
133 121 0
134 124 0
133 123 0
136 127 0
136 127 0
135 125 0
138 129 0
141 128 0
140 131 0
138 130 0
141 130 0
131 122 0
135 125 0
138 129 0
137 128 0
143 135 0
143 132 0
138 129 0
138 125 0
135 125 0
144 137 0
143 135 0
145 135 0
141 131 0
141 130 0
137 127 0
146 137 0
143 132 0
149 140 0
148 138 0
148 139 0
146 138 0
143 133 0
146 138 0
143 134 0
144 135 0
146 136 0
142 134 0
150 141 0
145 136 0
145 135 0
147 140 0
151 142 0
150 143 0
141 132 0
149 141 0
148 138 0
150 142 0
150 142 0
145 135 0
149 141 0
148 139 0
150 143 0
147 141 0
150 142 0
149 141 0
149 141 0
151 144 0
149 141 0
151 143 0
147 139 0
151 143 0
152 144 0
151 143 0
191 215 204
194 217 215
194 217 215
196 219 226
193 216 209
196 219 224
195 218 224
197 219 226
196 219 223
196 219 227
197 220 227
198 221 236
199 221 236
200 222 240
199 221 242
200 223 244
200 222 242
201 224 246
199 222 237
201 224 246
201 223 244
199 221 234
200 223 244
199 222 236
199 222 240
199 222 236
200 223 241
202 224 249
201 223 248
201 223 244
201 223 242
201 224 245
201 223 244
200 222 241
202 224 246
200 222 242
201 224 248
199 221 238
201 223 246
201 223 245
200 222 244
200 222 244
202 224 248
202 224 250
201 224 246
201 224 249
201 223 245
201 224 245
201 223 246
202 224 248
200 223 241
201 223 242
200 223 242
201 224 246
202 225 252
202 224 250
202 224 248
200 222 241
202 224 250
200 223 242
201 223 248
201 223 245
201 223 248
202 224 250
200 223 245
199 222 238
199 222 245
200 223 246
200 223 249
200 223 248
201 224 253
199 222 246
200 223 248
198 221 244
198 221 241
199 222 246
196 220 242
198 221 244
199 222 246
199 223 248
198 222 248
198 222 245
198 222 249
198 222 248
196 220 242
197 221 242
193 217 234
197 221 246
196 221 244
196 221 246
193 218 238
194 219 242
193 218 241
194 219 240
194 219 238
192 217 237
192 218 237
187 213 227
192 219 245
185 211 223
187 214 227
188 215 231
186 213 221
183 210 214
180 208 204
179 207 196
170 197 159
167 193 95
162 189 0
163 188 0
162 188 0
157 183 0
154 180 0
154 179 0
159 184 0
160 184 0
159 184 0
159 185 0
162 187 0
161 185 0
161 185 0
162 186 0
161 185 0
159 183 0
160 184 0
157 180 0
152 175 0
151 174 0
155 178 0
154 177 0
155 178 0
151 174 0
153 176 0
150 172 0
152 175 0
151 173 0
153 175 0
142 164 0
150 173 0
149 171 0
141 164 0
153 175 0
151 173 0
142 164 0
149 170 0
144 166 0
147 168 0
141 163 0
148 169 0
139 159 0
139 161 0
143 164 0
139 160 0
141 162 0
138 158 0
142 162 0
127 147 0
125 145 0
127 146 0
138 158 0
123 143 0
127 147 18
93 114 54
55 85 80
51 81 70
52 83 78
50 80 72
52 83 84
50 81 74
54 85 86
53 84 86
53 85 86
53 84 82
54 86 95
55 88 92
53 84 78
54 85 105
54 86 103
53 85 95
55 87 107
53 84 90
52 83 88
53 84 88
56 88 97
55 87 95
54 86 102
54 86 95
54 85 84
53 84 90
52 82 90
52 82 95
56 88 102
56 89 94
54 86 107
55 87 100
53 85 92
55 86 97
51 82 82
55 87 95
56 89 114
56 89 88
52 83 86
53 84 92
54 85 94
52 83 90
52 83 90
53 83 88
54 86 95
53 85 84
53 84 92
53 83 92
56 88 96
50 80 78
52 83 81
54 86 94
52 82 92
55 86 94
56 88 111
54 86 88
55 86 90
53 84 84
54 85 92
52 83 84
52 82 86
52 82 101
52 82 86
51 80 88
52 82 87
52 83 76
53 83 86
49 78 78
50 79 74
49 78 78
49 78 76
52 82 94
51 79 86
49 74 71
72 87 57
113 123 0
110 123 0
105 117 0
108 121 0
118 130 0
98 112 0
109 121 0
112 125 0
110 124 0
112 123 0
111 121 0
120 132 0
113 123 0
112 123 0
110 120 0
115 125 0
115 126 0
123 135 0
119 129 0
120 129 0
118 130 0
124 134 0
130 141 0
122 132 0
121 129 0
120 130 0
124 132 0
121 127 0
123 127 0
118 125 0
124 134 0
116 124 0
119 124 0
126 130 0
124 129 0
120 126 0
126 131 0
110 109 0
122 125 0
113 115 0
125 125 0
111 110 0
120 121 0
110 112 0
114 117 0
113 111 0
116 114 0
106 101 0
103 98 0
103 96 0
107 101 0
94 88 0
101 93 0
107 99 0
94 81 0
90 73 0
96 80 0
104 90 0
101 86 0
100 86 0
102 84 0
95 81 0
112 96 0
100 88 0
109 94 0
112 98 0
109 96 0
111 98 0
112 98 0
111 98 0
112 99 0
110 96 0
123 111 0
125 110 0
118 104 0
118 107 0
124 110 0
122 111 0
117 106 0
123 112 0
124 112 0
127 117 0
125 112 0
123 111 0
122 110 0
128 116 0
130 117 0
130 119 0
128 118 0
131 117 0
129 119 0
137 127 0
129 119 0
129 116 0
139 128 0
135 124 0
132 122 0
133 120 0
136 125 0
134 123 0
137 127 0
132 121 0
134 124 0
140 129 0
136 126 0
139 127 0
138 128 0
131 120 0
135 123 0
133 121 0
136 127 0
142 131 0
143 132 0
137 129 0
146 135 0
140 129 0
140 129 0
140 128 0
142 130 0
136 125 0
142 130 0
140 131 0
144 134 0
143 132 0
146 135 0
143 134 0
139 128 0
140 131 0
147 139 0
144 133 0
143 133 0
141 133 0
145 135 0
148 139 0
144 133 0
145 137 0
146 138 0
146 138 0
145 138 0
147 138 0
144 137 0
148 139 0
147 139 0
146 137 0
147 139 0
145 135 0
147 138 0
149 140 0
147 139 0
150 141 0
150 141 0
149 141 0
149 140 0
151 144 0
149 141 0
149 142 0
150 140 0
151 144 0
150 142 0
150 143 0
149 141 0
151 144 0
190 213 191
192 215 204
193 216 211
193 216 215
193 216 209
193 216 211
195 219 227
196 219 227
195 218 220
196 220 230
197 221 234
197 220 230
195 218 218
198 221 234
197 220 228
196 220 230
198 221 233
197 221 233
197 220 233
199 222 238
200 223 244
200 223 244
201 223 246
196 219 228
199 221 237
200 222 242
198 220 233
201 223 245
200 223 244
199 221 240
200 223 245
197 220 237
199 221 236
199 221 238
199 222 241
201 224 250
199 222 242
200 223 241
200 223 244
201 224 248
200 223 245
200 223 242
201 223 246
199 221 238
198 221 236
200 222 244
200 223 244
201 223 249
199 222 240
202 224 250
201 224 250
201 224 246
201 224 248
200 223 246
201 224 249
200 223 246
201 224 250
199 222 242
200 223 248
200 223 248
201 224 249
201 224 252
199 222 241
200 223 246
198 221 237
200 223 250
199 222 244
197 221 241
200 223 248
200 223 248
198 221 242
199 222 244
198 222 244
198 222 248
195 219 237
200 224 253
198 221 246
198 222 248
198 222 246
197 221 246
197 221 244
196 221 249
195 219 244
197 221 242
196 221 242
195 219 242
193 218 241
193 217 241
193 219 238
193 218 240
192 217 236
191 216 241
190 216 231
190 216 233
189 215 228
188 214 233
189 215 230
188 215 233
185 212 224
182 209 211
184 212 218
181 209 218
178 205 201
175 203 177
169 197 140
163 190 88
161 189 0
158 184 0
160 188 0
161 188 0
161 187 0
155 182 0
157 184 0
154 181 0
161 186 0
156 182 0
160 186 0
159 183 0
159 184 0
160 185 0
159 184 0
156 180 0
159 183 0
155 177 0
164 188 0
153 176 0
154 178 0
152 175 0
156 179 0
148 171 0
151 174 0
155 178 0
152 175 0
156 179 0
152 174 0
152 174 0
144 167 0
158 180 0
149 170 0
149 171 0
151 172 0
142 164 0
145 166 0
144 165 0
135 156 0
142 162 0
142 163 0
143 165 0
139 160 0
147 167 0
139 160 0
135 155 0
136 157 0
129 149 0
145 165 0
137 157 0
133 153 0
137 156 0
121 140 0
130 150 0
126 145 0
125 145 0
127 146 0
113 133 31
54 84 86
51 81 70
50 79 80
52 83 67
53 84 97
52 83 84
52 83 94
54 85 99
52 83 76
55 87 97
52 83 76
54 86 88
55 86 97
53 84 88
54 86 90
54 85 86
51 81 88
53 85 94
54 86 95
53 85 90
54 86 90
52 82 86
53 84 95
52 83 86
51 81 88
53 84 99
53 84 74
53 84 94
52 83 84
54 86 76
55 87 100
54 86 88
54 86 92
53 83 74
54 85 84
55 87 97
54 85 103
54 87 105
57 90 107
55 86 99
52 83 88
52 83 88
53 84 86
54 85 88
51 81 82
56 87 92
54 86 88
52 82 92
52 82 88
55 86 97
51 81 76
54 85 97
52 83 82
52 82 90
50 80 86
52 83 95
52 82 88
52 83 82
50 80 85
53 83 92
52 82 92
51 82 78
50 80 92
53 84 86
53 84 92
50 80 76
50 78 85
50 79 90
48 76 76
50 78 74
48 76 65
54 78 65
85 96 44
101 112 0
109 120 0
109 123 0
109 120 0
119 131 0
110 123 0
103 117 0
116 129 0
105 117 0
110 122 0
115 125 0
120 132 0
123 136 0
123 133 0
110 120 0
126 138 0
120 132 0
119 130 0
119 131 0
119 130 0
115 125 0
121 129 0
120 129 0
118 130 0
121 130 0
106 115 0
126 135 0
122 129 0
121 127 0
122 132 0
122 126 0
129 135 0
120 126 0
115 121 0
117 123 0
113 119 0
111 115 0
112 116 0
117 122 0
112 111 0
121 120 0
115 115 0
114 116 0
109 109 0
106 106 0
116 115 0
114 113 0
115 113 0
113 112 0
115 112 0
93 90 0
111 107 0
99 92 0
107 103 0
113 108 0
102 95 0
100 96 0
91 80 0
95 83 0
92 77 0
99 82 0
96 81 0
105 90 0
99 83 0
91 77 0
104 89 0
115 99 0
116 100 0
101 87 0
113 96 0
118 104 0
111 98 0
114 99 0
106 95 0
116 101 0
118 105 0
118 106 0
119 105 0
111 98 0
116 103 0
118 106 0
117 104 0
118 105 0
122 110 0
121 111 0
125 109 0
130 119 0
126 116 0
124 111 0
131 117 0
135 123 0
122 110 0
127 115 0
128 115 0
130 118 0
131 121 0
131 119 0
132 121 0
133 120 0
132 120 0
134 123 0
130 119 0
134 124 0
132 122 0
132 119 0
140 130 0
139 126 0
134 123 0
136 125 0
139 128 0
136 125 0
139 126 0
138 125 0
141 130 0
139 129 0
146 135 0
140 130 0
139 127 0
138 127 0
146 136 0
138 128 0
140 129 0
138 128 0
141 132 0
142 130 0
141 131 0
144 135 0
144 134 0
141 131 0
144 133 0
144 134 0
143 132 0
140 130 0
145 137 0
144 134 0
147 137 0
143 135 0
145 135 0
146 138 0
147 137 0
147 139 0
141 130 0
148 139 0
148 138 0
149 141 0
146 136 0
144 134 0
150 140 0
148 139 0
148 141 0
147 138 0
144 132 0
150 140 0
147 137 0
148 140 0
151 143 0
152 144 0
151 143 0
147 138 0
151 142 0
151 142 0
149 142 0
153 146 0
187 210 173
190 214 203
189 212 199
189 213 196
191 214 198
192 215 209
193 217 211
194 217 217
192 215 206
195 218 221
193 217 215
195 219 224
196 219 228
196 220 230
196 219 226
197 221 236
199 222 240
196 219 234
198 221 241
199 222 245
198 221 242
197 220 231
197 220 231
196 219 223
199 222 241
198 221 234
199 223 244
200 223 249
198 221 237
196 219 231
199 222 241
198 220 237
198 221 240
199 222 241
200 223 245
200 222 242
199 222 242
199 222 242
196 219 236
200 223 245
200 223 244
200 223 245
199 222 238
200 223 246
200 223 245
201 224 249
198 221 241
201 224 253
201 224 253
199 222 242
199 222 246
198 221 241
198 221 237
199 222 245
198 221 238
198 221 242
198 221 244
199 222 245
198 221 248
201 224 253
198 222 246
198 222 242
197 221 244
198 222 241
199 222 249
197 221 246
197 221 240
198 222 246
198 222 245
197 221 242
198 221 245
197 221 248
197 221 245
196 220 240
197 221 245
198 222 248
197 222 246
197 221 246
196 220 240
192 216 234
195 220 244
195 220 244
193 218 237
195 220 246
193 218 244
195 221 249
193 218 234
193 218 237
192 218 240
190 216 234
190 216 230
192 218 236
188 214 231
188 214 224
188 214 228
183 210 215
186 213 231
184 212 220
184 211 212
177 204 203
178 205 189
172 200 167
166 194 117
164 191 51
163 189 0
161 188 0
161 187 0
157 183 0
162 188 0
159 184 0
161 187 0
156 183 0
157 182 0
158 184 0
158 184 0
158 184 0
160 184 0
157 182 0
158 182 0
164 188 0
155 179 0
158 182 0
161 184 0
160 185 0
152 176 0
156 180 0
155 178 0
139 162 0
153 176 0
157 181 0
153 176 0
152 175 0
159 182 0
156 179 0
155 177 0
145 167 0
160 182 0
149 171 0
151 174 0
147 170 0
147 168 0
151 173 0
147 168 0
150 171 0
154 175 0
148 169 0
140 162 0
141 162 0
144 165 0
146 167 0
144 165 0
138 158 0
131 151 0
132 152 0
127 147 0
123 142 0
131 150 0
136 155 0
128 148 0
115 134 0
110 128 0
122 140 0
124 143 0
114 131 0
111 129 0
86 107 60
48 77 78
52 83 80
54 85 88
51 81 70
50 80 78
54 86 95
53 84 72
51 82 80
53 85 88
52 83 95
51 81 95
51 82 67
53 84 88
53 84 92
53 84 86
52 82 92
53 85 88
51 81 90
55 87 97
54 86 92
52 83 78
52 83 88
53 83 92
55 87 99
54 85 80
52 82 80
53 84 84
53 84 90
51 81 88
53 83 86
50 81 76
54 86 94
51 81 84
52 82 88
52 83 94
53 85 94
52 83 80
54 85 88
51 82 90
53 85 92
51 81 80
55 87 95
53 83 84
51 82 74
52 83 82
54 86 94
53 83 88
49 78 85
52 82 78
53 85 95
54 86 90
54 85 100
49 78 76
51 81 80
50 79 94
52 83 76
52 82 90
53 84 89
53 84 95
50 80 78
54 84 88
51 81 81
48 76 74
51 79 90
53 84 82
49 78 80
50 79 80
47 75 72
72 89 47
85 98 0
116 127 0
109 120 0
114 126 0
113 126 0
114 127 0
105 114 0
111 124 0
112 125 0
111 122 0
108 121 0
111 122 0
108 120 0
110 123 0
110 120 0
112 121 0
131 143 0
121 134 0
119 130 0
120 128 0
118 127 0
111 124 0
116 126 0
113 124 0
117 127 0
124 135 0
115 124 0
120 130 0
120 128 0
117 125 0
114 122 0
124 134 0
118 125 0
120 125 0
124 133 0
118 129 0
116 122 0
118 123 0
122 127 0
120 124 0
122 128 0
122 125 0
107 109 0
118 119 0
118 122 0
116 118 0
122 122 0
107 108 0
111 114 0
107 104 0
100 98 0
116 114 0
112 109 0
111 113 0
105 104 0
106 102 0
107 103 0
105 102 0
100 94 0
100 91 0
91 83 0
98 90 0
83 69 0
89 73 0
95 78 0
94 80 0
99 83 0
104 90 0
108 94 0
107 93 0
112 96 0
114 100 0
116 100 0
108 94 0
121 106 0
118 106 0
105 90 0
122 108 0
120 107 0
113 99 0
109 96 0
121 108 0
132 118 0
127 115 0
121 106 0
127 115 0
126 112 0
122 111 0
123 110 0
129 115 0
123 108 0
123 111 0
128 116 0
133 120 0
125 113 0
131 118 0
124 113 0
134 119 0
133 120 0
132 118 0
133 121 0
135 124 0
134 123 0
131 118 0
133 123 0
130 118 0
140 126 0
131 118 0
141 129 0
136 124 0
133 121 0
135 125 0
136 124 0
138 126 0
136 126 0
135 124 0
133 122 0
135 124 0
139 130 0
141 130 0
138 126 0
138 128 0
142 131 0
139 127 0
142 131 0
138 127 0
144 131 0
141 128 0
142 132 0
143 133 0
144 133 0
140 130 0
141 132 0
141 132 0
147 138 0
141 131 0
141 130 0
144 134 0
146 135 0
143 133 0
142 133 0
144 134 0
144 136 0
148 138 0
148 138 0
148 139 0
143 134 0
148 139 0
147 137 0
150 140 0
148 138 0
142 132 0
151 140 0
149 139 0
148 138 0
149 142 0
153 145 0
149 139 0
151 143 0
148 140 0
148 140 0
148 140 0
149 140 0
152 144 0
150 143 0
181 204 128
182 206 159
183 207 157
187 211 188
191 214 199
189 212 194
189 213 193
193 217 220
191 214 201
192 216 211
194 217 218
194 218 220
194 218 223
193 217 220
193 217 218
194 218 223
195 218 230
194 218 221
196 219 233
196 220 233
196 220 231
196 219 228
197 220 234
198 221 241
198 221 236
197 221 241
197 220 234
197 221 238
197 221 237
197 221 238
197 220 234
196 220 231
198 221 238
196 220 236
198 222 241
196 219 233
199 222 242
198 222 244
198 221 242
198 222 241
199 223 248
197 220 241
198 221 242
199 223 248
198 222 241
197 220 240
199 222 244
198 221 241
198 222 242
198 222 242
198 221 241
198 221 245
198 222 244
198 221 245
198 222 244
197 221 242
197 221 246
199 223 249
200 223 250
198 221 246
196 219 240
197 220 244
197 221 244
196 220 238
196 220 240
197 222 246
196 220 241
197 221 245
197 221 242
197 222 246
197 222 246
196 221 242
196 220 244
196 221 245
195 219 242
194 219 237
196 221 246
195 220 242
195 220 240
193 218 241
192 217 236
194 219 238
189 214 226
192 218 238
191 217 234
191 216 237
189 215 234
190 216 237
191 217 240
189 215 234
187 214 226
187 214 224
188 215 228
184 211 214
184 211 221
183 210 215
178 205 203
179 208 212
177 205 193
167 196 142
164 192 95
164 191 25
160 186 0
158 184 0
162 188 0
162 188 0
159 186 0
163 189 0
159 185 0
157 182 0
163 188 0
159 185 0
155 180 0
147 172 0
159 184 0
158 183 0
160 184 0
162 186 0
154 178 0
156 180 0
158 182 0
146 170 0
154 179 0
158 182 0
151 175 0
156 179 0
150 173 0
156 178 0
153 176 0
154 177 0
156 179 0
154 177 0
141 163 0
152 174 0
145 167 0
146 168 0
148 169 0
151 173 0
151 173 0
148 170 0
147 169 0
146 167 0
147 168 0
146 167 0
133 153 0
150 172 0
139 161 0
147 169 0
144 165 0
142 163 0
134 154 0
135 154 0
138 159 0
132 151 0
128 147 0
136 155 0
137 157 0
146 166 0
119 139 0
120 139 0
120 139 0
134 153 0
125 144 0
117 134 0
126 144 0
107 125 0
111 128 18
75 98 60
50 80 92
51 81 72
52 83 80
53 84 94
51 81 76
52 83 84
52 83 100
53 84 72
53 84 78
53 85 78
51 81 84
50 79 74
52 83 86
51 82 80
52 83 86
51 81 86
53 84 84
51 81 74
52 83 84
54 85 88
51 82 84
54 85 88
53 84 92
54 85 95
53 84 90
50 80 76
53 84 86
53 83 95
52 82 84
55 86 95
52 84 84
53 85 92
55 87 99
54 86 100
51 80 74
49 78 74
51 81 80
56 89 102
53 84 74
54 86 86
52 82 78
52 82 94
52 82 86
50 79 78
52 82 80
53 84 92
55 86 94
52 82 86
51 82 90
51 81 82
48 77 70
50 80 80
51 82 80
51 81 77
55 86 99
51 81 76
51 82 88
51 82 84
50 79 86
53 83 88
50 79 72
52 82 82
48 76 70
47 74 75
63 85 70
97 106 25
92 103 0
99 110 0
108 118 0
92 105 0
103 115 0
96 105 0
112 121 0
102 114 0
114 126 0
114 128 0
115 127 0
107 113 0
107 119 0
109 123 0
112 124 0
108 119 0
123 133 0
119 131 0
110 122 0
117 127 0
122 134 0
112 123 0
118 129 0
119 131 0
126 134 0
117 126 0
126 137 0
117 128 0
121 131 0
122 133 0
122 132 0
118 128 0
120 126 0
121 130 0
128 135 0
121 130 0
126 133 0
127 135 0
120 124 0
108 113 0
127 132 0
117 122 0
122 126 0
119 124 0
116 121 0
115 116 0
114 116 0
121 124 0
109 109 0
114 113 0
113 113 0
119 119 0
113 113 0
112 108 0
101 99 0
105 99 0
105 101 0
110 108 0
101 97 0
102 99 0
103 95 0
99 93 0
88 79 0
93 84 0
97 89 0
93 80 0
86 72 0
90 75 0
95 79 0
99 84 0
110 94 0
109 92 0
114 99 0
104 89 0
121 105 0
109 92 0
110 95 0
121 109 0
108 94 0
120 105 0
116 103 0
125 109 0
119 104 0
123 109 0
127 112 0
121 110 0
120 105 0
125 113 0
127 112 0
121 109 0
126 114 0
125 110 0
130 118 0
127 114 0
130 118 0
127 113 0
128 115 0
129 116 0
130 115 0
135 122 0
127 115 0
132 119 0
132 121 0
137 125 0
132 118 0
133 121 0
130 117 0
137 127 0
135 121 0
130 118 0
141 130 0
138 125 0
136 125 0
138 127 0
140 127 0
135 122 0
138 126 0
139 127 0
136 123 0
141 130 0
137 126 0
142 130 0
141 129 0
143 130 0
141 131 0
145 134 0
141 129 0
140 128 0
143 133 0
143 132 0
140 129 0
146 134 0
139 128 0
143 130 0
146 132 0
147 136 0
142 131 0
146 137 0
142 131 0
146 135 0
144 133 0
145 135 0
146 136 0
142 130 0
145 134 0
144 134 0
147 138 0
150 140 0
147 137 0
147 136 0
145 135 0
148 139 0
147 138 0
148 139 0
149 142 0
147 138 0
149 141 0
151 142 0
145 134 0
151 143 0
150 141 0
152 145 0
150 144 0
149 142 0
150 143 0
156 158 0
172 195 0
174 197 0
178 201 76
181 204 133
181 205 149
185 209 184
186 210 179
186 210 175
191 215 211
189 213 204
191 214 203
192 215 211
190 214 199
193 217 224
194 218 228
194 218 221
192 215 209
193 217 227
194 218 230
195 219 230
194 218 224
194 218 230
196 219 231
195 219 230
194 218 227
196 220 238
194 217 220
196 220 233
196 220 240
197 220 236
196 219 237
196 219 234
193 216 228
197 221 238
197 221 242
196 220 238
196 220 236
197 221 240
198 221 242
194 218 227
196 220 240
196 219 236
197 221 242
196 220 238
195 219 237
197 221 241
195 219 230
196 220 240
199 223 250
197 221 241
197 221 241
196 220 238
197 221 242
197 221 242
198 222 249
198 222 246
197 221 240
196 220 242
196 220 240
196 220 236
196 220 244
197 222 246
196 220 244
196 221 246
196 221 246
196 220 242
195 219 238
196 220 245
196 220 244
194 218 238
195 220 244
195 220 242
194 219 240
195 220 241
194 219 240
193 218 240
195 220 245
191 216 227
192 218 233
192 217 237
189 215 226
191 216 236
190 216 231
193 219 242
188 214 224
187 213 224
189 216 228
187 214 234
186 212 226
186 213 214
186 213 223
185 213 224
179 206 201
180 208 207
176 204 189
174 201 186
175 203 165
167 195 92
163 191 44
161 188 0
160 188 0
157 184 0
161 188 0
162 187 0
157 184 0
156 182 0
160 186 0
159 185 0
161 188 0
157 181 0
158 184 0
161 186 0
156 181 0
160 185 0
159 185 0
156 181 0
156 181 0
162 187 0
161 185 0
153 177 0
156 180 0
156 180 0
148 171 0
156 180 0
150 174 0
153 176 0
148 172 0
149 172 0
155 177 0
141 163 0
156 178 0
152 175 0
152 174 0
148 169 0
140 162 0
150 172 0
146 168 0
149 172 0
146 166 0
146 168 0
148 170 0
141 162 0
151 172 0
143 164 0
149 170 0
146 167 0
138 158 0
133 155 0
139 160 0
148 169 0
127 147 0
134 154 0
137 157 0
140 160 0
128 148 0
134 154 0
133 152 0
125 143 0
136 156 0
122 141 0
116 135 0
136 156 0
129 147 0
106 124 0
115 133 0
115 132 0
119 136 0
106 123 0
89 107 31
56 83 60
50 79 80
48 78 67
47 75 62
49 79 78
49 78 80
50 79 72
52 83 82
51 81 86
54 85 97
51 82 80
52 82 65
51 82 70
52 83 90
53 84 99
50 80 67
51 82 80
52 82 86
54 86 94
53 84 95
52 83 92
53 83 94
54 86 97
53 84 86
55 87 100
50 80 82
52 82 74
52 83 92
51 82 84
54 85 86
51 81 80
54 85 82
51 81 70
51 82 88
52 83 86
53 84 99
52 83 82
53 84 88
54 86 88
53 84 88
52 82 74
51 81 84
52 82 78
49 79 74
50 80 86
52 82 84
52 83 86
51 80 88
52 82 84
54 85 97
52 82 87
52 82 88
52 82 94
53 83 94
50 79 78
51 80 76
48 76 67
49 78 70
47 75 78
49 78 76
49 77 90
58 83 72
88 101 31
109 119 0
104 117 0
108 119 0
99 110 0
105 117 0
107 117 0
106 118 0
104 115 0
108 119 0
108 121 0
109 121 0
117 128 0
95 107 0
123 137 0
95 106 0
126 138 0
117 127 0
117 130 0
113 125 0
113 123 0
114 124 0
126 138 0
130 141 0
118 129 0
104 112 0
122 132 0
114 126 0
130 139 0
118 128 0
125 136 0
113 123 0
117 124 0
115 121 0
117 128 0
118 125 0
112 121 0
128 138 0
129 137 0
129 137 0
123 131 0
120 127 0
107 112 0
118 124 0
114 118 0
112 120 0
118 119 0
112 115 0
119 124 0
118 122 0
122 123 0
110 110 0
114 115 0
119 119 0
123 122 0
125 127 0
112 115 0
112 111 0
118 117 0
115 115 0
94 91 0
103 98 0
93 88 0
112 107 0
107 101 0
101 93 0
104 98 0
82 73 0
91 81 0
85 75 0
87 76 0
89 77 0
86 71 0
92 74 0
104 86 0
101 83 0
100 85 0
111 96 0
110 94 0
107 92 0
113 95 0
111 97 0
108 94 0
107 92 0
117 102 0
118 103 0
115 102 0
123 109 0
125 109 0
127 111 0
117 102 0
116 102 0
124 110 0
121 106 0
125 112 0
121 107 0
122 110 0
126 113 0
128 113 0
124 110 0
129 116 0
139 127 0
133 119 0
126 110 0
127 113 0
130 114 0
135 121 0
128 116 0
133 121 0
133 118 0
132 119 0
133 120 0
134 121 0
138 126 0
132 119 0
137 122 0
140 128 0
136 124 0
132 119 0
137 125 0
136 124 0
137 125 0
139 128 0
135 124 0
142 129 0
138 126 0
139 129 0
140 128 0
137 124 0
145 133 0
140 126 0
138 125 0
142 129 0
141 129 0
141 129 0
146 133 0
139 128 0
142 132 0
143 132 0
143 133 0
145 132 0
142 131 0
144 133 0
146 134 0
143 131 0
144 136 0
144 135 0
145 134 0
145 134 0
141 129 0
144 134 0
145 133 0
148 138 0
147 136 0
152 141 0
149 138 0
147 137 0
149 137 0
148 138 0
148 139 0
150 140 0
148 140 0
151 142 0
151 140 0
154 147 0
152 149 0
160 167 0
169 186 0
170 191 0
173 196 0
175 198 0
174 196 0
172 195 0
174 197 51
179 202 114
181 204 128
185 210 179
183 207 173
186 211 182
185 210 181
190 214 206
188 212 191
191 215 209
190 214 209
191 215 211
193 216 215
193 217 221
192 216 218
194 218 224
191 216 214
194 218 226
194 218 228
196 220 241
196 220 237
192 216 220
195 219 230
194 218 231
196 220 237
195 219 230
194 218 231
193 217 223
196 220 238
196 220 237
195 219 238
195 219 233
196 221 241
196 220 233
195 219 240
192 217 228
195 219 242
196 220 244
197 221 241
194 219 234
197 221 244
196 221 242
195 220 237
197 221 245
196 221 242
192 217 227
196 220 237
196 221 242
197 221 244
195 219 240
195 220 238
195 220 242
197 221 249
193 218 236
196 220 242
195 220 238
194 219 240
194 218 236
194 219 236
194 219 236
194 219 238
192 217 241
194 219 240
193 218 237
193 218 237
193 218 236
192 217 234
194 219 242
192 218 237
192 218 240
194 219 242
193 219 242
192 218 244
190 216 228
191 218 238
192 218 242
189 216 233
186 213 231
190 216 236
187 214 230
186 213 233
185 212 223
181 208 211
180 208 207
181 209 217
184 212 212
180 208 204
176 204 179
174 201 182
168 197 153
168 196 122
163 190 44
160 187 25
156 184 0
159 186 0
159 186 0
163 189 0
161 187 0
161 188 0
160 185 0
162 188 0
160 186 0
156 182 0
157 182 0
162 187 0
161 186 0
158 183 0
156 180 0
156 181 0
159 182 0
155 178 0
154 178 0
157 181 0
161 185 0
151 175 0
161 184 0
152 175 0
149 172 0
153 176 0
156 179 0
163 186 0
150 173 0
155 178 0
152 176 0
147 170 0
147 169 0
154 176 0
153 176 0
151 173 0
141 163 0
146 169 0
144 166 0
145 167 0
143 165 0
137 158 0
147 168 0
143 165 0
147 168 0
144 166 0
144 165 0
129 150 0
148 169 0
146 167 0
141 161 0
141 161 0
141 162 0
141 162 0
137 158 0
135 155 0
137 156 0
133 153 0
125 144 0
121 140 0
124 144 0
122 141 0
114 133 0
132 151 0
121 140 0
121 139 0
119 137 0
119 137 0
104 122 0
106 124 0
112 129 0
106 122 0
104 121 0
72 93 54
55 82 70
49 77 72
50 80 76
49 79 78
50 79 78
49 78 72
49 78 78
49 78 60
52 83 82
50 80 67
51 81 78
50 80 78
53 84 90
51 81 72
52 83 84
51 81 78
53 84 76
52 82 88
50 81 70
53 84 90
53 84 88
53 84 86
49 79 67
52 82 84
52 83 90
52 83 88
53 83 103
52 82 80
51 81 88
53 84 82
50 80 72
52 82 97
52 82 86
53 84 82
49 79 88
52 83 80
51 81 82
51 81 78
49 79 70
52 83 92
50 80 65
50 79 86
51 82 76
51 80 84
50 80 78
53 83 97
54 85 88
50 80 74
51 80 82
48 77 68
49 78 76
49 78 74
49 78 67
49 77 80
49 78 74
47 74 70
49 78 72
56 78 65
74 87 31
105 116 0
92 104 0
97 108 0
100 110 0
99 110 0
107 119 0
107 119 0
102 113 0
100 111 0
110 121 0
108 120 0
114 127 0
103 113 0
116 129 0
101 111 0
112 122 0
103 114 0
109 121 0
120 133 0
114 126 0
108 119 0
118 130 0
115 128 0
108 120 0
114 125 0
119 132 0
114 124 0
129 138 0
114 127 0
123 133 0
104 113 0
119 129 0
123 133 0
122 130 0
113 121 0
123 132 0
123 133 0
118 127 0
127 137 0
121 127 0
115 123 0
119 126 0
119 124 0
123 132 0
115 122 0
120 126 0
115 122 0
123 129 0
125 130 0
113 117 0
112 116 0
117 120 0
111 112 0
101 105 0
107 108 0
118 118 0
114 117 0
113 115 0
105 108 0
119 119 0
112 110 0
107 105 0
115 116 0
111 108 0
112 112 0
98 92 0
89 81 0
104 102 0
106 97 0
98 93 0
99 88 0
96 88 0
88 80 0
103 97 0
85 76 0
82 69 0
91 74 0
84 68 0
93 75 0
115 99 0
109 91 0
103 88 0
107 89 0
115 100 0
107 91 0
116 101 0
118 103 0
117 102 0
118 102 0
122 106 0
115 97 0
124 109 0
119 104 0
124 110 0
127 114 0
119 105 0
122 109 0
122 107 0
129 113 0
121 106 0
124 110 0
128 115 0
131 116 0
126 112 0
131 115 0
128 115 0
135 120 0
130 117 0
122 109 0
130 116 0
132 117 0
132 117 0
134 121 0
137 126 0
135 122 0
130 116 0
137 123 0
139 125 0
139 128 0
137 125 0
126 112 0
139 124 0
140 127 0
140 128 0
135 123 0
137 121 0
136 123 0
144 132 0
138 125 0
140 129 0
137 125 0
139 127 0
141 128 0
139 126 0
140 127 0
146 132 0
145 131 0
143 131 0
144 134 0
145 135 0
142 129 0
142 129 0
136 124 0
140 128 0
145 134 0
146 132 0
144 134 0
144 132 0
145 133 0
150 139 0
148 137 0
146 134 0
147 136 0
146 135 0
150 140 0
148 137 0
146 137 0
149 139 0
147 136 0
148 141 0
149 140 0
148 136 0
150 142 0
153 147 0
161 167 0
168 183 0
167 185 0
170 191 0
169 188 0
171 192 0
173 196 0
172 196 0
174 197 0
173 196 0
173 196 0
174 197 0
169 193 0
173 196 25
176 200 92
175 199 105
182 206 161
185 209 173
184 209 191
185 209 184
187 212 193
187 212 193
188 212 193
190 214 207
189 214 207
191 215 217
191 216 218
192 216 220
192 216 215
191 216 220
192 216 217
193 218 227
192 217 223
194 218 231
192 217 223
194 218 230
195 219 236
193 217 224
194 219 237
194 218 228
193 217 231
195 219 237
196 220 241
194 219 233
194 218 234
196 220 241
194 219 234
195 219 236
194 219 236
194 218 238
195 220 244
195 220 240
192 217 223
195 220 249
196 221 245
194 219 240
193 218 231
193 218 230
192 217 231
193 218 231
194 219 234
195 219 240
194 219 242
192 217 233
190 215 227
193 218 234
195 221 248
192 218 238
193 219 238
193 218 240
194 219 242
193 218 240
188 214 226
193 218 237
189 214 230
192 218 238
192 217 237
191 217 234
190 216 233
188 214 228
189 215 233
189 215 228
189 216 234
189 216 228
187 215 231
185 212 227
186 213 226
185 211 221
185 212 215
186 213 230
183 211 221
183 211 209
180 208 206
180 208 201
176 205 182
176 205 198
168 196 142
166 194 102
165 193 51
162 190 0
162 189 0
157 185 0
163 189 0
161 189 0
162 189 0
161 188 0
160 187 0
160 187 0
164 190 0
163 188 0
159 184 0
157 183 0
160 185 0
162 187 0
160 184 0
162 187 0
160 185 0
158 183 0
160 184 0
157 181 0
156 180 0
152 175 0
155 180 0
159 183 0
155 178 0
156 179 0
155 178 0
152 174 0
154 177 0
158 181 0
147 169 0
157 180 0
158 181 0
151 173 0
146 169 0
149 171 0
149 171 0
153 176 0
149 172 0
140 162 0
152 174 0
154 176 0
149 170 0
141 162 0
150 171 0
137 159 0
145 166 0
140 161 0
135 156 0
151 172 0
136 157 0
140 161 0
133 154 0
136 156 0
143 165 0
142 162 0
127 147 0
133 154 0
142 162 0
132 152 0
131 151 0
134 154 0
134 153 0
134 153 0
121 140 0
124 143 0
123 141 0
122 140 0
122 140 0
115 134 0
120 139 0
110 128 0
115 132 0
108 125 0
103 120 0
101 118 0
110 126 0
97 113 0
82 100 40
55 77 67
47 75 51
51 81 78
49 78 76
50 80 80
50 79 84
46 74 65
49 79 76
52 83 92
51 81 88
52 83 86
51 82 82
48 77 76
52 83 78
52 83 86
53 84 88
53 84 99
49 78 70
50 81 72
49 79 72
51 80 76
49 79 80
52 82 82
48 77 70
49 78 70
53 83 94
52 82 92
50 78 82
49 79 70
53 83 95
50 79 76
52 83 82
50 79 72
50 79 74
49 79 70
51 80 78
50 80 84
52 82 82
50 79 78
50 78 80
49 78 82
50 80 84
51 81 70
50 79 86
49 78 80
52 81 81
50 78 72
49 78 78
47 74 62
52 81 76
49 79 74
48 75 80
49 77 80
57 80 60
95 107 31
101 111 0
77 88 0
85 95 0
99 111 0
98 109 0
100 110 0
96 109 0
99 110 0
102 115 0
97 109 0
103 112 0
110 120 0
103 117 0
111 122 0
110 122 0
109 121 0
110 122 0
121 134 0
103 115 0
108 120 0
105 116 0
120 129 0
108 122 0
118 130 0
111 122 0
116 127 0
118 132 0
121 133 0
108 120 0
120 131 0
122 132 0
120 133 0
128 140 0
116 126 0
122 134 0
124 134 0
118 127 0
129 140 0
117 130 0
110 119 0
117 125 0
119 127 0
110 118 0
124 134 0
120 127 0
117 125 0
118 124 0
128 134 0
123 129 0
117 123 0
113 117 0
123 127 0
123 128 0
116 120 0
116 120 0
117 120 0
115 120 0
120 125 0
114 116 0
118 121 0
119 117 0
108 109 0
119 118 0
110 110 0
112 110 0
113 110 0
107 103 0
107 106 0
103 101 0
104 97 0
103 97 0
104 100 0
106 100 0
94 89 0
96 89 0
96 91 0
98 89 0
89 81 0
85 73 0
91 78 0
81 67 0
81 65 0
97 80 0
102 83 0
105 88 0
108 92 0
102 83 0
99 83 0
106 88 0
116 98 0
116 100 0
121 106 0
114 97 0
115 100 0
125 110 0
110 94 0
123 106 0
118 102 0
122 107 0
120 108 0
117 100 0
129 114 0
122 104 0
128 113 0
127 115 0
127 114 0
125 110 0
128 114 0
129 116 0
130 116 0
129 114 0
129 115 0
127 112 0
135 121 0
134 121 0
134 121 0
133 120 0
136 119 0
130 116 0
136 123 0
136 121 0
133 119 0
135 121 0
134 120 0
135 121 0
138 125 0
136 123 0
138 125 0
138 125 0
138 123 0
136 122 0
134 122 0
134 121 0
141 129 0
133 119 0
144 133 0
140 129 0
137 124 0
144 130 0
144 133 0
143 131 0
145 133 0
144 133 0
144 133 0
143 131 0
140 128 0
143 131 0
142 131 0
146 135 0
144 131 0
141 130 0
143 131 0
145 131 0
148 138 0
146 136 0
151 140 0
145 134 0
148 138 0
146 136 0
146 138 0
149 141 0
150 142 0
151 148 0
159 165 0
167 182 0
172 192 0
170 187 0
172 190 0
169 189 0
170 190 0
168 184 0
170 189 0
173 196 0
175 198 0
173 196 0
176 198 0
174 197 0
173 196 0
171 194 0
170 193 0
175 198 0
175 198 0
176 199 44
177 200 88
179 202 102
179 203 125
183 207 165
185 209 173
185 209 182
187 211 194
186 210 188
188 213 196
189 214 206
189 214 201
189 214 201
187 212 194
190 215 215
192 217 230
190 215 212
191 216 218
192 217 224
191 216 221
191 216 220
190 215 221
193 218 234
191 216 224
191 216 226
192 217 228
192 217 226
190 214 218
192 218 234
192 218 234
190 215 223
196 220 242
193 217 226
192 217 226
193 218 240
195 220 245
192 217 230
192 217 233
192 218 233
194 219 238
192 217 237
193 219 238
195 220 246
192 217 228
191 217 236
190 215 226
192 218 230
194 219 242
192 217 241
192 218 236
194 219 242
188 214 228
192 218 238
190 216 233
189 215 233
192 218 237
188 214 227
188 214 226
188 214 231
190 217 233
189 216 228
186 213 223
189 215 236
184 211 212
186 213 230
183 210 211
186 212 217
186 214 227
181 208 204
182 210 217
181 208 207
179 207 203
181 209 204
180 208 204
176 205 191
176 204 188
172 201 161
169 197 130
166 194 72
164 191 25
162 189 0
160 186 0
159 186 0
162 190 0
159 185 0
167 192 0
162 189 0
156 183 0
161 188 0
158 184 0
164 190 0
160 186 0
163 188 0
155 180 0
160 185 0
164 189 0
158 183 0
150 175 0
152 177 0
157 182 0
161 185 0
161 185 0
158 183 0
158 183 0
157 181 0
151 175 0
162 186 0
155 179 0
154 178 0
150 173 0
153 176 0
155 178 0
150 172 0
155 177 0
152 175 0
155 178 0
151 173 0
146 169 0
149 171 0
157 179 0
149 171 0
151 172 0
148 170 0
152 174 0
146 167 0
150 172 0
145 166 0
151 173 0
144 165 0
146 167 0
153 174 0
142 164 0
135 156 0
147 168 0
131 152 0
138 159 0
136 157 0
144 164 0
127 148 0
127 148 0
137 156 0
137 157 0
132 151 0
128 148 0
130 150 0
104 123 0
123 142 0
119 138 0
127 145 0
141 160 0
108 127 0
120 138 0
117 135 0
111 129 0
104 122 0
116 133 0
108 125 0
110 127 0
115 132 0
114 131 0
99 115 0
98 114 0
89 105 0
99 116 0
85 103 36
68 87 40
45 73 47
47 76 78
50 79 76
51 82 78
48 77 72
50 81 78
47 74 80
52 82 76
49 78 72
48 78 67
51 81 74
50 80 72
48 76 65
51 81 78
50 80 70
51 81 78
49 79 74
52 82 90
51 81 88
49 78 76
51 81 84
48 77 65
49 79 70
49 78 72
50 80 70
49 79 72
50 80 78
50 79 82
49 79 84
53 85 97
51 81 70
50 79 80
50 80 72
52 82 90
51 82 88
48 77 72
52 82 88
50 79 86
47 75 70
48 77 70
49 78 67
48 76 72
48 77 70
46 74 76
47 75 67
48 77 88
47 75 62
45 71 62
56 77 47
66 79 36
90 99 0
80 88 0
97 107 0
94 106 0
83 94 0
83 93 0
96 107 0
100 111 0
91 102 0
95 105 0
112 125 0
96 108 0
103 114 0
99 108 0
101 114 0
110 121 0
110 121 0
104 118 0
111 122 0
106 117 0
122 133 0
115 128 0
108 121 0
106 118 0
108 120 0
110 118 0
113 126 0
107 119 0
122 133 0
132 144 0
110 120 0
120 130 0
117 130 0
107 119 0
126 139 0
129 140 0
118 129 0
107 116 0
127 138 0
116 123 0
111 122 0
120 128 0
109 120 0
123 130 0
127 138 0
124 132 0
124 131 0
125 132 0
139 148 0
124 132 0
120 127 0
114 120 0
121 132 0
114 118 0
116 123 0
119 126 0
130 134 0
118 123 0
124 129 0
118 124 0
115 116 0
118 123 0
111 112 0
115 118 0
111 112 0
128 126 0
99 101 0
115 112 0
106 105 0
115 112 0
101 98 0
108 107 0
111 104 0
109 104 0
116 109 0
114 108 0
113 106 0
101 94 0
93 86 0
110 103 0
90 81 0
96 89 0
90 80 0
90 82 0
95 82 0
75 62 0
89 73 0
92 71 0
94 74 0
93 77 0
108 90 0
107 90 0
111 91 0
110 94 0
113 96 0
114 96 0
105 89 0
117 99 0
113 98 0
121 104 0
120 101 0
124 108 0
116 101 0
121 102 0
122 105 0
121 106 0
122 107 0
124 108 0
121 106 0
130 113 0
125 110 0
125 112 0
127 112 0
132 117 0
130 115 0
132 117 0
129 114 0
131 117 0
131 114 0
129 115 0
131 117 0
135 121 0
134 121 0
132 116 0
136 122 0
131 117 0
135 121 0
135 121 0
137 122 0
140 126 0
139 125 0
137 122 0
139 125 0
144 130 0
136 121 0
140 126 0
142 126 0
143 130 0
142 131 0
139 126 0
141 128 0
139 125 0
147 135 0
147 135 0
142 129 0
142 131 0
145 132 0
146 132 0
145 133 0
138 125 0
143 130 0
139 127 0
143 131 0
145 132 0
145 134 0
145 135 0
147 137 0
141 127 0
146 137 0
149 139 0
149 144 0
154 154 0
163 174 0
165 181 0
169 187 0
168 185 0
171 190 0
168 186 0
169 188 0
169 188 0
170 188 0
169 187 0
172 192 0
171 188 0
173 196 0
175 198 0
176 198 0
174 196 0
176 198 0
174 197 0
172 195 0
175 197 0
172 195 0
172 194 0
176 198 0
171 194 0
174 197 0
177 199 0
175 198 44
177 200 92
175 198 92
179 204 130
183 208 171
185 210 175
185 210 184
182 207 171
184 210 182
185 210 194
187 213 203
186 211 198
187 213 203
188 213 211
187 213 211
190 215 223
188 213 211
188 213 212
189 214 223
192 217 231
190 215 217
189 213 211
189 214 211
190 215 218
188 214 224
190 215 221
192 217 230
189 215 223
192 218 237
190 215 224
190 216 228
193 218 238
191 216 227
190 216 223
193 218 236
192 218 236
190 216 231
190 216 234
191 216 227
191 217 231
189 215 233
190 216 230
189 215 227
193 219 241
188 214 226
189 215 227
189 215 226
190 216 231
190 216 233
187 213 218
187 213 212
188 215 236
185 212 220
188 215 230
185 211 217
189 216 238
186 213 221
184 211 217
185 213 227
184 211 212
183 210 206
185 212 215
184 212 220
180 207 198
180 207 194
178 205 184
175 203 173
175 203 182
171 200 147
167 195 114
166 194 88
163 191 57
162 189 0
160 187 0
162 189 0
163 189 0
158 185 0
164 191 0
157 184 0
160 187 0
159 186 0
160 187 0
163 190 0
161 187 0
158 185 0
154 179 0
157 183 0
157 182 0
162 186 0
159 184 0
159 184 0
162 187 0
158 182 0
161 186 0
159 184 0
161 185 0
160 183 0
156 180 0
159 182 0
151 175 0
158 182 0
158 182 0
159 183 0
159 182 0
156 179 0
157 180 0
155 179 0
150 172 0
156 179 0
150 172 0
154 177 0
151 174 0
147 170 0
153 175 0
146 168 0
147 169 0
155 177 0
152 174 0
156 178 0
148 169 0
145 166 0
139 160 0
146 167 0
145 167 0
147 169 0
148 169 0
137 158 0
138 159 0
149 170 0
141 161 0
140 161 0
138 158 0
151 171 0
132 152 0
139 159 0
150 171 0
142 161 0
132 152 0
140 159 0
132 152 0
123 143 0
136 156 0
141 160 0
134 153 0
119 138 0
104 123 0
129 146 0
115 133 0
122 140 0
113 131 0
120 138 0
109 126 0
104 122 0
103 119 0
88 106 0
109 126 0
98 115 0
105 122 0
102 118 0
95 111 0
93 110 0
88 102 0
93 108 18
74 93 40
59 83 60
45 72 60
48 77 62
48 77 70
51 81 76
48 75 67
53 84 82
48 77 67
48 76 65
48 77 65
47 76 74
48 77 65
52 83 80
50 79 72
50 80 74
50 79 74
48 77 74
50 80 74
51 81 92
50 80 67
51 81 84
48 76 72
51 81 84
51 80 74
49 78 67
50 80 78
49 78 70
51 81 78
50 80 80
45 73 60
49 77 74
50 80 80
49 78 74
49 77 72
46 74 74
49 78 74
45 72 60
50 80 80
47 75 70
49 78 82
45 71 57
46 74 72
46 73 63
55 76 54
70 83 44
70 84 18
77 87 0
79 91 0
80 90 0
87 99 0
82 91 0
83 94 0
88 96 0
92 102 0
97 109 0
102 113 0
99 110 0
94 105 0
100 110 0
104 114 0
88 101 0
80 90 0
98 108 0
102 114 0
118 131 0
107 119 0
95 108 0
112 126 0
113 124 0
114 127 0
99 114 0
109 120 0
123 134 0
121 132 0
108 119 0
111 123 0
120 133 0
114 125 0
119 129 0
114 126 0
114 126 0
117 129 0
128 142 0
110 122 0
116 127 0
134 145 0
117 126 0
123 135 0
124 135 0
122 134 0
125 138 0
119 128 0
112 120 0
124 133 0
122 131 0
121 132 0
122 129 0
128 141 0
116 125 0
131 139 0
116 122 0
128 136 0
118 123 0
121 127 0
130 138 0
130 136 0
123 132 0
113 116 0
128 131 0
122 127 0
119 120 0
106 108 0
132 133 0
114 114 0
115 114 0
124 125 0
109 108 0
117 119 0
119 120 0
114 110 0
112 109 0
110 108 0
109 106 0
118 114 0
106 100 0
102 93 0
104 97 0
106 99 0
104 95 0
95 89 0
97 87 0
95 87 0
116 109 0
96 85 0
96 87 0
93 82 0
83 69 0
88 74 0
90 72 0
98 79 0
97 79 0
103 85 0
105 83 0
113 94 0
108 90 0
121 103 0
117 98 0
113 95 0
123 107 0
114 97 0
118 99 0
119 102 0
117 99 0
121 106 0
120 103 0
126 110 0
123 105 0
126 110 0
126 109 0
131 116 0
132 118 0
125 110 0
132 117 0
129 113 0
129 112 0
131 117 0
129 113 0
134 117 0
131 115 0
130 113 0
133 119 0
126 110 0
131 114 0
137 122 0
131 118 0
138 123 0
137 122 0
140 125 0
137 121 0
135 119 0
136 121 0
132 115 0
138 124 0
142 130 0
139 124 0
141 129 0
138 124 0
140 126 0
144 129 0
140 126 0
143 132 0
138 123 0
140 124 0
141 128 0
145 131 0
143 128 0
143 131 0
139 126 0
144 131 0
144 131 0
146 134 0
142 130 0
142 130 0
146 135 0
149 142 0
157 160 0
163 171 0
166 179 0
172 188 0
167 183 0
169 185 0
168 184 0
170 185 0
169 185 0
171 189 0
168 185 0
170 187 0
169 187 0
169 187 0
171 190 0
171 190 0
169 186 0
175 197 0
173 197 0
174 196 0
175 198 0
174 196 0
174 197 0
172 195 0
175 198 0
173 196 0
173 197 0
174 197 0
173 196 0
173 196 0
174 197 0
174 197 0
173 196 0
174 197 0
173 196 0
175 198 0
174 197 67
171 195 67
179 203 128
179 204 149
182 207 159
182 206 163
182 208 175
183 209 182
183 208 179
186 212 199
184 210 199
188 214 215
182 207 167
186 212 206
187 213 206
188 213 220
187 213 209
188 214 214
188 213 207
186 212 207
188 214 218
189 215 215
187 212 204
187 213 209
186 212 207
189 215 224
189 215 221
188 215 224
191 217 234
190 216 230
188 214 224
187 213 214
189 216 226
188 214 234
189 215 231
188 215 227
186 212 215
185 212 215
187 213 226
185 212 212
185 212 218
185 211 220
184 211 215
188 215 236
186 213 218
184 211 212
185 213 224
183 210 211
185 212 221
181 208 199
180 207 196
184 211 211
182 210 207
178 206 175
177 205 196
178 206 196
178 205 181
172 200 155
174 202 175
168 196 120
171 198 120
164 191 67
162 190 25
162 190 0
161 188 0
163 190 0
162 190 0
166 191 0
163 189 0
163 189 0
160 186 0
158 186 0
163 189 0
161 187 0
162 188 0
160 186 0
161 188 0
161 186 0
162 187 0
157 182 0
160 186 0
158 184 0
159 184 0
154 178 0
157 182 0
153 177 0
163 188 0
152 176 0
157 181 0
151 176 0
162 187 0
156 180 0
153 177 0
156 180 0
152 175 0
151 175 0
152 176 0
150 173 0
146 169 0
152 175 0
149 171 0
160 183 0
146 169 0
154 176 0
152 175 0
151 173 0
146 168 0
141 163 0
145 168 0
145 167 0
153 176 0
149 172 0
147 168 0
147 169 0
146 168 0
153 175 0
152 173 0
140 161 0
141 163 0
141 162 0
150 171 0
144 165 0
131 151 0
147 168 0
142 162 0
135 155 0
135 156 0
143 164 0
143 164 0
139 160 0
139 160 0
136 155 0
135 156 0
126 146 0
133 152 0
137 156 0
121 140 0
124 144 0
113 132 0
115 134 0
111 130 0
124 143 0
126 145 0
113 133 0
112 130 0
110 127 0
116 134 0
107 125 0
108 126 0
113 130 0
92 108 0
101 116 0
103 118 0
94 109 0
103 119 0
100 116 0
99 113 0
78 93 0
75 90 0
83 97 0
93 107 0
42 63 40
49 71 51
47 75 74
46 74 57
48 76 76
45 73 67
49 78 70
47 76 65
51 81 78
48 77 74
48 77 80
46 74 67
48 77 70
46 74 72
49 79 72
46 74 67
51 81 78
48 77 62
48 77 76
48 77 67
50 80 62
53 84 105
49 78 78
48 77 70
48 75 70
49 78 72
45 73 76
49 78 70
50 79 67
46 74 54
50 79 76
45 72 65
47 75 82
47 75 65
46 74 72
45 72 54
44 71 62
44 70 57
46 70 65
53 71 54
68 81 0
69 78 0
95 105 0
74 87 0
84 96 0
83 93 0
59 70 0
99 109 0
84 96 0
92 103 0
89 100 0
82 94 0
104 116 0
100 111 0
95 107 0
99 111 0
105 118 0
109 123 0
100 112 0
105 116 0
100 114 0
101 114 0
93 103 0
107 121 0
110 122 0
112 125 0
98 109 0
109 122 0
108 119 0
116 129 0
123 136 0
113 126 0
110 120 0
120 132 0
119 130 0
120 132 0
113 125 0
110 123 0
114 125 0
119 129 0
124 137 0
121 132 0
125 136 0
113 125 0
125 137 0
122 132 0
128 140 0
124 132 0
121 133 0
122 131 0
124 134 0
127 135 0
130 138 0
123 133 0
128 137 0
126 135 0
126 137 0
117 126 0
120 128 0
130 137 0
111 118 0
118 124 0
130 136 0
117 122 0
115 120 0
125 128 0
127 132 0
128 133 0
109 111 0
123 127 0
123 126 0
124 125 0
115 114 0
116 117 0
109 110 0
120 122 0
124 127 0
104 104 0
114 113 0
101 98 0
110 108 0
109 105 0
115 109 0
112 105 0
102 95 0
103 96 0
127 123 0
103 96 0
104 97 0
110 103 0
109 101 0
101 93 0
95 89 0
106 95 0
91 78 0
89 80 0
98 87 0
101 91 0
79 67 0
95 79 0
93 73 0
101 86 0
107 89 0
109 88 0
100 81 0
109 90 0
113 94 0
118 98 0
114 97 0
118 101 0
117 98 0
117 97 0
128 109 0
116 97 0
117 96 0
117 99 0
120 103 0
122 105 0
128 111 0
130 114 0
121 105 0
124 108 0
124 108 0
125 108 0
128 111 0
127 112 0
135 119 0
134 117 0
131 115 0
131 117 0
137 120 0
131 117 0
134 120 0
135 119 0
136 121 0
135 118 0
140 124 0
140 126 0
140 124 0
135 121 0
140 124 0
140 125 0
138 123 0
137 119 0
137 120 0
133 119 0
141 127 0
139 124 0
141 127 0
138 123 0
140 125 0
138 126 0
140 126 0
140 124 0
139 127 0
145 134 0
146 132 0
143 134 0
154 151 0
155 158 0
159 164 0
165 178 0
166 180 0
168 183 0
164 177 0
167 181 0
168 180 0
168 183 0
169 183 0
167 182 0
167 182 0
168 184 0
166 182 0
169 185 0
168 183 0
171 189 0
170 187 0
170 187 0
169 185 0
168 186 0
173 197 0
173 197 0
172 195 0
174 196 0
174 197 0
173 196 0
175 197 0
172 196 0
176 199 0
173 196 0
174 197 0
174 197 0
174 197 0
174 197 0
174 197 0
176 198 0
176 198 0
173 196 0
175 198 0
172 195 0
174 198 0
175 198 0
176 198 0
176 199 25
175 198 44
175 198 72
178 203 130
178 203 140
178 203 135
179 204 155
181 207 169
179 205 163
182 208 186
180 207 171
183 208 186
184 209 191
183 209 188
181 207 177
184 210 193
184 210 199
183 210 196
184 210 193
186 212 201
184 210 201
186 212 209
187 214 221
184 211 209
186 213 215
185 212 209
184 211 207
184 211 214
184 211 209
186 212 212
184 211 206
185 211 203
184 210 203
183 210 211
182 209 198
185 212 217
181 208 194
180 208 203
186 213 223
182 209 207
182 210 209
182 210 209
181 208 203
180 208 199
177 204 184
176 205 181
177 205 169
175 202 157
171 199 157
172 200 147
169 198 122
166 194 105
165 193 67
163 191 36
161 189 0
165 192 0
164 191 0
165 192 0
163 190 0
162 189 0
162 188 0
160 186 0
162 189 0
164 191 0
162 189 0
156 183 0
161 188 0
159 184 0
160 185 0
163 189 0
163 190 0
163 188 0
162 187 0
156 182 0
158 183 0
161 186 0
159 185 0
155 180 0
163 189 0
155 180 0
157 182 0
154 179 0
160 184 0
157 182 0
162 187 0
157 180 0
157 181 0
159 182 0
156 180 0
156 179 0
149 172 0
148 171 0
152 175 0
155 178 0
159 182 0
155 178 0
149 171 0
147 170 0
153 176 0
145 168 0
151 174 0
152 175 0
155 178 0
148 170 0
141 163 0
154 176 0
146 169 0
147 169 0
146 168 0
140 161 0
148 169 0
154 176 0
145 167 0
152 173 0
144 165 0
146 167 0
145 167 0
132 153 0
141 161 0
147 168 0
139 160 0
141 162 0
136 156 0
135 155 0
130 150 0
145 165 0
135 155 0
123 142 0
132 151 0
127 146 0
126 145 0
130 149 0
119 138 0
127 147 0
118 137 0
122 141 0
126 145 0
120 139 0
114 133 0
123 141 0
115 132 0
118 135 0
120 137 0
106 123 0
116 133 0
97 114 0
97 114 0
113 131 0
96 111 0
102 118 0
115 131 0
94 109 0
103 118 0
91 105 0
90 106 0
92 106 0
83 96 0
84 98 0
85 99 0
88 102 0
73 89 31
56 75 36
46 70 70
45 71 67
43 70 62
46 74 60
48 76 72
46 74 82
46 73 67
47 75 70
48 77 82
47 75 72
49 78 70
45 73 57
49 77 65
47 76 62
49 77 82
46 73 60
49 77 60
46 73 67
47 74 80
48 76 80
46 74 62
48 77 70
47 75 54
45 72 36
47 74 70
45 72 60
48 77 74
46 72 62
42 67 57
53 76 62
51 68 36
63 76 40
63 74 18
67 76 0
68 78 0
90 102 0
68 80 0
87 99 0
92 102 0
97 108 0
88 99 0
70 80 0
98 112 0
91 100 0
91 104 0
96 104 0
86 98 0
75 89 0
92 107 0
118 129 0
111 122 0
97 108 0
106 120 0
105 118 0
102 112 0
111 124 0
100 111 0
106 115 0
106 118 0
107 119 0
117 132 0
105 118 0
111 122 0
115 127 0
110 124 0
111 123 0
108 120 0
121 132 0
103 114 0
110 122 0
107 121 0
107 117 0
120 134 0
119 132 0
124 137 0
124 136 0
123 135 0
114 126 0
122 133 0
124 134 0
119 131 0
129 140 0
124 136 0
121 131 0
126 137 0
127 136 0
117 125 0
124 134 0
128 138 0
125 131 0
119 129 0
126 137 0
125 135 0
119 128 0
115 124 0
120 127 0
127 134 0
124 128 0
120 128 0
129 138 0
119 126 0
126 134 0
120 122 0
126 129 0
125 131 0
126 131 0
124 127 0
122 124 0
114 116 0
123 124 0
113 110 0
124 126 0
115 113 0
120 123 0
112 112 0
98 93 0
115 111 0
110 109 0
106 104 0
114 110 0
109 102 0
105 100 0
107 102 0
110 107 0
116 109 0
111 106 0
117 109 0
100 96 0
113 108 0
94 86 0
107 101 0
97 88 0
97 86 0
104 100 0
104 95 0
88 78 0
101 93 0
88 74 0
102 92 0
103 87 0
106 91 0
100 84 0
102 87 0
113 93 0
103 83 0
108 88 0
114 95 0
113 94 0
125 105 0
117 97 0
115 97 0
117 98 0
125 108 0
120 102 0
126 110 0
126 109 0
127 110 0
121 102 0
126 108 0
133 117 0
128 109 0
126 110 0
126 109 0
124 107 0
130 114 0
133 119 0
136 120 0
133 115 0
130 112 0
131 117 0
132 115 0
136 119 0
137 120 0
131 116 0
133 119 0
137 119 0
136 119 0
137 121 0
136 118 0
136 119 0
139 124 0
137 120 0
140 126 0
134 119 0
146 133 0
141 129 0
144 131 0
150 144 0
151 148 0
155 157 0
161 167 0
161 170 0
163 171 0
168 182 0
165 178 0
166 179 0
165 179 0
164 178 0
163 175 0
165 177 0
169 183 0
167 181 0
163 175 0
164 180 0
168 183 0
166 179 0
165 180 0
163 179 0
166 182 0
167 184 0
168 186 0
169 187 0
166 183 0
169 185 0
168 186 0
172 195 0
172 196 0
173 195 0
172 194 0
174 197 0
174 196 0
173 196 0
174 197 0
173 196 0
173 196 0
173 196 0
172 195 0
173 196 0
173 196 0
173 196 0
172 195 0
174 197 0
173 197 0
175 197 0
174 197 0
173 196 0
173 197 0
173 195 0
174 197 0
175 198 0
174 197 0
172 195 0
172 195 0
173 197 0
170 194 0
171 194 25
174 198 76
173 197 80
176 200 122
177 202 128
177 201 108
179 205 153
178 204 140
181 207 171
179 205 161
180 206 161
181 207 177
179 206 179
181 207 177
178 205 171
182 209 196
181 208 182
178 205 169
182 208 188
178 204 169
181 208 194
181 208 179
179 205 177
180 208 189
179 206 179
181 209 199
179 206 184
177 204 167
179 206 182
180 207 179
176 202 151
176 204 169
176 203 155
173 201 140
170 197 122
169 196 105
170 196 88
168 196 102
164 191 67
163 190 36
164 191 0
165 191 0
165 192 0
165 192 0
163 190 0
164 191 0
164 191 0
165 191 0
163 190 0
164 191 0
161 187 0
164 191 0
159 186 0
163 190 0
161 188 0
159 185 0
162 189 0
163 189 0
164 190 0
163 189 0
159 185 0
160 186 0
158 184 0
160 185 0
161 187 0
163 188 0
166 191 0
161 186 0
160 185 0
159 185 0
161 186 0
161 186 0
162 187 0
154 179 0
161 185 0
157 181 0
154 177 0
153 177 0
157 182 0
161 184 0
158 182 0
158 181 0
149 172 0
157 180 0
158 182 0
158 182 0
151 175 0
152 175 0
153 175 0
159 180 0
154 177 0
149 172 0
155 177 0
153 175 0
155 177 0
146 168 0
144 165 0
152 174 0
152 173 0
149 172 0
150 172 0
148 171 0
156 178 0
147 169 0
134 157 0
148 170 0
140 162 0
151 172 0
139 160 0
142 163 0
138 158 0
145 166 0
140 161 0
132 152 0
140 161 0
141 161 0
151 171 0
140 160 0
141 161 0
133 153 0
130 149 0
130 149 0
124 143 0
138 158 0
130 151 0
127 146 0
121 140 0
121 142 0
126 144 0
123 142 0
117 137 0
117 135 0
110 128 0
120 138 0
113 131 0
117 135 0
107 125 0
113 131 0
109 126 0
108 124 0
105 121 0
105 121 0
88 104 0
88 103 0
105 121 0
87 104 0
72 87 0
89 104 0
98 113 0
91 106 0
73 86 0
94 108 0
81 94 0
74 88 0
79 91 0
66 78 0
67 79 0
60 76 36
58 75 36
56 76 31
58 80 57
56 77 44
44 71 72
45 72 65
41 66 57
45 72 72
45 72 74
49 78 67
47 74 67
45 72 67
47 74 65
44 71 67
48 76 76
46 73 60
45 73 60
46 74 67
45 72 62
43 68 60
48 70 51
49 68 62
55 73 47
57 72 51
63 75 0
69 79 0
56 66 0
64 75 0
73 83 0
73 84 0
68 78 0
78 87 0
91 103 0
76 85 0
69 79 0
85 96 0
79 89 0
81 91 0
87 98 0
95 108 0
96 107 0
83 97 0
88 101 0
85 97 0
100 114 0
96 110 0
101 116 0
103 116 0
98 109 0
103 115 0
103 117 0
99 110 0
103 115 0
111 124 0
109 122 0
111 124 0
112 125 0
108 118 0
120 135 0
126 138 0
103 117 0
118 131 0
109 123 0
121 131 0
124 137 0
120 132 0
116 129 0
122 135 0
126 141 0
123 137 0
125 139 0
121 133 0
123 136 0
127 141 0
128 140 0
130 141 0
121 131 0
129 141 0
124 134 0
131 141 0
125 138 0
135 148 0
118 128 0
116 127 0
121 133 0
125 134 0
123 134 0
131 139 0
126 135 0
124 133 0
132 142 0
125 133 0
111 117 0
112 120 0
123 132 0
123 131 0
125 130 0
124 130 0
124 130 0
132 137 0
124 130 0
123 126 0
117 122 0
119 124 0
125 129 0
128 132 0
122 124 0
114 114 0
124 126 0
120 121 0
116 117 0
120 118 0
131 133 0
125 124 0
121 119 0
109 108 0
117 116 0
118 118 0
121 122 0
121 117 0
110 104 0
118 111 0
120 120 0
114 109 0
116 111 0
112 106 0
101 94 0
100 90 0
117 113 0
115 108 0
116 111 0
115 106 0
111 103 0
99 86 0
99 86 0
102 94 0
107 92 0
106 97 0
112 102 0
114 103 0
108 98 0
118 107 0
113 103 0
110 97 0
115 100 0
111 97 0
114 99 0
108 90 0
114 95 0
112 91 0
109 91 0
123 102 0
121 102 0
116 97 0
127 108 0
124 106 0
122 105 0
120 99 0
129 109 0
126 106 0
126 109 0
130 115 0
129 111 0
132 114 0
131 113 0
136 118 0
131 113 0
131 113 0
132 115 0
136 121 0
136 119 0
132 114 0
138 123 0
139 124 0
141 125 0
141 131 0
141 132 0
150 143 0
148 144 0
151 148 0
156 158 0
163 169 0
159 165 0
161 166 0
163 174 0
165 176 0
163 174 0
163 173 0
163 173 0
166 178 0
165 176 0
168 181 0
162 173 0
169 183 0
169 183 0
167 180 0
165 178 0
167 180 0
169 183 0
170 184 0
168 182 0
166 181 0
166 180 0
168 183 0
169 184 0
170 185 0
167 182 0
164 179 0
169 185 0
168 184 0
169 186 0
166 183 0
173 196 0
173 196 0
173 196 0
173 196 0
173 197 0
174 197 0
173 196 0
172 195 0
174 197 0
173 196 0
174 196 0
175 198 0
175 198 0
173 196 0
175 198 0
171 194 0
174 197 0
171 194 0
173 196 0
174 197 0
174 197 0
173 196 0
172 196 0
172 195 0
173 196 0
173 196 0
172 196 0
173 197 0
174 197 0
171 194 0
171 195 0
174 197 0
173 196 0
172 196 0
171 195 0
174 198 0
171 195 0
173 197 0
170 193 0
169 194 25
173 197 62
174 198 36
171 196 51
172 197 84
169 194 62
172 197 88
173 198 72
168 194 76
172 198 102
169 195 84
171 197 92
174 199 88
169 195 72
171 197 92
167 194 76
171 196 80
170 196 80
168 195 67
168 195 67
167 193 25
168 194 36
166 193 0
167 193 0
165 192 0
167 193 0
165 192 0
162 189 0
166 193 0
167 193 0
165 191 0
163 190 0
166 193 0
165 192 0
164 190 0
161 187 0
164 191 0
163 190 0
160 186 0
164 190 0
162 189 0
163 189 0
162 190 0
161 187 0
166 192 0
166 192 0
164 191 0
159 185 0
161 186 0
162 187 0
163 189 0
164 189 0
161 187 0
161 186 0
158 183 0
163 188 0
159 183 0
163 188 0
162 187 0
162 186 0
162 186 0
156 181 0
154 178 0
164 189 0
163 187 0
157 182 0
150 174 0
161 185 0
153 177 0
157 181 0
158 180 0
154 178 0
161 184 0
158 182 0
156 179 0
165 188 0
157 179 0
161 184 0
153 176 0
149 171 0
146 169 0
157 179 0
146 169 0
158 180 0
152 175 0
145 167 0
156 178 0
148 170 0
149 171 0
146 168 0
146 168 0
155 178 0
139 161 0
153 174 0
147 168 0
139 160 0
146 167 0
147 168 0
144 166 0
141 162 0
144 165 0
146 167 0
153 175 0
137 158 0
140 160 0
143 163 0
133 153 0
135 156 0
139 159 0
127 147 0
130 151 0
141 161 0
130 150 0
132 151 0
129 149 0
125 144 0
130 150 0
129 147 0
131 151 0
127 146 0
125 144 0
118 137 0
123 142 0
124 142 0
111 130 0
122 140 0
113 131 0
113 131 0
107 124 0
104 122 0
118 136 0
106 122 0
106 123 0
107 123 0
90 105 0
104 120 0
100 115 0
103 119 0
95 109 0
72 87 0
81 96 0
83 98 0
85 99 0
76 90 0
81 94 0
73 85 0
74 88 0
81 94 0
81 93 0
63 74 0
73 83 0
64 74 0
64 74 0
55 66 0
43 55 0
59 71 18
63 78 25
50 65 18
54 69 25
64 80 44
38 56 47
44 61 31
46 63 44
50 68 57
55 69 36
54 67 40
57 71 31
48 61 18
54 65 0
69 79 0
60 68 0
61 71 0
53 63 0
57 70 0
67 80 0
81 91 0
78 90 0
70 81 0
70 82 0
57 68 0
84 95 0
94 105 0
87 100 0
68 78 0
62 73 0
78 89 0
93 102 0
83 95 0
98 107 0
88 103 0
101 114 0
85 96 0
90 102 0
98 111 0
100 112 0
111 122 0
94 109 0
96 105 0
112 124 0
110 124 0
106 117 0
102 113 0
108 120 0
110 121 0
112 125 0
108 120 0
121 134 0
106 117 0
117 129 0
124 138 0
116 130 0
115 127 0
130 147 0
100 112 0
114 127 0
120 131 0
125 137 0
118 129 0
110 120 0
113 126 0
111 123 0
121 134 0
123 135 0
123 134 0
123 137 0
124 134 0
121 134 0
113 127 0
116 127 0
114 127 0
124 134 0
135 147 0
113 123 0
136 147 0
120 129 0
122 132 0
109 119 0
133 143 0
116 124 0
128 138 0
131 142 0
120 127 0
118 126 0
126 134 0
135 141 0
133 144 0
127 135 0
135 142 0
125 132 0
120 126 0
120 124 0
119 125 0
126 131 0
130 134 0
120 126 0
123 128 0
128 131 0
132 137 0
123 127 0
124 126 0
138 143 0
124 124 0
118 122 0
119 118 0
118 116 0
126 125 0
119 116 0
118 116 0
123 123 0
124 119 0
130 130 0
114 108 0
116 109 0
118 115 0
109 101 0
115 108 0
114 109 0
109 102 0
118 115 0
113 103 0
118 113 0
119 114 0
113 103 0
118 110 0
106 97 0
109 100 0
119 112 0
114 105 0
112 102 0
115 107 0
109 99 0
123 114 0
118 109 0
126 117 0
117 108 0
116 106 0
122 114 0
119 110 0
127 119 0
128 120 0
122 114 0
127 117 0
121 109 0
133 127 0
118 110 0
133 123 0
133 125 0
132 121 0
135 126 0
133 123 0
138 129 0
137 129 0
135 125 0
139 132 0
135 127 0
139 132 0
142 136 0
142 136 0
148 145 0
152 153 0
153 150 0
155 157 0
162 169 0
151 153 0
158 162 0
156 161 0
158 165 0
158 161 0
160 167 0
159 168 0
163 170 0
159 165 0
163 173 0
161 169 0
157 163 0
163 173 0
161 169 0
165 176 0
165 176 0
165 176 0
162 173 0
166 176 0
162 168 0
162 171 0
167 181 0
170 185 0
165 180 0
162 174 0
166 177 0
168 183 0
164 176 0
166 181 0
169 185 0
165 178 0
168 183 0
166 180 0
170 186 0
166 181 0
169 186 0
170 186 0
170 185 0
174 197 0
174 197 0
175 197 0
174 197 0
172 194 0
175 198 0
173 196 0
176 199 0
174 197 0
173 196 0
176 198 0
171 194 0
176 198 0
173 197 0
171 195 0
173 196 0
173 196 0
173 196 0
174 197 0
172 195 0
172 196 0
173 196 0
173 196 0
173 196 0
176 198 0
173 196 0
172 196 0
174 198 0
171 195 0
172 196 0
170 194 0
172 195 0
173 197 0
169 193 0
172 196 0
170 195 0
170 194 0
173 197 0
170 194 0
171 196 0
170 195 0
172 196 0
171 195 0
170 194 0
169 194 0
172 196 0
170 195 0
169 194 0
170 194 0
169 194 0
170 195 0
170 195 0
168 193 0
169 194 0
166 192 0
166 192 0
168 194 0
163 189 0
167 193 0
163 190 0
168 193 0
166 193 0
166 192 0
167 193 0
165 191 0
166 192 0
166 192 0
165 192 0
164 191 0
165 191 0
163 190 0
164 191 0
166 192 0
164 190 0
165 191 0
166 191 0
165 191 0
164 190 0
164 189 0
161 186 0
164 191 0
164 190 0
166 192 0
164 190 0
163 188 0
164 190 0
166 192 0
159 185 0
160 185 0
164 188 0
160 185 0
161 186 0
164 189 0
158 182 0
161 186 0
163 187 0
160 184 0
159 183 0
160 184 0
157 180 0
162 187 0
154 178 0
157 182 0
158 183 0
158 182 0
159 183 0
155 179 0
152 175 0
159 182 0
160 184 0
157 180 0
156 179 0
162 185 0
154 177 0
157 181 0
159 182 0
150 172 0
157 180 0
157 179 0
144 166 0
152 175 0
151 174 0
151 173 0
151 173 0
150 173 0
149 171 0
153 176 0
149 171 0
151 174 0
139 161 0
144 166 0
148 170 0
152 174 0
144 165 0
147 168 0
149 170 0
143 164 0
145 166 0
139 160 0
137 159 0
136 157 0
145 166 0
148 168 0
136 158 0
147 168 0
139 159 0
136 157 0
135 155 0
123 143 0
139 159 0
124 144 0
128 148 0
134 154 0
132 152 0
122 141 0
128 147 0
128 147 0
134 154 0
119 138 0
112 131 0
131 150 0
109 127 0
110 128 0
112 130 0
120 138 0
97 115 0
109 128 0
115 132 0
107 124 0
113 130 0
107 124 0
118 134 0
107 123 0
117 134 0
90 106 0
90 105 0
97 112 0
98 112 0
77 92 0
97 112 0
93 108 0
89 102 0
88 103 0
79 93 0
86 100 0
82 96 0
83 97 0
80 93 0
86 99 0
70 82 0
82 94 0
58 70 0
79 90 0
59 69 0
63 73 0
63 75 0
57 67 0
70 81 0
61 72 0
57 68 0
71 80 0
61 70 0
69 78 0
64 72 0
58 70 0
76 87 0
69 79 0
60 72 0
72 82 0
91 102 0
64 74 0
74 83 0
71 82 0
76 86 0
84 94 0
72 82 0
75 88 0
78 90 0
87 98 0
83 94 0
93 105 0
88 99 0
95 108 0
94 105 0
100 111 0
87 99 0
112 126 0
83 94 0
88 99 0
96 108 0
95 107 0
95 107 0
106 119 0
106 119 0
103 115 0
111 125 0
99 111 0
101 112 0
103 115 0
110 122 0
109 122 0
116 130 0
124 136 0
111 124 0
116 127 0
120 134 0
108 121 0
108 121 0
125 137 0
109 121 0
105 118 0
122 133 0
113 128 0
123 134 0
115 126 0
122 134 0
119 132 0
108 121 0
127 141 0
124 134 0
115 127 0
120 132 0
123 137 0
117 131 0
123 135 0
124 134 0
133 141 0
120 129 0
130 141 0
125 136 0
132 146 0
124 135 0
116 127 0
130 143 0
125 136 0
128 137 0
134 144 0
124 132 0
110 121 0
119 131 0
122 130 0
126 134 0
125 134 0
126 135 0
128 136 0
128 136 0
136 144 0
119 125 0
120 126 0
129 137 0
121 127 0
121 127 0
119 125 0
125 131 0
119 126 0
127 132 0
125 129 0
132 138 0
126 132 0
124 128 0
130 133 0
133 136 0
123 124 0
131 131 0
124 126 0
132 135 0
126 126 0
130 130 0
118 114 0
118 119 0
118 116 0
116 115 0
123 118 0
123 122 0
117 111 0
115 110 0
115 109 0
113 107 0
107 100 0
120 114 0
122 119 0
116 109 0
120 111 0
112 103 0
110 102 0
114 103 0
122 113 0
122 117 0
115 108 0
126 120 0
112 102 0
119 109 0
121 112 0
120 111 0
122 116 0
125 118 0
124 117 0
125 118 0
119 112 0
124 115 0
126 119 0
129 120 0
135 130 0
127 119 0
136 132 0
134 126 0
140 137 0
137 133 0
142 142 0
146 147 0
141 135 0
149 149 0
142 138 0
147 149 0
147 144 0
153 155 0
148 149 0
150 150 0
147 146 0
154 153 0
153 154 0
154 157 0
152 154 0
152 153 0
153 156 0
155 159 0
154 158 0
156 163 0
159 166 0
156 160 0
157 165 0
156 160 0
158 164 0
161 170 0
160 169 0
160 168 0
163 172 0
161 170 0
163 171 0
166 179 0
160 167 0
163 170 0
168 180 0
168 180 0
166 178 0
163 177 0
166 178 0
166 180 0
166 179 0
167 182 0
167 181 0
168 185 0
165 179 0
166 180 0
170 184 0
168 182 0
168 186 0
167 183 0
171 188 0
169 187 0
174 197 0
174 197 0
174 197 0
173 197 0
173 195 0
174 197 0
175 198 0
173 196 0
173 196 0
171 194 0
173 196 0
173 197 0
173 196 0
173 197 0
174 196 0
171 194 0
172 196 0
174 197 0
173 196 0
174 197 0
173 196 0
171 195 0
170 193 0
172 196 0
170 194 0
172 196 0
171 195 0
172 195 0
174 197 0
172 196 0
173 197 0
172 196 0
171 194 0
170 193 0
172 196 0
173 197 0
172 196 0
169 194 0
171 195 0
170 195 0
171 195 0
171 196 0
169 194 0
167 192 0
169 194 0
169 194 0
170 195 0
168 194 0
170 195 0
169 194 0
168 194 0
166 192 0
169 194 0
167 193 0
166 193 0
166 192 0
165 191 0
167 193 0
169 194 0
168 193 0
164 191 0
164 190 0
168 193 0
168 193 0
166 193 0
164 191 0
167 193 0
162 189 0
167 193 0
163 189 0
167 193 0
166 192 0
160 186 0
164 190 0
162 188 0
160 186 0
166 192 0
162 188 0
157 183 0
164 191 0
162 187 0
164 191 0
159 185 0
165 191 0
163 188 0
163 189 0
161 187 0
166 190 0
162 186 0
162 186 0
163 188 0
159 184 0
160 185 0
156 180 0
161 185 0
158 183 0
158 182 0
155 180 0
159 183 0
157 181 0
158 182 0
160 183 0
156 179 0
155 178 0
156 180 0
161 185 0
156 180 0
155 178 0
159 183 0
153 176 0
149 173 0
152 175 0
151 174 0
151 174 0
157 180 0
152 175 0
153 175 0
148 171 0
154 177 0
150 173 0
157 180 0
146 167 0
148 171 0
155 177 0
153 176 0
154 175 0
148 169 0
143 166 0
147 169 0
150 172 0
145 167 0
152 173 0
138 159 0
152 174 0
153 175 0
151 173 0
145 166 0
138 159 0
148 169 0
130 150 0
138 159 0
135 155 0
137 158 0
138 159 0
136 156 0
132 153 0
137 157 0
146 167 0
137 157 0
134 154 0
134 153 0
130 149 0
133 153 0
118 138 0
119 139 0
121 140 0
125 145 0
116 135 0
123 142 0
127 146 0
125 144 0
126 144 0
126 144 0
108 126 0
107 124 0
113 130 0
110 128 0
108 126 0
112 129 0
110 127 0
109 126 0
104 121 0
120 138 0
106 123 0
103 118 0
95 111 0
100 117 0
91 105 0
103 119 0
89 105 0
101 116 0
97 112 0
92 106 0
84 98 0
77 92 0
85 99 0
83 97 0
80 93 0
79 91 0
83 96 0
74 86 0
62 75 0
79 92 0
59 70 0
58 70 0
76 88 0
73 83 0
89 101 0
75 87 0
67 79 0
76 88 0
79 92 0
67 78 0
72 84 0
81 93 0
83 95 0
70 81 0
63 74 0
73 85 0
74 87 0
90 102 0
65 75 0
76 87 0
66 77 0
75 86 0
83 94 0
82 94 0
73 84 0
81 93 0
82 94 0
76 88 0
107 119 0
89 102 0
96 107 0
103 115 0
102 114 0
102 115 0
104 117 0
87 98 0
95 108 0
96 109 0
95 109 0
92 104 0
109 123 0
110 123 0
100 112 0
112 126 0
98 112 0
118 132 0
97 108 0
108 123 0
100 113 0
110 123 0
110 123 0
111 125 0
116 129 0
110 126 0
118 131 0
109 120 0
109 123 0
113 125 0
118 132 0
122 135 0
124 138 0
125 140 0
126 140 0
120 135 0
104 119 0
118 131 0
115 124 0
118 129 0
116 127 0
118 129 0
122 136 0
126 139 0
125 139 0
119 131 0
112 124 0
123 135 0
130 141 0
121 132 0
126 137 0
125 137 0
133 146 0
123 134 0
123 134 0
127 140 0
123 133 0
131 141 0
136 146 0
128 135 0
122 132 0
127 136 0
138 148 0
125 132 0
127 136 0
123 131 0
128 136 0
134 142 0
129 138 0
113 117 0
124 128 0
130 138 0
128 135 0
127 130 0
131 136 0
126 129 0
125 128 0
132 135 0
118 122 0
119 121 0
116 119 0
135 137 0
122 125 0
125 129 0
127 128 0
110 107 0
134 138 0
127 129 0
132 138 0
137 137 0
130 130 0
135 136 0
124 122 0
128 129 0
126 125 0
122 115 0
123 120 0
123 120 0
127 125 0
124 120 0
128 123 0
123 116 0
119 112 0
122 118 0
113 104 0
128 123 0
116 105 0
125 116 0
123 117 0
131 128 0
119 114 0
122 116 0
127 123 0
123 112 0
120 113 0
122 113 0
125 116 0
128 122 0
131 125 0
135 128 0
135 132 0
127 121 0
135 130 0
130 124 0
139 136 0
135 130 0
141 138 0
143 138 0
139 134 0
143 142 0
145 144 0
145 142 0
147 147 0
149 149 0
143 141 0
145 145 0
151 153 0
149 151 0
147 148 0
153 156 0
154 155 0
151 153 0
159 164 0
157 158 0
154 157 0
159 165 0
158 163 0
156 160 0
155 158 0
155 159 0
157 161 0
159 164 0
158 163 0
162 171 0
159 166 0
163 173 0
165 174 0
161 170 0
163 171 0
164 173 0
166 177 0
164 173 0
164 175 0
167 178 0
163 175 0
164 175 0
165 177 0
164 176 0
160 170 0
164 178 0
167 180 0
165 178 0
164 174 0
167 180 0
166 181 0
167 179 0
168 183 0
166 182 0
168 185 0
172 195 0
172 195 0
173 196 0
174 197 0
174 197 0
177 199 0
175 198 0
174 197 0
173 196 0
172 195 0
172 195 0
173 196 0
172 196 0
172 196 0
176 198 0
173 195 0
173 196 0
173 197 0
173 196 0
174 198 0
172 196 0
174 197 0
175 197 0
172 196 0
173 196 0
172 196 0
174 197 0
171 195 0
172 196 0
173 197 0
170 194 0
172 195 0
172 196 0
170 194 0
170 195 0
172 195 0
171 196 0
171 195 0
171 195 0
169 195 0
170 195 0
172 196 0
172 196 0
171 195 0
168 194 0
170 194 0
168 193 0
169 194 0
169 194 0
168 193 0
169 195 0
167 193 0
170 194 0
167 193 0
169 194 0
166 192 0
168 193 0
167 193 0
168 194 0
166 193 0
168 193 0
166 192 0
168 193 0
167 193 0
166 193 0
165 192 0
164 190 0
167 192 0
163 189 0
164 190 0
164 191 0
167 192 0
165 191 0
164 189 0
166 191 0
162 187 0
163 187 0
165 190 0
164 190 0
162 187 0
164 188 0
162 188 0
162 187 0
167 192 0
164 189 0
162 188 0
159 184 0
156 181 0
159 184 0
160 184 0
159 183 0
161 186 0
161 185 0
157 182 0
160 185 0
165 189 0
165 189 0
152 175 0
160 184 0
155 179 0
156 179 0
158 182 0
158 182 0
152 175 0
159 181 0
161 185 0
159 183 0
154 177 0
155 179 0
148 170 0
154 177 0
161 184 0
156 179 0
157 180 0
151 173 0
151 173 0
155 177 0
158 181 0
147 169 0
154 177 0
143 165 0
150 172 0
148 171 0
147 168 0
154 177 0
147 169 0
155 177 0
148 170 0
151 173 0
143 165 0
142 164 0
147 169 0
143 164 0
148 169 0
143 164 0
146 167 0
139 160 0
147 167 0
150 171 0
139 159 0
146 166 0
130 151 0
146 166 0
136 157 0
140 159 0
132 153 0
134 155 0
144 164 0
133 153 0
144 164 0
136 155 0
128 148 0
138 158 0
125 144 0
137 157 0
125 145 0
130 148 0
119 138 0
122 141 0
125 144 0
124 144 0
123 141 0
121 140 0
128 146 0
127 145 0
115 132 0
123 141 0
115 132 0
113 131 0
117 134 0
103 120 0
107 124 0
106 123 0
110 127 0
106 123 0
97 113 0
104 120 0
109 124 0
94 110 0
89 104 0
104 119 0
92 108 0
95 111 0
93 109 0
77 90 0
95 110 0
76 89 0
95 108 0
82 95 0
91 103 0
85 98 0
73 86 0
68 81 0
84 97 0
78 91 0
79 91 0
81 96 0
74 87 0
76 88 0
58 70 0
83 96 0
86 98 0
71 81 0
68 79 0
70 82 0
83 94 0
72 84 0
68 80 0
65 77 0
75 86 0
79 91 0
84 97 0
73 84 0
86 97 0
81 93 0
95 107 0
84 96 0
98 112 0
100 114 0
87 100 0
93 107 0
85 98 0
80 92 0
97 111 0
94 105 0
93 104 0
100 109 0
102 115 0
112 125 0
106 120 0
98 109 0
86 99 0
108 123 0
109 122 0
110 125 0
110 124 0
115 128 0
103 116 0
98 113 0
118 134 0
105 118 0
113 126 0
106 118 0
115 128 0
124 139 0
106 121 0
118 133 0
117 130 0
104 117 0
112 126 0
119 135 0
119 134 0
120 135 0
96 108 0
100 112 0
122 136 0
118 131 0
114 127 0
128 138 0
127 141 0
119 131 0
126 138 0
126 140 0
116 130 0
121 134 0
125 138 0
128 142 0
120 131 0
121 135 0
130 140 0
116 128 0
128 137 0
128 139 0
129 138 0
130 143 0
124 135 0
126 136 0
124 136 0
135 145 0
135 146 0
136 145 0
123 132 0
127 136 0
128 140 0
130 140 0
129 138 0
135 145 0
131 140 0
132 142 0
132 143 0
131 140 0
123 132 0
131 138 0
122 128 0
125 132 0
127 133 0
130 136 0
126 132 0
131 135 0
124 129 0
123 128 0
129 133 0
126 132 0
133 134 0
119 121 0
125 131 0
130 131 0
131 131 0
133 135 0
129 132 0
125 125 0
125 126 0
126 127 0
124 123 0
126 125 0
127 125 0
125 122 0
128 125 0
121 114 0
124 121 0
126 123 0
118 112 0
130 125 0
122 119 0
130 127 0
122 116 0
124 119 0
122 117 0
126 120 0
129 122 0
125 121 0
123 118 0
121 115 0
131 123 0
128 124 0
131 124 0
132 126 0
135 130 0
131 125 0
123 114 0
132 125 0
127 117 0
130 122 0
137 134 0
135 130 0
135 130 0
139 136 0
133 128 0
143 141 0
140 137 0
137 130 0
147 146 0
147 146 0
144 142 0
143 141 0
144 143 0
144 142 0
148 147 0
153 155 0
149 151 0
150 150 0
154 158 0
147 147 0
154 156 0
152 154 0
160 167 0
155 158 0
154 155 0
158 163 0
157 162 0
157 161 0
160 166 0
158 162 0
161 166 0
161 168 0
156 159 0
161 169 0
163 172 0
162 171 0
163 173 0
163 175 0
162 169 0
163 173 0
163 171 0
163 174 0
164 175 0
161 173 0
160 170 0
167 180 0
167 179 0
164 177 0
162 176 0
162 176 0
167 181 0
165 175 0
167 180 0
165 179 0
167 180 0
167 181 0
166 182 0
174 197 0
174 197 0
176 198 0
173 196 0
172 195 0
175 198 0
174 197 0
172 195 0
173 197 0
175 198 0
175 198 0
175 198 0
173 196 0
174 197 0
173 196 0
173 196 0
175 198 0
174 197 0
173 196 0
172 195 0
171 195 0
172 196 0
173 196 0
174 197 0
173 196 0
170 194 0
172 196 0
172 196 0
170 194 0
172 196 0
172 196 0
172 196 0
172 196 0
173 197 0
173 197 0
169 193 0
169 193 0
169 193 0
168 193 0
171 195 0
171 195 0
169 194 0
168 193 0
169 194 0
169 194 0
171 195 0
169 193 0
169 194 0
170 195 0
168 193 0
169 194 0
167 192 0
170 195 0
167 193 0
166 191 0
167 192 0
167 194 0
165 191 0
167 193 0
166 193 0
168 193 0
164 189 0
166 191 0
166 193 0
167 193 0
165 192 0
166 192 0
167 192 0
165 190 0
165 191 0
163 188 0
167 193 0
167 193 0
163 189 0
162 187 0
167 192 0
164 190 0
162 188 0
164 188 0
163 188 0
165 190 0
160 185 0
164 189 0
164 189 0
160 185 0
161 186 0
161 186 0
165 189 0
157 181 0
163 187 0
164 188 0
166 190 0
162 186 0
160 184 0
155 178 0
160 183 0
155 179 0
160 183 0
163 186 0
154 177 0
163 187 0
159 182 0
158 181 0
156 180 0
154 177 0
158 180 0
155 178 0
160 183 0
158 182 0
156 179 0
159 182 0
156 179 0
149 171 0
154 176 0
162 184 0
154 177 0
157 180 0
149 171 0
149 171 0
148 170 0
150 172 0
146 168 0
148 169 0
148 171 0
151 174 0
156 179 0
157 179 0
152 174 0
148 169 0
144 165 0
148 170 0
141 163 0
143 164 0
155 177 0
138 160 0
147 169 0
149 170 0
141 162 0
145 167 0
137 158 0
150 171 0
139 160 0
136 157 0
137 157 0
146 165 0
142 162 0
129 150 0
129 148 0
133 152 0
130 150 0
132 151 0
128 146 0
132 151 0
131 151 0
129 149 0
129 148 0
131 151 0
126 146 0
122 141 0
127 146 0
126 144 0
125 144 0
125 144 0
117 136 0
123 141 0
112 131 0
124 142 0
123 142 0
110 127 0
116 133 0
116 133 0
89 106 0
101 118 0
88 105 0
102 119 0
101 118 0
96 113 0
109 125 0
106 123 0
90 106 0
80 95 0
94 110 0
92 107 0
89 103 0
90 105 0
101 117 0
82 95 0
94 109 0
88 103 0
92 107 0
92 106 0
67 81 0
93 107 0
92 105 0
84 97 0
74 88 0
95 109 0
71 84 0
84 96 0
83 95 0
79 92 0
78 91 0
81 93 0
78 90 0
73 85 0
71 83 0
82 92 0
67 80 0
93 108 0
81 94 0
86 98 0
67 79 0
91 107 0
71 83 0
77 88 0
97 110 0
85 99 0
88 102 0
95 109 0
97 109 0
100 111 0
102 116 0
98 109 0
91 104 0
90 104 0
100 113 0
108 121 0
106 120 0
97 112 0
105 118 0
79 93 0
111 123 0
108 121 0
109 123 0
117 130 0
115 130 0
100 111 0
109 124 0
106 118 0
110 125 0
109 121 0
105 118 0
119 135 0
118 132 0
112 126 0
109 122 0
112 124 0
117 130 0
101 113 0
121 134 0
105 119 0
120 133 0
129 144 0
133 148 0
128 141 0
124 138 0
121 134 0
129 143 0
124 137 0
119 132 0
128 141 0
122 136 0
128 139 0
125 136 0
123 136 0
128 141 0
124 135 0
132 147 0
120 128 0
129 143 0
136 148 0
117 130 0
116 127 0
130 140 0
130 142 0
129 140 0
123 134 0
123 134 0
127 138 0
139 148 0
135 148 0
119 127 0
127 135 0
130 138 0
127 137 0
126 134 0
127 135 0
126 134 0
129 138 0
128 137 0
123 130 0
127 134 0
132 139 0
136 145 0
132 138 0
132 139 0
120 124 0
127 135 0
119 123 0
129 134 0
127 133 0
130 134 0
131 135 0
132 137 0
131 136 0
121 124 0
122 122 0
128 130 0
136 138 0
138 139 0
131 132 0
119 119 0
132 133 0
134 135 0
125 123 0
129 131 0
130 127 0
135 134 0
123 120 0
140 142 0
124 122 0
133 131 0
124 120 0
121 117 0
121 114 0
130 128 0
131 126 0
126 122 0
123 118 0
136 133 0
114 110 0
130 124 0
138 136 0
131 126 0
139 138 0
140 139 0
124 119 0
128 123 0
131 127 0
124 115 0
129 126 0
128 122 0
135 131 0
134 131 0
134 129 0
140 137 0
140 136 0
137 135 0
135 130 0
134 130 0
141 136 0
145 145 0
140 137 0
142 140 0
134 131 0
137 134 0
146 148 0
144 144 0
145 143 0
140 136 0
144 143 0
145 144 0
150 152 0
153 155 0
154 156 0
153 156 0
152 153 0
156 159 0
154 159 0
152 154 0
158 164 0
159 166 0
159 166 0
155 160 0
162 167 0
155 161 0
164 172 0
158 166 0
160 165 0
160 169 0
161 170 0
162 172 0
163 173 0
161 169 0
164 173 0
165 175 0
163 173 0
163 174 0
163 172 0
164 176 0
165 177 0
162 173 0
164 176 0
167 179 0
166 179 0
165 178 0
168 182 0
168 182 0
168 183 0
164 177 0
174 196 0
175 198 0
174 197 0
175 197 0
175 198 0
175 198 0
174 197 0
172 195 0
173 196 0
175 197 0
175 198 0
172 195 0
174 197 0
172 196 0
171 194 0
174 197 0
172 196 0
175 198 0
173 197 0
172 196 0
174 197 0
172 195 0
175 198 0
175 198 0
173 196 0
172 196 0
171 195 0
173 197 0
171 195 0
174 197 0
173 197 0
169 194 0
172 195 0
172 196 0
170 196 0
172 195 0
171 196 0
170 195 0
169 194 0
170 194 0
170 195 0
170 195 0
169 194 0
169 194 0
169 194 0
168 192 0
167 193 0
170 195 0
167 193 0
168 193 0
169 194 0
170 195 0
169 194 0
167 193 0
169 195 0
168 194 0
168 193 0
167 193 0
166 192 0
168 193 0
168 193 0
164 190 0
166 192 0
166 191 0
165 191 0
168 194 0
163 189 0
164 191 0
163 190 0
163 189 0
165 191 0
168 192 0
164 190 0
163 188 0
159 184 0
165 190 0
165 190 0
164 189 0
164 189 0
165 190 0
161 187 0
163 188 0
162 188 0
166 191 0
166 191 0
163 188 0
161 186 0
163 188 0
164 188 0
160 184 0
161 185 0
164 188 0
156 179 0
157 181 0
163 187 0
162 185 0
155 179 0
160 183 0
152 175 0
160 184 0
160 183 0
155 179 0
162 185 0
158 182 0
160 184 0
157 180 0
158 181 0
162 184 0
157 180 0
151 174 0
158 181 0
154 176 0
151 173 0
156 178 0
158 180 0
151 173 0
165 187 0
148 171 0
149 172 0
149 172 0
153 175 0
149 171 0
148 169 0
153 175 0
151 173 0
154 175 0
146 168 0
152 173 0
151 172 0
148 170 0
140 161 0
137 159 0
142 163 0
154 174 0
149 171 0
132 153 0
147 168 0
152 174 0
139 161 0
146 166 0
133 153 0
135 156 0
142 162 0
138 159 0
137 158 0
134 155 0
136 157 0
134 155 0
134 154 0
136 156 0
128 149 0
124 143 0
120 140 0
139 159 0
131 151 0
126 144 0
122 141 0
121 140 0
126 145 0
127 147 0
125 144 0
130 149 0
102 119 0
120 138 0
123 142 0
122 139 0
109 126 0
112 130 0
110 127 0
106 123 0
110 127 0
107 124 0
110 127 0
116 133 0
102 118 0
110 127 0
95 111 0
104 120 0
94 110 0
98 114 0
99 114 0
106 122 0
104 121 0
82 96 0
90 105 0
98 113 0
76 91 0
76 89 0
88 103 0
77 91 0
86 98 0
89 104 0
94 107 0
83 96 0
76 91 0
82 95 0
83 97 0
99 113 0
84 97 0
73 88 0
66 81 0
76 88 0
90 104 0
87 100 0
91 103 0
91 104 0
77 87 0
83 95 0
80 93 0
90 102 0
89 102 0
97 111 0
88 102 0
89 102 0
82 95 0
84 95 0
95 110 0
75 89 0
90 103 0
96 109 0
96 109 0
103 117 0
93 105 0
86 98 0
86 99 0
91 105 0
98 110 0
96 109 0
110 124 0
94 109 0
105 117 0
114 129 0
103 115 0
101 116 0
88 101 0
98 111 0
99 111 0
105 119 0
103 117 0
102 115 0
107 124 0
122 136 0
117 131 0
106 119 0
109 126 0
114 129 0
112 126 0
108 124 0
121 132 0
119 135 0
110 124 0
111 126 0
116 132 0
117 131 0
126 140 0
122 135 0
131 146 0
127 141 0
127 140 0
123 137 0
122 136 0
115 128 0
135 148 0
124 140 0
133 146 0
119 134 0
128 142 0
125 138 0
125 136 0
123 133 0
119 131 0
125 138 0
129 141 0
124 137 0
122 135 0
121 136 0
129 139 0
126 135 0
129 142 0
128 140 0
135 147 0
133 146 0
136 146 0
134 145 0
129 138 0
130 141 0
124 136 0
136 148 0
128 138 0
130 139 0
129 138 0
128 139 0
134 143 0
130 138 0
127 136 0
123 130 0
140 149 0
131 139 0
133 138 0
131 138 0
129 134 0
131 136 0
129 135 0
124 128 0
119 120 0
132 133 0
139 147 0
130 134 0
131 135 0
132 136 0
135 137 0
129 131 0
129 130 0
125 127 0
127 129 0
138 142 0
133 135 0
137 138 0
136 138 0
129 131 0
129 126 0
135 134 0
131 132 0
132 129 0
132 130 0
126 124 0
136 131 0
129 123 0
133 130 0
130 128 0
126 123 0
127 124 0
128 126 0
133 128 0
124 119 0
130 123 0
133 126 0
130 127 0
126 119 0
130 126 0
137 132 0
129 121 0
139 138 0
134 130 0
140 138 0
133 128 0
145 145 0
140 138 0
142 140 0
131 125 0
135 129 0
140 139 0
136 133 0
145 142 0
141 136 0
147 145 0
144 144 0
149 148 0
144 143 0
152 152 0
150 152 0
154 157 0
146 148 0
149 150 0
150 152 0
144 144 0
150 153 0
151 154 0
151 155 0
154 158 0
155 160 0
155 159 0
154 159 0
156 159 0
157 161 0
157 163 0
160 168 0
160 167 0
160 164 0
162 170 0
160 169 0
162 169 0
159 169 0
159 167 0
162 170 0
162 169 0
164 174 0
162 174 0
166 176 0
161 172 0
164 177 0
167 181 0
167 177 0
169 184 0
163 176 0
167 180 0
164 174 0
167 180 0
163 175 0
164 175 0
173 197 0
173 196 0
173 197 0
173 195 0
173 195 0
174 197 0
174 197 0
172 196 0
174 197 0
176 199 0
173 196 0
174 198 0
174 197 0
173 197 0
173 196 0
175 198 0
175 198 0
174 197 0
173 196 0
171 195 0
173 196 0
171 195 0
172 196 0
172 196 0
171 195 0
173 197 0
172 196 0
171 194 0
170 194 0
171 196 0
172 197 0
173 196 0
170 195 0
171 195 0
172 196 0
170 195 0
170 195 0
170 195 0
169 194 0
169 194 0
170 194 0
170 195 0
171 195 0
169 194 0
169 194 0
170 195 0
168 193 0
167 192 0
169 195 0
165 191 0
166 192 0
168 194 0
167 191 0
169 194 0
168 193 0
167 193 0
167 192 0
168 194 0
167 193 0
166 192 0
169 194 0
166 191 0
162 188 0
165 190 0
167 193 0
167 192 0
168 193 0
163 189 0
165 191 0
163 187 0
167 192 0
166 191 0
159 185 0
163 189 0
164 189 0
161 186 0
164 189 0
163 188 0
160 184 0
164 189 0
160 184 0
165 189 0
157 182 0
163 187 0
157 181 0
164 189 0
164 188 0
162 186 0
160 184 0
159 183 0
166 190 0
160 184 0
162 186 0
163 188 0
160 184 0
159 182 0
159 182 0
160 184 0
159 182 0
161 185 0
160 184 0
157 180 0
159 182 0
158 182 0
151 174 0
151 175 0
158 181 0
165 188 0
155 177 0
157 180 0
165 188 0
155 178 0
154 176 0
152 174 0
157 180 0
153 175 0
152 174 0
150 173 0
159 182 0
151 174 0
157 180 0
152 174 0
150 173 0
151 173 0
152 173 0
142 164 0
158 179 0
147 168 0
142 163 0
155 177 0
138 160 0
147 167 0
151 172 0
141 162 0
145 166 0
149 171 0
148 169 0
139 160 0
143 165 0
145 166 0
141 163 0
147 168 0
136 157 0
138 158 0
134 154 0
140 160 0
132 152 0
138 159 0
134 153 0
137 158 0
134 154 0
131 152 0
132 152 0
121 140 0
125 145 0
118 137 0
132 152 0
130 150 0
132 151 0
132 151 0
124 143 0
123 142 0
119 139 0
118 137 0
114 132 0
115 134 0
108 126 0
115 133 0
129 148 0
96 113 0
118 136 0
98 116 0
113 131 0
96 114 0
93 110 0
104 120 0
113 129 0
97 114 0
110 126 0
103 120 0
105 121 0
79 97 0
100 117 0
87 103 0
103 118 0
89 104 0
107 122 0
104 118 0
92 107 0
91 105 0
96 112 0
93 108 0
108 124 0
95 110 0
87 103 0
100 113 0
86 99 0
87 99 0
82 96 0
80 93 0
84 97 0
81 92 0
82 96 0
89 102 0
74 87 0
103 116 0
94 106 0
73 87 0
82 97 0
85 100 0
93 106 0
102 114 0
84 98 0
91 104 0
96 111 0
95 109 0
105 120 0
95 110 0
102 115 0
96 110 0
91 104 0
89 103 0
104 118 0
91 104 0
99 113 0
104 117 0
106 120 0
105 119 0
102 117 0
108 123 0
102 115 0
115 130 0
98 114 0
94 108 0
111 124 0
106 120 0
116 130 0
114 129 0
99 114 0
108 123 0
104 119 0
122 136 0
123 137 0
119 135 0
117 133 0
101 113 0
117 130 0
113 129 0
112 126 0
114 129 0
128 142 0
106 119 0
119 135 0
130 144 0
121 136 0
126 141 0
133 146 0
122 133 0
128 143 0
122 135 0
120 132 0
121 137 0
131 147 0
125 141 0
120 131 0
128 141 0
135 149 0
125 139 0
123 137 0
130 144 0
121 132 0
115 128 0
137 149 0
124 137 0
131 145 0
130 143 0
130 144 0
136 148 0
132 144 0
129 140 0
139 149 0
139 150 0
129 142 0
129 141 0
128 138 0
130 139 0
133 143 0
125 132 0
131 138 0
122 131 0
128 137 0
125 135 0
131 140 0
126 135 0
118 128 0
137 145 0
126 132 0
135 144 0
131 139 0
136 144 0
125 133 0
136 143 0
136 145 0
136 147 0
130 137 0
129 135 0
134 140 0
130 138 0
132 136 0
130 135 0
129 135 0
133 137 0
139 144 0
131 134 0
128 128 0
120 119 0
138 139 0
132 136 0
131 133 0
137 136 0
131 131 0
124 122 0
126 125 0
129 129 0
129 128 0
129 129 0
136 136 0
138 136 0
131 130 0
131 130 0
136 136 0
136 135 0
129 125 0
136 133 0
129 125 0
127 123 0
137 134 0
139 136 0
139 137 0
131 127 0
135 129 0
133 128 0
135 133 0
133 130 0
132 125 0
136 131 0
140 137 0
146 144 0
143 140 0
134 129 0
138 136 0
139 136 0
145 142 0
147 143 0
145 147 0
146 145 0
147 146 0
147 149 0
146 146 0
148 150 0
147 145 0
147 145 0
146 142 0
149 151 0
152 155 0
156 160 0
151 154 0
152 154 0
153 155 0
153 158 0
151 152 0
153 158 0
158 163 0
156 161 0
160 165 0
161 170 0
160 167 0
164 172 0
158 163 0
161 168 0
163 171 0
162 171 0
162 169 0
162 168 0
164 174 0
162 171 0
162 171 0
162 172 0
164 174 0
163 171 0
166 178 0
166 177 0
162 173 0
166 176 0
167 178 0
167 180 0
165 176 0
165 179 0
167 181 0
165 180 0
175 198 0
174 197 0
174 197 0
174 197 0
173 196 0
174 197 0
173 196 0
174 197 0
172 195 0
173 197 0
174 197 0
174 197 0
174 197 0
173 196 0
172 196 0
172 196 0
173 196 0
172 196 0
174 197 0
172 196 0
172 195 0
171 194 0
173 197 0
172 196 0
173 196 0
171 195 0
172 196 0
171 195 0
173 197 0
171 195 0
170 194 0
171 195 0
171 195 0
170 195 0
172 196 0
171 196 0
169 194 0
170 195 0
168 192 0
169 194 0
171 196 0
169 194 0
171 195 0
168 193 0
169 193 0
168 193 0
171 195 0
168 193 0
169 194 0
171 194 0
166 191 0
167 192 0
168 193 0
171 195 0
168 193 0
170 194 0
166 192 0
167 193 0
164 189 0
168 193 0
165 191 0
167 192 0
164 189 0
162 187 0
169 193 0
164 189 0
168 193 0
164 189 0
168 192 0
164 188 0
166 192 0
166 191 0
163 188 0
160 185 0
163 187 0
167 191 0
161 186 0
163 187 0
162 187 0
163 188 0
162 186 0
162 187 0
162 186 0
166 190 0
162 186 0
157 181 0
167 191 0
164 188 0
167 191 0
161 185 0
154 178 0
153 176 0
158 182 0
159 182 0
162 186 0
157 180 0
156 179 0
162 185 0
161 185 0
159 182 0
161 183 0
160 183 0
150 173 0
155 177 0
153 175 0
162 185 0
161 184 0
159 182 0
155 177 0
156 178 0
155 178 0
151 174 0
155 177 0
150 173 0
152 174 0
153 176 0
152 174 0
145 167 0
155 177 0
152 174 0
152 175 0
153 175 0
149 171 0
152 174 0
151 172 0
154 176 0
148 170 0
151 173 0
151 173 0
136 158 0
150 171 0
140 162 0
149 171 0
147 168 0
152 173 0
139 161 0
141 163 0
135 156 0
137 158 0
147 167 0
144 166 0
138 159 0
137 158 0
141 162 0
140 161 0
139 159 0
141 161 0
126 148 0
138 158 0
127 147 0
141 161 0
132 151 0
127 146 0
132 152 0
128 149 0
137 156 0
133 153 0
137 157 0
129 149 0
125 145 0
126 145 0
132 151 0
122 141 0
119 138 0
125 144 0
118 136 0
127 146 0
105 123 0
122 140 0
104 122 0
118 136 0
123 143 0
119 138 0
102 121 0
114 132 0
112 128 0
119 136 0
107 125 0
105 122 0
107 122 0
116 133 0
98 115 0
103 120 0
106 123 0
98 113 0
97 111 0
97 112 0
107 123 0
114 131 0
107 125 0
93 107 0
86 101 0
88 103 0
93 108 0
91 107 0
101 116 0
99 113 0
100 115 0
70 84 0
95 110 0
93 107 0
94 108 0
93 107 0
90 104 0
97 111 0
90 105 0
92 107 0
92 106 0
90 105 0
101 114 0
74 89 0
96 109 0
104 117 0
100 114 0
101 114 0
83 96 0
98 112 0
101 115 0
106 120 0
97 111 0
77 92 0
106 119 0
103 117 0
90 105 0
89 102 0
100 114 0
92 105 0
109 123 0
108 121 0
102 116 0
102 117 0
111 124 0
101 116 0
107 122 0
114 129 0
105 119 0
111 124 0
105 119 0
112 123 0
115 129 0
110 126 0
115 130 0
113 128 0
114 128 0
116 131 0
119 135 0
111 124 0
118 132 0
121 136 0
107 123 0
116 131 0
129 144 0
117 130 0
116 130 0
115 129 0
117 133 0
121 134 0
124 139 0
127 142 0
128 141 0
123 137 0
120 134 0
125 140 0
113 128 0
125 139 0
129 142 0
129 143 0
131 145 0
133 148 0
131 146 0
124 136 0
121 134 0
131 145 0
135 146 0
130 144 0
126 138 0
143 156 0
122 136 0
135 147 0
124 138 0
129 141 0
133 148 0
133 144 0
137 149 0
133 144 0
125 137 0
133 144 0
134 147 0
124 134 0
135 147 0
136 145 0
126 134 0
134 143 0
144 155 0
128 136 0
129 139 0
131 140 0
121 129 0
136 143 0
123 129 0
144 155 0
142 147 0
127 135 0
132 137 0
140 146 0
128 134 0
135 139 0
129 135 0
134 140 0
130 136 0
129 135 0
131 134 0
140 143 0
136 140 0
136 139 0
131 134 0
142 146 0
138 144 0
123 125 0
143 148 0
128 132 0
134 136 0
131 130 0
130 131 0
136 138 0
136 136 0
134 136 0
136 137 0
125 123 0
132 134 0
138 137 0
129 126 0
135 133 0
131 130 0
136 137 0
136 133 0
138 135 0
135 133 0
133 133 0
137 136 0
138 137 0
135 131 0
126 121 0
133 129 0
136 133 0
140 137 0
144 144 0
138 134 0
141 139 0
134 131 0
139 139 0
133 132 0
139 135 0
143 144 0
144 143 0
144 143 0
146 146 0
144 144 0
151 152 0
145 143 0
154 155 0
153 154 0
148 149 0
149 150 0
152 154 0
150 151 0
150 154 0
152 153 0
151 152 0
151 154 0
150 150 0
155 157 0
151 153 0
152 155 0
154 159 0
159 165 0
160 166 0
159 165 0
162 168 0
157 162 0
157 162 0
159 164 0
164 172 0
158 166 0
161 168 0
161 170 0
159 166 0
162 169 0
158 169 0
165 172 0
165 177 0
162 171 0
166 177 0
165 174 0
164 175 0
164 176 0
163 174 0
168 183 0
166 178 0
167 181 0
173 196 0
175 198 0
174 197 0
174 197 0
175 198 0
172 196 0
173 196 0
173 197 0
174 197 0
174 197 0
171 194 0
173 197 0
173 197 0
173 196 0
174 197 0
175 198 0
171 195 0
172 196 0
174 197 0
173 197 0
173 197 0
171 195 0
173 197 0
173 197 0
171 195 0
173 196 0
170 194 0
168 192 0
173 196 0
170 194 0
170 195 0
172 196 0
171 195 0
172 196 0
170 195 0
168 192 0
170 195 0
169 194 0
171 195 0
171 195 0
170 195 0
172 196 0
168 193 0
169 193 0
167 192 0
166 191 0
168 193 0
169 194 0
166 191 0
168 193 0
166 191 0
166 191 0
168 193 0
166 192 0
167 192 0
169 194 0
170 195 0
169 193 0
164 189 0
168 192 0
165 190 0
168 193 0
166 191 0
164 189 0
166 191 0
163 187 0
166 191 0
165 189 0
166 190 0
169 194 0
163 187 0
163 187 0
166 190 0
163 188 0
165 190 0
165 189 0
166 190 0
165 190 0
162 186 0
159 183 0
159 183 0
163 187 0
164 188 0
161 185 0
163 187 0
162 186 0
163 187 0
159 183 0
162 186 0
159 183 0
159 182 0
159 183 0
155 178 0
163 187 0
153 177 0
152 175 0
154 177 0
158 181 0
156 179 0
155 177 0
158 181 0
157 180 0
156 178 0
154 178 0
160 182 0
154 177 0
158 181 0
156 179 0
161 183 0
154 176 0
156 178 0
147 169 0
154 176 0
156 179 0
153 175 0
154 177 0
152 173 0
155 176 0
152 173 0
153 175 0
147 169 0
145 168 0
156 179 0
153 174 0
143 165 0
148 169 0
154 176 0
153 175 0
145 166 0
147 169 0
143 164 0
147 168 0
143 164 0
145 166 0
143 164 0
139 160 0
147 168 0
141 162 0
143 164 0
143 164 0
134 155 0
144 165 0
138 159 0
138 158 0
142 162 0
135 156 0
135 156 0
132 152 0
137 157 0
127 148 0
123 143 0
126 146 0
123 142 0
125 146 0
131 151 0
132 153 0
127 146 0
138 158 0
124 143 0
127 147 0
108 127 0
115 135 0
130 149 0
129 148 0
132 152 0
115 133 0
119 137 0
102 121 0
109 126 0
117 135 0
116 134 0
107 125 0
111 129 0
111 128 0
109 126 0
113 129 0
103 121 0
114 130 0
110 127 0
112 129 0
107 124 0
113 130 0
91 108 0
96 112 0
102 119 0
104 119 0
102 118 0
95 109 0
110 126 0
108 124 0
106 122 0
89 103 0
83 98 0
93 109 0
93 108 0
97 112 0
96 110 0
93 109 0
86 100 0
98 112 0
83 98 0
88 103 0
88 100 0
91 106 0
102 116 0
97 113 0
96 110 0
92 108 0
102 118 0
91 106 0
99 113 0
89 100 0
94 107 0
97 111 0
91 104 0
98 113 0
101 117 0
93 107 0
100 116 0
99 112 0
102 117 0
95 109 0
104 118 0
98 112 0
103 117 0
90 104 0
101 115 0
112 126 0
97 111 0
101 117 0
111 127 0
118 134 0
112 127 0
111 127 0
103 119 0
117 132 0
118 131 0
106 121 0
121 134 0
110 126 0
113 129 0
112 129 0
108 124 0
113 127 0
116 129 0
123 139 0
127 142 0
118 133 0
129 144 0
125 140 0
123 136 0
120 134 0
125 141 0
130 145 0
120 134 0
131 149 0
114 129 0
126 142 0
127 142 0
129 144 0
135 150 0
136 151 0
134 150 0
124 136 0
135 150 0
136 150 0
127 140 0
127 141 0
128 142 0
121 135 0
123 135 0
130 143 0
127 141 0
131 146 0
123 136 0
131 145 0
129 140 0
140 153 0
133 143 0
130 139 0
124 135 0
129 142 0
119 129 0
138 151 0
140 150 0
120 132 0
128 137 0
131 142 0
131 141 0
123 134 0
139 148 0
132 143 0
131 139 0
136 148 0
134 143 0
122 133 0
135 144 0
139 148 0
125 136 0
131 136 0
136 145 0
136 142 0
139 149 0
128 138 0
134 142 0
138 146 0
135 138 0
140 146 0
132 140 0
137 143 0
134 138 0
135 142 0
141 145 0
140 143 0
135 140 0
126 130 0
134 138 0
131 133 0
137 141 0
136 141 0
142 148 0
131 132 0
136 139 0
129 131 0
128 129 0
126 127 0
131 132 0
133 131 0
135 132 0
141 143 0
134 131 0
129 126 0
133 136 0
136 137 0
141 141 0
144 144 0
141 140 0
137 135 0
137 137 0
135 137 0
138 137 0
136 134 0
143 140 0
143 142 0
135 133 0
141 139 0
143 143 0
148 147 0
136 134 0
151 154 0
140 135 0
142 141 0
142 141 0
143 142 0
151 151 0
145 144 0
147 146 0
145 144 0
146 145 0
144 142 0
145 145 0
147 148 0
150 152 0
152 155 0
150 150 0
156 157 0
153 154 0
153 155 0
154 157 0
148 149 0
152 157 0
157 162 0
149 148 0
153 156 0
158 164 0
156 160 0
163 172 0
156 162 0
155 157 0
161 165 0
161 168 0
155 162 0
157 164 0
162 169 0
160 169 0
161 168 0
157 165 0
163 174 0
161 168 0
162 171 0
161 170 0
164 174 0
164 174 0
164 178 0
167 178 0
168 180 0
168 179 0
165 176 0
165 177 0
165 178 0
174 197 0
172 196 0
174 197 0
174 197 0
175 198 0
174 198 0
176 198 0
173 196 0
174 198 0
174 196 0
172 195 0
174 197 0
174 197 0
175 198 0
172 195 0
172 196 0
172 196 0
173 197 0
171 196 0
172 196 0
172 196 0
173 197 0
174 197 0
171 195 0
172 195 0
170 195 0
172 195 0
173 196 0
172 196 0
169 193 0
171 195 0
172 196 0
171 195 0
170 194 0
171 196 0
170 194 0
171 195 0
170 194 0
171 195 0
169 194 0
171 196 0
169 194 0
172 196 0
168 193 0
168 192 0
167 192 0
167 192 0
168 192 0
170 194 0
166 189 0
170 194 0
167 192 0
165 191 0
170 194 0
167 192 0
170 193 0
170 195 0
171 195 0
166 190 0
166 191 0
166 190 0
166 190 0
169 194 0
167 192 0
165 191 0
165 189 0
160 185 0
162 187 0
165 189 0
165 190 0
163 187 0
164 189 0
165 189 0
165 189 0
158 183 0
158 183 0
166 190 0
159 183 0
162 186 0
163 187 0
162 186 0
164 188 0
164 187 0
162 186 0
162 187 0
159 183 0
166 189 0
161 185 0
160 183 0
159 182 0
154 178 0
162 185 0
152 175 0
159 182 0
160 184 0
161 184 0
157 180 0
160 183 0
160 183 0
159 181 0
162 185 0
160 183 0
154 177 0
161 185 0
167 190 0
158 180 0
155 178 0
161 184 0
153 176 0
153 175 0
158 180 0
159 182 0
159 182 0
160 181 0
152 175 0
153 175 0
147 169 0
155 177 0
143 164 0
156 178 0
143 164 0
151 173 0
154 176 0
143 165 0
147 169 0
146 168 0
156 177 0
154 175 0
150 172 0
152 174 0
149 170 0
149 170 0
147 167 0
141 162 0
143 164 0
150 171 0
151 172 0
138 158 0
147 169 0
141 162 0
147 168 0
139 160 0
140 159 0
150 170 0
138 158 0
138 159 0
135 155 0
130 150 0
133 154 0
129 150 0
136 157 0
132 153 0
133 152 0
118 138 0
132 152 0
126 146 0
128 147 0
124 143 0
132 152 0
123 143 0
129 147 0
122 141 0
121 140 0
125 145 0
127 145 0
130 149 0
115 133 0
116 135 0
118 137 0
120 137 0
101 120 0
135 153 0
119 138 0
117 135 0
117 134 0
114 132 0
116 132 0
100 118 0
105 122 0
112 129 0
120 139 0
109 126 0
119 136 0
117 134 0
110 127 0
111 127 0
103 118 0
101 117 0
100 115 0
97 114 0
98 115 0
100 116 0
95 111 0
96 111 0
99 116 0
97 112 0
80 95 0
104 118 0
89 105 0
92 108 0
92 108 0
102 117 0
99 113 0
97 112 0
82 96 0
101 116 0
93 109 0
85 100 0
89 105 0
102 117 0
103 119 0
84 100 0
94 109 0
98 115 0
98 112 0
111 126 0
91 104 0
102 117 0
108 122 0
108 122 0
104 119 0
105 122 0
106 121 0
96 112 0
109 124 0
104 120 0
102 117 0
102 117 0
110 126 0
101 115 0
121 137 0
111 128 0
106 122 0
108 123 0
114 128 0
120 136 0
111 125 0
114 129 0
103 116 0
111 125 0
113 128 0
110 126 0
121 134 0
122 137 0
126 140 0
114 128 0
111 124 0
128 145 0
118 131 0
124 139 0
127 143 0
116 131 0
116 131 0
117 132 0
122 136 0
122 137 0
120 133 0
135 149 0
133 147 0
125 139 0
121 137 0
124 138 0
136 152 0
135 151 0
129 144 0
122 136 0
130 143 0
126 141 0
130 142 0
115 128 0
131 145 0
129 143 0
134 149 0
130 144 0
135 149 0
139 154 0
136 148 0
129 143 0
148 163 0
125 137 0
126 140 0
131 144 0
138 152 0
134 144 0
129 143 0
132 144 0
139 151 0
130 144 0
137 147 0
138 150 0
133 143 0
135 145 0
138 150 0
133 146 0
133 144 0
133 143 0
132 145 0
131 142 0
137 149 0
127 132 0
138 148 0
126 134 0
132 140 0
134 143 0
135 143 0
127 135 0
140 149 0
133 140 0
130 135 0
137 144 0
128 132 0
139 145 0
133 139 0
141 146 0
136 140 0
131 136 0
139 142 0
133 138 0
140 143 0
137 144 0
136 141 0
132 136 0
137 137 0
142 147 0
142 146 0
140 142 0
137 138 0
139 142 0
138 140 0
136 138 0
132 134 0
131 132 0
145 147 0
140 141 0
139 137 0
129 126 0
141 140 0
140 138 0
139 139 0
138 138 0
137 133 0
144 146 0
140 141 0
138 136 0
142 140 0
141 139 0
140 136 0
138 137 0
142 142 0
138 138 0
145 147 0
142 141 0
144 144 0
143 140 0
150 152 0
143 142 0
143 146 0
147 146 0
145 146 0
152 156 0
144 146 0
146 148 0
149 150 0
142 141 0
148 150 0
145 146 0
152 154 0
155 158 0
158 163 0
147 149 0
153 157 0
152 154 0
154 158 0
156 160 0
161 164 0
156 161 0
160 166 0
157 161 0
156 157 0
154 158 0
163 171 0
158 164 0
158 166 0
160 163 0
159 167 0
154 162 0
160 167 0
160 170 0
162 169 0
159 170 0
162 170 0
159 166 0
162 172 0
157 165 0
165 176 0
165 175 0
162 172 0
162 175 0
162 172 0
169 183 0
173 197 0
175 197 0
175 198 0
173 197 0
172 196 0
174 197 0
172 196 0
173 196 0
174 197 0
173 196 0
173 196 0
172 196 0
173 196 0
171 195 0
173 197 0
174 198 0
173 197 0
171 195 0
171 195 0
172 196 0
169 193 0
171 195 0
172 196 0
172 196 0
171 195 0
172 196 0
171 195 0
172 195 0
170 195 0
172 196 0
168 193 0
170 195 0
169 193 0
168 193 0
170 195 0
170 194 0
168 193 0
171 195 0
167 192 0
170 194 0
167 192 0
169 194 0
169 195 0
171 196 0
169 194 0
167 192 0
169 194 0
166 191 0
167 192 0
165 190 0
165 190 0
168 192 0
167 192 0
170 194 0
171 196 0
162 187 0
167 191 0
171 196 0
167 192 0
165 189 0
167 191 0
164 188 0
168 193 0
165 190 0
165 190 0
169 193 0
166 191 0
163 187 0
169 192 0
166 190 0
163 187 0
165 190 0
165 190 0
165 189 0
159 183 0
164 188 0
164 188 0
166 191 0
165 188 0
165 189 0
165 188 0
162 185 0
164 187 0
161 184 0
158 181 0
162 185 0
161 185 0
158 182 0
163 186 0
162 186 0
161 184 0
159 182 0
164 187 0
155 178 0
159 182 0
156 178 0
159 183 0
161 184 0
161 184 0
160 182 0
162 185 0
160 183 0
162 185 0
157 180 0
160 182 0
156 178 0
155 177 0
161 184 0
158 180 0
159 182 0
151 173 0
152 174 0
155 178 0
146 168 0
148 170 0
157 180 0
150 172 0
151 173 0
155 177 0
155 176 0
153 175 0
154 176 0
147 169 0
149 172 0
153 175 0
144 165 0
151 174 0
151 172 0
149 170 0
149 170 0
149 171 0
152 174 0
149 170 0
137 158 0
147 168 0
142 163 0
143 164 0
143 165 0
140 160 0
141 161 0
148 169 0
129 150 0
140 161 0
139 160 0
133 154 0
135 155 0
140 160 0
135 155 0
134 154 0
140 160 0
132 151 0
131 151 0
131 151 0
127 146 0
136 156 0
133 154 0
131 150 0
130 150 0
125 145 0
128 147 0
137 156 0
116 135 0
124 144 0
123 142 0
124 143 0
125 145 0
125 143 0
123 141 0
117 135 0
114 132 0
119 138 0
121 139 0
109 126 0
112 130 0
123 141 0
118 136 0
105 122 0
120 137 0
114 131 0
107 125 0
115 133 0
117 135 0
106 123 0
106 123 0
107 125 0
116 133 0
98 115 0
100 116 0
97 114 0
95 111 0
117 134 0
93 108 0
96 112 0
83 97 0
97 112 0
108 124 0
108 125 0
95 113 0
92 108 0
93 108 0
97 113 0
95 109 0
94 111 0
96 111 0
98 112 0
102 116 0
84 99 0
100 117 0
95 108 0
102 117 0
114 129 0
109 124 0
88 103 0
112 127 0
101 115 0
97 113 0
94 108 0
101 115 0
108 123 0
106 121 0
103 118 0
107 122 0
107 121 0
94 109 0
110 126 0
108 123 0
103 116 0
110 125 0
109 124 0
99 111 0
117 132 0
116 130 0
107 122 0
102 117 0
117 134 0
106 122 0
122 137 0
108 126 0
120 135 0
103 117 0
112 129 0
129 144 0
125 142 0
120 134 0
123 139 0
124 137 0
125 140 0
117 131 0
119 134 0
122 137 0
123 137 0
123 137 0
117 133 0
126 141 0
130 144 0
133 147 0
119 133 0
121 136 0
136 152 0
125 142 0
132 146 0
135 151 0
138 153 0
124 139 0
124 138 0
128 144 0
131 146 0
127 141 0
129 143 0
137 153 0
118 132 0
129 144 0
128 142 0
120 132 0
128 142 0
131 141 0
127 141 0
138 151 0
129 143 0
135 148 0
136 150 0
131 143 0
137 151 0
131 144 0
131 144 0
143 158 0
139 151 0
142 155 0
133 144 0
128 138 0
131 142 0
135 144 0
133 143 0
134 143 0
133 143 0
135 142 0
135 146 0
129 140 0
139 151 0
130 140 0
138 150 0
133 140 0
134 143 0
132 141 0
132 141 0
131 138 0
142 151 0
138 146 0
143 153 0
134 143 0
133 141 0
138 147 0
131 137 0
137 144 0
130 135 0
135 142 0
134 138 0
141 148 0
142 149 0
137 145 0
137 141 0
135 143 0
133 136 0
148 154 0
140 145 0
130 131 0
131 135 0
139 145 0
139 145 0
139 142 0
143 146 0
135 137 0
145 147 0
138 140 0
141 143 0
138 137 0
140 144 0
141 138 0
142 141 0
146 146 0
140 139 0
140 141 0
149 151 0
141 139 0
140 139 0
144 147 0
134 135 0
138 139 0
140 140 0
149 149 0
147 146 0
148 150 0
146 146 0
144 146 0
148 147 0
148 147 0
148 146 0
139 136 0
149 152 0
151 156 0
144 142 0
149 151 0
148 150 0
149 152 0
150 153 0
147 147 0
150 150 0
153 156 0
147 148 0
150 149 0
153 157 0
157 162 0
154 158 0
146 145 0
157 161 0
153 161 0
156 160 0
153 157 0
157 163 0
160 167 0
157 161 0
157 164 0
159 165 0
158 166 0
157 163 0
158 168 0
163 172 0
165 172 0
163 171 0
161 168 0
164 174 0
160 169 0
163 174 0
162 171 0
164 175 0
164 175 0
163 173 0
164 174 0
167 181 0
163 172 0
173 197 0
174 197 0
173 196 0
176 199 0
172 196 0
174 196 0
174 197 0
174 197 0
174 198 0
175 198 0
172 196 0
173 196 0
175 198 0
172 196 0
173 197 0
173 196 0
172 195 0
173 196 0
173 196 0
170 195 0
172 196 0
173 197 0
171 195 0
172 196 0
172 196 0
170 194 0
171 195 0
170 195 0
172 196 0
170 195 0
171 194 0
170 193 0
172 196 0
168 193 0
169 194 0
172 196 0
172 196 0
169 194 0
171 196 0
169 193 0
171 195 0
171 195 0
168 192 0
170 195 0
168 192 0
170 195 0
170 195 0
168 192 0
172 195 0
169 193 0
170 195 0
169 194 0
167 191 0
166 191 0
168 193 0
168 193 0
168 192 0
170 193 0
165 190 0
168 192 0
166 191 0
167 192 0
163 187 0
164 189 0
162 187 0
165 189 0
167 192 0
158 182 0
162 187 0
162 186 0
165 190 0
163 187 0
165 189 0
162 186 0
163 187 0
165 189 0
163 187 0
162 186 0
167 190 0
164 187 0
163 187 0
159 183 0
167 191 0
155 179 0
163 187 0
165 188 0
159 182 0
160 183 0
167 190 0
158 182 0
164 187 0
157 181 0
161 184 0
162 185 0
160 182 0
159 182 0
162 185 0
154 176 0
167 189 0
150 173 0
160 183 0
161 184 0
163 186 0
155 177 0
151 173 0
152 175 0
155 177 0
157 180 0
151 173 0
151 173 0
156 178 0
154 175 0
148 170 0
149 172 0
150 172 0
153 175 0
149 171 0
155 177 0
148 170 0
149 170 0
148 170 0
151 172 0
153 176 0
156 177 0
149 171 0
148 169 0
139 161 0
159 181 0
150 171 0
148 170 0
148 170 0
134 156 0
146 167 0
149 169 0
140 162 0
148 169 0
143 165 0
145 166 0
150 170 0
131 152 0
137 157 0
143 164 0
138 159 0
138 159 0
142 161 0
132 154 0
131 152 0
142 163 0
133 154 0
131 150 0
132 152 0
131 151 0
129 149 0
127 146 0
143 163 0
132 152 0
136 155 0
135 156 0
124 143 0
127 147 0
127 147 0
118 137 0
130 149 0
120 139 0
117 136 0
129 150 0
109 128 0
132 151 0
115 133 0
110 128 0
118 136 0
123 141 0
116 134 0
112 129 0
110 129 0
115 134 0
113 132 0
119 136 0
118 137 0
114 132 0
110 128 0
110 127 0
116 133 0
115 132 0
106 124 0
102 119 0
108 126 0
105 123 0
106 124 0
95 113 0
107 122 0
108 124 0
111 128 0
105 121 0
106 121 0
95 111 0
94 110 0
92 108 0
96 112 0
111 126 0
98 115 0
96 112 0
100 114 0
84 100 0
106 122 0
113 130 0
102 118 0
104 119 0
108 124 0
98 115 0
100 114 0
99 115 0
99 114 0
108 123 0
103 118 0
107 122 0
114 129 0
101 116 0
109 125 0
111 127 0
97 110 0
105 120 0
107 122 0
110 125 0
101 117 0
104 120 0
111 127 0
115 132 0
111 123 0
107 123 0
111 126 0
121 136 0
110 125 0
123 138 0
114 129 0
111 124 0
92 106 0
113 126 0
110 127 0
107 123 0
103 117 0
124 140 0
118 134 0
112 127 0
107 123 0
119 135 0
116 131 0
116 133 0
117 131 0
121 139 0
112 129 0
124 139 0
133 148 0
127 141 0
123 138 0
128 146 0
129 145 0
126 140 0
130 145 0
121 133 0
137 152 0
129 142 0
132 146 0
127 142 0
127 143 0
136 153 0
135 152 0
135 150 0
129 143 0
133 148 0
129 143 0
133 145 0
134 149 0
128 142 0
136 148 0
133 147 0
132 148 0
126 141 0
137 153 0
136 153 0
135 146 0
132 144 0
128 140 0
137 152 0
130 142 0
135 148 0
131 145 0
126 138 0
135 150 0
135 147 0
126 139 0
132 144 0
133 144 0
134 146 0
140 153 0
133 145 0
135 145 0
139 149 0
139 148 0
142 153 0
138 149 0
139 150 0
134 145 0
133 143 0
133 141 0
142 153 0
140 150 0
140 149 0
138 145 0
137 143 0
145 153 0
139 145 0
138 144 0
127 130 0
131 140 0
142 151 0
139 146 0
142 150 0
137 146 0
144 149 0
141 145 0
137 143 0
137 143 0
139 144 0
135 139 0
139 141 0
137 142 0
138 140 0
135 137 0
138 142 0
147 154 0
142 144 0
135 135 0
139 140 0
141 147 0
139 141 0
138 140 0
149 152 0
136 137 0
132 132 0
134 132 0
138 136 0
143 145 0
137 134 0
138 139 0
145 147 0
141 143 0
137 140 0
140 143 0
136 135 0
144 144 0
149 150 0
139 138 0
149 150 0
144 149 0
145 147 0
145 143 0
148 151 0
146 148 0
148 149 0
149 152 0
150 151 0
145 145 0
151 155 0
144 143 0
148 150 0
150 153 0
149 149 0
156 161 0
150 153 0
153 158 0
152 157 0
153 157 0
157 166 0
152 155 0
155 158 0
161 167 0
151 153 0
149 151 0
152 160 0
160 166 0
159 164 0
157 165 0
159 166 0
161 168 0
153 158 0
160 165 0
161 169 0
162 169 0
160 168 0
162 171 0
163 172 0
159 167 0
162 173 0
164 177 0
165 174 0
158 167 0
166 175 0
164 175 0
162 172 0
174 197 0
172 196 0
175 198 0
170 194 0
175 198 0
174 197 0
176 198 0
174 197 0
170 194 0
174 197 0
174 197 0
174 198 0
173 197 0
173 196 0
172 195 0
175 198 0
171 195 0
171 195 0
172 196 0
170 193 0
172 196 0
173 197 0
170 194 0
170 195 0
170 195 0
172 196 0
172 196 0
173 197 0
171 195 0
170 194 0
171 195 0
170 194 0
170 194 0
170 195 0
172 195 0
169 193 0
170 194 0
171 195 0
167 192 0
170 195 0
171 195 0
169 193 0
168 193 0
170 194 0
169 194 0
168 193 0
168 193 0
169 193 0
169 193 0
169 194 0
169 194 0
169 194 0
167 192 0
166 191 0
168 193 0
168 192 0
165 189 0
168 193 0
167 191 0
167 191 0
165 189 0
168 193 0
166 190 0
165 189 0
167 191 0
166 191 0
165 188 0
168 192 0
169 193 0
166 190 0
164 188 0
165 189 0
167 191 0
159 182 0
163 186 0
167 191 0
163 187 0
164 188 0
161 185 0
160 184 0
160 184 0
162 185 0
162 186 0
167 191 0
165 189 0
161 184 0
165 189 0
157 180 0
167 191 0
160 183 0
160 184 0
156 179 0
156 179 0
156 179 0
156 179 0
160 184 0
157 180 0
159 181 0
156 178 0
155 178 0
150 172 0
159 181 0
165 188 0
153 175 0
153 176 0
154 177 0
155 178 0
153 175 0
161 183 0
155 177 0
163 185 0
155 177 0
148 169 0
150 172 0
154 176 0
155 177 0
147 169 0
148 169 0
155 177 0
154 175 0
152 174 0
149 171 0
147 168 0
150 172 0
155 177 0
145 166 0
139 161 0
145 166 0
159 180 0
144 165 0
145 166 0
139 161 0
147 168 0
144 165 0
142 163 0
147 168 0
141 162 0
147 167 0
145 165 0
138 160 0
146 168 0
136 158 0
136 157 0
135 156 0
147 168 0
135 156 0
138 159 0
152 172 0
132 153 0
125 145 0
138 158 0
125 146 0
125 145 0
141 161 0
142 162 0
123 142 0
132 152 0
130 149 0
123 144 0
136 155 0
135 155 0
118 137 0
120 141 0
124 144 0
116 133 0
122 140 0
121 140 0
127 146 0
128 147 0
117 137 0
119 137 0
118 136 0
98 116 0
118 135 0
110 129 0
114 133 0
118 137 0
118 136 0
112 130 0
108 125 0
101 119 0
119 137 0
97 112 0
109 128 0
114 131 0
104 121 0
116 134 0
94 110 0
112 129 0
104 121 0
113 130 0
100 117 0
101 118 0
112 128 0
102 119 0
114 130 0
101 117 0
123 139 0
104 121 0
104 120 0
98 113 0
114 131 0
107 123 0
107 122 0
97 112 0
112 128 0
108 125 0
108 124 0
106 121 0
103 119 0
107 121 0
96 112 0
102 118 0
110 125 0
105 120 0
104 118 0
118 135 0
111 127 0
111 129 0
106 123 0
109 125 0
99 115 0
97 112 0
112 129 0
110 127 0
105 121 0
113 129 0
122 138 0
110 128 0
111 126 0
114 130 0
105 119 0
111 127 0
116 132 0
110 127 0
113 127 0
116 131 0
118 133 0
128 144 0
100 115 0
130 147 0
139 155 0
116 131 0
115 130 0
133 147 0
112 127 0
124 140 0
118 133 0
132 144 0
125 141 0
122 137 0
120 137 0
133 148 0
120 135 0
126 140 0
125 144 0
117 131 0
120 135 0
139 155 0
119 133 0
120 133 0
126 141 0
125 139 0
124 139 0
134 151 0
131 148 0
135 151 0
136 153 0
129 145 0
123 137 0
131 145 0
129 143 0
133 149 0
132 144 0
133 148 0
129 144 0
138 152 0
127 140 0
132 144 0
128 140 0
141 154 0
131 142 0
138 152 0
131 144 0
132 145 0
140 155 0
126 137 0
133 144 0
135 147 0
128 142 0
135 148 0
127 140 0
132 143 0
135 149 0
136 147 0
138 146 0
138 149 0
136 149 0
134 146 0
136 147 0
130 140 0
143 155 0
130 141 0
136 148 0
136 145 0
137 146 0
138 148 0
136 147 0
143 152 0
135 146 0
140 149 0
142 148 0
142 153 0
145 153 0
145 153 0
138 146 0
142 151 0
137 143 0
143 151 0
130 138 0
135 140 0
134 140 0
145 152 0
140 147 0
135 141 0
134 139 0
140 145 0
136 142 0
137 139 0
150 154 0
135 136 0
142 150 0
144 150 0
137 139 0
140 141 0
144 145 0
145 149 0
146 148 0
141 146 0
144 147 0
139 139 0
134 136 0
148 150 0
145 147 0
147 152 0
140 139 0
136 135 0
146 147 0
143 145 0
142 145 0
139 137 0
150 151 0
151 154 0
142 142 0
141 142 0
149 151 0
150 154 0
146 149 0
145 146 0
144 146 0
154 157 0
149 153 0
153 156 0
151 154 0
144 148 0
152 155 0
150 150 0
153 159 0
147 152 0
154 158 0
155 159 0
150 152 0
154 160 0
152 155 0
153 156 0
152 154 0
155 160 0
160 166 0
155 159 0
156 163 0
154 158 0
156 161 0
156 162 0
155 158 0
155 165 0
154 161 0
158 164 0
158 161 0
163 173 0
163 169 0
164 175 0
160 169 0
159 165 0
164 176 0
160 170 0
163 171 0
160 167 0
162 171 0
160 170 0
160 170 0
173 196 0
172 196 0
171 196 0
173 196 0
173 197 0
171 194 0
173 196 0
174 197 0
174 198 0
170 194 0
172 197 0
173 196 0
172 196 0
172 195 0
173 197 0
173 197 0
173 196 0
171 194 0
172 196 0
173 196 0
172 196 0
171 195 0
169 193 0
170 194 0
169 193 0
172 196 0
170 194 0
168 192 0
168 192 0
171 196 0
167 191 0
168 193 0
172 195 0
169 194 0
170 194 0
168 192 0
169 193 0
171 196 0
171 195 0
170 195 0
169 193 0
170 194 0
169 194 0
167 191 0
169 193 0
166 190 0
169 193 0
166 190 0
168 192 0
166 191 0
168 192 0
167 192 0
166 191 0
168 193 0
166 191 0
169 193 0
169 192 0
167 190 0
169 192 0
167 191 0
167 191 0
166 190 0
168 192 0
165 189 0
167 192 0
168 192 0
165 189 0
164 187 0
164 189 0
163 187 0
164 188 0
162 186 0
163 187 0
160 185 0
165 188 0
165 189 0
161 185 0
161 185 0
164 188 0
168 190 0
161 184 0
158 182 0
168 191 0
164 188 0
158 181 0
164 187 0
160 183 0
159 181 0
164 188 0
161 184 0
160 183 0
160 183 0
156 179 0
155 178 0
159 181 0
157 180 0
154 177 0
156 179 0
160 183 0
158 180 0
160 182 0
165 187 0
161 183 0
150 173 0
150 173 0
156 178 0
154 176 0
160 183 0
162 185 0
151 172 0
151 173 0
155 177 0
160 182 0
159 181 0
151 173 0
152 174 0
154 176 0
154 176 0
155 177 0
152 174 0
158 180 0
157 178 0
155 177 0
152 175 0
147 169 0
159 181 0
146 168 0
147 168 0
151 173 0
146 167 0
152 173 0
153 174 0
143 164 0
145 166 0
143 164 0
139 159 0
141 161 0
145 166 0
152 173 0
135 154 0
140 162 0
140 160 0
131 151 0
130 150 0
145 166 0
138 158 0
143 164 0
139 158 0
134 154 0
137 157 0
131 151 0
129 148 0
136 157 0
125 145 0
132 152 0
121 140 0
137 156 0
129 149 0
121 142 0
135 155 0
138 158 0
127 147 0
131 151 0
117 137 0
118 136 0
124 143 0
123 142 0
122 140 0
121 139 0
117 136 0
130 149 0
115 134 0
127 145 0
118 137 0
109 127 0
118 135 0
125 142 0
119 138 0
111 129 0
116 134 0
117 135 0
115 132 0
112 129 0
113 130 0
107 125 0
111 128 0
108 126 0
106 122 0
105 123 0
102 120 0
115 132 0
103 120 0
118 135 0
107 124 0
107 122 0
100 117 0
115 131 0
106 122 0
97 113 0
116 132 0
106 124 0
105 121 0
99 115 0
114 132 0
106 122 0
113 130 0
105 120 0
107 125 0
102 117 0
118 135 0
104 122 0
114 131 0
105 121 0
104 121 0
116 131 0
112 127 0
115 131 0
105 119 0
107 122 0
111 126 0
110 125 0
105 121 0
113 129 0
112 128 0
103 121 0
108 125 0
104 119 0
116 131 0
104 121 0
111 127 0
105 120 0
130 145 0
121 136 0
121 136 0
120 136 0
124 138 0
114 131 0
120 136 0
101 115 0
124 140 0
127 145 0
111 127 0
107 122 0
124 139 0
115 132 0
121 137 0
129 144 0
124 138 0
121 135 0
124 142 0
133 148 0
131 146 0
123 138 0
120 136 0
124 140 0
130 147 0
134 150 0
127 141 0
130 146 0
119 135 0
121 134 0
130 145 0
131 146 0
128 143 0
127 142 0
129 146 0
135 151 0
119 134 0
135 151 0
138 154 0
127 143 0
132 145 0
136 152 0
134 148 0
136 151 0
134 149 0
138 153 0
140 154 0
130 143 0
134 149 0
135 150 0
136 150 0
129 143 0
136 150 0
143 158 0
139 154 0
134 148 0
135 149 0
140 154 0
126 137 0
133 147 0
137 148 0
137 148 0
128 139 0
136 148 0
132 145 0
140 150 0
128 142 0
140 149 0
139 153 0
135 148 0
142 154 0
131 144 0
140 151 0
147 154 0
133 145 0
138 150 0
134 144 0
138 148 0
139 149 0
131 138 0
138 147 0
140 148 0
136 144 0
138 145 0
146 155 0
132 139 0
135 142 0
146 152 0
137 145 0
144 153 0
132 138 0
147 157 0
146 153 0
147 156 0
148 155 0
141 144 0
140 144 0
139 144 0
140 146 0
142 148 0
145 152 0
145 148 0
146 152 0
147 154 0
134 135 0
142 147 0
143 149 0
146 149 0
148 151 0
146 152 0
142 146 0
149 153 0
143 145 0
146 152 0
144 146 0
139 139 0
146 150 0
147 152 0
141 144 0
151 155 0
147 152 0
143 147 0
146 148 0
144 147 0
148 149 0
147 147 0
148 149 0
148 152 0
155 158 0
148 151 0
143 141 0
150 151 0
149 153 0
148 150 0
152 155 0
154 156 0
148 151 0
150 151 0
145 148 0
153 158 0
150 152 0
156 160 0
153 159 0
156 160 0
156 160 0
153 159 0
159 166 0
154 161 0
155 159 0
157 162 0
155 160 0
159 166 0
155 160 0
158 164 0
152 156 0
158 166 0
154 158 0
160 167 0
160 166 0
162 172 0
163 174 0
159 166 0
161 173 0
159 169 0
158 165 0
161 170 0
167 180 0
160 169 0
163 171 0
172 195 0
174 196 0
172 196 0
173 197 0
171 195 0
173 196 0
174 197 0
172 196 0
172 196 0
173 196 0
173 197 0
171 195 0
172 195 0
170 194 0
171 195 0
172 195 0
173 197 0
172 196 0
173 197 0
172 196 0
171 195 0
168 193 0
171 195 0
170 194 0
168 192 0
172 196 0
170 194 0
171 196 0
169 194 0
170 194 0
169 194 0
171 195 0
171 195 0
169 193 0
168 192 0
170 194 0
171 195 0
165 190 0
170 195 0
169 193 0
168 192 0
170 194 0
171 195 0
168 192 0
169 194 0
165 189 0
168 192 0
167 191 0
170 194 0
168 192 0
168 193 0
171 195 0
170 195 0
168 192 0
169 194 0
167 191 0
167 191 0
167 191 0
170 194 0
161 185 0
168 192 0
165 189 0
162 186 0
166 191 0
165 189 0
164 188 0
163 188 0
163 188 0
167 191 0
166 189 0
160 184 0
164 187 0
159 182 0
160 184 0
164 187 0
161 185 0
164 188 0
161 185 0
163 187 0
160 184 0
164 187 0
156 179 0
155 178 0
159 183 0
164 188 0
163 186 0
160 183 0
168 191 0
156 179 0
163 186 0
158 180 0
163 186 0
158 181 0
162 184 0
166 189 0
158 181 0
165 188 0
156 179 0
154 177 0
156 178 0
157 180 0
162 185 0
157 179 0
160 182 0
157 179 0
154 176 0
154 177 0
151 174 0
152 174 0
161 183 0
159 181 0
151 173 0
155 178 0
158 180 0
151 173 0
151 172 0
151 173 0
155 178 0
150 172 0
143 164 0
145 166 0
155 177 0
154 176 0
156 177 0
148 170 0
151 173 0
150 171 0
144 165 0
152 173 0
148 170 0
146 169 0
151 172 0
157 178 0
145 167 0
136 157 0
145 166 0
154 175 0
140 161 0
148 169 0
140 161 0
141 162 0
140 161 0
143 164 0
137 158 0
147 167 0
134 155 0
138 159 0
138 158 0
137 157 0
144 164 0
138 159 0
134 154 0
124 145 0
123 143 0
128 148 0
129 149 0
139 158 0
128 146 0
137 157 0
129 149 0
139 159 0
134 154 0
125 144 0
130 150 0
124 143 0
122 142 0
120 139 0
120 139 0
121 140 0
127 146 0
137 156 0
127 146 0
127 145 0
133 152 0
114 132 0
116 134 0
119 137 0
109 126 0
104 122 0
106 124 0
117 134 0
106 123 0
131 149 0
123 139 0
107 125 0
114 133 0
115 133 0
126 144 0
112 130 0
87 104 0
96 112 0
105 122 0
96 112 0
106 122 0
123 141 0
113 129 0
107 122 0
105 123 0
113 130 0
110 126 0
94 112 0
107 124 0
115 133 0
122 139 0
117 134 0
120 136 0
104 121 0
111 126 0
99 115 0
113 129 0
106 123 0
117 133 0
107 124 0
97 113 0
122 140 0
115 132 0
104 121 0
100 117 0
117 133 0
112 128 0
113 130 0
105 122 0
105 119 0
112 130 0
109 126 0
114 128 0
114 128 0
122 139 0
110 126 0
114 129 0
118 134 0
112 129 0
123 142 0
112 126 0
114 130 0
116 132 0
125 143 0
112 128 0
119 135 0
114 130 0
116 132 0
113 130 0
128 147 0
122 140 0
126 141 0
128 145 0
114 130 0
120 135 0
120 135 0
125 139 0
119 135 0
128 144 0
119 137 0
132 149 0
119 136 0
126 142 0
125 141 0
120 136 0
124 137 0
125 139 0
132 150 0
131 147 0
137 154 0
123 138 0
139 152 0
126 141 0
130 145 0
124 139 0
139 155 0
117 132 0
126 140 0
129 141 0
133 147 0
137 150 0
135 148 0
125 136 0
131 146 0
136 150 0
136 149 0
136 150 0
133 148 0
132 146 0
130 144 0
131 145 0
141 154 0
135 147 0
127 140 0
131 142 0
140 153 0
141 155 0
126 138 0
128 141 0
141 154 0
138 151 0
135 148 0
139 153 0
133 147 0
145 157 0
136 149 0
132 143 0
132 143 0
136 147 0
127 136 0
137 146 0
140 150 0
134 144 0
139 146 0
141 151 0
136 149 0
141 152 0
142 153 0
143 154 0
133 143 0
141 150 0
137 145 0
138 145 0
142 151 0
145 150 0
141 149 0
139 146 0
140 148 0
145 155 0
137 143 0
139 144 0
141 148 0
150 160 0
142 148 0
140 146 0
136 140 0
139 144 0
139 145 0
142 145 0
143 150 0
141 144 0
142 148 0
145 150 0
145 147 0
144 150 0
144 147 0
144 148 0
141 142 0
145 151 0
152 158 0
148 151 0
147 150 0
151 154 0
147 148 0
138 137 0
148 150 0
152 154 0
151 153 0
145 152 0
149 151 0
143 146 0
147 151 0
149 152 0
145 144 0
148 150 0
145 145 0
147 150 0
150 156 0
150 156 0
154 157 0
147 147 0
147 151 0
145 147 0
154 160 0
149 153 0
149 150 0
153 157 0
153 158 0
156 160 0
154 159 0
154 161 0
157 165 0
151 154 0
155 162 0
156 158 0
152 157 0
154 159 0
152 155 0
154 161 0
155 162 0
154 160 0
163 170 0
157 163 0
159 164 0
159 165 0
161 168 0
159 165 0
159 165 0
161 173 0
160 165 0
166 177 0
162 170 0
158 163 0
162 173 0
160 168 0
162 172 0
156 161 0
174 197 0
174 197 0
173 197 0
174 197 0
171 195 0
173 197 0
172 195 0
172 196 0
173 196 0
175 198 0
172 196 0
172 196 0
170 194 0
173 197 0
172 196 0
173 196 0
173 196 0
175 198 0
172 196 0
173 196 0
172 195 0
173 197 0
169 192 0
173 197 0
169 193 0
172 196 0
170 193 0
170 193 0
171 195 0
172 196 0
171 195 0
171 195 0
169 194 0
169 194 0
172 196 0
167 191 0
172 196 0
170 194 0
168 192 0
169 193 0
166 190 0
167 190 0
167 192 0
167 191 0
171 195 0
168 193 0
167 191 0
168 192 0
169 192 0
165 188 0
167 193 0
171 195 0
164 188 0
163 187 0
169 193 0
166 189 0
167 191 0
170 193 0
163 188 0
166 190 0
168 192 0
164 188 0
165 189 0
167 191 0
166 189 0
166 189 0
165 189 0
162 185 0
162 185 0
163 186 0
167 191 0
161 185 0
165 188 0
160 183 0
164 187 0
161 184 0
159 182 0
160 183 0
164 187 0
165 188 0
163 186 0
162 185 0
157 181 0
157 180 0
161 184 0
168 191 0
163 187 0
159 183 0
162 185 0
162 185 0
157 180 0
164 186 0
155 178 0
161 184 0
157 180 0
160 183 0
161 184 0
163 185 0
158 181 0
149 172 0
151 174 0
164 187 0
159 182 0
154 177 0
154 177 0
154 177 0
164 187 0
155 178 0
161 184 0
150 172 0
160 182 0
157 179 0
148 169 0
150 173 0
142 164 0
148 171 0
143 166 0
145 167 0
147 168 0
153 175 0
150 172 0
153 175 0
149 171 0
154 175 0
154 175 0
147 169 0
154 176 0
144 165 0
149 170 0
150 172 0
146 166 0
137 158 0
146 167 0
146 167 0
139 160 0
143 163 0
140 161 0
146 167 0
139 159 0
137 158 0
144 166 0
140 161 0
138 159 0
149 169 0
137 158 0
145 165 0
151 171 0
139 160 0
140 160 0
127 146 0
133 153 0
136 157 0
145 166 0
138 159 0
140 160 0
130 150 0
130 151 0
130 150 0
138 158 0
125 144 0
135 155 0
127 146 0
131 151 0
127 147 0
126 146 0
126 146 0
131 151 0
131 150 0
128 147 0
121 140 0
119 137 0
123 142 0
124 142 0
118 137 0
131 149 0
128 147 0
116 133 0
119 137 0
126 145 0
118 136 0
113 131 0
114 133 0
120 138 0
104 122 0
119 137 0
117 135 0
113 131 0
111 130 0
109 126 0
117 135 0
111 128 0
106 122 0
105 123 0
114 132 0
106 125 0
115 132 0
105 122 0
106 123 0
111 128 0
111 129 0
96 113 0
117 135 0
114 132 0
107 124 0
112 128 0
116 134 0
109 125 0
108 124 0
112 128 0
112 127 0
109 124 0
114 130 0
112 129 0
111 129 0
102 119 0
114 131 0
111 126 0
114 129 0
116 132 0
106 124 0
108 126 0
106 123 0
114 131 0
115 132 0
108 124 0
119 137 0
105 121 0
122 139 0
125 141 0
118 134 0
118 136 0
121 138 0
126 143 0
119 135 0
120 135 0
130 147 0
124 141 0
113 130 0
108 123 0
125 141 0
122 139 0
124 142 0
129 145 0
121 137 0
115 131 0
137 154 0
114 128 0
126 143 0
128 144 0
123 136 0
127 143 0
120 137 0
115 131 0
135 150 0
130 146 0
135 151 0
124 138 0
124 139 0
118 133 0
124 140 0
129 143 0
132 149 0
130 146 0
133 149 0
130 144 0
134 150 0
127 143 0
124 139 0
129 143 0
131 147 0
134 151 0
136 152 0
132 145 0
132 147 0
141 157 0
127 143 0
138 152 0
127 140 0
130 145 0
131 146 0
142 155 0
136 149 0
121 135 0
140 155 0
130 145 0
131 148 0
138 151 0
132 146 0
128 138 0
136 148 0
136 150 0
144 158 0
134 146 0
143 154 0
133 146 0
137 149 0
138 150 0
137 150 0
133 147 0
149 162 0
142 155 0
147 160 0
133 143 0
134 147 0
147 158 0
140 150 0
141 152 0
142 152 0
135 146 0
132 141 0
135 146 0
146 155 0
136 146 0
139 150 0
143 149 0
142 154 0
138 147 0
138 147 0
144 154 0
140 147 0
142 146 0
139 142 0
139 144 0
140 145 0
146 156 0
137 147 0
143 148 0
135 141 0
145 154 0
147 152 0
147 154 0
148 155 0
145 152 0
136 143 0
142 150 0
146 151 0
149 156 0
145 151 0
144 151 0
148 154 0
144 149 0
151 158 0
150 155 0
152 160 0
148 154 0
149 155 0
149 152 0
148 155 0
140 145 0
143 149 0
146 153 0
151 155 0
147 149 0
150 154 0
151 155 0
148 152 0
148 150 0
146 148 0
150 154 0
146 149 0
146 149 0
144 148 0
148 150 0
157 162 0
148 150 0
151 154 0
153 157 0
151 156 0
155 161 0
152 154 0
153 159 0
150 152 0
156 163 0
151 153 0
153 155 0
153 157 0
155 158 0
151 156 0
155 162 0
154 159 0
155 161 0
158 163 0
155 163 0
152 155 0
157 164 0
158 168 0
162 170 0
158 165 0
159 166 0
156 162 0
159 164 0
156 164 0
159 166 0
163 172 0
159 167 0
161 171 0
161 170 0
155 158 0
163 173 0
163 174 0
174 197 0
172 196 0
172 195 0
173 197 0
174 197 0
171 195 0
171 195 0
173 196 0
173 197 0
172 196 0
173 197 0
173 197 0
173 197 0
171 195 0
173 196 0
170 193 0
171 195 0
172 196 0
170 194 0
173 197 0
171 195 0
171 195 0
170 194 0
171 195 0
171 195 0
171 195 0
172 196 0
169 193 0
172 195 0
172 196 0
168 192 0
168 193 0
168 193 0
169 192 0
168 192 0
169 194 0
171 195 0
167 191 0
170 195 0
168 191 0
171 194 0
167 191 0
171 195 0
168 192 0
171 195 0
166 190 0
167 190 0
170 195 0
166 190 0
170 194 0
168 192 0
169 193 0
170 194 0
165 189 0
166 190 0
167 191 0
165 188 0
166 190 0
165 189 0
167 192 0
166 190 0
165 188 0
160 184 0
166 190 0
162 186 0
162 185 0
166 189 0
165 189 0
164 188 0
167 190 0
163 186 0
161 184 0
168 191 0
166 189 0
163 187 0
157 180 0
164 187 0
162 184 0
156 179 0
162 186 0
155 178 0
167 190 0
159 181 0
161 184 0
160 183 0
165 187 0
159 182 0
159 182 0
162 184 0
158 181 0
157 179 0
159 183 0
158 181 0
156 179 0
162 185 0
160 183 0
161 184 0
163 185 0
154 177 0
160 182 0
162 184 0
153 175 0
158 180 0
157 180 0
162 185 0
155 177 0
157 179 0
156 178 0
158 181 0
149 171 0
155 177 0
154 176 0
156 178 0
153 175 0
148 171 0
162 184 0
158 180 0
148 169 0
145 166 0
155 177 0
155 177 0
156 178 0
154 176 0
146 168 0
152 174 0
146 168 0
142 163 0
142 164 0
147 169 0
139 160 0
149 169 0
143 165 0
135 156 0
153 175 0
145 167 0
142 163 0
145 166 0
146 168 0
141 162 0
136 157 0
143 163 0
143 163 0
145 166 0
146 167 0
145 166 0
127 147 0
135 155 0
130 151 0
137 158 0
134 153 0
131 151 0
130 151 0
137 158 0
133 153 0
133 153 0
135 155 0
124 144 0
125 145 0
137 157 0
137 158 0
131 151 0
126 146 0
135 155 0
130 150 0
128 148 0
124 143 0
110 129 0
117 137 0
127 147 0
130 149 0
124 143 0
122 141 0
119 138 0
113 131 0
129 148 0
116 135 0
114 132 0
121 140 0
117 136 0
105 123 0
117 136 0
116 133 0
122 140 0
128 146 0
126 145 0
113 131 0
124 141 0
125 143 0
119 138 0
108 127 0
108 125 0
108 125 0
109 127 0
109 127 0
109 125 0
117 136 0
121 139 0
109 126 0
108 124 0
119 136 0
113 129 0
108 126 0
115 132 0
106 124 0
101 116 0
105 122 0
119 137 0
113 128 0
124 141 0
120 139 0
122 139 0
113 131 0
121 137 0
106 123 0
117 135 0
116 134 0
108 125 0
111 127 0
117 134 0
125 141 0
114 129 0
114 133 0
108 126 0
115 133 0
119 135 0
115 132 0
115 131 0
110 126 0
116 132 0
125 140 0
128 144 0
121 139 0
116 133 0
125 142 0
127 143 0
127 143 0
118 134 0
120 138 0
118 135 0
123 140 0
121 137 0
125 142 0
122 140 0
124 141 0
126 142 0
134 150 0
115 131 0
118 134 0
127 144 0
130 146 0
124 139 0
128 143 0
127 146 0
134 153 0
128 144 0
129 145 0
127 146 0
135 151 0
129 145 0
129 146 0
135 152 0
128 145 0
126 143 0
129 141 0
129 145 0
125 142 0
129 144 0
133 148 0
132 146 0
137 154 0
136 153 0
138 155 0
132 150 0
133 148 0
137 151 0
126 141 0
145 162 0
139 155 0
138 151 0
134 147 0
138 154 0
132 148 0
140 158 0
129 142 0
141 156 0
133 146 0
138 151 0
129 144 0
140 155 0
136 149 0
143 158 0
149 163 0
144 160 0
130 145 0
137 150 0
140 155 0
129 141 0
147 162 0
144 157 0
141 151 0
139 152 0
139 151 0
143 156 0
135 146 0
151 162 0
144 158 0
138 150 0
138 153 0
135 146 0
137 149 0
145 158 0
132 142 0
136 147 0
142 152 0
143 152 0
139 149 0
147 158 0
135 145 0
140 150 0
141 151 0
141 153 0
146 155 0
137 144 0
140 148 0
141 150 0
151 160 0
145 154 0
140 148 0
140 147 0
141 147 0
141 145 0
144 152 0
144 152 0
138 144 0
144 152 0
141 145 0
148 154 0
147 153 0
147 154 0
147 152 0
148 152 0
139 145 0
139 144 0
138 140 0
143 149 0
149 155 0
148 152 0
145 151 0
148 152 0
150 155 0
150 153 0
145 149 0
144 146 0
146 152 0
154 159 0
149 155 0
149 155 0
146 148 0
151 157 0
154 160 0
144 146 0
148 154 0
149 153 0
150 152 0
149 152 0
149 153 0
150 154 0
150 155 0
150 156 0
150 153 0
150 153 0
152 157 0
153 159 0
153 157 0
152 154 0
156 163 0
150 152 0
155 160 0
155 158 0
156 159 0
152 158 0
156 161 0
153 160 0
155 160 0
161 167 0
157 164 0
160 169 0
160 170 0
160 168 0
156 159 0
160 169 0
157 161 0
158 166 0
162 171 0
157 164 0
163 174 0
161 170 0
165 176 0
158 167 0
158 166 0
172 195 0
173 197 0
171 195 0
171 195 0
173 196 0
172 196 0
172 196 0
173 196 0
173 197 0
174 197 0
174 197 0
173 196 0
172 195 0
173 196 0
170 194 0
174 197 0
168 192 0
170 193 0
171 195 0
170 194 0
172 195 0
171 195 0
171 195 0
171 194 0
171 194 0
170 193 0
170 195 0
169 193 0
172 195 0
168 193 0
173 196 0
171 195 0
169 193 0
169 193 0
167 191 0
168 192 0
168 192 0
169 193 0
169 193 0
166 190 0
168 192 0
167 192 0
170 194 0
172 196 0
167 191 0
167 191 0
170 194 0
166 191 0
163 187 0
168 192 0
168 192 0
166 190 0
167 192 0
161 185 0
167 190 0
167 191 0
166 189 0
168 192 0
167 190 0
165 188 0
163 187 0
167 190 0
166 190 0
168 192 0
166 189 0
163 187 0
163 187 0
166 189 0
170 192 0
167 190 0
157 181 0
163 187 0
163 187 0
166 189 0
164 187 0
163 187 0
161 184 0
163 187 0
159 182 0
159 181 0
160 183 0
164 187 0
163 186 0
161 184 0
164 187 0
159 182 0
159 181 0
168 191 0
167 190 0
159 183 0
160 182 0
166 188 0
153 176 0
158 181 0
159 181 0
158 181 0
153 176 0
157 180 0
155 178 0
147 170 0
159 181 0
159 182 0
154 176 0
154 176 0
156 178 0
155 178 0
151 173 0
153 176 0
145 167 0
160 182 0
158 180 0
148 170 0
149 171 0
151 173 0
145 166 0
154 176 0
154 176 0
152 173 0
152 173 0
148 170 0
141 162 0
152 174 0
151 173 0
158 180 0
148 169 0
157 178 0
144 166 0
149 171 0
146 167 0
156 177 0
143 165 0
145 167 0
149 170 0
142 164 0
150 171 0
144 165 0
143 165 0
139 160 0
143 163 0
137 158 0
144 165 0
133 154 0
146 167 0
141 162 0
143 164 0
138 160 0
143 163 0
145 165 0
145 165 0
122 143 0
136 157 0
138 159 0
139 160 0
136 157 0
139 158 0
123 144 0
134 154 0
134 154 0
135 156 0
129 149 0
134 154 0
125 145 0
132 151 0
131 151 0
129 150 0
139 158 0
129 148 0
132 153 0
129 148 0
134 153 0
109 127 0
125 144 0
120 139 0
128 148 0
131 149 0
121 140 0
125 144 0
120 138 0
122 139 0
123 142 0
121 140 0
121 140 0
106 124 0
120 140 0
118 135 0
117 136 0
123 142 0
119 138 0
122 140 0
122 140 0
123 141 0
112 129 0
98 116 0
120 137 0
121 140 0
123 140 0
119 136 0
121 137 0
126 144 0
125 143 0
113 131 0
125 143 0
108 123 0
116 133 0
112 130 0
102 118 0
119 137 0
122 140 0
111 129 0
112 129 0
114 131 0
120 136 0
110 125 0
121 139 0
112 131 0
121 138 0
116 135 0
132 149 0
121 138 0
112 129 0
116 132 0
122 138 0
121 139 0
106 122 0
112 129 0
116 131 0
130 148 0
121 136 0
121 138 0
120 136 0
120 137 0
127 142 0
121 137 0
108 123 0
115 132 0
119 135 0
122 139 0
118 134 0
134 150 0
114 131 0
124 142 0
116 133 0
131 149 0
125 141 0
131 148 0
117 133 0
131 149 0
123 139 0
120 136 0
125 142 0
121 140 0
121 137 0
127 145 0
125 141 0
134 149 0
125 140 0
122 138 0
128 144 0
128 147 0
130 146 0
138 155 0
137 153 0
140 155 0
132 149 0
126 143 0
125 141 0
135 150 0
133 151 0
133 149 0
123 137 0
135 152 0
132 149 0
140 155 0
146 163 0
129 144 0
139 155 0
130 145 0
136 154 0
135 150 0
130 146 0
124 137 0
134 150 0
135 150 0
139 153 0
135 150 0
131 144 0
141 155 0
138 150 0
131 144 0
143 157 0
138 153 0
130 146 0
139 155 0
136 149 0
138 153 0
136 148 0
134 148 0
147 161 0
133 144 0
143 158 0
132 147 0
130 143 0
137 152 0
136 148 0
137 147 0
133 146 0
139 153 0
140 152 0
139 151 0
145 159 0
137 149 0
141 153 0
135 147 0
147 160 0
142 153 0
141 151 0
133 141 0
143 154 0
139 148 0
151 163 0
147 156 0
140 148 0
143 152 0
144 155 0
142 150 0
142 153 0
136 145 0
147 157 0
149 157 0
143 153 0
140 148 0
136 141 0
144 154 0
149 156 0
146 155 0
142 152 0
143 147 0
148 155 0
146 153 0
144 150 0
144 149 0
145 152 0
146 151 0
147 153 0
141 146 0
152 160 0
148 157 0
150 160 0
142 144 0
146 149 0
143 148 0
153 160 0
143 147 0
145 148 0
141 145 0
145 149 0
152 158 0
148 155 0
149 155 0
151 156 0
153 158 0
147 152 0
152 158 0
148 153 0
155 162 0
157 164 0
154 159 0
150 154 0
154 159 0
149 156 0
154 157 0
155 160 0
151 154 0
155 161 0
153 160 0
149 152 0
157 164 0
153 159 0
157 162 0
159 165 0
157 162 0
153 157 0
157 165 0
156 163 0
153 158 0
150 156 0
159 163 0
155 160 0
158 164 0
158 165 0
160 167 0
157 162 0
159 167 0
158 166 0
161 168 0
160 165 0
165 174 0
160 170 0
161 170 0
159 169 0
174 197 0
174 198 0
173 197 0
170 194 0
174 197 0
173 197 0
171 196 0
174 198 0
170 194 0
172 196 0
174 197 0
170 195 0
171 194 0
174 197 0
172 196 0
168 192 0
171 195 0
171 195 0
170 193 0
172 196 0
172 195 0
173 197 0
172 196 0
172 195 0
170 194 0
170 194 0
172 195 0
170 193 0
171 195 0
170 194 0
170 194 0
169 193 0
169 193 0
171 194 0
172 196 0
169 193 0
169 193 0
169 192 0
170 194 0
168 192 0
171 195 0
169 193 0
171 195 0
170 194 0
167 191 0
170 193 0
172 196 0
167 190 0
166 190 0
168 192 0
164 188 0
165 190 0
168 191 0
168 191 0
168 191 0
168 192 0
166 190 0
164 188 0
165 189 0
165 189 0
166 189 0
160 184 0
164 187 0
165 189 0
168 191 0
165 189 0
162 185 0
165 188 0
159 182 0
161 184 0
167 190 0
163 186 0
158 182 0
165 188 0
162 185 0
163 187 0
160 182 0
166 189 0
166 189 0
156 179 0
160 183 0
155 179 0
162 184 0
157 179 0
156 180 0
161 185 0
164 186 0
156 180 0
164 186 0
158 181 0
156 179 0
162 184 0
152 175 0
154 177 0
159 182 0
163 186 0
158 181 0
154 176 0
161 183 0
154 176 0
160 183 0
156 178 0
153 176 0
164 185 0
155 178 0
160 183 0
154 176 0
152 174 0
158 180 0
154 176 0
154 177 0
160 181 0
153 175 0
149 171 0
147 168 0
156 178 0
152 174 0
145 167 0
146 167 0
154 176 0
145 168 0
146 168 0
145 167 0
143 165 0
156 178 0
149 170 0
145 166 0
157 179 0
153 175 0
150 172 0
153 175 0
137 158 0
149 170 0
141 162 0
141 162 0
146 168 0
132 153 0
143 164 0
145 166 0
133 153 0
141 162 0
143 164 0
143 164 0
150 172 0
141 161 0
130 151 0
130 151 0
134 154 0
128 149 0
132 153 0
140 161 0
139 160 0
132 151 0
136 157 0
137 157 0
136 156 0
133 153 0
141 162 0
129 149 0
128 147 0
129 149 0
135 156 0
128 147 0
135 155 0
132 152 0
117 137 0
124 145 0
127 147 0
120 140 0
122 141 0
122 141 0
127 147 0
130 150 0
125 144 0
120 140 0
119 138 0
138 157 0
121 140 0
124 144 0
115 135 0
121 140 0
116 134 0
134 154 0
119 137 0
122 141 0
114 131 0
117 135 0
112 131 0
111 129 0
129 148 0
124 144 0
118 135 0
115 132 0
120 140 0
118 137 0
126 145 0
117 134 0
111 126 0
110 127 0
119 137 0
119 136 0
122 140 0
131 149 0
120 139 0
110 128 0
126 144 0
113 131 0
115 133 0
117 137 0
113 130 0
125 141 0
115 131 0
118 135 0
117 135 0
119 137 0
113 128 0
123 141 0
113 130 0
113 132 0
111 127 0
123 139 0
124 140 0
113 130 0
126 145 0
114 131 0
110 127 0
116 133 0
115 132 0
117 132 0
119 136 0
103 119 0
121 139 0
121 137 0
120 139 0
117 135 0
130 146 0
126 142 0
114 132 0
125 140 0
125 144 0
125 141 0
122 139 0
119 137 0
115 132 0
118 132 0
126 143 0
125 142 0
125 143 0
128 144 0
125 142 0
118 134 0
118 135 0
121 137 0
131 147 0
129 147 0
123 141 0
127 142 0
129 147 0
125 141 0
126 143 0
131 148 0
136 152 0
132 147 0
133 150 0
139 155 0
137 152 0
134 151 0
137 154 0
122 139 0
127 144 0
140 157 0
134 150 0
130 147 0
143 158 0
130 148 0
143 159 0
135 153 0
137 151 0
127 143 0
132 147 0
139 154 0
130 147 0
133 147 0
142 156 0
139 153 0
137 150 0
131 145 0
138 149 0
143 158 0
139 154 0
139 153 0
141 156 0
138 152 0
138 154 0
147 161 0
143 156 0
143 157 0
142 157 0
138 151 0
146 158 0
139 153 0
140 153 0
145 156 0
139 154 0
140 148 0
136 146 0
132 143 0
143 158 0
137 148 0
146 157 0
141 153 0
134 141 0
136 147 0
142 156 0
142 151 0
146 158 0
151 164 0
132 141 0
144 158 0
137 147 0
146 157 0
144 153 0
137 144 0
143 155 0
147 157 0
142 153 0
145 157 0
140 148 0
136 144 0
144 154 0
142 151 0
140 151 0
150 161 0
145 158 0
138 145 0
146 155 0
142 150 0
156 165 0
139 146 0
148 154 0
142 147 0
149 155 0
149 155 0
145 151 0
146 155 0
148 154 0
150 156 0
149 156 0
144 149 0
148 151 0
148 154 0
153 160 0
152 161 0
145 151 0
143 152 0
150 156 0
150 155 0
148 154 0
155 163 0
151 155 0
144 148 0
147 147 0
152 156 0
146 152 0
151 155 0
150 154 0
147 152 0
157 161 0
149 152 0
153 157 0
154 162 0
151 154 0
149 152 0
153 158 0
157 165 0
160 166 0
150 152 0
153 160 0
151 157 0
156 161 0
156 160 0
150 155 0
157 165 0
154 163 0
155 160 0
156 162 0
155 163 0
165 174 0
156 164 0
154 159 0
159 165 0
154 161 0
154 162 0
161 170 0
163 172 0
161 167 0
162 170 0
163 174 0
160 172 0
164 174 0
172 196 0
171 194 0
172 196 0
171 194 0
172 196 0
173 197 0
172 196 0
173 196 0
172 195 0
172 196 0
172 195 0
172 196 0
170 194 0
173 197 0
170 193 0
172 196 0
171 195 0
173 197 0
172 196 0
171 195 0
171 195 0
173 196 0
171 195 0
173 196 0
172 195 0
167 191 0
169 194 0
167 191 0
169 193 0
170 193 0
171 195 0
173 197 0
168 192 0
170 193 0
170 194 0
170 194 0
170 194 0
170 194 0
170 194 0
165 189 0
167 191 0
163 187 0
169 193 0
168 192 0
168 192 0
168 191 0
169 193 0
166 190 0
165 189 0
163 187 0
167 190 0
169 192 0
164 187 0
165 189 0
165 188 0
166 189 0
166 189 0
168 192 0
162 185 0
168 191 0
167 191 0
163 186 0
171 194 0
163 188 0
163 187 0
163 186 0
166 190 0
162 184 0
166 189 0
160 183 0
163 186 0
158 181 0
161 184 0
165 188 0
160 182 0
161 185 0
163 185 0
157 180 0
160 183 0
158 181 0
157 180 0
161 184 0
164 187 0
157 179 0
158 181 0
160 182 0
156 179 0
162 185 0
163 185 0
161 184 0
149 172 0
161 184 0
160 182 0
160 182 0
161 183 0
157 179 0
159 180 0
155 178 0
161 183 0
153 175 0
155 178 0
159 182 0
157 179 0
157 180 0
153 176 0
151 173 0
149 171 0
159 181 0
154 176 0
146 168 0
154 177 0
157 180 0
153 174 0
157 179 0
147 169 0
147 169 0
149 171 0
154 176 0
156 178 0
152 174 0
149 172 0
154 175 0
151 172 0
153 174 0
153 174 0
150 172 0
148 170 0
152 174 0
149 172 0
154 175 0
149 171 0
144 164 0
140 162 0
143 165 0
140 161 0
137 159 0
144 166 0
142 164 0
126 147 0
134 155 0
148 169 0
144 164 0
145 167 0
141 162 0
148 168 0
127 146 0
141 161 0
135 155 0
145 166 0
135 155 0
133 154 0
139 159 0
140 160 0
130 151 0
133 152 0
132 152 0
139 161 0
132 153 0
130 150 0
127 148 0
131 152 0
131 151 0
141 160 0
128 148 0
125 145 0
132 153 0
127 146 0
125 145 0
133 152 0
120 141 0
133 152 0
130 149 0
118 137 0
120 140 0
139 159 0
128 147 0
124 144 0
120 138 0
119 138 0
124 143 0
122 141 0
119 139 0
116 134 0
114 133 0
119 139 0
128 146 0
126 143 0
119 138 0
110 128 0
117 136 0
119 137 0
125 143 0
120 138 0
123 141 0
111 129 0
119 136 0
121 139 0
124 143 0
126 143 0
116 133 0
114 131 0
103 121 0
114 131 0
118 137 0
115 133 0
117 136 0
113 131 0
111 128 0
130 148 0
119 138 0
107 126 0
131 150 0
115 133 0
131 148 0
117 134 0
116 134 0
119 136 0
123 141 0
123 140 0
123 141 0
118 134 0
120 139 0
109 126 0
121 138 0
119 136 0
120 139 0
130 148 0
124 141 0
119 136 0
123 140 0
121 139 0
125 143 0
126 143 0
118 135 0
128 143 0
126 143 0
132 150 0
122 139 0
119 138 0
123 140 0
131 148 0
131 146 0
111 126 0
135 152 0
128 147 0
122 142 0
121 137 0
123 139 0
143 163 0
132 149 0
126 142 0
126 142 0
134 153 0
129 146 0
123 136 0
134 148 0
128 144 0
130 147 0
144 160 0
116 134 0
126 144 0
145 163 0
136 153 0
135 151 0
129 146 0
127 143 0
130 146 0
120 134 0
139 155 0
140 157 0
139 157 0
129 144 0
133 149 0
139 155 0
137 152 0
144 161 0
146 163 0
132 147 0
139 156 0
135 150 0
130 145 0
134 148 0
142 158 0
132 146 0
130 149 0
128 144 0
135 151 0
143 160 0
131 144 0
136 154 0
134 149 0
141 156 0
144 158 0
140 156 0
134 149 0
141 157 0
145 161 0
142 157 0
137 151 0
149 164 0
140 155 0
140 153 0
135 149 0
140 154 0
141 151 0
142 154 0
142 156 0
143 158 0
142 155 0
137 151 0
143 155 0
144 157 0
142 156 0
136 148 0
131 145 0
143 154 0
149 161 0
143 155 0
146 158 0
138 148 0
147 159 0
138 150 0
145 156 0
141 150 0
151 162 0
149 159 0
146 157 0
146 158 0
149 161 0
150 161 0
142 151 0
147 155 0
150 160 0
143 151 0
148 158 0
146 153 0
148 157 0
142 151 0
150 160 0
144 151 0
141 152 0
145 154 0
150 158 0
146 151 0
145 150 0
140 147 0
152 158 0
154 162 0
148 155 0
141 150 0
155 165 0
153 159 0
148 156 0
148 154 0
153 161 0
149 158 0
147 155 0
152 158 0
146 153 0
154 162 0
150 155 0
148 155 0
146 151 0
151 158 0
150 154 0
158 167 0
147 151 0
158 163 0
154 160 0
153 160 0
149 154 0
159 168 0
154 159 0
155 163 0
159 166 0
156 162 0
150 154 0
158 165 0
154 161 0
157 165 0
156 165 0
154 162 0
156 164 0
156 160 0
159 165 0
158 165 0
159 166 0
157 162 0
160 169 0
160 168 0
160 170 0
154 162 0
160 167 0
152 158 0
159 168 0
155 161 0
156 164 0
157 164 0
159 168 0
162 171 0
175 198 0
172 195 0
173 196 0
172 196 0
170 194 0
172 196 0
171 194 0
169 193 0
170 194 0
172 196 0
172 195 0
171 195 0
173 197 0
173 196 0
171 194 0
169 192 0
171 195 0
174 197 0
169 193 0
174 197 0
172 195 0
169 192 0
170 194 0
168 191 0
169 192 0
170 194 0
170 194 0
170 195 0
171 195 0
172 196 0
168 192 0
171 195 0
172 196 0
166 190 0
167 191 0
168 191 0
170 194 0
168 193 0
169 192 0
165 188 0
172 195 0
168 193 0
168 192 0
168 192 0
169 192 0
164 188 0
165 189 0
168 191 0
167 191 0
165 188 0
168 191 0
163 187 0
166 190 0
169 193 0
169 193 0
159 182 0
164 187 0
160 184 0
160 184 0
166 189 0
171 195 0
164 188 0
164 187 0
165 188 0
164 188 0
163 185 0
165 188 0
166 189 0
162 186 0
163 186 0
160 183 0
163 187 0
163 186 0
162 185 0
164 188 0
166 189 0
163 185 0
162 186 0
162 185 0
158 181 0
162 185 0
153 176 0
165 189 0
162 185 0
161 183 0
161 183 0
160 182 0
156 178 0
162 185 0
161 183 0
155 177 0
161 184 0
163 185 0
158 180 0
163 185 0
164 186 0
163 186 0
150 172 0
159 181 0
154 177 0
159 182 0
157 179 0
163 186 0
159 180 0
154 177 0
154 177 0
155 177 0
157 179 0
152 173 0
157 180 0
156 177 0
159 181 0
153 175 0
145 167 0
151 173 0
149 171 0
150 171 0
158 181 0
158 180 0
154 175 0
149 171 0
155 177 0
151 173 0
154 176 0
153 174 0
148 170 0
152 173 0
151 173 0
151 173 0
150 172 0
148 169 0
143 164 0
152 174 0
152 173 0
143 164 0
145 166 0
146 167 0
138 159 0
148 169 0
144 165 0
137 157 0
141 162 0
138 159 0
140 162 0
143 164 0
142 163 0
131 151 0
136 156 0
131 152 0
136 156 0
138 159 0
137 157 0
133 152 0
142 162 0
126 146 0
133 154 0
137 158 0
120 141 0
144 164 0
137 157 0
137 158 0
133 153 0
123 143 0
124 144 0
130 149 0
128 148 0
133 153 0
137 157 0
130 149 0
133 152 0
127 146 0
127 148 0
130 150 0
128 147 0
118 136 0
129 148 0
125 144 0
122 141 0
119 139 0
122 139 0
129 148 0
127 146 0
123 141 0
112 132 0
129 148 0
121 139 0
126 144 0
121 139 0
106 124 0
126 144 0
118 137 0
124 141 0
117 134 0
125 142 0
117 135 0
121 139 0
115 133 0
119 138 0
123 142 0
117 135 0
123 142 0
112 129 0
121 140 0
117 135 0
110 127 0
107 123 0
115 135 0
119 137 0
114 132 0
111 128 0
116 134 0
120 138 0
124 143 0
115 132 0
124 141 0
113 130 0
113 130 0
127 144 0
119 138 0
123 141 0
120 139 0
127 146 0
129 148 0
120 138 0
117 135 0
126 144 0
126 144 0
120 137 0
122 140 0
125 143 0
116 133 0
123 141 0
126 144 0
120 137 0
123 139 0
120 138 0
122 140 0
128 145 0
130 147 0
122 139 0
122 139 0
127 144 0
124 142 0
129 146 0
134 152 0
113 132 0
124 140 0
130 147 0
123 141 0
126 145 0
122 138 0
135 153 0
125 142 0
133 150 0
133 149 0
137 153 0
133 151 0
134 152 0
121 135 0
129 143 0
124 141 0
136 152 0
127 140 0
127 143 0
128 144 0
136 151 0
139 156 0
138 155 0
135 154 0
132 147 0
130 147 0
143 159 0
139 157 0
125 139 0
135 149 0
130 145 0
138 156 0
135 151 0
134 148 0
133 149 0
143 159 0
133 147 0
143 161 0
142 157 0
142 157 0
141 159 0
134 147 0
140 156 0
138 155 0
132 147 0
141 156 0
146 163 0
133 150 0
138 150 0
140 153 0
143 158 0
128 141 0
141 157 0
142 156 0
137 151 0
143 156 0
142 155 0
144 159 0
141 153 0
139 152 0
140 155 0
143 156 0
142 156 0
144 156 0
149 164 0
142 157 0
139 153 0
139 154 0
147 159 0
149 161 0
150 163 0
143 156 0
141 150 0
132 143 0
147 156 0
148 162 0
150 161 0
140 153 0
136 143 0
142 153 0
146 156 0
148 161 0
150 160 0
148 160 0
149 160 0
143 151 0
147 156 0
144 154 0
148 157 0
138 146 0
153 166 0
149 160 0
141 148 0
145 151 0
143 155 0
136 141 0
149 158 0
141 149 0
150 157 0
150 156 0
141 148 0
148 156 0
143 152 0
154 164 0
146 152 0
148 155 0
151 157 0
153 160 0
149 153 0
154 161 0
153 161 0
151 158 0
150 157 0
157 164 0
157 164 0
147 153 0
148 152 0
151 159 0
157 166 0
152 158 0
156 163 0
151 158 0
158 165 0
151 157 0
154 161 0
151 158 0
154 159 0
154 161 0
156 165 0
155 161 0
156 163 0
153 161 0
152 156 0
154 160 0
149 154 0
156 165 0
155 162 0
159 168 0
152 159 0
158 165 0
158 165 0
153 158 0
158 166 0
158 166 0
154 162 0
158 163 0
158 164 0
155 162 0
162 168 0
154 159 0
161 169 0
160 170 0
156 163 0
160 168 0
159 166 0
172 195 0
170 193 0
172 196 0
172 195 0
171 194 0
170 194 0
173 196 0
172 195 0
171 195 0
172 196 0
172 196 0
171 193 0
171 195 0
164 189 0
172 195 0
169 194 0
170 194 0
170 194 0
169 193 0
168 191 0
169 193 0
171 195 0
171 195 0
170 194 0
172 196 0
169 192 0
170 194 0
170 194 0
169 193 0
170 194 0
167 191 0
171 194 0
169 192 0
161 185 0
169 193 0
171 195 0
168 192 0
169 193 0
168 191 0
169 193 0
166 189 0
167 190 0
167 191 0
171 194 0
168 192 0
160 184 0
171 195 0
168 192 0
168 192 0
161 185 0
165 188 0
169 193 0
166 190 0
169 192 0
166 189 0
164 188 0
165 188 0
162 186 0
166 190 0
163 186 0
159 183 0
170 193 0
165 189 0
166 189 0
166 190 0
165 189 0
163 186 0
168 192 0
159 182 0
158 181 0
161 182 0
162 186 0
167 190 0
166 189 0
164 187 0
157 180 0
165 188 0
163 186 0
165 188 0
155 178 0
158 181 0
158 181 0
160 183 0
164 187 0
163 186 0
157 180 0
161 184 0
163 186 0
156 180 0
164 187 0
162 184 0
151 174 0
153 176 0
158 180 0
155 178 0
159 182 0
157 179 0
148 170 0
160 181 0
158 181 0
156 178 0
164 186 0
158 179 0
152 175 0
153 175 0
158 179 0
160 182 0
155 177 0
151 173 0
154 177 0
154 176 0
154 176 0
159 180 0
153 175 0
161 183 0
161 183 0
154 176 0
144 166 0
151 173 0
148 170 0
151 173 0
150 172 0
156 177 0
155 176 0
145 166 0
146 168 0
150 172 0
147 169 0
150 171 0
150 171 0
149 169 0
145 166 0
157 178 0
140 162 0
142 164 0
151 172 0
149 170 0
146 167 0
142 162 0
148 168 0
137 157 0
146 168 0
145 166 0
138 157 0
130 151 0
139 160 0
142 162 0
143 164 0
151 172 0
137 158 0
141 162 0
142 163 0
141 163 0
131 151 0
131 151 0
133 154 0
138 159 0
129 151 0
130 150 0
132 152 0
146 166 0
139 160 0
126 144 0
132 150 0
121 142 0
132 151 0
139 159 0
132 153 0
138 159 0
141 162 0
117 137 0
133 154 0
131 150 0
112 132 0
123 141 0
123 142 0
120 140 0
125 144 0
127 146 0
116 136 0
118 136 0
129 149 0
122 141 0
123 140 0
119 139 0
122 140 0
109 127 0
123 142 0
124 143 0
117 135 0
133 150 0
119 138 0
125 143 0
127 145 0
127 145 0
125 143 0
118 136 0
131 150 0
124 142 0
116 135 0
107 127 0
119 138 0
119 137 0
122 140 0
104 122 0
126 145 0
118 136 0
124 142 0
116 134 0
123 140 0
124 142 0
126 144 0
116 132 0
123 143 0
126 143 0
109 127 0
128 146 0
123 139 0
111 129 0
119 134 0
119 137 0
127 145 0
119 138 0
120 138 0
122 139 0
110 127 0
134 152 0
124 141 0
129 147 0
120 137 0
126 143 0
126 145 0
131 148 0
119 135 0
127 144 0
130 147 0
122 139 0
129 148 0
131 148 0
130 147 0
134 151 0
132 149 0
115 133 0
112 131 0
129 146 0
139 157 0
130 147 0
129 146 0
119 136 0
136 154 0
133 151 0
130 148 0
132 150 0
135 152 0
137 152 0
135 152 0
134 152 0
138 155 0
123 140 0
138 156 0
139 153 0
134 152 0
124 140 0
142 159 0
132 149 0
144 162 0
138 154 0
135 152 0
129 144 0
135 150 0
138 154 0
141 160 0
136 154 0
129 146 0
149 167 0
147 165 0
142 161 0
129 146 0
133 151 0
136 150 0
139 154 0
134 151 0
144 162 0
140 159 0
147 163 0
136 152 0
144 159 0
136 152 0
142 158 0
134 149 0
135 150 0
137 151 0
137 153 0
141 158 0
136 151 0
141 156 0
139 153 0
141 155 0
141 156 0
135 152 0
146 161 0
140 153 0
141 153 0
148 164 0
136 151 0
141 155 0
140 154 0
139 151 0
145 160 0
147 160 0
148 159 0
144 156 0
147 161 0
152 166 0
144 158 0
142 155 0
132 144 0
132 144 0
136 147 0
148 162 0
151 164 0
144 155 0
139 151 0
140 150 0
143 153 0
148 157 0
141 150 0
152 163 0
140 152 0
141 149 0
144 152 0
144 154 0
147 157 0
144 154 0
148 157 0
148 158 0
142 150 0
145 153 0
142 148 0
144 153 0
149 156 0
145 155 0
145 155 0
149 159 0
146 156 0
142 148 0
148 154 0
153 163 0
144 154 0
151 163 0
149 158 0
155 163 0
152 161 0
150 158 0
146 152 0
148 157 0
149 156 0
154 161 0
147 152 0
149 156 0
149 158 0
150 156 0
156 164 0
156 163 0
154 161 0
152 158 0
148 153 0
154 161 0
158 168 0
156 163 0
149 154 0
151 157 0
150 156 0
152 161 0
154 160 0
157 163 0
149 154 0
156 162 0
151 154 0
156 165 0
158 166 0
157 165 0
151 156 0
156 166 0
154 159 0
157 165 0
163 173 0
159 167 0
158 167 0
155 164 0
156 163 0
155 165 0
163 171 0
156 165 0
156 166 0
163 174 0
160 169 0
166 176 0
161 169 0
161 171 0
170 193 0
172 195 0
171 194 0
170 193 0
173 197 0
175 197 0
172 196 0
173 197 0
173 196 0
169 193 0
171 195 0
172 195 0
171 195 0
172 195 0
173 196 0
171 194 0
171 194 0
171 195 0
171 194 0
168 192 0
173 197 0
165 188 0
172 195 0
172 195 0
168 192 0
168 192 0
169 193 0
172 195 0
167 191 0
170 194 0
168 192 0
169 193 0
167 191 0
170 194 0
169 192 0
168 191 0
167 191 0
169 192 0
169 192 0
167 191 0
170 194 0
170 193 0
168 191 0
166 190 0
165 187 0
171 194 0
167 190 0
163 187 0
166 190 0
168 192 0
167 190 0
168 191 0
170 193 0
165 189 0
167 190 0
166 189 0
166 190 0
167 190 0
164 187 0
166 189 0
165 188 0
160 183 0
163 187 0
161 184 0
165 189 0
165 189 0
164 187 0
161 184 0
162 185 0
164 187 0
163 186 0
164 187 0
157 180 0
159 183 0
163 185 0
160 183 0
160 183 0
160 183 0
161 183 0
164 187 0
154 178 0
163 186 0
161 183 0
156 179 0
156 179 0
158 180 0
161 184 0
161 183 0
157 179 0
159 182 0
159 182 0
157 179 0
158 181 0
159 181 0
160 182 0
149 171 0
157 178 0
157 180 0
155 177 0
156 179 0
153 174 0
154 177 0
147 169 0
160 182 0
146 168 0
156 179 0
157 178 0
161 183 0
158 180 0
161 183 0
152 174 0
146 167 0
151 173 0
155 177 0
155 177 0
158 180 0
160 182 0
145 168 0
143 165 0
154 175 0
152 173 0
150 172 0
153 175 0
148 170 0
154 176 0
151 173 0
150 171 0
149 171 0
158 180 0
155 177 0
145 168 0
146 166 0
150 172 0
150 171 0
150 171 0
144 165 0
147 169 0
137 158 0
145 166 0
139 160 0
153 173 0
147 168 0
141 162 0
141 162 0
138 160 0
145 166 0
145 166 0
149 171 0
138 158 0
141 161 0
139 158 0
144 165 0
145 166 0
138 158 0
128 148 0
138 159 0
129 149 0
142 162 0
142 164 0
135 156 0
132 152 0
138 157 0
139 159 0
135 155 0
132 152 0
138 158 0
133 152 0
129 149 0
127 146 0
126 145 0
150 170 0
139 159 0
143 162 0
140 160 0
124 143 0
114 134 0
129 149 0
121 140 0
127 147 0
126 145 0
131 151 0
128 147 0
127 146 0
130 149 0
129 149 0
130 149 0
123 141 0
126 146 0
128 148 0
123 141 0
120 138 0
115 133 0
116 136 0
116 133 0
117 136 0
129 147 0
116 134 0
117 135 0
128 146 0
125 143 0
119 136 0
122 139 0
140 159 0
114 132 0
105 123 0
129 148 0
122 140 0
129 147 0
127 145 0
110 128 0
117 134 0
124 142 0
129 147 0
122 141 0
118 136 0
113 129 0
127 144 0
133 152 0
117 133 0
119 136 0
126 145 0
117 134 0
136 153 0
123 141 0
106 121 0
122 142 0
123 141 0
125 144 0
131 150 0
123 140 0
128 145 0
121 141 0
132 149 0
138 157 0
123 140 0
125 144 0
122 137 0
128 146 0
134 154 0
136 154 0
124 141 0
138 156 0
126 142 0
131 150 0
130 146 0
130 148 0
130 147 0
127 144 0
126 144 0
129 145 0
132 150 0
130 147 0
141 159 0
128 145 0
140 156 0
128 146 0
135 152 0
128 145 0
136 154 0
135 152 0
129 148 0
136 154 0
128 146 0
134 150 0
134 153 0
131 146 0
133 149 0
135 151 0
126 143 0
123 138 0
134 151 0
137 154 0
146 163 0
141 158 0
137 151 0
134 150 0
137 155 0
146 163 0
132 148 0
144 161 0
139 156 0
135 153 0
142 158 0
140 158 0
139 154 0
133 149 0
132 147 0
141 155 0
140 156 0
135 151 0
141 156 0
135 150 0
134 150 0
136 151 0
141 155 0
146 159 0
136 149 0
136 149 0
154 168 0
135 150 0
138 148 0
137 148 0
146 160 0
136 148 0
143 157 0
143 157 0
144 159 0
143 157 0
137 149 0
143 157 0
136 149 0
143 156 0
142 154 0
143 153 0
144 159 0
150 163 0
142 154 0
152 166 0
142 154 0
144 156 0
149 163 0
144 155 0
141 152 0
151 163 0
145 155 0
151 163 0
137 149 0
144 157 0
150 162 0
145 155 0
141 152 0
149 159 0
148 159 0
144 152 0
150 161 0
147 157 0
150 160 0
148 156 0
140 148 0
142 150 0
154 166 0
149 160 0
146 157 0
150 159 0
152 162 0
151 160 0
145 154 0
152 161 0
147 157 0
150 160 0
149 157 0
146 153 0
147 154 0
152 162 0
150 157 0
154 163 0
155 165 0
151 160 0
154 163 0
155 161 0
149 156 0
150 156 0
149 158 0
152 161 0
151 159 0
151 159 0
152 160 0
154 162 0
150 158 0
151 158 0
160 169 0
154 160 0
151 157 0
160 169 0
153 161 0
152 160 0
151 158 0
153 159 0
155 162 0
153 162 0
154 161 0
149 155 0
158 166 0
153 159 0
159 166 0
155 161 0
157 164 0
160 169 0
157 167 0
159 170 0
157 165 0
153 159 0
160 166 0
153 161 0
159 168 0
165 177 0
156 163 0
157 165 0
158 167 0
164 175 0
173 196 0
172 196 0
172 195 0
172 196 0
171 195 0
169 193 0
174 197 0
172 195 0
173 196 0
170 194 0
170 194 0
172 195 0
173 196 0
172 195 0
169 192 0
169 193 0
173 196 0
171 195 0
168 191 0
174 197 0
172 195 0
171 195 0
167 190 0
168 191 0
171 195 0
171 195 0
168 191 0
167 191 0
170 193 0
168 193 0
171 195 0
169 192 0
169 192 0
172 196 0
164 189 0
167 190 0
169 192 0
166 190 0
169 193 0
163 187 0
163 186 0
164 188 0
165 189 0
166 190 0
166 190 0
170 193 0
164 187 0
165 188 0
166 189 0
169 192 0
163 186 0
170 194 0
165 188 0
167 190 0
169 192 0
166 190 0
167 190 0
170 193 0
163 186 0
163 186 0
162 185 0
165 188 0
162 185 0
164 186 0
161 184 0
162 185 0
158 182 0
161 185 0
160 183 0
164 187 0
167 190 0
164 187 0
155 178 0
161 184 0
161 184 0
162 186 0
163 185 0
161 183 0
163 186 0
161 184 0
158 181 0
162 185 0
155 178 0
162 185 0
159 182 0
160 183 0
160 183 0
163 186 0
158 181 0
161 184 0
159 182 0
157 180 0
159 181 0
157 179 0
165 187 0
157 180 0
159 181 0
151 174 0
154 176 0
155 177 0
156 178 0
161 184 0
163 184 0
151 172 0
152 174 0
157 179 0
157 179 0
157 179 0
152 175 0
152 174 0
156 178 0
157 178 0
148 170 0
151 173 0
156 177 0
157 178 0
153 175 0
149 170 0
151 174 0
146 168 0
155 177 0
153 175 0
153 174 0
142 164 0
149 170 0
150 171 0
155 178 0
152 173 0
143 165 0
148 169 0
154 176 0
145 167 0
151 173 0
148 171 0
142 164 0
158 180 0
153 174 0
144 165 0
146 167 0
144 166 0
145 166 0
151 173 0
139 158 0
146 167 0
141 161 0
142 163 0
156 177 0
131 151 0
143 163 0
143 163 0
138 159 0
134 153 0
132 152 0
140 160 0
138 159 0
138 158 0
136 157 0
142 163 0
142 162 0
137 157 0
127 147 0
132 152 0
126 146 0
138 158 0
143 163 0
137 159 0
121 141 0
135 156 0
139 159 0
130 151 0
132 152 0
123 143 0
122 142 0
134 153 0
135 153 0
134 153 0
139 158 0
125 144 0
127 146 0
130 150 0
129 145 0
126 143 0
123 142 0
132 151 0
133 152 0
129 147 0
120 138 0
126 144 0
128 147 0
130 149 0
114 132 0
127 146 0
126 146 0
127 146 0
117 135 0
112 132 0
123 142 0
116 136 0
122 140 0
118 138 0
128 147 0
122 141 0
113 132 0
122 140 0
115 133 0
113 132 0
119 137 0
124 142 0
131 150 0
121 138 0
116 134 0
119 137 0
123 141 0
120 139 0
115 133 0
119 138 0
139 158 0
119 136 0
133 150 0
120 137 0
123 141 0
131 148 0
126 144 0
116 134 0
128 146 0
122 140 0
128 148 0
120 137 0
129 148 0
128 144 0
120 137 0
120 138 0
125 142 0
128 146 0
120 137 0
128 144 0
143 162 0
123 140 0
134 152 0
126 144 0
122 137 0
127 144 0
129 148 0
128 145 0
128 146 0
119 135 0
125 142 0
131 150 0
139 156 0
127 146 0
130 147 0
121 138 0
134 151 0
136 153 0
122 139 0
137 154 0
122 140 0
132 149 0
124 141 0
129 148 0
121 139 0
123 138 0
132 150 0
141 158 0
140 158 0
130 147 0
142 160 0
137 153 0
137 154 0
128 145 0
132 148 0
135 151 0
142 161 0
141 159 0
140 155 0
139 154 0
131 148 0
137 155 0
135 150 0
132 148 0
145 162 0
145 164 0
148 164 0
135 150 0
146 164 0
148 165 0
148 166 0
135 151 0
139 155 0
133 148 0
132 148 0
145 160 0
139 153 0
144 160 0
149 165 0
142 158 0
140 154 0
147 163 0
141 152 0
149 164 0
147 163 0
143 158 0
129 144 0
143 157 0
138 153 0
149 165 0
144 157 0
140 155 0
145 159 0
147 161 0
144 160 0
143 157 0
144 155 0
137 149 0
144 158 0
143 154 0
144 156 0
147 160 0
143 155 0
139 151 0
145 160 0
144 155 0
143 156 0
140 150 0
143 154 0
143 154 0
146 158 0
151 162 0
152 162 0
148 157 0
148 159 0
142 153 0
142 153 0
149 161 0
148 159 0
147 159 0
144 154 0
148 158 0
149 159 0
146 156 0
144 155 0
145 156 0
145 153 0
146 155 0
154 165 0
151 158 0
147 157 0
147 155 0
143 153 0
152 161 0
150 158 0
148 155 0
157 168 0
148 156 0
148 155 0
147 154 0
154 164 0
150 155 0
151 160 0
150 156 0
151 159 0
149 157 0
151 159 0
151 159 0
153 163 0
156 164 0
154 162 0
148 154 0
155 162 0
157 168 0
155 164 0
152 160 0
151 158 0
156 162 0
154 162 0
150 158 0
154 160 0
158 170 0
156 164 0
157 164 0
146 152 0
150 156 0
153 160 0
156 165 0
155 161 0
154 160 0
150 156 0
153 158 0
159 167 0
157 164 0
156 166 0
159 168 0
155 163 0
163 170 0
159 165 0
164 176 0
161 170 0
158 166 0
156 162 0
164 175 0
170 194 0
170 194 0
172 195 0
169 193 0
173 196 0
173 196 0
172 196 0
172 196 0
169 193 0
172 196 0
173 196 0
167 191 0
174 196 0
167 191 0
172 196 0
172 195 0
169 192 0
168 192 0
169 193 0
171 195 0
169 192 0
171 194 0
167 191 0
171 195 0
170 193 0
172 195 0
169 193 0
171 194 0
169 192 0
170 193 0
170 194 0
167 191 0
167 191 0
170 194 0
166 190 0
169 192 0
166 189 0
169 193 0
167 191 0
167 190 0
167 191 0
170 193 0
165 188 0
165 187 0
171 194 0
167 190 0
164 187 0
164 188 0
165 188 0
167 190 0
164 188 0
164 188 0
165 189 0
163 186 0
167 191 0
165 188 0
168 191 0
166 189 0
163 187 0
167 190 0
165 188 0
162 185 0
168 191 0
163 186 0
161 184 0
163 187 0
166 189 0
165 189 0
158 181 0
167 190 0
157 180 0
160 182 0
162 184 0
159 181 0
165 187 0
161 184 0
165 188 0
159 181 0
162 183 0
163 185 0
160 183 0
164 187 0
164 187 0
167 190 0
160 182 0
161 183 0
157 180 0
160 183 0
156 178 0
161 183 0
154 177 0
150 172 0
160 184 0
158 181 0
154 176 0
156 178 0
154 177 0
154 176 0
156 178 0
159 181 0
152 174 0
156 177 0
155 178 0
153 175 0
156 179 0
158 181 0
158 181 0
160 183 0
151 173 0
146 168 0
161 183 0
152 174 0
154 175 0
153 175 0
152 174 0
153 174 0
145 167 0
163 185 0
154 176 0
154 176 0
150 172 0
157 179 0
150 172 0
160 182 0
144 166 0
145 167 0
156 178 0
155 176 0
152 173 0
141 163 0
151 173 0
154 176 0
144 165 0
143 163 0
142 163 0
152 173 0
138 159 0
149 171 0
145 165 0
139 161 0
145 167 0
150 172 0
135 156 0
149 171 0
140 161 0
142 163 0
134 155 0
144 165 0
147 168 0
143 163 0
141 161 0
138 158 0
142 163 0
136 157 0
143 162 0
138 159 0
136 157 0
141 162 0
131 151 0
134 155 0
132 152 0
137 157 0
143 164 0
131 151 0
138 160 0
134 155 0
138 158 0
137 157 0
145 164 0
137 156 0
138 159 0
122 141 0
133 152 0
134 154 0
132 152 0
127 146 0
142 163 0
129 148 0
128 149 0
129 148 0
129 147 0
121 141 0
131 151 0
121 140 0
129 148 0
128 148 0
133 153 0
120 139 0
126 145 0
127 145 0
126 146 0
129 148 0
127 146 0
136 155 0
131 151 0
127 146 0
122 142 0
131 151 0
120 138 0
115 133 0
129 148 0
124 143 0
130 149 0
125 144 0
121 140 0
127 146 0
132 151 0
131 149 0
126 144 0
136 155 0
133 152 0
122 141 0
116 134 0
118 137 0
122 139 0
117 135 0
124 142 0
120 138 0
121 140 0
115 135 0
124 143 0
116 134 0
132 151 0
124 142 0
116 135 0
132 151 0
129 148 0
135 153 0
140 157 0
128 145 0
137 156 0
124 144 0
134 151 0
126 146 0
121 139 0
132 152 0
124 143 0
135 153 0
137 156 0
124 142 0
131 150 0
133 150 0
137 156 0
130 148 0
121 140 0
136 154 0
124 141 0
140 158 0
134 152 0
130 148 0
127 145 0
126 143 0
132 150 0
132 150 0
131 148 0
135 152 0
118 134 0
125 141 0
136 153 0
134 153 0
134 152 0
130 146 0
131 147 0
133 149 0
136 154 0
129 147 0
139 158 0
127 143 0
125 142 0
144 163 0
137 155 0
141 159 0
148 163 0
137 156 0
135 151 0
137 152 0
145 162 0
139 158 0
139 156 0
145 163 0
141 158 0
132 149 0
142 160 0
140 155 0
147 164 0
136 153 0
135 149 0
145 160 0
137 151 0
145 161 0
141 157 0
151 168 0
136 151 0
142 157 0
139 154 0
139 155 0
137 153 0
143 160 0
143 159 0
149 166 0
135 150 0
141 157 0
147 162 0
149 163 0
148 165 0
146 161 0
147 162 0
154 170 0
145 160 0
142 155 0
140 156 0
141 155 0
144 157 0
149 164 0
148 163 0
137 148 0
144 156 0
138 150 0
140 154 0
145 160 0
143 158 0
139 148 0
148 161 0
150 162 0
144 157 0
141 154 0
140 152 0
151 160 0
143 155 0
143 158 0
144 155 0
139 152 0
142 151 0
145 156 0
146 154 0
137 149 0
148 160 0
143 153 0
147 157 0
146 158 0
149 160 0
153 167 0
149 161 0
149 160 0
150 157 0
152 164 0
147 159 0
144 152 0
146 156 0
149 159 0
148 159 0
155 164 0
152 161 0
150 160 0
149 160 0
152 163 0
153 162 0
149 158 0
155 165 0
153 160 0
148 155 0
160 170 0
152 161 0
147 154 0
157 166 0
153 163 0
156 167 0
155 164 0
154 160 0
148 154 0
153 162 0
156 162 0
151 162 0
154 162 0
155 162 0
153 160 0
158 166 0
155 164 0
154 160 0
154 162 0
159 167 0
152 160 0
149 154 0
160 170 0
160 168 0
154 162 0
162 171 0
155 162 0
158 167 0
157 166 0
159 166 0
156 163 0
156 166 0
156 164 0
157 165 0
158 168 0
156 163 0
156 166 0
159 168 0
160 171 0
174 197 0
173 196 0
170 194 0
172 196 0
173 196 0
173 197 0
171 194 0
171 195 0
170 194 0
171 195 0
171 194 0
168 192 0
172 195 0
170 194 0
169 193 0
169 193 0
171 195 0
169 193 0
171 194 0
170 194 0
170 195 0
174 197 0
166 189 0
172 196 0
169 193 0
167 190 0
170 193 0
169 193 0
170 193 0
170 194 0
167 191 0
166 190 0
168 192 0
168 192 0
165 189 0
165 188 0
167 190 0
164 189 0
171 194 0
166 189 0
171 194 0
169 193 0
168 192 0
163 187 0
167 190 0
164 187 0
164 187 0
168 190 0
163 187 0
164 188 0
162 186 0
164 187 0
167 189 0
162 185 0
170 192 0
165 188 0
165 188 0
163 186 0
168 191 0
166 189 0
166 189 0
161 184 0
165 188 0
164 187 0
170 193 0
163 186 0
162 185 0
166 188 0
163 186 0
165 188 0
163 186 0
157 179 0
164 187 0
159 181 0
161 184 0
158 181 0
161 184 0
159 182 0
148 170 0
164 187 0
157 179 0
160 183 0
154 176 0
163 186 0
160 183 0
158 180 0
157 179 0
158 180 0
158 181 0
151 173 0
158 180 0
154 177 0
160 183 0
154 176 0
158 179 0
158 180 0
155 178 0
164 186 0
162 184 0
158 180 0
159 180 0
152 174 0
147 169 0
156 179 0
149 171 0
159 181 0
147 169 0
154 176 0
155 178 0
150 172 0
155 177 0
145 166 0
147 169 0
155 176 0
158 180 0
147 169 0
151 172 0
144 165 0
151 172 0
148 170 0
154 176 0
157 179 0
145 167 0
156 177 0
144 165 0
151 173 0
152 174 0
137 159 0
150 171 0
152 173 0
144 166 0
151 173 0
147 167 0
148 171 0
144 165 0
148 171 0
148 169 0
145 166 0
143 165 0
138 159 0
138 160 0
144 165 0
134 154 0
138 160 0
155 176 0
146 167 0
132 153 0
143 163 0
136 157 0
138 159 0
147 168 0
135 155 0
141 163 0
130 151 0
137 159 0
138 159 0
132 153 0
136 157 0
138 158 0
143 162 0
142 162 0
138 159 0
133 153 0
135 154 0
133 154 0
137 157 0
141 162 0
119 139 0
123 143 0
138 158 0
136 156 0
135 155 0
120 139 0
122 141 0
133 152 0
129 149 0
122 142 0
135 154 0
130 150 0
131 150 0
127 145 0
129 150 0
126 145 0
125 144 0
124 144 0
127 146 0
135 153 0
126 146 0
116 134 0
124 144 0
131 151 0
129 146 0
129 148 0
119 138 0
132 150 0
123 141 0
128 148 0
120 139 0
134 153 0
131 149 0
126 144 0
122 142 0
118 136 0
122 140 0
119 137 0
130 150 0
122 142 0
129 148 0
127 147 0
124 144 0
135 154 0
125 143 0
122 140 0
121 139 0
133 152 0
121 139 0
132 150 0
114 133 0
127 146 0
132 151 0
125 143 0
129 146 0
128 148 0
134 153 0
124 142 0
126 143 0
128 147 0
111 130 0
130 148 0
134 153 0
120 138 0
136 153 0
130 149 0
126 144 0
125 141 0
124 141 0
116 136 0
129 148 0
127 147 0
142 160 0
128 145 0
137 154 0
137 154 0
139 158 0
136 155 0
130 147 0
129 146 0
113 133 0
128 148 0
135 154 0
127 146 0
126 144 0
139 158 0
137 154 0
137 155 0
128 145 0
137 155 0
139 156 0
150 168 0
143 162 0
141 156 0
136 153 0
141 160 0
137 156 0
139 156 0
134 152 0
132 149 0
141 159 0
132 150 0
136 153 0
129 146 0
131 147 0
135 152 0
139 156 0
135 149 0
137 155 0
148 166 0
143 160 0
146 163 0
141 160 0
134 150 0
142 160 0
133 149 0
137 153 0
150 168 0
133 150 0
139 155 0
139 153 0
135 152 0
145 162 0
136 152 0
149 165 0
129 144 0
144 159 0
143 159 0
140 156 0
142 157 0
144 162 0
145 162 0
143 156 0
141 155 0
141 156 0
132 146 0
143 156 0
142 158 0
141 156 0
141 156 0
152 166 0
138 152 0
146 160 0
147 159 0
141 157 0
139 150 0
140 151 0
145 158 0
150 163 0
146 159 0
134 146 0
144 159 0
143 156 0
155 169 0
147 158 0
143 154 0
146 161 0
146 158 0
146 162 0
148 158 0
147 156 0
144 157 0
145 156 0
150 163 0
156 169 0
146 157 0
149 159 0
143 153 0
149 161 0
158 171 0
147 159 0
145 158 0
147 156 0
144 154 0
150 162 0
153 166 0
147 154 0
150 159 0
149 159 0
153 164 0
157 168 0
147 159 0
149 159 0
145 155 0
144 154 0
156 166 0
148 158 0
154 162 0
144 152 0
158 171 0
148 159 0
145 157 0
151 161 0
152 162 0
153 162 0
157 168 0
153 165 0
153 163 0
154 162 0
153 161 0
151 160 0
153 160 0
154 164 0
156 167 0
147 156 0
154 162 0
150 161 0
157 162 0
154 161 0
155 164 0
153 164 0
157 165 0
156 166 0
162 171 0
155 162 0
155 159 0
154 159 0
155 159 0
157 165 0
154 161 0
160 169 0
160 168 0
158 167 0
157 168 0
155 162 0
163 173 0
161 171 0
156 165 0
161 171 0
158 166 0
156 164 0
159 167 0
160 169 0
173 196 0
174 197 0
171 194 0
173 196 0
172 196 0
174 197 0
171 195 0
173 196 0
170 194 0
171 194 0
173 196 0
172 195 0
172 195 0
171 194 0
170 194 0
172 195 0
167 191 0
173 196 0
171 194 0
172 195 0
168 191 0
169 192 0
170 193 0
165 189 0
172 195 0
169 192 0
170 194 0
168 191 0
167 190 0
169 193 0
172 195 0
164 187 0
169 193 0
166 189 0
170 194 0
169 192 0
168 192 0
167 190 0
168 192 0
165 188 0
166 189 0
167 190 0
163 186 0
167 190 0
169 193 0
167 190 0
165 188 0
166 189 0
159 183 0
167 190 0
168 192 0
169 192 0
162 185 0
162 185 0
163 186 0
166 189 0
168 190 0
164 187 0
161 184 0
167 190 0
162 185 0
168 190 0
165 188 0
153 175 0
161 184 0
165 188 0
159 181 0
169 191 0
157 181 0
161 184 0
164 186 0
162 185 0
160 183 0
160 183 0
164 187 0
161 184 0
166 189 0
161 184 0
162 184 0
160 183 0
160 183 0
160 183 0
160 183 0
159 181 0
165 188 0
163 186 0
162 184 0
161 184 0
158 180 0
155 178 0
152 175 0
158 180 0
161 183 0
160 184 0
157 180 0
163 185 0
166 189 0
151 172 0
153 175 0
156 179 0
159 181 0
158 181 0
152 173 0
158 180 0
156 178 0
153 175 0
152 175 0
160 181 0
155 178 0
148 170 0
147 169 0
152 174 0
148 171 0
154 176 0
152 174 0
158 181 0
153 174 0
159 182 0
148 169 0
149 171 0
150 172 0
152 173 0
149 172 0
149 171 0
148 169 0
149 171 0
151 173 0
151 173 0
150 172 0
148 169 0
144 166 0
149 170 0
136 157 0
145 167 0
144 165 0
151 173 0
144 166 0
144 164 0
142 162 0
133 154 0
144 167 0
146 168 0
140 161 0
146 166 0
145 166 0
137 158 0
136 157 0
149 170 0
145 166 0
138 159 0
139 160 0
149 168 0
132 153 0
145 165 0
139 161 0
132 153 0
133 154 0
138 159 0
138 158 0
139 158 0
136 157 0
136 157 0
135 156 0
135 154 0
137 158 0
127 147 0
131 151 0
130 150 0
146 166 0
134 153 0
129 148 0
121 140 0
127 148 0
123 143 0
124 144 0
124 144 0
128 148 0
129 149 0
118 137 0
127 147 0
128 146 0
148 168 0
140 159 0
133 152 0
126 146 0
135 154 0
128 148 0
138 159 0
123 141 0
117 137 0
137 158 0
129 148 0
129 148 0
125 144 0
126 146 0
127 145 0
137 157 0
126 143 0
128 146 0
128 146 0
126 146 0
122 140 0
128 147 0
122 141 0
124 144 0
117 136 0
125 145 0
125 144 0
131 150 0
115 133 0
124 143 0
123 142 0
127 144 0
123 142 0
120 138 0
123 141 0
125 145 0
124 143 0
122 140 0
125 143 0
125 144 0
131 151 0
118 135 0
124 142 0
127 147 0
130 147 0
133 152 0
115 134 0
129 147 0
126 145 0
131 148 0
126 145 0
132 151 0
134 153 0
124 141 0
128 144 0
120 138 0
124 142 0
141 159 0
134 154 0
125 142 0
127 145 0
140 158 0
112 129 0
140 158 0
142 160 0
131 148 0
126 144 0
134 152 0
133 151 0
130 148 0
132 150 0
125 143 0
129 146 0
131 150 0
135 153 0
128 145 0
123 141 0
138 154 0
134 150 0
138 156 0
139 157 0
125 140 0
132 151 0
133 150 0
146 163 0
138 156 0
136 155 0
140 157 0
137 153 0
143 160 0
143 162 0
142 159 0
138 155 0
144 161 0
149 165 0
148 164 0
137 155 0
138 155 0
144 162 0
140 158 0
128 146 0
133 149 0
140 157 0
141 158 0
132 147 0
142 159 0
144 163 0
142 156 0
147 164 0
138 150 0
146 161 0
139 157 0
140 155 0
139 153 0
144 160 0
144 158 0
147 163 0
139 155 0
145 162 0
146 162 0
140 155 0
150 164 0
144 159 0
137 154 0
141 155 0
147 162 0
144 158 0
141 154 0
141 157 0
150 166 0
137 150 0
137 149 0
143 158 0
145 159 0
148 162 0
153 167 0
147 161 0
149 160 0
145 160 0
141 154 0
152 164 0
153 169 0
145 154 0
146 159 0
140 152 0
154 166 0
148 162 0
153 166 0
142 152 0
144 158 0
151 163 0
146 156 0
141 153 0
144 157 0
147 158 0
142 155 0
146 154 0
149 159 0
151 160 0
151 159 0
147 158 0
156 166 0
152 164 0
152 165 0
147 158 0
149 161 0
149 159 0
146 158 0
152 161 0
147 156 0
148 157 0
158 169 0
154 167 0
147 155 0
152 162 0
150 161 0
153 163 0
146 153 0
146 153 0
153 161 0
148 157 0
152 164 0
155 165 0
156 166 0
150 155 0
154 163 0
155 166 0
150 159 0
153 164 0
150 159 0
147 155 0
156 164 0
153 162 0
157 166 0
155 166 0
156 165 0
158 167 0
152 162 0
152 160 0
161 168 0
156 163 0
153 159 0
154 162 0
162 173 0
162 169 0
161 173 0
156 165 0
155 162 0
154 163 0
160 169 0
158 168 0
155 163 0
161 172 0
160 171 0
162 171 0
157 167 0
157 168 0
157 167 0
161 171 0
172 196 0
170 193 0
171 194 0
170 193 0
171 194 0
172 195 0
172 196 0
172 195 0
172 195 0
171 195 0
169 193 0
170 194 0
172 196 0
172 196 0
170 193 0
172 195 0
172 195 0
169 193 0
174 197 0
170 194 0
169 193 0
172 196 0
168 191 0
168 191 0
169 192 0
169 193 0
170 193 0
168 191 0
171 194 0
170 193 0
166 190 0
167 190 0
168 191 0
169 192 0
168 192 0
165 188 0
165 188 0
164 187 0
167 190 0
167 190 0
163 187 0
166 188 0
168 191 0
169 192 0
169 192 0
167 189 0
169 193 0
164 187 0
167 189 0
167 190 0
163 186 0
169 193 0
162 186 0
164 187 0
167 190 0
166 189 0
166 189 0
160 184 0
159 182 0
162 185 0
167 189 0
169 192 0
160 183 0
162 185 0
160 183 0
165 188 0
163 186 0
160 182 0
158 181 0
157 179 0
161 185 0
164 186 0
159 181 0
166 189 0
156 179 0
162 185 0
162 185 0
162 184 0
153 175 0
166 189 0
160 183 0
153 176 0
161 183 0
160 183 0
161 183 0
163 186 0
161 183 0
153 175 0
163 186 0
165 188 0
159 182 0
156 179 0
154 176 0
153 176 0
155 177 0
157 179 0
159 182 0
155 177 0
155 177 0
166 187 0
148 170 0
156 179 0
159 180 0
151 172 0
153 175 0
154 177 0
156 178 0
150 172 0
152 174 0
156 178 0
156 178 0
151 172 0
155 176 0
149 171 0
146 167 0
151 172 0
155 177 0
152 173 0
150 172 0
156 178 0
152 174 0
151 173 0
155 176 0
146 167 0
156 177 0
139 160 0
155 177 0
148 169 0
150 172 0
151 174 0
144 164 0
149 170 0
155 177 0
155 175 0
152 174 0
150 170 0
147 168 0
142 163 0
145 166 0
139 161 0
130 151 0
150 172 0
141 162 0
137 158 0
138 159 0
139 160 0
137 158 0
147 167 0
141 162 0
135 155 0
139 161 0
133 155 0
145 165 0
145 167 0
152 173 0
134 155 0
136 156 0
132 153 0
139 158 0
137 157 0
141 162 0
139 160 0
137 157 0
133 154 0
146 166 0
137 158 0
133 152 0
132 151 0
139 159 0
130 150 0
141 159 0
129 149 0
133 153 0
141 160 0
132 152 0
131 152 0
128 147 0
138 158 0
134 155 0
133 153 0
128 148 0
134 154 0
124 143 0
129 148 0
122 142 0
126 147 0
126 145 0
138 157 0
131 151 0
132 151 0
124 143 0
121 140 0
131 152 0
133 153 0
127 146 0
132 152 0
120 139 0
133 153 0
124 142 0
118 136 0
132 151 0
129 148 0
133 153 0
131 151 0
135 154 0
130 149 0
121 141 0
127 148 0
134 154 0
137 155 0
118 138 0
135 153 0
121 139 0
125 143 0
132 150 0
125 143 0
118 136 0
129 148 0
131 149 0
131 150 0
122 140 0
128 147 0
126 146 0
128 146 0
127 144 0
129 148 0
136 155 0
131 149 0
124 142 0
132 150 0
136 153 0
124 143 0
140 158 0
129 146 0
120 138 0
136 153 0
130 148 0
131 149 0
124 143 0
135 154 0
132 150 0
120 138 0
129 148 0
135 154 0
139 157 0
134 153 0
132 151 0
136 154 0
127 143 0
138 157 0
125 143 0
124 142 0
141 161 0
134 153 0
135 154 0
135 153 0
136 154 0
135 154 0
128 146 0
129 145 0
143 160 0
140 158 0
137 154 0
131 148 0
134 152 0
140 158 0
131 148 0
134 150 0
139 155 0
144 160 0
149 167 0
143 161 0
128 147 0
140 156 0
129 146 0
142 158 0
142 160 0
139 157 0
140 157 0
140 157 0
133 149 0
137 156 0
140 155 0
149 165 0
142 160 0
149 167 0
142 159 0
137 153 0
139 157 0
145 161 0
136 152 0
148 165 0
143 160 0
151 169 0
145 158 0
143 160 0
144 159 0
138 153 0
143 158 0
138 153 0
155 169 0
143 159 0
140 157 0
141 157 0
134 145 0
145 159 0
146 159 0
138 152 0
144 161 0
149 164 0
141 157 0
143 158 0
140 154 0
143 158 0
142 155 0
148 162 0
140 154 0
145 158 0
142 156 0
160 172 0
146 162 0
145 161 0
149 163 0
134 146 0
144 158 0
142 153 0
140 154 0
153 167 0
145 157 0
147 159 0
140 149 0
141 152 0
147 162 0
154 169 0
152 164 0
147 159 0
146 158 0
147 163 0
148 159 0
150 160 0
150 162 0
153 166 0
152 163 0
150 161 0
155 167 0
145 158 0
149 163 0
149 159 0
158 171 0
154 166 0
149 156 0
147 157 0
149 162 0
142 149 0
152 164 0
148 156 0
150 161 0
156 166 0
151 160 0
149 157 0
152 158 0
150 160 0
156 165 0
149 158 0
153 163 0
150 159 0
156 168 0
157 168 0
152 159 0
151 160 0
155 164 0
152 161 0
150 157 0
157 168 0
155 166 0
152 159 0
153 160 0
153 160 0
158 170 0
153 162 0
157 167 0
155 163 0
163 174 0
158 168 0
158 168 0
161 171 0
157 166 0
154 163 0
159 169 0
157 166 0
163 172 0
155 164 0
153 161 0
159 168 0
153 163 0
157 168 0
155 162 0
158 166 0
162 172 0
156 162 0
172 195 0
171 196 0
170 193 0
173 196 0
168 191 0
169 193 0
167 191 0
169 193 0
172 195 0
171 195 0
172 196 0
172 196 0
171 194 0
169 192 0
171 194 0
167 191 0
169 192 0
167 191 0
169 193 0
171 195 0
170 194 0
169 192 0
169 192 0
168 191 0
166 189 0
168 192 0
167 191 0
166 190 0
170 193 0
167 191 0
168 191 0
169 192 0
167 191 0
169 192 0
168 192 0
166 190 0
168 192 0
168 191 0
167 190 0
168 191 0
171 195 0
166 189 0
164 187 0
165 188 0
167 190 0
168 191 0
166 189 0
166 189 0
164 188 0
160 183 0
168 191 0
164 187 0
166 189 0
161 184 0
160 183 0
159 182 0
166 189 0
165 188 0
166 189 0
163 186 0
158 181 0
163 185 0
167 189 0
161 184 0
165 188 0
164 186 0
163 185 0
168 190 0
162 184 0
165 187 0
159 181 0
158 181 0
159 182 0
158 180 0
163 186 0
162 184 0
163 185 0
162 184 0
158 181 0
163 187 0
156 179 0
160 182 0
163 186 0
156 179 0
160 183 0
162 185 0
162 185 0
166 188 0
161 184 0
159 182 0
159 181 0
153 175 0
158 180 0
154 176 0
158 179 0
160 183 0
162 185 0
152 173 0
156 178 0
157 180 0
152 174 0
148 170 0
156 178 0
157 179 0
156 179 0
159 180 0
153 175 0
156 178 0
140 162 0
154 176 0
149 171 0
157 179 0
160 182 0
160 183 0
162 183 0
147 169 0
148 170 0
156 178 0
147 169 0
153 175 0
147 168 0
152 173 0
147 169 0
145 167 0
155 177 0
152 173 0
162 184 0
152 174 0
147 169 0
152 173 0
140 161 0
146 167 0
136 158 0
146 169 0
146 166 0
152 174 0
150 170 0
146 167 0
145 166 0
152 174 0
139 159 0
150 171 0
139 160 0
140 160 0
145 165 0
144 165 0
138 159 0
148 169 0
140 162 0
141 162 0
139 160 0
146 167 0
147 169 0
141 161 0
138 158 0
139 159 0
133 153 0
138 159 0
141 161 0
138 158 0
132 152 0
131 151 0
135 155 0
135 154 0
130 151 0
124 144 0
145 165 0
140 161 0
132 152 0
137 157 0
137 158 0
124 144 0
139 160 0
134 154 0
136 155 0
133 154 0
139 160 0
132 153 0
139 160 0
133 151 0
129 149 0
137 158 0
131 151 0
127 147 0
123 143 0
135 154 0
130 150 0
136 157 0
136 155 0
128 148 0
118 137 0
132 151 0
128 148 0
135 155 0
121 140 0
129 147 0
126 145 0
140 159 0
129 148 0
120 138 0
123 140 0
133 152 0
119 138 0
131 152 0
129 148 0
120 139 0
131 150 0
125 143 0
125 143 0
142 161 0
123 141 0
112 131 0
120 140 0
135 156 0
119 137 0
119 139 0
133 152 0
124 143 0
122 140 0
129 148 0
126 144 0
128 147 0
130 149 0
143 162 0
121 138 0
131 150 0
130 148 0
127 144 0
136 155 0
130 149 0
128 145 0
127 146 0
125 144 0
128 146 0
131 148 0
131 150 0
123 143 0
135 153 0
137 154 0
138 155 0
130 148 0
130 148 0
143 159 0
129 148 0
125 145 0
140 159 0
124 142 0
135 153 0
136 155 0
137 157 0
133 151 0
126 145 0
134 153 0
129 148 0
135 153 0
142 162 0
135 154 0
125 143 0
139 156 0
139 158 0
129 145 0
138 155 0
145 163 0
142 162 0
128 146 0
136 155 0
130 149 0
142 160 0
143 163 0
133 149 0
129 147 0
138 156 0
136 153 0
148 165 0
137 155 0
144 162 0
130 147 0
144 162 0
138 156 0
140 156 0
148 163 0
142 159 0
148 167 0
138 154 0
146 163 0
138 154 0
143 159 0
140 157 0
141 156 0
138 155 0
147 165 0
141 158 0
139 157 0
137 152 0
141 157 0
143 161 0
148 163 0
145 163 0
148 164 0
138 153 0
141 159 0
140 157 0
142 159 0
145 159 0
144 160 0
147 161 0
148 167 0
145 160 0
142 158 0
132 145 0
140 154 0
143 157 0
140 154 0
144 159 0
147 163 0
146 162 0
149 163 0
139 154 0
152 167 0
145 160 0
152 167 0
149 161 0
155 170 0
141 154 0
149 162 0
146 160 0
149 161 0
144 159 0
143 158 0
144 156 0
151 164 0
157 168 0
149 161 0
149 161 0
150 164 0
153 167 0
149 160 0
147 160 0
143 156 0
154 167 0
149 158 0
143 153 0
148 157 0
156 170 0
154 167 0
149 161 0
150 160 0
148 159 0
150 161 0
150 159 0
149 160 0
155 168 0
153 164 0
150 161 0
153 165 0
149 158 0
145 156 0
155 166 0
148 157 0
154 163 0
152 163 0
152 161 0
154 164 0
158 169 0
148 156 0
149 160 0
156 163 0
156 165 0
156 164 0
158 169 0
153 161 0
151 161 0
149 160 0
160 170 0
154 165 0
155 164 0
153 161 0
158 168 0
157 170 0
157 167 0
153 160 0
154 164 0
154 163 0
157 165 0
162 172 0
156 166 0
160 172 0
154 164 0
157 166 0
159 170 0
159 168 0
161 172 0
160 170 0
157 165 0
156 164 0
160 171 0
155 165 0
165 177 0
153 161 0
158 169 0
171 194 0
172 195 0
173 196 0
170 194 0
171 195 0
172 195 0
171 194 0
172 196 0
170 193 0
170 193 0
171 194 0
169 193 0
169 193 0
171 195 0
171 194 0
170 193 0
170 193 0
172 195 0
170 193 0
172 195 0
169 192 0
168 192 0
166 190 0
170 193 0
168 191 0
172 195 0
172 196 0
167 191 0
171 194 0
170 193 0
168 191 0
164 188 0
170 194 0
167 191 0
166 189 0
168 191 0
168 192 0
167 191 0
167 190 0
163 186 0
163 187 0
163 187 0
164 188 0
167 190 0
164 188 0
168 191 0
169 192 0
169 192 0
166 189 0
166 189 0
167 190 0
164 187 0
166 189 0
166 189 0
161 184 0
166 189 0
157 181 0
161 184 0
168 192 0
164 186 0
161 184 0
162 186 0
162 185 0
168 190 0
159 181 0
165 188 0
167 190 0
163 186 0
165 188 0
163 185 0
164 187 0
169 192 0
160 182 0
161 184 0
166 188 0
165 187 0
158 180 0
158 180 0
163 185 0
155 178 0
162 184 0
162 184 0
158 180 0
162 185 0
160 183 0
152 174 0
154 177 0
159 182 0
161 184 0
156 179 0
164 185 0
159 181 0
157 179 0
157 180 0
163 185 0
159 182 0
160 183 0
162 185 0
155 178 0
148 171 0
161 183 0
156 178 0
153 175 0
159 181 0
156 178 0
155 177 0
154 176 0
155 177 0
159 180 0
155 177 0
156 178 0
147 169 0
152 174 0
144 166 0
147 169 0
160 182 0
148 170 0
157 179 0
148 169 0
148 171 0
137 158 0
155 177 0
145 167 0
147 169 0
151 172 0
150 173 0
150 172 0
144 167 0
145 166 0
148 170 0
147 169 0
138 159 0
145 167 0
145 166 0
147 170 0
145 166 0
147 169 0
153 173 0
143 164 0
137 158 0
145 165 0
141 161 0
145 166 0
139 160 0
144 164 0
140 162 0
148 170 0
136 157 0
137 159 0
135 155 0
153 175 0
139 161 0
141 162 0
151 172 0
149 170 0
144 165 0
139 159 0
132 153 0
146 166 0
131 152 0
142 163 0
138 158 0
137 156 0
132 152 0
137 158 0
143 164 0
129 149 0
146 165 0
129 150 0
133 153 0
134 154 0
128 149 0
137 158 0
137 157 0
127 146 0
133 152 0
127 147 0
131 152 0
137 157 0
136 155 0
130 150 0
126 147 0
136 155 0
125 144 0
135 155 0
126 145 0
124 144 0
131 151 0
128 148 0
129 148 0
138 157 0
133 151 0
134 152 0
127 144 0
128 148 0
131 151 0
135 153 0
131 152 0
123 142 0
136 156 0
125 143 0
120 139 0
123 142 0
127 147 0
120 139 0
124 144 0
118 136 0
122 141 0
131 150 0
123 143 0
127 146 0
130 151 0
116 135 0
124 143 0
122 140 0
138 157 0
122 142 0
130 149 0
133 152 0
125 145 0
124 142 0
131 151 0
129 148 0
121 139 0
125 143 0
132 151 0
136 156 0
127 145 0
132 151 0
120 137 0
130 149 0
129 147 0
132 152 0
142 162 0
132 152 0
138 157 0
130 152 0
124 141 0
128 147 0
127 145 0
130 150 0
132 150 0
134 151 0
137 156 0
124 143 0
135 154 0
133 150 0
136 154 0
136 152 0
139 159 0
126 144 0
125 143 0
134 152 0
133 152 0
139 157 0
134 154 0
136 153 0
144 161 0
135 154 0
136 155 0
134 153 0
133 151 0
135 153 0
133 151 0
134 153 0
148 166 0
138 156 0
142 161 0
139 156 0
136 152 0
136 154 0
143 161 0
136 155 0
148 164 0
135 153 0
139 158 0
140 157 0
141 157 0
144 160 0
134 151 0
134 148 0
141 159 0
145 161 0
137 153 0
142 158 0
139 154 0
148 166 0
139 156 0
144 162 0
141 158 0
147 162 0
137 154 0
146 163 0
142 158 0
138 151 0
146 162 0
137 152 0
151 169 0
140 156 0
146 163 0
147 165 0
140 158 0
153 170 0
144 159 0
146 163 0
141 156 0
144 161 0
148 166 0
145 161 0
140 157 0
138 153 0
148 164 0
146 161 0
142 158 0
137 150 0
144 159 0
143 157 0
147 161 0
147 163 0
150 164 0
152 169 0
142 156 0
145 160 0
146 160 0
140 156 0
149 165 0
150 166 0
144 157 0
147 161 0
147 160 0
150 165 0
149 164 0
154 169 0
147 159 0
144 160 0
155 169 0
153 168 0
152 164 0
145 158 0
151 165 0
145 156 0
141 152 0
150 162 0
150 162 0
150 159 0
139 151 0
161 174 0
151 161 0
146 158 0
147 159 0
144 148 0
144 156 0
149 158 0
147 156 0
146 154 0
151 162 0
151 159 0
151 162 0
149 159 0
153 165 0
154 164 0
155 167 0
154 166 0
151 162 0
150 161 0
155 165 0
153 166 0
149 155 0
151 159 0
151 161 0
150 164 0
154 165 0
153 163 0
156 167 0
157 169 0
157 170 0
153 163 0
153 163 0
155 165 0
162 173 0
157 166 0
157 169 0
151 159 0
158 168 0
158 169 0
157 168 0
153 162 0
155 164 0
157 167 0
156 165 0
157 166 0
158 169 0
151 160 0
154 164 0
156 165 0
159 169 0
161 172 0
156 166 0
156 165 0
161 172 0
171 194 0
171 194 0
171 194 0
172 195 0
173 196 0
164 187 0
169 192 0
170 193 0
168 192 0
168 191 0
171 194 0
174 197 0
168 192 0
169 192 0
168 190 0
172 195 0
172 195 0
169 193 0
164 187 0
170 194 0
171 193 0
167 190 0
171 194 0
168 191 0
166 189 0
167 190 0
168 192 0
166 190 0
164 187 0
169 193 0
168 191 0
169 192 0
167 189 0
165 189 0
168 192 0
163 186 0
168 191 0
164 187 0
161 184 0
167 190 0
169 192 0
164 186 0
165 188 0
167 190 0
165 188 0
164 187 0
164 186 0
162 185 0
164 186 0
167 191 0
167 190 0
165 189 0
166 188 0
160 183 0
165 188 0
164 187 0
165 188 0
163 186 0
166 189 0
164 186 0
162 185 0
164 188 0
164 186 0
166 189 0
163 186 0
164 186 0
163 186 0
158 181 0
163 185 0
161 183 0
164 187 0
163 185 0
165 187 0
162 185 0
161 184 0
163 186 0
160 182 0
160 182 0
165 188 0
157 180 0
163 185 0
161 184 0
156 179 0
155 178 0
156 178 0
158 181 0
158 180 0
163 186 0
160 183 0
161 183 0
146 168 0
153 176 0
153 177 0
160 182 0
152 174 0
157 179 0
157 180 0
155 177 0
157 179 0
160 181 0
150 172 0
160 182 0
149 172 0
160 183 0
159 182 0
148 171 0
158 180 0
158 180 0
146 168 0
150 171 0
160 181 0
154 177 0
151 172 0
156 178 0
160 182 0
149 171 0
154 175 0
151 173 0
149 171 0
158 180 0
151 173 0
159 182 0
152 173 0
158 180 0
153 176 0
154 176 0
155 177 0
151 173 0
154 177 0
156 177 0
146 168 0
151 173 0
152 173 0
153 174 0
150 173 0
151 173 0
141 163 0
151 173 0
147 167 0
144 165 0
140 161 0
146 169 0
141 163 0
148 169 0
147 168 0
127 147 0
152 172 0
141 162 0
146 166 0
138 159 0
139 161 0
143 164 0
138 157 0
137 158 0
148 170 0
133 153 0
139 159 0
146 166 0
138 160 0
137 157 0
134 155 0
129 151 0
135 156 0
145 165 0
142 163 0
136 158 0
124 144 0
146 166 0
137 158 0
130 149 0
138 159 0
140 161 0
135 154 0
141 161 0
132 151 0
128 148 0
141 161 0
131 152 0
130 150 0
125 145 0
142 163 0
137 159 0
127 146 0
137 157 0
137 156 0
132 152 0
115 135 0
128 149 0
119 138 0
135 155 0
130 148 0
131 150 0
132 153 0
142 163 0
133 152 0
139 157 0
123 143 0
133 153 0
128 148 0
123 142 0
133 153 0
139 157 0
133 153 0
135 153 0
127 146 0
135 155 0
118 138 0
127 147 0
139 159 0
133 153 0
134 153 0
125 146 0
123 142 0
117 138 0
131 150 0
130 151 0
130 150 0
121 141 0
129 149 0
132 150 0
136 155 0
136 155 0
127 146 0
131 148 0
139 160 0
122 140 0
128 146 0
130 149 0
138 158 0
134 154 0
126 145 0
137 156 0
136 154 0
132 153 0
132 151 0
142 161 0
140 158 0
126 145 0
136 154 0
129 149 0
141 159 0
140 160 0
138 156 0
127 146 0
142 160 0
139 159 0
133 151 0
134 153 0
138 155 0
131 150 0
133 152 0
125 144 0
129 146 0
132 149 0
140 160 0
137 156 0
137 156 0
130 150 0
137 155 0
133 149 0
138 158 0
134 152 0
130 147 0
129 148 0
143 160 0
134 152 0
130 150 0
142 161 0
136 152 0
141 159 0
139 158 0
138 155 0
136 153 0
141 159 0
143 159 0
137 156 0
143 161 0
135 153 0
142 160 0
137 156 0
138 157 0
128 146 0
143 162 0
143 160 0
143 161 0
143 158 0
153 171 0
139 155 0
143 160 0
137 152 0
145 162 0
141 159 0
146 164 0
143 158 0
140 154 0
145 162 0
145 162 0
144 159 0
140 156 0
148 164 0
146 164 0
140 155 0
136 152 0
149 166 0
148 165 0
143 161 0
146 160 0
134 150 0
157 172 0
138 152 0
145 160 0
143 157 0
150 166 0
143 159 0
147 164 0
152 167 0
144 158 0
145 159 0
147 164 0
143 158 0
141 157 0
155 170 0
140 154 0
146 160 0
142 156 0
149 162 0
148 162 0
147 161 0
149 162 0
148 161 0
150 164 0
148 163 0
146 160 0
144 159 0
143 157 0
144 157 0
150 164 0
158 172 0
153 167 0
154 169 0
148 160 0
144 156 0
156 170 0
152 164 0
147 159 0
149 161 0
155 167 0
146 157 0
158 171 0
151 164 0
146 158 0
154 167 0
144 155 0
149 159 0
149 161 0
148 159 0
149 160 0
152 165 0
149 161 0
161 173 0
147 155 0
157 170 0
157 168 0
160 171 0
153 165 0
156 166 0
149 160 0
156 166 0
156 166 0
157 170 0
151 160 0
155 165 0
150 160 0
156 166 0
157 167 0
151 161 0
159 171 0
155 165 0
154 162 0
156 166 0
159 171 0
153 165 0
155 167 0
160 172 0
157 170 0
160 171 0
156 166 0
153 162 0
161 171 0
155 166 0
159 168 0
160 170 0
155 162 0
157 165 0
159 170 0
160 170 0
158 167 0
158 168 0
159 169 0
151 158 0
173 195 0
172 195 0
171 194 0
172 196 0
172 196 0
169 192 0
170 193 0
172 196 0
172 195 0
169 191 0
169 193 0
167 190 0
174 197 0
172 195 0
170 193 0
170 192 0
167 190 0
168 191 0
171 194 0
167 190 0
166 189 0
172 195 0
171 194 0
168 192 0
167 190 0
169 192 0
167 190 0
167 190 0
169 192 0
164 187 0
168 191 0
168 191 0
169 192 0
166 189 0
169 192 0
168 191 0
167 190 0
164 188 0
167 189 0
162 185 0
158 181 0
169 192 0
168 191 0
167 189 0
165 187 0
167 189 0
165 187 0
164 187 0
166 188 0
166 190 0
163 186 0
166 188 0
164 187 0
171 194 0
165 188 0
167 189 0
169 192 0
168 192 0
160 183 0
164 187 0
167 190 0
164 187 0
166 189 0
162 185 0
160 182 0
159 181 0
159 182 0
162 185 0
160 182 0
161 184 0
160 184 0
159 182 0
162 185 0
167 189 0
158 181 0
161 184 0
157 179 0
163 185 0
159 183 0
162 184 0
160 182 0
160 183 0
158 180 0
160 183 0
164 186 0
162 184 0
152 174 0
159 182 0
165 188 0
154 176 0
154 178 0
152 174 0
148 169 0
161 183 0
156 178 0
156 178 0
152 175 0
154 177 0
161 183 0
154 176 0
158 180 0
158 180 0
152 174 0
159 181 0
162 183 0
151 174 0
149 171 0
150 172 0
148 170 0
154 175 0
153 176 0
148 171 0
147 169 0
150 171 0
146 168 0
156 178 0
148 170 0
158 180 0
152 174 0
144 165 0
146 167 0
154 177 0
144 165 0
153 174 0
152 173 0
151 172 0
150 173 0
156 177 0
142 163 0
142 163 0
150 170 0
146 166 0
149 170 0
148 170 0
145 166 0
143 165 0
157 178 0
151 173 0
143 165 0
148 169 0
153 174 0
139 161 0
148 170 0
151 171 0
144 166 0
132 154 0
148 170 0
138 159 0
142 163 0
145 166 0
137 158 0
144 165 0
146 166 0
134 156 0
140 161 0
141 162 0
145 167 0
151 172 0
139 159 0
145 166 0
138 157 0
136 156 0
139 160 0
142 163 0
139 159 0
134 155 0
139 160 0
144 165 0
141 161 0
135 155 0
133 154 0
135 156 0
140 160 0
134 155 0
135 155 0
137 157 0
133 153 0
128 147 0
125 145 0
143 163 0
138 159 0
132 153 0
138 158 0
139 159 0
138 158 0
132 152 0
140 159 0
124 144 0
127 146 0
128 147 0
124 144 0
128 148 0
131 150 0
137 156 0
136 154 0
119 139 0
137 155 0
140 160 0
129 148 0
132 151 0
142 163 0
139 159 0
143 162 0
135 155 0
139 159 0
134 153 0
134 153 0
124 144 0
131 150 0
126 146 0
131 150 0
129 148 0
130 149 0
124 143 0
130 150 0
129 148 0
134 152 0
130 148 0
125 143 0
129 148 0
134 152 0
136 154 0
132 152 0
141 161 0
129 150 0
118 135 0
127 145 0
125 144 0
134 152 0
129 149 0
131 150 0
133 151 0
137 156 0
120 139 0
138 157 0
133 150 0
135 154 0
131 149 0
134 152 0
140 159 0
141 160 0
141 159 0
134 153 0
141 159 0
131 150 0
135 154 0
130 148 0
129 146 0
131 148 0
126 143 0
147 167 0
141 159 0
136 153 0
142 158 0
133 152 0
139 158 0
132 152 0
138 158 0
133 151 0
132 152 0
138 155 0
137 155 0
135 151 0
142 160 0
132 150 0
132 150 0
140 158 0
137 155 0
136 154 0
134 151 0
129 145 0
130 147 0
143 162 0
130 149 0
136 153 0
138 157 0
138 155 0
145 164 0
129 145 0
148 166 0
136 155 0
140 160 0
132 150 0
141 157 0
144 161 0
150 167 0
146 164 0
150 168 0
147 164 0
147 165 0
144 162 0
148 168 0
139 157 0
141 159 0
144 163 0
146 162 0
148 164 0
143 160 0
145 163 0
138 155 0
144 160 0
148 166 0
142 157 0
145 162 0
154 173 0
144 159 0
145 161 0
146 162 0
143 160 0
139 154 0
137 151 0
152 167 0
150 165 0
150 165 0
145 159 0
152 166 0
149 165 0
144 157 0
143 156 0
147 165 0
154 168 0
149 164 0
144 157 0
145 158 0
155 172 0
146 161 0
150 165 0
142 155 0
146 161 0
150 166 0
147 160 0
148 163 0
153 167 0
148 162 0
152 168 0
153 166 0
148 161 0
142 155 0
147 160 0
143 153 0
149 161 0
152 166 0
153 169 0
145 155 0
152 165 0
150 162 0
150 163 0
151 163 0
150 163 0
157 172 0
149 162 0
151 163 0
157 171 0
152 165 0
148 161 0
153 165 0
151 164 0
148 158 0
151 162 0
150 161 0
159 171 0
154 165 0
152 164 0
149 160 0
159 172 0
155 169 0
156 165 0
150 161 0
153 165 0
154 165 0
158 171 0
152 161 0
152 160 0
153 164 0
153 163 0
149 159 0
155 167 0
152 161 0
153 164 0
161 172 0
153 163 0
158 167 0
151 159 0
149 157 0
152 161 0
155 166 0
154 167 0
153 166 0
150 156 0
161 172 0
161 172 0
159 168 0
158 167 0
156 166 0
158 170 0
157 167 0
155 165 0
160 171 0
160 168 0
161 172 0
170 194 0
170 193 0
172 195 0
169 193 0
170 194 0
172 195 0
169 193 0
166 189 0
171 194 0
169 192 0
167 190 0
168 191 0
172 195 0
170 193 0
168 191 0
171 194 0
170 193 0
169 193 0
168 192 0
169 191 0
169 193 0
163 186 0
168 191 0
169 193 0
167 190 0
169 192 0
169 192 0
166 189 0
166 189 0
169 192 0
171 195 0
169 192 0
162 185 0
168 191 0
169 191 0
171 194 0
168 191 0
170 193 0
168 191 0
167 190 0
168 190 0
164 187 0
165 188 0
165 188 0
167 189 0
167 190 0
163 186 0
171 194 0
165 188 0
163 185 0
168 192 0
163 186 0
160 182 0
163 186 0
160 183 0
161 184 0
165 188 0
156 177 0
161 182 0
166 188 0
158 181 0
167 190 0
157 179 0
164 187 0
162 185 0
167 190 0
162 185 0
157 180 0
165 188 0
166 189 0
165 187 0
163 185 0
163 186 0
165 187 0
163 185 0
153 176 0
162 185 0
157 180 0
154 176 0
161 184 0
159 182 0
166 188 0
160 182 0
160 183 0
164 187 0
159 181 0
161 183 0
157 179 0
160 182 0
157 180 0
167 189 0
161 183 0
155 179 0
161 183 0
155 178 0
155 178 0
156 178 0
156 178 0
160 182 0
158 180 0
151 173 0
156 177 0
155 177 0
159 181 0
158 180 0
152 173 0
156 178 0
166 188 0
153 175 0
150 174 0
159 181 0
154 175 0
151 174 0
155 177 0
156 177 0
154 177 0
156 177 0
151 173 0
154 176 0
154 176 0
151 174 0
148 169 0
149 171 0
152 174 0
147 170 0
164 187 0
145 168 0
157 178 0
149 170 0
139 161 0
145 167 0
154 174 0
144 166 0
152 173 0
150 171 0
148 169 0
147 169 0
147 168 0
141 164 0
147 169 0
140 161 0
142 163 0
143 165 0
131 152 0
152 174 0
146 168 0
146 168 0
141 162 0
142 162 0
138 159 0
148 169 0
140 161 0
137 159 0
142 163 0
143 165 0
142 164 0
128 148 0
149 170 0
142 162 0
147 167 0
144 165 0
138 159 0
136 157 0
129 149 0
142 161 0
141 161 0
130 149 0
127 147 0
137 156 0
135 156 0
141 160 0
129 149 0
127 147 0
140 159 0
138 157 0
134 155 0
138 158 0
135 155 0
134 154 0
129 150 0
130 149 0
131 152 0
134 155 0
135 154 0
136 157 0
133 154 0
141 160 0
140 161 0
133 154 0
139 161 0
137 156 0
124 144 0
134 153 0
128 146 0
131 149 0
129 149 0
129 150 0
140 159 0
122 140 0
132 152 0
128 146 0
140 159 0
134 155 0
139 160 0
137 156 0
131 150 0
131 150 0
138 157 0
132 150 0
136 156 0
133 153 0
133 153 0
122 140 0
132 152 0
134 154 0
130 150 0
129 148 0
134 154 0
129 147 0
140 160 0
127 146 0
134 153 0
135 155 0
124 143 0
123 143 0
140 159 0
134 153 0
125 146 0
131 150 0
141 160 0
136 154 0
134 152 0
130 148 0
133 151 0
132 152 0
137 157 0
135 154 0
129 146 0
140 160 0
135 152 0
133 153 0
137 156 0
139 159 0
145 163 0
130 149 0
137 155 0
130 148 0
142 162 0
135 154 0
136 155 0
142 160 0
125 143 0
144 165 0
140 158 0
138 157 0
143 161 0
138 157 0
129 146 0
141 159 0
140 159 0
140 158 0
139 157 0
137 155 0
132 150 0
145 161 0
135 154 0
143 163 0
134 151 0
146 165 0
146 165 0
138 157 0
138 157 0
133 151 0
137 155 0
133 150 0
146 164 0
140 157 0
140 158 0
148 166 0
141 160 0
138 155 0
142 161 0
141 160 0
145 163 0
140 157 0
148 167 0
142 157 0
136 153 0
147 164 0
144 162 0
151 169 0
145 162 0
138 156 0
150 166 0
147 164 0
139 156 0
135 150 0
152 167 0
148 166 0
141 159 0
151 167 0
140 159 0
139 156 0
148 164 0
147 165 0
150 166 0
144 161 0
142 158 0
144 159 0
147 162 0
151 167 0
147 164 0
140 155 0
141 157 0
133 147 0
151 168 0
151 167 0
142 158 0
137 152 0
150 164 0
148 164 0
154 169 0
147 164 0
146 162 0
144 158 0
150 166 0
147 162 0
145 161 0
145 157 0
147 161 0
150 166 0
151 163 0
148 163 0
152 168 0
154 170 0
153 165 0
154 169 0
140 153 0
150 166 0
149 162 0
152 165 0
154 169 0
148 162 0
155 169 0
148 161 0
146 159 0
146 159 0
149 162 0
150 164 0
149 160 0
148 161 0
152 166 0
150 165 0
152 164 0
154 166 0
156 169 0
151 161 0
153 165 0
156 167 0
155 169 0
146 158 0
153 166 0
153 164 0
150 161 0
157 169 0
154 164 0
151 161 0
154 164 0
149 159 0
149 160 0
149 158 0
149 160 0
153 165 0
150 161 0
155 164 0
155 165 0
152 160 0
156 173 0
160 171 0
158 170 0
152 162 0
154 163 0
158 167 0
154 164 0
160 172 0
154 163 0
158 170 0
154 164 0
155 165 0
163 172 0
161 173 0
151 161 0
154 164 0
154 162 0
156 166 0
155 162 0
161 173 0
160 173 0
158 167 0
158 166 0
169 192 0
169 192 0
166 189 0
168 192 0
174 197 0
170 193 0
171 194 0
166 189 0
168 191 0
169 192 0
168 191 0
172 195 0
172 196 0
170 193 0
169 192 0
169 193 0
167 191 0
168 191 0
163 187 0
167 190 0
172 195 0
170 194 0
170 193 0
169 192 0
168 192 0
170 193 0
167 191 0
166 190 0
169 190 0
167 190 0
164 187 0
165 189 0
164 186 0
162 185 0
167 191 0
169 192 0
166 188 0
163 186 0
169 191 0
165 187 0
166 189 0
165 188 0
164 187 0
167 190 0
167 189 0
159 182 0
167 189 0
167 191 0
164 187 0
165 188 0
163 186 0
166 188 0
161 184 0
164 186 0
162 185 0
166 189 0
162 185 0
163 186 0
167 190 0
167 189 0
169 192 0
167 190 0
159 181 0
160 182 0
158 181 0
161 184 0
161 184 0
157 179 0
163 186 0
171 194 0
163 185 0
166 188 0
159 181 0
165 188 0
160 183 0
159 181 0
159 182 0
157 180 0
165 187 0
158 181 0
165 187 0
160 183 0
158 180 0
157 179 0
157 180 0
156 179 0
156 179 0
164 186 0
162 184 0
161 184 0
156 179 0
158 181 0
161 184 0
154 177 0
164 186 0
164 187 0
156 178 0
161 182 0
157 180 0
150 172 0
155 178 0
157 179 0
159 180 0
156 178 0
157 179 0
159 181 0
152 175 0
153 175 0
157 178 0
159 181 0
151 174 0
150 173 0
151 172 0
154 176 0
156 178 0
152 174 0
156 177 0
151 174 0
154 176 0
154 176 0
151 172 0
158 180 0
159 181 0
149 171 0
155 177 0
155 178 0
150 172 0
141 163 0
146 167 0
152 174 0
157 179 0
158 179 0
152 174 0
154 175 0
147 169 0
155 176 0
149 171 0
148 169 0
150 172 0
146 168 0
148 170 0
151 172 0
150 172 0
142 163 0
143 164 0
145 165 0
146 167 0
143 164 0
138 159 0
136 156 0
131 152 0
134 155 0
150 171 0
144 165 0
145 166 0
152 173 0
132 153 0
145 166 0
146 167 0
145 164 0
134 155 0
143 163 0
140 160 0
134 155 0
138 158 0
146 167 0
137 158 0
133 154 0
145 166 0
133 153 0
136 156 0
138 158 0
139 160 0
139 158 0
130 150 0
139 159 0
138 158 0
139 161 0
144 165 0
131 151 0
138 158 0
142 163 0
128 149 0
139 160 0
129 149 0
126 147 0
132 153 0
129 149 0
135 154 0
131 150 0
130 151 0
134 155 0
134 154 0
134 154 0
137 156 0
133 153 0
141 161 0
134 153 0
135 154 0
128 147 0
134 153 0
139 159 0
134 152 0
132 151 0
135 156 0
126 147 0
135 153 0
140 160 0
142 163 0
144 164 0
134 153 0
141 162 0
133 154 0
133 152 0
128 147 0
137 156 0
122 140 0
133 152 0
129 148 0
141 159 0
125 145 0
131 152 0
129 148 0
139 158 0
135 153 0
125 143 0
140 160 0
130 150 0
136 155 0
133 152 0
131 151 0
136 155 0
132 150 0
136 155 0
134 153 0
125 143 0
139 158 0
135 155 0
139 158 0
133 150 0
133 152 0
133 151 0
137 157 0
131 152 0
134 153 0
128 147 0
139 159 0
136 155 0
130 148 0
140 160 0
137 155 0
136 152 0
141 160 0
142 162 0
135 154 0
128 147 0
140 159 0
140 160 0
129 147 0
145 164 0
140 160 0
137 154 0
133 151 0
140 158 0
132 152 0
136 155 0
137 156 0
138 155 0
147 165 0
144 165 0
135 151 0
140 159 0
142 162 0
138 156 0
140 159 0
140 158 0
131 149 0
131 148 0
134 150 0
136 154 0
154 172 0
144 162 0
145 162 0
146 164 0
134 152 0
151 169 0
143 161 0
135 153 0
144 162 0
143 159 0
145 163 0
141 159 0
146 163 0
138 158 0
144 161 0
139 157 0
140 157 0
142 160 0
147 164 0
147 168 0
150 167 0
152 171 0
146 163 0
148 165 0
150 168 0
146 163 0
145 161 0
141 156 0
150 166 0
146 161 0
148 163 0
146 162 0
143 160 0
142 159 0
152 169 0
143 160 0
144 158 0
147 165 0
138 153 0
148 165 0
146 161 0
151 167 0
144 158 0
148 164 0
140 157 0
144 158 0
146 161 0
148 161 0
142 157 0
148 164 0
149 164 0
150 164 0
151 165 0
152 165 0
154 171 0
151 163 0
152 166 0
146 159 0
148 162 0
153 167 0
148 164 0
148 163 0
151 164 0
148 162 0
151 165 0
153 165 0
148 162 0
150 163 0
154 169 0
149 163 0
152 167 0
151 163 0
147 160 0
150 161 0
151 164 0
152 164 0
152 165 0
151 163 0
156 169 0
151 163 0
151 163 0
151 162 0
151 162 0
153 166 0
143 153 0
152 163 0
153 163 0
148 162 0
160 171 0
152 163 0
154 164 0
156 168 0
155 165 0
154 166 0
157 169 0
153 164 0
158 169 0
151 164 0
156 168 0
156 165 0
155 166 0
159 171 0
152 161 0
157 171 0
153 166 0
160 171 0
157 167 0
158 169 0
157 166 0
156 166 0
156 164 0
154 164 0
156 165 0
162 172 0
161 172 0
158 169 0
162 176 0
158 170 0
162 172 0
159 168 0
169 192 0
172 195 0
168 192 0
170 193 0
175 198 0
169 192 0
170 192 0
172 195 0
171 194 0
168 191 0
168 191 0
168 191 0
167 190 0
169 192 0
171 194 0
167 190 0
166 189 0
169 193 0
167 191 0
167 191 0
169 192 0
172 195 0
168 191 0
171 193 0
168 191 0
171 194 0
165 188 0
165 187 0
167 189 0
166 190 0
173 195 0
167 191 0
168 190 0
165 188 0
161 185 0
169 192 0
160 184 0
168 191 0
168 190 0
167 190 0
171 194 0
166 188 0
164 187 0
168 191 0
163 187 0
169 192 0
168 191 0
166 189 0
165 188 0
166 189 0
165 188 0
166 189 0
164 187 0
165 188 0
162 185 0
168 191 0
157 180 0
156 180 0
161 184 0
166 188 0
165 188 0
167 189 0
158 180 0
163 186 0
162 185 0
162 185 0
164 187 0
165 188 0
164 186 0
165 187 0
161 185 0
161 183 0
163 186 0
167 189 0
159 181 0
163 185 0
162 185 0
167 189 0
157 180 0
160 183 0
163 186 0
160 183 0
153 175 0
159 183 0
156 179 0
157 180 0
163 185 0
163 185 0
164 187 0
161 183 0
164 186 0
155 177 0
155 177 0
160 182 0
158 182 0
161 184 0
159 181 0
156 178 0
153 176 0
146 168 0
160 182 0
151 174 0
160 182 0
154 177 0
155 177 0
149 172 0
155 177 0
148 170 0
157 179 0
150 172 0
157 179 0
162 184 0
157 180 0
153 175 0
154 176 0
158 180 0
154 176 0
152 174 0
155 176 0
153 175 0
151 173 0
150 172 0
149 171 0
156 178 0
146 168 0
141 162 0
155 177 0
149 171 0
149 170 0
150 173 0
148 169 0
150 172 0
150 170 0
149 170 0
146 169 0
144 166 0
149 171 0
149 171 0
141 162 0
152 174 0
147 170 0
144 165 0
148 169 0
146 168 0
139 160 0
148 169 0
147 169 0
145 166 0
152 173 0
141 164 0
149 170 0
145 167 0
150 171 0
139 160 0
135 156 0
142 162 0
141 162 0
143 165 0
143 164 0
137 158 0
138 159 0
130 151 0
134 155 0
148 168 0
145 167 0
138 158 0
142 163 0
135 156 0
146 166 0
137 157 0
146 167 0
137 157 0
138 158 0
137 157 0
142 163 0
134 154 0
133 154 0
132 153 0
132 152 0
129 149 0
139 159 0
131 151 0
134 152 0
129 150 0
133 153 0
137 157 0
140 160 0
137 158 0
127 148 0
136 156 0
137 157 0
127 147 0
129 149 0
140 161 0
136 157 0
131 151 0
135 154 0
135 155 0
130 149 0
140 161 0
136 155 0
126 147 0
128 147 0
128 148 0
136 156 0
141 162 0
131 150 0
135 155 0
135 153 0
123 143 0
136 155 0
132 150 0
136 154 0
134 153 0
141 161 0
139 158 0
131 150 0
141 161 0
133 152 0
133 152 0
131 150 0
131 150 0
133 152 0
137 157 0
126 146 0
144 162 0
136 155 0
133 152 0
129 149 0
136 156 0
138 156 0
135 154 0
139 159 0
122 142 0
139 157 0
124 145 0
137 155 0
130 149 0
134 153 0
137 156 0
141 160 0
142 163 0
138 156 0
137 156 0
132 150 0
141 160 0
131 150 0
144 164 0
140 159 0
132 152 0
140 159 0
139 159 0
134 154 0
138 156 0
137 157 0
133 152 0
131 149 0
142 159 0
129 146 0
143 161 0
142 160 0
142 161 0
132 149 0
138 156 0
137 155 0
136 153 0
142 159 0
139 158 0
134 153 0
145 164 0
133 152 0
134 152 0
139 158 0
138 157 0
139 155 0
139 156 0
136 155 0
134 152 0
136 154 0
136 154 0
146 164 0
146 165 0
142 161 0
140 157 0
146 163 0
143 161 0
146 165 0
144 160 0
140 157 0
136 152 0
146 165 0
131 148 0
148 167 0
136 155 0
140 159 0
139 156 0
148 166 0
145 161 0
146 164 0
147 162 0
142 162 0
143 159 0
139 156 0
142 158 0
143 158 0
150 167 0
144 162 0
144 161 0
148 166 0
151 169 0
144 160 0
152 167 0
146 162 0
144 160 0
147 164 0
146 164 0
143 158 0
145 163 0
151 164 0
148 164 0
142 157 0
147 163 0
145 162 0
148 163 0
147 162 0
147 161 0
149 166 0
153 168 0
154 168 0
148 163 0
151 167 0
145 159 0
147 162 0
157 173 0
147 162 0
152 168 0
146 162 0
153 169 0
151 166 0
149 165 0
156 172 0
153 168 0
140 153 0
143 157 0
146 160 0
156 170 0
151 166 0
148 161 0
150 163 0
153 171 0
153 165 0
156 171 0
156 167 0
158 171 0
145 158 0
156 169 0
148 160 0
151 166 0
156 169 0
157 169 0
151 165 0
148 161 0
161 174 0
153 170 0
154 168 0
154 164 0
148 157 0
156 169 0
148 157 0
149 162 0
148 162 0
157 168 0
150 162 0
155 166 0
152 164 0
151 161 0
153 162 0
154 166 0
154 164 0
155 166 0
154 163 0
155 166 0
153 163 0
151 162 0
155 165 0
155 166 0
156 169 0
153 165 0
162 172 0
153 163 0
157 168 0
157 167 0
159 172 0
162 174 0
157 169 0
156 167 0
158 169 0
156 167 0
161 173 0
156 170 0
171 194 0
169 192 0
170 193 0
169 192 0
168 190 0
171 194 0
171 193 0
169 192 0
174 197 0
166 190 0
169 192 0
171 194 0
169 191 0
166 189 0
169 192 0
168 191 0
168 192 0
165 188 0
168 191 0
166 189 0
163 186 0
169 192 0
163 187 0
168 191 0
168 191 0
173 196 0
163 187 0
168 191 0
169 192 0
168 191 0
165 187 0
168 191 0
165 189 0
170 194 0
168 191 0
167 190 0
163 186 0
167 190 0
170 194 0
162 185 0
164 187 0
167 190 0
164 187 0
165 189 0
159 182 0
163 186 0
165 189 0
163 186 0
166 188 0
163 185 0
164 187 0
163 186 0
163 186 0
162 184 0
167 190 0
160 183 0
163 186 0
161 184 0
156 180 0
160 183 0
167 190 0
160 183 0
161 183 0
165 188 0
159 182 0
166 189 0
165 188 0
168 191 0
169 192 0
161 184 0
161 183 0
158 181 0
155 178 0
162 185 0
165 187 0
162 184 0
161 184 0
159 181 0
164 186 0
163 186 0
163 185 0
162 184 0
161 183 0
160 183 0
162 184 0
167 190 0
157 180 0
162 184 0
158 181 0
155 178 0
157 180 0
159 181 0
159 180 0
157 179 0
157 179 0
160 183 0
153 175 0
163 186 0
151 174 0
151 173 0
159 180 0
151 173 0
158 180 0
150 173 0
159 181 0
160 183 0
159 181 0
152 173 0
155 177 0
160 182 0
159 181 0
157 179 0
152 174 0
161 183 0
152 173 0
150 171 0
151 172 0
153 175 0
149 170 0
157 180 0
146 167 0
146 167 0
151 173 0
151 173 0
143 165 0
146 168 0
155 177 0
152 174 0
145 167 0
150 171 0
152 173 0
154 176 0
148 170 0
144 166 0
145 167 0
148 170 0
147 168 0
157 180 0
147 169 0
148 169 0
149 171 0
128 150 0
143 164 0
148 170 0
148 170 0
146 167 0
144 165 0
146 168 0
152 174 0
151 172 0
147 167 0
144 166 0
144 165 0
146 166 0
145 166 0
143 163 0
146 166 0
141 161 0
143 164 0
141 162 0
140 160 0
138 159 0
145 165 0
151 172 0
132 151 0
134 154 0
135 155 0
146 166 0
131 151 0
133 155 0
128 148 0
138 158 0
134 155 0
130 150 0
149 169 0
138 159 0
145 168 0
149 170 0
134 155 0
135 157 0
133 152 0
132 152 0
143 162 0
134 155 0
139 160 0
130 150 0
138 158 0
129 149 0
135 155 0
137 158 0
134 153 0
139 160 0
133 154 0
131 151 0
139 159 0
132 151 0
137 156 0
139 159 0
136 156 0
139 160 0
138 158 0
132 152 0
135 156 0
131 152 0
141 160 0
136 155 0
130 151 0
129 148 0
138 160 0
138 158 0
133 153 0
132 153 0
128 147 0
130 149 0
141 161 0
135 155 0
126 145 0
133 151 0
127 147 0
128 147 0
129 149 0
129 150 0
141 160 0
143 162 0
120 139 0
138 157 0
133 153 0
131 151 0
142 159 0
128 148 0
138 158 0
127 146 0
133 152 0
130 149 0
137 156 0
139 157 0
142 160 0
139 159 0
134 155 0
133 151 0
140 160 0
139 159 0
139 157 0
136 155 0
138 156 0
144 162 0
132 153 0
137 155 0
138 157 0
141 161 0
138 157 0
132 151 0
142 160 0
140 159 0
138 155 0
134 151 0
143 161 0
135 153 0
143 161 0
131 148 0
141 160 0
137 157 0
138 156 0
139 158 0
142 162 0
144 163 0
142 160 0
137 154 0
139 160 0
138 154 0
145 164 0
142 159 0
142 161 0
141 160 0
145 164 0
141 159 0
146 164 0
143 163 0
145 161 0
136 156 0
144 161 0
150 170 0
145 163 0
137 154 0
140 159 0
146 166 0
139 156 0
140 157 0
140 158 0
146 165 0
142 158 0
142 159 0
143 161 0
140 155 0
139 157 0
148 165 0
148 166 0
141 157 0
145 166 0
143 161 0
149 164 0
153 171 0
151 168 0
145 161 0
142 159 0
141 158 0
153 173 0
150 167 0
152 170 0
153 171 0
152 169 0
146 164 0
145 162 0
143 160 0
150 167 0
142 157 0
145 161 0
145 160 0
147 163 0
140 157 0
150 166 0
152 168 0
144 160 0
150 167 0
148 165 0
145 159 0
143 157 0
147 163 0
156 171 0
153 169 0
141 157 0
151 167 0
152 168 0
151 165 0
149 164 0
152 165 0
139 151 0
149 162 0
151 164 0
150 165 0
150 164 0
146 159 0
158 174 0
149 164 0
141 157 0
151 163 0
147 159 0
149 163 0
149 162 0
144 160 0
157 172 0
152 165 0
154 168 0
155 169 0
154 169 0
147 159 0
147 158 0
150 160 0
150 165 0
146 157 0
152 166 0
155 170 0
153 165 0
155 169 0
158 172 0
153 165 0
154 167 0
156 169 0
151 162 0
155 169 0
158 171 0
149 161 0
150 160 0
157 170 0
151 163 0
154 164 0
155 169 0
153 167 0
152 165 0
157 169 0
156 167 0
155 166 0
160 170 0
158 169 0
156 167 0
153 166 0
157 170 0
157 167 0
158 172 0
152 163 0
156 166 0
160 171 0
160 172 0
160 170 0
154 163 0
159 170 0
163 176 0
160 172 0
156 166 0
160 169 0
167 190 0
170 194 0
172 195 0
171 195 0
172 195 0
169 193 0
171 194 0
169 192 0
173 196 0
168 191 0
167 190 0
170 193 0
169 192 0
168 191 0
169 192 0
169 192 0
169 192 0
169 193 0
167 191 0
167 191 0
167 191 0
167 190 0
169 192 0
164 188 0
164 188 0
168 191 0
163 187 0
167 190 0
165 188 0
172 195 0
167 190 0
162 184 0
165 188 0
171 194 0
167 191 0
166 189 0
167 191 0
165 188 0
161 185 0
168 191 0
159 183 0
164 187 0
167 190 0
168 190 0
168 191 0
166 189 0
164 187 0
164 187 0
168 191 0
161 184 0
166 189 0
161 184 0
158 180 0
162 184 0
167 190 0
162 185 0
166 189 0
165 187 0
163 186 0
160 183 0
165 187 0
165 187 0
165 189 0
166 188 0
162 185 0
159 181 0
159 182 0
161 184 0
161 183 0
157 180 0
164 186 0
158 180 0
163 186 0
162 184 0
162 184 0
160 182 0
159 181 0
156 178 0
158 181 0
164 187 0
156 179 0
154 177 0
154 176 0
156 178 0
162 185 0
156 178 0
154 177 0
159 181 0
160 183 0
159 182 0
161 183 0
158 181 0
161 184 0
161 183 0
162 185 0
159 181 0
156 180 0
157 179 0
156 178 0
163 185 0
156 179 0
151 172 0
163 185 0
158 180 0
158 180 0
151 174 0
167 188 0
156 178 0
156 180 0
161 182 0
157 180 0
158 180 0
155 177 0
154 176 0
153 176 0
152 174 0
153 175 0
145 166 0
153 175 0
150 172 0
151 174 0
150 172 0
149 171 0
151 173 0
149 171 0
151 173 0
151 172 0
150 172 0
151 173 0
146 168 0
154 176 0
151 173 0
142 163 0
149 171 0
149 169 0
156 178 0
157 178 0
147 168 0
151 174 0
140 163 0
147 168 0
150 170 0
138 161 0
153 174 0
142 164 0
143 165 0
139 160 0
147 169 0
149 169 0
139 160 0
159 181 0
146 166 0
149 171 0
141 161 0
142 163 0
149 171 0
136 157 0
148 170 0
132 153 0
139 160 0
142 162 0
144 165 0
152 173 0
139 160 0
146 167 0
131 151 0
147 168 0
143 163 0
132 152 0
133 154 0
129 149 0
141 162 0
130 150 0
144 165 0
136 157 0
151 172 0
135 156 0
135 155 0
143 163 0
138 157 0
122 142 0
141 161 0
140 160 0
136 157 0
142 163 0
132 153 0
140 160 0
125 145 0
133 154 0
137 157 0
137 157 0
135 154 0
131 151 0
128 147 0
140 160 0
117 138 0
128 146 0
139 160 0
132 153 0
131 152 0
137 157 0
136 156 0
132 154 0
140 161 0
131 151 0
135 154 0
139 159 0
134 152 0
139 159 0
139 160 0
128 149 0
133 152 0
131 152 0
136 156 0
134 155 0
127 147 0
129 148 0
134 154 0
127 145 0
142 161 0
134 154 0
138 159 0
137 157 0
128 148 0
133 152 0
139 159 0
131 150 0
134 154 0
128 149 0
129 149 0
138 158 0
142 160 0
131 151 0
141 160 0
140 161 0
139 158 0
132 151 0
129 150 0
142 162 0
134 154 0
140 159 0
136 155 0
142 160 0
139 158 0
139 158 0
134 153 0
131 151 0
140 159 0
141 160 0
138 158 0
138 157 0
136 153 0
138 158 0
143 163 0
138 155 0
143 162 0
132 152 0
137 158 0
137 155 0
133 152 0
138 159 0
141 161 0
142 159 0
147 166 0
146 165 0
140 157 0
143 161 0
139 159 0
144 162 0
136 154 0
145 165 0
143 160 0
138 156 0
131 149 0
141 160 0
150 169 0
139 158 0
144 163 0
146 164 0
139 157 0
139 158 0
146 164 0
144 160 0
142 159 0
146 166 0
140 156 0
147 166 0
149 166 0
148 168 0
144 162 0
143 163 0
146 163 0
145 163 0
143 158 0
153 171 0
144 162 0
139 158 0
150 167 0
140 156 0
147 165 0
148 162 0
145 165 0
149 167 0
142 161 0
148 165 0
148 165 0
140 157 0
149 162 0
144 160 0
146 161 0
149 166 0
140 156 0
143 158 0
147 166 0
157 176 0
149 167 0
144 160 0
143 160 0
156 172 0
158 176 0
154 170 0
149 167 0
144 158 0
146 161 0
144 159 0
145 161 0
156 175 0
147 164 0
145 161 0
151 167 0
148 162 0
148 163 0
149 163 0
149 165 0
143 159 0
157 171 0
154 170 0
150 165 0
150 163 0
148 162 0
145 161 0
153 168 0
159 174 0
145 159 0
155 172 0
149 164 0
157 172 0
156 171 0
148 161 0
150 162 0
146 158 0
151 164 0
145 159 0
150 161 0
154 171 0
157 170 0
150 162 0
153 167 0
157 171 0
159 174 0
146 159 0
153 165 0
146 157 0
155 168 0
163 175 0
146 156 0
155 167 0
155 168 0
151 164 0
152 164 0
158 172 0
155 168 0
155 168 0
152 163 0
152 162 0
151 159 0
153 165 0
157 170 0
157 169 0
156 168 0
160 172 0
160 173 0
155 167 0
159 172 0
153 164 0
160 171 0
158 171 0
159 170 0
153 166 0
156 166 0
160 173 0
160 176 0
163 174 0
163 175 0
159 173 0
155 166 0
164 178 0
158 171 0
155 165 0
160 173 0
173 196 0
170 194 0
172 195 0
167 190 0
170 193 0
168 191 0
171 194 0
170 194 0
168 192 0
171 194 0
168 192 0
172 195 0
173 196 0
167 189 0
167 190 0
169 192 0
168 191 0
167 190 0
167 190 0
167 191 0
163 186 0
168 191 0
169 193 0
163 186 0
167 190 0
168 190 0
163 186 0
166 188 0
168 190 0
165 187 0
165 188 0
168 191 0
166 189 0
170 192 0
171 194 0
166 190 0
165 188 0
166 189 0
164 186 0
160 182 0
163 187 0
170 194 0
163 187 0
166 189 0
160 183 0
164 186 0
163 187 0
164 186 0
166 188 0
160 182 0
168 190 0
164 186 0
164 187 0
160 183 0
163 186 0
163 186 0
161 183 0
163 184 0
159 182 0
168 190 0
161 183 0
167 190 0
161 184 0
163 185 0
162 185 0
166 188 0
163 186 0
164 187 0
160 182 0
158 180 0
158 181 0
160 182 0
158 181 0
152 176 0
162 185 0
160 183 0
153 175 0
161 183 0
157 179 0
158 181 0
161 184 0
157 180 0
156 178 0
157 179 0
154 176 0
164 186 0
160 183 0
160 182 0
157 179 0
156 178 0
162 184 0
154 176 0
157 179 0
156 178 0
164 186 0
160 182 0
151 173 0
152 174 0
152 175 0
159 180 0
156 178 0
161 184 0
152 174 0
160 182 0
155 176 0
158 181 0
163 184 0
153 176 0
158 179 0
157 178 0
153 176 0
154 175 0
157 179 0
151 172 0
154 177 0
149 171 0
153 174 0
155 177 0
151 173 0
153 175 0
155 177 0
156 178 0
156 178 0
153 175 0
148 169 0
149 170 0
154 175 0
154 177 0
156 178 0
147 169 0
150 172 0
156 178 0
147 169 0
147 168 0
154 176 0
148 169 0
153 174 0
153 174 0
148 169 0
150 171 0
140 162 0
151 174 0
142 163 0
146 168 0
145 167 0
137 158 0
150 171 0
146 167 0
144 166 0
147 168 0
150 171 0
132 153 0
152 173 0
144 165 0
140 161 0
149 169 0
138 159 0
146 167 0
143 163 0
145 166 0
147 167 0
133 154 0
148 168 0
131 151 0
142 162 0
135 156 0
133 154 0
132 152 0
144 164 0
142 163 0
136 157 0
129 150 0
140 161 0
145 166 0
144 165 0
137 158 0
138 159 0
139 159 0
137 158 0
133 154 0
141 162 0
142 162 0
133 153 0
141 162 0
136 156 0
146 167 0
143 163 0
132 151 0
135 155 0
142 163 0
140 161 0
133 154 0
132 152 0
134 154 0
133 154 0
137 157 0
136 157 0
142 162 0
146 166 0
126 146 0
136 156 0
141 161 0
129 149 0
137 158 0
134 154 0
136 156 0
138 158 0
136 155 0
144 164 0
127 148 0
136 156 0
135 156 0
132 151 0
138 156 0
132 153 0
128 149 0
144 165 0
138 157 0
127 147 0
136 156 0
132 150 0
137 155 0
129 148 0
129 148 0
128 147 0
134 154 0
133 152 0
142 161 0
134 153 0
135 155 0
142 160 0
140 158 0
151 171 0
135 155 0
128 147 0
134 154 0
125 144 0
127 145 0
133 152 0
136 155 0
142 161 0
132 151 0
131 150 0
141 161 0
136 155 0
140 160 0
132 150 0
133 151 0
136 154 0
137 156 0
136 154 0
141 161 0
135 153 0
142 161 0
133 152 0
143 163 0
131 150 0
134 155 0
136 153 0
137 156 0
140 160 0
144 162 0
136 155 0
145 165 0
148 168 0
136 155 0
135 154 0
147 164 0
140 160 0
138 157 0
140 160 0
140 160 0
143 161 0
144 162 0
145 165 0
137 154 0
139 158 0
140 158 0
141 160 0
130 148 0
135 152 0
140 158 0
144 163 0
142 160 0
149 168 0
139 157 0
147 166 0
139 157 0
144 160 0
136 153 0
141 157 0
139 156 0
146 163 0
147 163 0
140 159 0
148 165 0
148 166 0
145 162 0
142 159 0
135 150 0
142 160 0
150 168 0
138 156 0
138 154 0
141 157 0
143 161 0
148 164 0
147 164 0
149 165 0
142 158 0
153 169 0
148 164 0
141 157 0
147 165 0
145 160 0
147 165 0
148 164 0
141 155 0
148 165 0
153 171 0
158 174 0
152 167 0
142 156 0
149 167 0
138 152 0
155 170 0
154 172 0
151 167 0
147 160 0
153 169 0
149 165 0
149 166 0
152 170 0
152 168 0
152 168 0
150 166 0
143 158 0
147 160 0
151 165 0
142 157 0
147 161 0
150 165 0
149 163 0
151 168 0
154 171 0
143 159 0
153 167 0
151 166 0
150 164 0
153 169 0
155 171 0
143 155 0
148 162 0
157 169 0
154 167 0
159 174 0
154 168 0
150 163 0
151 165 0
145 158 0
151 163 0
156 169 0
157 172 0
146 157 0
155 170 0
153 164 0
149 162 0
155 168 0
154 167 0
156 171 0
158 170 0
153 168 0
154 165 0
153 163 0
157 170 0
159 172 0
153 165 0
151 161 0
159 173 0
156 169 0
154 166 0
155 168 0
156 166 0
156 169 0
153 167 0
158 171 0
157 168 0
156 166 0
157 167 0
155 166 0
155 169 0
163 177 0
161 175 0
157 169 0
153 164 0
162 175 0
161 175 0
158 171 0
156 168 0
161 173 0
170 192 0
170 193 0
167 189 0
170 194 0
170 193 0
168 191 0
171 193 0
165 188 0
170 193 0
169 193 0
168 192 0
171 193 0
167 190 0
169 192 0
169 192 0
167 190 0
165 188 0
164 187 0
168 191 0
163 186 0
167 189 0
167 190 0
163 186 0
167 190 0
168 190 0
163 187 0
169 192 0
167 190 0
166 189 0
165 189 0
169 191 0
166 189 0
166 189 0
170 193 0
165 188 0
165 189 0
164 187 0
168 191 0
163 186 0
162 186 0
170 192 0
164 187 0
168 191 0
162 185 0
166 189 0
163 185 0
161 184 0
170 193 0
163 186 0
165 187 0
163 186 0
164 187 0
160 183 0
162 185 0
162 184 0
164 186 0
164 187 0
161 184 0
167 190 0
169 192 0
166 189 0
163 186 0
164 187 0
165 187 0
165 188 0
156 179 0
161 184 0
158 180 0
160 183 0
159 182 0
160 184 0
162 185 0
155 178 0
161 185 0
161 184 0
159 181 0
160 183 0
154 176 0
158 180 0
163 186 0
158 180 0
153 175 0
159 182 0
158 180 0
162 185 0
163 186 0
158 181 0
163 185 0
158 180 0
154 176 0
154 177 0
150 172 0
160 182 0
160 183 0
153 176 0
160 182 0
159 182 0
151 174 0
156 178 0
152 174 0
154 176 0
156 177 0
161 184 0
157 180 0
163 186 0
148 170 0
150 172 0
156 179 0
152 174 0
148 170 0
153 175 0
153 175 0
145 167 0
152 174 0
151 172 0
156 178 0
151 173 0
155 178 0
162 183 0
152 173 0
154 174 0
149 170 0
155 178 0
151 173 0
141 163 0
152 174 0
147 168 0
157 179 0
149 171 0
151 173 0
149 171 0
157 178 0
150 172 0
147 169 0
143 164 0
148 169 0
149 171 0
155 177 0
142 164 0
149 170 0
141 162 0
151 171 0
142 164 0
146 167 0
142 163 0
145 167 0
148 168 0
148 170 0
140 162 0
146 168 0
146 168 0
151 173 0
149 170 0
144 165 0
143 165 0
142 163 0
145 165 0
153 173 0
140 161 0
140 162 0
142 162 0
137 157 0
143 163 0
146 168 0
140 161 0
150 170 0
142 163 0
140 160 0
144 164 0
144 165 0
139 158 0
132 152 0
138 158 0
140 161 0
144 164 0
143 165 0
146 167 0
139 160 0
146 167 0
137 158 0
141 163 0
143 165 0
142 162 0
139 160 0
134 154 0
145 166 0
134 155 0
137 156 0
132 152 0
130 150 0
131 152 0
133 153 0
143 163 0
144 163 0
135 156 0
146 167 0
146 167 0
133 154 0
126 146 0
133 153 0
137 157 0
140 160 0
131 151 0
126 146 0
134 155 0
126 146 0
145 164 0
131 150 0
137 156 0
138 157 0
138 158 0
141 161 0
134 153 0
143 162 0
131 149 0
135 154 0
123 143 0
143 164 0
141 160 0
126 144 0
140 159 0
131 151 0
130 150 0
139 160 0
131 149 0
143 163 0
137 158 0
131 151 0
132 151 0
139 160 0
134 155 0
147 166 0
134 155 0
137 158 0
133 154 0
136 156 0
129 148 0
135 155 0
140 161 0
138 158 0
144 163 0
123 141 0
139 158 0
148 167 0
138 158 0
140 158 0
133 152 0
145 165 0
141 161 0
142 160 0
139 159 0
138 157 0
144 163 0
140 160 0
147 168 0
140 157 0
143 164 0
144 163 0
140 158 0
141 160 0
145 166 0
143 162 0
140 158 0
136 154 0
141 161 0
144 165 0
139 158 0
141 160 0
148 166 0
139 157 0
142 162 0
144 164 0
142 161 0
137 156 0
143 162 0
137 155 0
153 173 0
141 158 0
144 161 0
142 160 0
147 164 0
143 163 0
149 167 0
147 166 0
141 159 0
135 152 0
138 155 0
139 156 0
144 163 0
152 170 0
145 163 0
149 167 0
148 165 0
150 169 0
150 168 0
151 169 0
141 159 0
146 163 0
139 157 0
148 164 0
152 170 0
147 164 0
141 158 0
154 173 0
151 170 0
143 160 0
147 165 0
146 162 0
148 165 0
142 162 0
142 158 0
144 163 0
147 165 0
143 158 0
146 165 0
155 172 0
146 164 0
143 158 0
142 158 0
146 162 0
154 171 0
145 162 0
142 158 0
151 168 0
150 165 0
155 172 0
147 163 0
147 164 0
150 166 0
147 163 0
149 165 0
151 169 0
150 166 0
144 160 0
151 165 0
151 168 0
150 165 0
153 166 0
153 168 0
154 169 0
147 162 0
146 160 0
149 163 0
153 167 0
148 164 0
159 176 0
146 162 0
150 165 0
148 162 0
146 159 0
150 165 0
152 165 0
147 160 0
149 162 0
155 171 0
151 163 0
149 165 0
152 167 0
152 164 0
154 168 0
153 166 0
154 170 0
153 164 0
156 170 0
150 163 0
155 169 0
156 169 0
157 169 0
156 168 0
155 168 0
156 170 0
156 171 0
153 168 0
159 170 0
152 163 0
159 174 0
151 164 0
160 176 0
158 171 0
155 170 0
149 159 0
155 168 0
161 173 0
161 174 0
158 170 0
157 169 0
159 171 0
158 169 0
155 168 0
163 179 0
164 175 0
160 174 0
156 168 0
152 164 0
161 172 0
156 168 0
157 169 0
159 171 0
155 167 0
160 175 0
170 193 0
172 195 0
169 192 0
170 193 0
170 193 0
170 193 0
170 193 0
173 196 0
168 191 0
170 193 0
169 193 0
171 194 0
169 191 0
167 190 0
169 192 0
168 190 0
169 193 0
169 192 0
169 193 0
163 185 0
168 191 0
164 187 0
169 192 0
169 192 0
167 190 0
168 192 0
168 191 0
167 189 0
166 189 0
167 190 0
167 190 0
167 190 0
167 190 0
163 186 0
166 189 0
167 190 0
167 190 0
164 187 0
163 186 0
169 192 0
170 192 0
164 187 0
162 185 0
163 186 0
165 188 0
163 186 0
163 185 0
163 186 0
164 188 0
167 190 0
165 187 0
165 187 0
169 192 0
164 186 0
164 187 0
163 185 0
163 186 0
161 184 0
162 185 0
159 183 0
161 183 0
164 186 0
159 182 0
165 187 0
158 181 0
157 179 0
153 175 0
165 189 0
154 176 0
168 190 0
163 185 0
166 189 0
166 188 0
156 179 0
164 188 0
162 185 0
154 176 0
164 186 0
160 183 0
159 181 0
160 182 0
157 179 0
165 188 0
158 181 0
166 189 0
153 176 0
163 185 0
161 184 0
165 187 0
154 177 0
155 177 0
160 184 0
163 185 0
164 186 0
156 179 0
152 174 0
156 178 0
156 178 0
153 175 0
160 183 0
153 175 0
156 180 0
157 180 0
164 185 0
153 174 0
152 174 0
156 179 0
149 171 0
152 174 0
157 179 0
157 179 0
152 174 0
156 178 0
148 171 0
153 176 0
155 177 0
138 160 0
152 174 0
159 181 0
149 170 0
155 177 0
153 175 0
140 162 0
152 174 0
153 175 0
147 168 0
151 173 0
147 169 0
155 177 0
149 171 0
153 173 0
149 171 0
153 174 0
148 170 0
148 170 0
147 169 0
147 169 0
147 168 0
148 170 0
147 168 0
147 168 0
149 171 0
138 159 0
142 162 0
143 165 0
151 173 0
153 174 0
140 162 0
141 162 0
145 166 0
141 162 0
143 164 0
141 162 0
148 170 0
136 157 0
128 149 0
123 144 0
139 161 0
149 171 0
134 156 0
141 162 0
138 159 0
145 166 0
144 165 0
147 167 0
145 166 0
134 155 0
143 165 0
147 167 0
141 163 0
138 158 0
143 163 0
129 150 0
148 169 0
142 163 0
137 158 0
144 164 0
144 165 0
142 161 0
132 152 0
139 159 0
136 156 0
138 157 0
141 163 0
137 157 0
132 153 0
132 152 0
137 158 0
143 163 0
129 149 0
140 161 0
131 150 0
126 146 0
135 156 0
136 156 0
132 152 0
133 152 0
138 159 0
134 154 0
142 162 0
136 156 0
141 161 0
135 156 0
138 158 0
133 153 0
141 161 0
136 155 0
132 151 0
142 161 0
132 153 0
135 154 0
133 153 0
125 145 0
136 157 0
130 151 0
137 156 0
134 153 0
138 158 0
137 158 0
146 166 0
138 156 0
144 165 0
135 156 0
135 154 0
138 156 0
126 145 0
141 160 0
148 168 0
133 153 0
139 158 0
137 157 0
135 155 0
133 152 0
142 160 0
139 157 0
146 165 0
136 155 0
140 160 0
142 162 0
132 152 0
136 156 0
144 164 0
129 148 0
126 146 0
136 156 0
137 158 0
139 158 0
144 163 0
148 168 0
147 166 0
142 162 0
139 158 0
137 156 0
140 160 0
130 149 0
141 161 0
144 163 0
142 162 0
147 167 0
142 162 0
134 154 0
132 152 0
142 159 0
140 159 0
139 158 0
136 155 0
143 161 0
139 158 0
141 161 0
144 162 0
148 168 0
137 155 0
144 164 0
143 161 0
134 152 0
141 160 0
152 171 0
137 153 0
148 164 0
144 164 0
145 164 0
145 165 0
145 163 0
154 172 0
144 162 0
143 161 0
142 161 0
147 162 0
141 160 0
150 170 0
142 161 0
137 155 0
151 171 0
148 164 0
149 167 0
142 160 0
145 162 0
141 160 0
140 157 0
149 166 0
142 158 0
151 169 0
141 159 0
141 158 0
146 165 0
138 156 0
147 165 0
149 166 0
144 160 0
147 166 0
144 161 0
147 163 0
151 167 0
151 167 0
151 170 0
148 166 0
146 163 0
153 171 0
149 168 0
141 157 0
147 164 0
150 166 0
152 169 0
147 164 0
153 170 0
153 171 0
150 168 0
151 169 0
150 165 0
148 163 0
152 170 0
152 167 0
151 168 0
149 166 0
152 168 0
154 169 0
153 168 0
151 166 0
147 163 0
145 159 0
155 174 0
155 173 0
148 164 0
145 160 0
153 169 0
153 169 0
156 171 0
152 169 0
152 166 0
145 160 0
153 167 0
149 162 0
152 165 0
150 164 0
153 168 0
152 167 0
149 158 0
148 165 0
148 160 0
151 165 0
152 163 0
155 171 0
152 167 0
149 162 0
154 166 0
153 166 0
155 167 0
156 168 0
155 169 0
150 166 0
157 173 0
160 173 0
153 165 0
156 167 0
153 167 0
153 166 0
151 162 0
155 169 0
154 166 0
155 169 0
153 167 0
159 172 0
157 171 0
157 172 0
154 167 0
158 172 0
158 169 0
163 177 0
158 172 0
153 163 0
152 162 0
155 166 0
160 175 0
157 170 0
158 168 0
158 169 0
160 171 0
155 168 0
155 170 0
156 169 0
171 194 0
172 194 0
169 192 0
173 196 0
169 192 0
168 191 0
170 192 0
170 194 0
169 192 0
165 189 0
170 194 0
168 191 0
165 187 0
170 193 0
169 192 0
170 193 0
166 189 0
165 188 0
169 192 0
172 195 0
166 189 0
168 191 0
169 192 0
166 189 0
166 189 0
167 190 0
166 189 0
171 195 0
170 193 0
162 184 0
173 196 0
169 192 0
158 181 0
166 189 0
164 188 0
168 190 0
165 188 0
166 189 0
169 192 0
164 187 0
166 189 0
165 188 0
171 193 0
168 191 0
165 188 0
166 188 0
161 184 0
165 188 0
167 191 0
168 191 0
163 186 0
163 186 0
159 183 0
164 187 0
164 186 0
161 183 0
159 181 0
164 186 0
162 184 0
171 193 0
160 182 0
161 183 0
163 185 0
161 183 0
163 186 0
166 188 0
162 184 0
162 185 0
165 187 0
164 186 0
163 185 0
159 182 0
157 179 0
163 186 0
163 186 0
162 185 0
157 179 0
162 185 0
164 186 0
157 179 0
165 187 0
160 183 0
157 180 0
159 182 0
158 181 0
157 179 0
164 187 0
160 183 0
156 179 0
157 180 0
159 182 0
154 176 0
154 176 0
154 177 0
155 177 0
158 180 0
150 173 0
160 182 0
150 172 0
151 173 0
162 183 0
160 181 0
154 177 0
148 171 0
158 180 0
154 177 0
146 167 0
148 171 0
154 175 0
144 166 0
154 176 0
153 175 0
154 176 0
158 181 0
153 175 0
152 174 0
149 171 0
158 180 0
154 176 0
148 170 0
140 162 0
153 174 0
142 164 0
149 171 0
151 173 0
141 163 0
151 173 0
143 164 0
145 167 0
152 173 0
147 168 0
149 171 0
150 172 0
157 180 0
152 174 0
147 168 0
154 175 0
141 162 0
147 169 0
149 172 0
152 174 0
150 171 0
141 164 0
143 164 0
140 162 0
150 171 0
144 165 0
151 172 0
151 173 0
141 163 0
141 162 0
145 166 0
150 172 0
143 163 0
143 162 0
145 166 0
140 163 0
150 171 0
141 162 0
143 162 0
138 159 0
137 158 0
151 173 0
143 164 0
147 167 0
137 157 0
143 164 0
142 163 0
146 166 0
149 169 0
138 159 0
141 161 0
136 157 0
129 149 0
138 159 0
141 161 0
139 159 0
145 166 0
141 162 0
135 156 0
145 166 0
135 156 0
135 157 0
136 156 0
139 161 0
137 158 0
144 164 0
134 156 0
136 156 0
138 158 0
142 163 0
148 168 0
138 158 0
145 166 0
145 167 0
137 158 0
136 153 0
136 156 0
132 152 0
144 166 0
142 162 0
139 161 0
150 171 0
137 157 0
139 159 0
124 144 0
138 157 0
139 160 0
138 158 0
137 158 0
141 161 0
142 160 0
136 156 0
135 155 0
139 159 0
143 163 0
132 153 0
137 156 0
136 156 0
144 164 0
136 156 0
136 157 0
145 166 0
138 158 0
133 153 0
134 153 0
135 155 0
145 165 0
143 164 0
126 146 0
135 153 0
132 152 0
142 162 0
134 153 0
135 153 0
147 167 0
146 166 0
130 150 0
138 157 0
138 158 0
134 154 0
134 153 0
139 158 0
144 164 0
143 163 0
145 164 0
135 152 0
132 152 0
137 155 0
132 151 0
149 169 0
139 160 0
139 159 0
149 169 0
134 153 0
144 162 0
140 160 0
145 166 0
144 164 0
137 157 0
134 154 0
138 158 0
146 165 0
144 162 0
144 164 0
145 162 0
143 163 0
146 165 0
150 169 0
145 164 0
147 166 0
132 150 0
144 163 0
147 167 0
145 163 0
141 159 0
147 165 0
146 165 0
137 155 0
141 157 0
143 163 0
145 165 0
147 165 0
142 161 0
144 162 0
146 163 0
142 161 0
140 158 0
146 164 0
144 164 0
148 166 0
139 156 0
146 162 0
140 157 0
146 164 0
152 172 0
145 164 0
139 155 0
148 165 0
146 163 0
142 159 0
145 162 0
139 160 0
153 171 0
151 169 0
148 165 0
141 158 0
143 161 0
147 166 0
146 162 0
150 167 0
144 160 0
148 165 0
146 164 0
144 161 0
143 160 0
155 172 0
145 163 0
143 160 0
149 164 0
150 169 0
150 166 0
149 163 0
143 157 0
153 169 0
147 163 0
151 169 0
154 172 0
148 164 0
149 166 0
152 169 0
141 158 0
146 161 0
153 167 0
146 163 0
149 165 0
151 168 0
143 160 0
153 170 0
149 165 0
151 166 0
153 168 0
153 166 0
150 165 0
153 170 0
153 167 0
147 162 0
152 168 0
157 173 0
154 167 0
147 162 0
150 163 0
158 174 0
162 176 0
152 165 0
152 165 0
156 169 0
154 167 0
154 169 0
151 164 0
146 160 0
150 163 0
159 176 0
158 173 0
152 163 0
156 169 0
151 163 0
149 162 0
152 165 0
155 169 0
154 167 0
154 167 0
157 169 0
157 174 0
151 163 0
155 168 0
161 176 0
159 173 0
156 167 0
157 169 0
154 167 0
156 170 0
150 162 0
154 166 0
154 166 0
159 171 0
151 164 0
156 168 0
162 176 0
156 169 0
159 172 0
160 173 0
160 173 0
160 173 0
157 171 0
161 172 0
158 170 0
153 164 0
157 170 0
162 175 0
169 193 0
169 191 0
171 193 0
168 192 0
172 194 0
168 191 0
169 193 0
168 191 0
170 194 0
170 193 0
163 187 0
169 192 0
170 194 0
171 194 0
164 186 0
169 192 0
166 189 0
169 193 0
169 192 0
164 187 0
166 190 0
168 191 0
168 191 0
170 193 0
167 191 0
170 192 0
169 191 0
167 190 0
162 185 0
164 187 0
167 189 0
167 190 0
168 190 0
164 187 0
165 188 0
166 189 0
165 188 0
166 189 0
165 187 0
166 188 0
168 191 0
167 190 0
165 188 0
167 190 0
163 185 0
168 190 0
163 186 0
163 186 0
168 190 0
165 188 0
170 193 0
164 186 0
163 186 0
161 183 0
161 184 0
162 184 0
164 187 0
159 182 0
167 190 0
162 185 0
162 185 0
164 186 0
159 181 0
161 183 0
164 186 0
159 182 0
163 186 0
159 181 0
157 180 0
163 184 0
160 183 0
162 184 0
165 188 0
160 182 0
160 183 0
161 184 0
161 182 0
156 178 0
162 185 0
165 187 0
163 186 0
162 185 0
161 183 0
152 174 0
164 186 0
156 180 0
156 178 0
161 183 0
158 180 0
161 184 0
165 187 0
160 183 0
160 183 0
159 182 0
161 182 0
161 183 0
157 179 0
157 179 0
147 169 0
160 183 0
160 181 0
160 183 0
156 176 0
157 178 0
152 174 0
150 173 0
156 178 0
156 177 0
165 187 0
153 176 0
147 168 0
155 178 0
157 178 0
153 175 0
155 177 0
149 171 0
146 168 0
154 176 0
151 173 0
152 174 0
146 167 0
146 168 0
146 168 0
152 174 0
143 165 0
147 168 0
144 165 0
156 178 0
155 176 0
146 167 0
147 168 0
147 170 0
146 169 0
147 168 0
144 166 0
150 172 0
144 167 0
146 166 0
157 180 0
144 165 0
151 172 0
144 165 0
148 170 0
149 171 0
148 170 0
142 163 0
143 163 0
145 166 0
142 165 0
140 161 0
149 171 0
148 170 0
152 173 0
149 169 0
146 166 0
139 161 0
149 171 0
146 167 0
146 167 0
147 169 0
143 163 0
147 169 0
139 162 0
145 166 0
150 172 0
146 167 0
142 163 0
141 162 0
134 155 0
138 160 0
139 160 0
133 153 0
144 165 0
142 162 0
144 165 0
134 156 0
144 165 0
143 164 0
144 164 0
137 157 0
140 161 0
135 156 0
149 168 0
146 167 0
132 153 0
128 148 0
138 158 0
142 162 0
140 162 0
144 165 0
129 149 0
132 152 0
143 164 0
147 167 0
128 149 0
148 169 0
132 153 0
145 166 0
138 159 0
144 163 0
143 163 0
134 155 0
135 155 0
138 157 0
138 158 0
145 165 0
137 158 0
146 167 0
142 161 0
133 150 0
142 161 0
140 160 0
123 142 0
142 162 0
130 151 0
134 154 0
133 153 0
135 155 0
145 165 0
138 157 0
124 141 0
145 165 0
138 157 0
139 158 0
137 157 0
144 165 0
142 162 0
130 150 0
151 172 0
142 163 0
141 160 0
135 154 0
139 159 0
133 154 0
141 160 0
133 152 0
137 156 0
135 153 0
138 157 0
139 159 0
145 162 0
145 164 0
141 160 0
147 167 0
138 159 0
137 156 0
136 153 0
135 154 0
137 156 0
143 163 0
137 157 0
142 161 0
142 162 0
144 162 0
139 159 0
140 158 0
143 162 0
137 156 0
141 160 0
137 157 0
138 157 0
142 162 0
140 159 0
141 162 0
144 163 0
150 169 0
136 156 0
144 163 0
145 165 0
143 164 0
140 160 0
146 164 0
133 151 0
144 162 0
141 160 0
140 157 0
145 165 0
144 163 0
135 152 0
136 153 0
145 164 0
146 166 0
146 166 0
140 160 0
138 157 0
151 171 0
147 165 0
139 158 0
143 164 0
141 161 0
149 167 0
144 162 0
145 162 0
143 162 0
144 162 0
148 167 0
142 161 0
142 159 0
147 165 0
148 167 0
146 162 0
152 171 0
153 171 0
154 172 0
151 168 0
145 164 0
144 163 0
150 167 0
145 162 0
154 172 0
147 166 0
145 162 0
143 162 0
145 162 0
150 167 0
152 169 0
152 170 0
146 164 0
152 169 0
148 163 0
148 163 0
147 164 0
148 164 0
146 161 0
153 172 0
151 169 0
154 172 0
146 162 0
147 164 0
151 169 0
148 165 0
150 168 0
154 171 0
149 165 0
146 163 0
152 168 0
154 168 0
153 168 0
153 170 0
152 169 0
153 168 0
149 165 0
155 170 0
152 168 0
155 173 0
155 171 0
149 163 0
146 161 0
145 162 0
150 166 0
148 163 0
151 166 0
148 162 0
153 169 0
157 172 0
149 161 0
156 170 0
147 164 0
138 149 0
149 166 0
145 160 0
155 169 0
160 175 0
154 170 0
153 166 0
151 167 0
154 167 0
151 168 0
158 173 0
150 164 0
152 165 0
150 163 0
153 167 0
153 167 0
154 169 0
157 172 0
154 166 0
163 178 0
153 167 0
154 167 0
161 177 0
153 166 0
157 169 0
155 168 0
155 170 0
162 176 0
159 171 0
160 173 0
156 170 0
161 177 0
156 171 0
159 174 0
158 172 0
164 180 0
159 171 0
157 170 0
159 171 0
160 172 0
155 169 0
156 169 0
170 193 0
168 191 0
168 191 0
170 193 0
170 193 0
167 191 0
170 193 0
165 188 0
166 189 0
170 193 0
167 189 0
171 194 0
164 188 0
169 192 0
164 188 0
172 194 0
169 192 0
168 191 0
167 191 0
166 189 0
171 194 0
164 187 0
164 187 0
166 189 0
164 186 0
167 190 0
168 190 0
169 192 0
164 187 0
165 188 0
168 192 0
163 186 0
166 189 0
162 185 0
168 191 0
169 191 0
168 191 0
164 187 0
165 187 0
169 191 0
161 183 0
164 187 0
168 190 0
164 187 0
167 190 0
165 188 0
162 185 0
164 186 0
162 184 0
166 189 0
169 192 0
159 183 0
163 186 0
168 191 0
162 185 0
162 185 0
166 188 0
160 183 0
167 190 0
166 189 0
160 181 0
159 182 0
166 189 0
159 183 0
160 183 0
154 177 0
165 188 0
168 190 0
163 186 0
164 187 0
159 181 0
155 177 0
165 187 0
167 189 0
158 180 0
163 186 0
162 183 0
166 189 0
163 186 0
163 186 0
157 180 0
155 177 0
154 177 0
160 182 0
158 180 0
158 180 0
159 182 0
160 183 0
157 180 0
155 177 0
160 182 0
162 184 0
164 186 0
153 176 0
159 181 0
157 180 0
152 175 0
157 179 0
155 177 0
149 171 0
152 174 0
156 178 0
158 181 0
161 183 0
152 174 0
149 171 0
156 177 0
158 180 0
154 176 0
160 182 0
159 182 0
153 176 0
158 181 0
157 178 0
150 172 0
150 172 0
148 169 0
151 172 0
158 180 0
158 181 0
160 182 0
151 173 0
154 176 0
157 178 0
149 171 0
147 169 0
151 173 0
155 176 0
160 183 0
156 178 0
152 173 0
154 176 0
147 169 0
145 166 0
151 172 0
153 175 0
144 166 0
154 175 0
156 177 0
157 178 0
143 164 0
141 163 0
150 172 0
136 157 0
151 172 0
155 176 0
149 170 0
145 167 0
144 166 0
142 163 0
144 167 0
141 162 0
150 171 0
146 167 0
151 172 0
140 161 0
147 169 0
136 157 0
147 169 0
143 165 0
139 161 0
153 175 0
144 166 0
144 166 0
139 159 0
141 161 0
146 167 0
148 169 0
137 158 0
142 162 0
138 159 0
138 157 0
144 165 0
139 161 0
139 160 0
147 168 0
142 163 0
140 160 0
139 160 0
142 163 0
137 159 0
130 150 0
139 159 0
144 166 0
145 165 0
140 160 0
136 157 0
132 153 0
141 162 0
135 155 0
143 164 0
144 165 0
140 160 0
138 158 0
144 164 0
136 157 0
133 154 0
140 159 0
149 170 0
140 160 0
143 163 0
136 156 0
135 156 0
151 171 0
136 156 0
144 163 0
132 153 0
142 163 0
142 163 0
143 164 0
144 164 0
135 157 0
136 157 0
129 151 0
136 157 0
142 161 0
139 159 0
128 147 0
141 162 0
138 157 0
134 153 0
139 159 0
139 157 0
135 156 0
138 157 0
142 161 0
138 159 0
145 164 0
142 162 0
140 161 0
144 165 0
138 157 0
141 161 0
142 161 0
137 156 0
135 154 0
140 160 0
134 153 0
144 166 0
135 154 0
136 157 0
148 169 0
135 155 0
136 156 0
129 148 0
141 162 0
147 167 0
145 164 0
145 165 0
131 152 0
143 163 0
145 165 0
147 167 0
136 156 0
133 153 0
151 170 0
146 166 0
140 159 0
140 159 0
138 157 0
146 165 0
145 163 0
145 165 0
142 160 0
144 164 0
140 160 0
142 162 0
138 158 0
143 162 0
152 171 0
138 158 0
145 164 0
143 161 0
150 168 0
145 161 0
140 161 0
144 163 0
142 161 0
144 161 0
138 157 0
135 154 0
148 167 0
144 163 0
148 167 0
140 158 0
155 174 0
145 164 0
151 168 0
150 170 0
142 160 0
144 162 0
150 167 0
143 160 0
146 165 0
147 166 0
146 166 0
145 164 0
147 166 0
148 166 0
146 165 0
133 151 0
148 167 0
154 170 0
139 156 0
150 168 0
147 167 0
148 166 0
147 165 0
144 161 0
150 168 0
156 176 0
146 164 0
147 164 0
146 164 0
154 175 0
151 169 0
150 166 0
156 175 0
145 162 0
143 159 0
153 171 0
148 165 0
151 169 0
146 162 0
151 169 0
153 171 0
155 171 0
150 169 0
137 154 0
148 165 0
152 168 0
145 160 0
152 171 0
159 175 0
154 170 0
154 170 0
156 174 0
149 165 0
155 174 0
151 167 0
152 169 0
148 162 0
154 171 0
156 173 0
159 176 0
156 170 0
147 163 0
152 168 0
154 170 0
148 163 0
156 171 0
152 165 0
156 170 0
150 165 0
148 162 0
144 156 0
154 169 0
155 172 0
147 160 0
156 171 0
156 173 0
154 168 0
150 165 0
153 168 0
146 160 0
149 163 0
156 172 0
155 167 0
152 164 0
151 165 0
152 164 0
151 165 0
157 169 0
156 169 0
158 173 0
156 171 0
153 169 0
155 172 0
158 173 0
156 171 0
156 169 0
158 174 0
147 162 0
154 167 0
149 160 0
154 169 0
160 174 0
153 168 0
154 170 0
157 171 0
155 169 0
157 171 0
152 166 0
160 170 0
157 171 0
159 170 0
159 173 0
156 167 0
161 175 0
160 174 0
169 192 0
168 191 0
170 193 0
170 193 0
174 196 0
165 189 0
170 192 0
166 189 0
169 193 0
169 192 0
170 194 0
168 192 0
167 190 0
164 187 0
167 190 0
171 194 0
171 194 0
164 187 0
163 186 0
169 191 0
171 194 0
167 189 0
164 187 0
163 186 0
172 194 0
166 189 0
170 193 0
167 190 0
165 188 0
165 188 0
162 184 0
163 186 0
167 190 0
165 187 0
168 191 0
167 189 0
167 189 0
165 188 0
164 187 0
163 186 0
159 181 0
165 188 0
167 190 0
163 186 0
167 190 0
168 191 0
166 189 0
168 191 0
163 187 0
161 183 0
162 184 0
168 190 0
163 185 0
166 189 0
163 186 0
164 187 0
159 182 0
161 183 0
162 184 0
160 183 0
162 185 0
162 184 0
164 187 0
160 183 0
160 183 0
160 183 0
161 184 0
158 179 0
164 187 0
163 185 0
158 180 0
159 182 0
162 184 0
159 181 0
161 183 0
163 185 0
161 183 0
162 184 0
163 186 0
158 180 0
153 176 0
164 185 0
156 179 0
161 183 0
155 176 0
161 184 0
158 180 0
156 178 0
156 178 0
152 175 0
162 185 0
160 183 0
163 185 0
161 184 0
154 176 0
164 187 0
155 177 0
146 168 0
163 186 0
156 177 0
156 179 0
158 181 0
152 175 0
154 176 0
154 175 0
156 178 0
163 185 0
159 181 0
150 173 0
143 165 0
155 177 0
154 176 0
149 171 0
152 174 0
153 175 0
160 183 0
151 172 0
152 174 0
152 174 0
153 176 0
154 175 0
158 181 0
150 171 0
149 171 0
157 179 0
150 171 0
149 170 0
159 181 0
154 175 0
152 173 0
153 175 0
145 167 0
151 172 0
150 171 0
151 172 0
153 174 0
146 169 0
149 169 0
146 167 0
139 162 0
153 174 0
154 175 0
141 163 0
151 171 0
150 172 0
155 177 0
150 172 0
143 164 0
153 174 0
145 168 0
147 169 0
140 162 0
145 166 0
153 175 0
142 163 0
143 165 0
139 160 0
146 168 0
146 166 0
140 160 0
148 169 0
145 166 0
141 163 0
146 168 0
149 170 0
143 166 0
150 171 0
144 165 0
145 167 0
138 159 0
141 162 0
142 164 0
142 163 0
141 162 0
146 166 0
137 156 0
141 161 0
141 161 0
151 172 0
141 161 0
138 158 0
145 166 0
145 166 0
142 162 0
140 161 0
129 150 0
143 163 0
144 165 0
138 158 0
141 162 0
133 154 0
143 164 0
149 171 0
137 157 0
133 153 0
143 163 0
136 155 0
149 170 0
139 159 0
137 159 0
128 148 0
146 166 0
147 168 0
139 159 0
139 159 0
138 158 0
139 158 0
129 149 0
143 164 0
132 154 0
134 154 0
136 156 0
140 159 0
140 161 0
141 161 0
140 160 0
142 162 0
153 173 0
147 167 0
122 142 0
141 161 0
144 164 0
130 149 0
146 167 0
140 160 0
143 162 0
131 152 0
132 152 0
141 162 0
141 161 0
143 164 0
136 155 0
136 155 0
137 158 0
135 154 0
137 156 0
145 167 0
137 157 0
139 159 0
128 148 0
138 158 0
136 157 0
135 154 0
139 158 0
134 156 0
134 154 0
150 171 0
143 163 0
139 158 0
140 159 0
136 154 0
145 163 0
139 159 0
136 156 0
139 159 0
143 162 0
133 152 0
150 171 0
133 152 0
144 163 0
145 163 0
135 154 0
143 163 0
143 163 0
138 156 0
141 160 0
139 159 0
142 162 0
138 158 0
144 163 0
135 153 0
147 166 0
138 157 0
141 157 0
147 168 0
146 165 0
136 156 0
146 166 0
151 171 0
146 164 0
146 164 0
142 159 0
144 163 0
144 164 0
151 167 0
151 169 0
146 165 0
144 160 0
147 167 0
145 163 0
145 164 0
149 167 0
149 168 0
145 162 0
150 168 0
141 158 0
155 173 0
150 169 0
143 161 0
153 171 0
148 166 0
150 171 0
152 170 0
148 164 0
151 168 0
147 167 0
146 164 0
146 164 0
148 165 0
138 155 0
154 173 0
156 175 0
153 168 0
153 170 0
152 168 0
150 169 0
150 168 0
145 162 0
148 167 0
145 162 0
147 163 0
160 179 0
151 169 0
144 161 0
147 164 0
153 171 0
148 163 0
144 161 0
144 160 0
144 160 0
150 167 0
150 166 0
152 168 0
151 167 0
150 167 0
147 163 0
152 167 0
152 168 0
152 169 0
150 166 0
152 167 0
152 169 0
155 172 0
155 172 0
151 165 0
147 164 0
159 174 0
153 169 0
147 164 0
152 168 0
146 162 0
155 173 0
162 178 0
149 163 0
158 172 0
152 169 0
150 165 0
151 167 0
153 171 0
155 169 0
152 165 0
155 170 0
156 174 0
156 171 0
155 170 0
157 172 0
158 172 0
156 172 0
154 167 0
160 175 0
154 169 0
151 166 0
155 167 0
153 169 0
157 173 0
158 170 0
155 170 0
160 175 0
158 174 0
156 169 0
152 167 0
151 166 0
155 166 0
150 162 0
158 169 0
152 165 0
154 165 0
156 170 0
154 167 0
152 164 0
157 171 0
152 166 0
160 175 0
155 167 0
157 171 0
161 175 0
157 170 0
154 170 0
155 168 0
158 172 0
170 193 0
169 191 0
168 191 0
166 189 0
169 191 0
166 189 0
171 193 0
171 193 0
169 193 0
168 191 0
168 190 0
169 192 0
169 193 0
169 192 0
168 190 0
165 188 0
168 191 0
165 188 0
167 191 0
167 190 0
165 188 0
164 187 0
170 191 0
160 183 0
170 193 0
168 192 0
162 186 0
169 192 0
168 191 0
164 187 0
167 190 0
167 190 0
165 188 0
161 184 0
165 189 0
171 195 0
163 185 0
163 185 0
167 190 0
165 188 0
165 188 0
162 185 0
170 193 0
165 187 0
160 182 0
163 187 0
164 187 0
165 187 0
159 182 0
162 185 0
163 186 0
162 185 0
160 183 0
161 184 0
161 184 0
158 181 0
163 186 0
169 191 0
162 184 0
160 183 0
162 184 0
157 180 0
158 181 0
165 187 0
166 188 0
160 183 0
163 186 0
157 180 0
160 183 0
162 185 0
160 182 0
152 174 0
161 183 0
160 182 0
156 179 0
161 183 0
162 184 0
159 181 0
162 185 0
160 183 0
156 178 0
151 173 0
161 184 0
159 182 0
167 189 0
161 184 0
165 187 0
161 183 0
161 183 0
156 178 0
162 184 0
158 181 0
155 177 0
155 176 0
165 187 0
154 177 0
158 180 0
152 174 0
158 180 0
159 181 0
162 184 0
153 175 0
152 176 0
149 170 0
147 169 0
155 177 0
150 173 0
159 180 0
157 179 0
153 175 0
151 173 0
151 174 0
160 182 0
151 172 0
155 177 0
152 174 0
154 176 0
156 178 0
154 177 0
155 177 0
152 174 0
151 172 0
154 176 0
155 177 0
150 173 0
146 169 0
157 178 0
148 170 0
148 170 0
144 165 0
146 168 0
148 169 0
154 175 0
154 175 0
148 171 0
152 175 0
152 174 0
149 170 0
155 178 0
148 169 0
145 167 0
147 169 0
153 174 0
152 175 0
146 167 0
156 177 0
146 167 0
148 168 0
152 174 0
141 162 0
148 169 0
134 157 0
149 170 0
144 165 0
149 171 0
141 161 0
145 165 0
149 169 0
148 170 0
146 168 0
136 157 0
143 163 0
139 160 0
138 159 0
142 164 0
137 158 0
146 166 0
146 168 0
141 161 0
147 168 0
148 169 0
142 164 0
146 166 0
146 166 0
147 167 0
149 169 0
141 162 0
139 159 0
146 166 0
140 161 0
147 168 0
138 159 0
142 162 0
144 166 0
146 166 0
148 169 0
155 174 0
148 169 0
132 153 0
130 150 0
137 157 0
138 159 0
137 157 0
147 168 0
140 161 0
143 163 0
131 150 0
133 153 0
148 168 0
134 154 0
138 159 0
135 156 0
140 160 0
142 162 0
136 156 0
133 152 0
130 150 0
133 153 0
130 151 0
134 155 0
129 149 0
143 162 0
135 155 0
145 164 0
137 158 0
139 159 0
150 171 0
141 162 0
148 169 0
140 159 0
140 158 0
143 164 0
152 173 0
145 165 0
143 163 0
141 161 0
136 157 0
143 164 0
144 165 0
141 160 0
139 158 0
140 159 0
133 151 0
138 158 0
143 163 0
140 158 0
138 156 0
145 166 0
146 166 0
140 160 0
136 157 0
140 160 0
148 169 0
140 159 0
138 158 0
146 165 0
148 169 0
135 155 0
149 169 0
134 153 0
136 155 0
144 163 0
140 159 0
145 164 0
135 155 0
142 161 0
144 165 0
147 168 0
143 162 0
142 161 0
150 171 0
148 167 0
144 161 0
150 170 0
141 161 0
148 167 0
146 164 0
142 160 0
142 160 0
142 162 0
150 167 0
143 161 0
143 163 0
151 171 0
141 160 0
139 157 0
142 161 0
144 164 0
143 161 0
151 168 0
142 160 0
144 164 0
146 165 0
145 164 0
154 171 0
144 162 0
148 167 0
152 170 0
154 173 0
148 165 0
148 167 0
148 168 0
151 171 0
144 160 0
139 158 0
141 158 0
135 153 0
150 167 0
146 163 0
138 157 0
145 165 0
152 171 0
148 166 0
155 173 0
140 158 0
149 167 0
144 162 0
146 164 0
147 164 0
153 171 0
150 166 0
149 167 0
145 162 0
149 166 0
155 174 0
149 167 0
155 172 0
148 168 0
152 169 0
152 170 0
144 160 0
148 165 0
149 167 0
146 164 0
149 165 0
148 164 0
150 165 0
148 164 0
148 163 0
157 175 0
155 171 0
144 158 0
152 168 0
152 167 0
156 173 0
152 166 0
157 175 0
150 166 0
152 169 0
160 177 0
149 164 0
152 169 0
155 172 0
157 171 0
151 167 0
150 167 0
152 167 0
145 159 0
155 171 0
151 167 0
150 167 0
153 170 0
153 172 0
147 161 0
154 170 0
153 169 0
148 163 0
157 173 0
152 166 0
157 172 0
157 172 0
154 166 0
159 176 0
148 162 0
152 169 0
154 168 0
147 164 0
155 170 0
150 166 0
148 161 0
151 167 0
155 171 0
159 174 0
157 172 0
151 164 0
159 174 0
151 165 0
154 166 0
151 167 0
158 174 0
152 165 0
156 169 0
155 169 0
160 172 0
158 173 0
155 169 0
153 166 0
151 164 0
157 168 0
156 171 0
153 167 0
160 173 0
159 170 0
160 172 0
160 171 0
159 174 0
150 167 0
161 174 0
159 173 0
157 173 0
172 195 0
170 194 0
171 195 0
168 192 0
169 192 0
169 192 0
167 191 0
169 192 0
166 189 0
161 184 0
169 192 0
167 190 0
170 192 0
165 188 0
166 189 0
169 192 0
168 190 0
171 194 0
169 192 0
171 195 0
167 190 0
167 190 0
169 192 0
164 188 0
163 186 0
162 185 0
165 188 0
167 190 0
165 187 0
164 186 0
163 186 0
168 191 0
170 193 0
171 194 0
168 191 0
163 186 0
171 194 0
164 188 0
166 188 0
166 189 0
166 189 0
160 183 0
165 188 0
164 187 0
158 181 0
166 188 0
161 183 0
163 185 0
163 185 0
163 185 0
164 187 0
165 188 0
159 182 0
164 187 0
162 185 0
165 187 0
161 183 0
163 186 0
156 178 0
157 180 0
171 193 0
160 183 0
160 183 0
159 182 0
163 186 0
159 181 0
162 184 0
164 187 0
163 186 0
163 186 0
154 177 0
160 183 0
162 185 0
158 180 0
165 188 0
158 181 0
160 181 0
158 181 0
158 181 0
160 183 0
155 177 0
162 184 0
158 182 0
161 183 0
161 184 0
159 182 0
158 181 0
158 180 0
165 188 0
157 179 0
159 181 0
159 181 0
155 177 0
158 180 0
157 180 0
155 177 0
158 181 0
156 178 0
158 181 0
163 186 0
151 173 0
159 181 0
162 183 0
155 176 0
162 184 0
161 183 0
151 174 0
156 178 0
158 180 0
153 175 0
148 170 0
157 178 0
154 176 0
155 177 0
153 174 0
152 173 0
156 178 0
152 174 0
155 177 0
143 165 0
150 172 0
154 177 0
153 175 0
153 175 0
155 178 0
156 177 0
151 173 0
154 176 0
160 182 0
156 178 0
155 176 0
148 169 0
150 171 0
142 163 0
153 174 0
152 174 0
158 180 0
148 170 0
141 163 0
151 174 0
146 169 0
151 172 0
147 170 0
146 167 0
140 161 0
153 173 0
163 185 0
147 169 0
141 163 0
139 159 0
145 167 0
148 169 0
145 167 0
140 161 0
146 168 0
154 176 0
149 170 0
144 165 0
149 170 0
140 160 0
143 163 0
151 171 0
146 169 0
144 166 0
142 163 0
135 155 0
144 166 0
138 159 0
144 165 0
145 166 0
142 163 0
143 163 0
146 167 0
142 163 0
143 163 0
143 164 0
133 154 0
145 166 0
146 166 0
145 166 0
145 166 0
140 162 0
148 169 0
143 165 0
141 161 0
152 173 0
136 155 0
144 165 0
146 167 0
131 152 0
133 154 0
143 162 0
145 167 0
137 157 0
139 160 0
140 161 0
136 157 0
143 163 0
143 164 0
144 164 0
129 150 0
145 166 0
141 163 0
143 164 0
145 166 0
146 165 0
144 164 0
137 158 0
140 160 0
142 162 0
148 168 0
142 163 0
149 169 0
135 155 0
142 162 0
142 162 0
134 153 0
129 149 0
146 165 0
137 156 0
126 145 0
130 150 0
136 154 0
144 163 0
141 163 0
138 158 0
132 153 0
141 159 0
126 146 0
137 157 0
132 152 0
138 158 0
137 158 0
144 164 0
144 164 0
134 154 0
139 160 0
138 156 0
142 162 0
143 164 0
141 162 0
142 160 0
145 165 0
145 164 0
151 172 0
144 164 0
141 161 0
151 170 0
142 162 0
141 162 0
145 164 0
143 162 0
153 172 0
142 163 0
152 173 0
135 153 0
143 163 0
150 169 0
135 154 0
139 158 0
143 163 0
138 156 0
151 169 0
141 160 0
147 167 0
148 167 0
147 166 0
147 167 0
147 165 0
146 166 0
136 157 0
145 164 0
129 148 0
145 163 0
147 167 0
143 163 0
146 164 0
145 165 0
149 167 0
140 160 0
157 177 0
147 165 0
150 168 0
146 165 0
147 166 0
148 167 0
138 157 0
145 165 0
145 163 0
140 159 0
149 169 0
142 160 0
146 166 0
150 169 0
152 171 0
143 162 0
146 164 0
153 172 0
146 165 0
153 172 0
144 163 0
150 168 0
149 168 0
151 170 0
149 168 0
150 169 0
152 171 0
140 159 0
149 169 0
154 173 0
150 169 0
150 167 0
140 157 0
150 167 0
149 167 0
154 170 0
140 158 0
148 166 0
148 165 0
150 168 0
150 166 0
157 175 0
153 169 0
148 166 0
149 167 0
145 162 0
149 168 0
150 165 0
149 167 0
152 171 0
147 165 0
153 170 0
153 170 0
151 167 0
150 169 0
157 176 0
149 166 0
153 169 0
153 169 0
155 172 0
157 175 0
154 170 0
152 168 0
150 165 0
149 168 0
148 164 0
153 166 0
154 170 0
147 163 0
153 170 0
157 171 0
157 173 0
157 175 0
150 166 0
153 170 0
149 166 0
151 169 0
154 170 0
156 170 0
158 174 0
156 173 0
160 178 0
157 173 0
149 166 0
152 166 0
154 171 0
154 169 0
152 165 0
155 171 0
156 171 0
156 172 0
151 166 0
157 172 0
153 168 0
155 168 0
154 167 0
158 173 0
155 168 0
155 169 0
158 171 0
156 168 0
151 164 0
156 170 0
153 168 0
157 170 0
156 169 0
160 174 0
163 178 0
155 170 0
158 172 0
158 172 0
156 169 0
153 168 0
153 167 0
159 173 0
159 171 0
158 171 0
158 171 0
155 169 0
157 169 0
169 192 0
173 196 0
165 188 0
172 194 0
169 193 0
166 189 0
167 191 0
166 188 0
167 190 0
166 189 0
162 184 0
170 193 0
169 191 0
171 194 0
167 190 0
170 193 0
164 187 0
167 190 0
165 188 0
169 192 0
169 191 0
162 185 0
166 188 0
162 185 0
166 190 0
167 190 0
168 191 0
167 190 0
166 189 0
166 189 0
164 187 0
166 189 0
170 194 0
165 187 0
163 186 0
164 187 0
166 188 0
160 182 0
169 192 0
166 190 0
167 189 0
163 187 0
163 187 0
158 181 0
162 184 0
159 182 0
166 187 0
164 188 0
163 187 0
165 187 0
164 186 0
164 187 0
169 191 0
163 186 0
162 184 0
163 185 0
161 183 0
164 187 0
162 184 0
163 186 0
164 187 0
159 182 0
162 185 0
157 180 0
160 183 0
168 190 0
160 182 0
156 179 0
154 177 0
157 179 0
164 186 0
164 186 0
161 184 0
158 181 0
162 185 0
157 180 0
164 186 0
157 179 0
156 178 0
158 180 0
161 184 0
162 184 0
157 179 0
166 188 0
157 180 0
159 182 0
162 184 0
158 180 0
160 183 0
167 190 0
164 186 0
156 179 0
161 182 0
159 181 0
161 184 0
163 185 0
153 176 0
160 181 0
158 180 0
156 178 0
154 177 0
160 181 0
156 179 0
158 180 0
156 178 0
155 177 0
155 177 0
155 176 0
156 178 0
153 174 0
143 165 0
155 176 0
153 174 0
162 183 0
154 176 0
149 171 0
156 178 0
151 174 0
151 174 0
152 174 0
161 183 0
152 174 0
156 177 0
154 177 0
151 173 0
151 173 0
154 176 0
147 168 0
149 170 0
151 172 0
154 176 0
154 175 0
146 167 0
148 169 0
149 170 0
152 174 0
147 168 0
148 170 0
155 177 0
144 166 0
148 169 0
147 168 0
153 174 0
163 184 0
156 178 0
153 174 0
147 169 0
154 175 0
147 168 0
138 158 0
147 168 0
151 173 0
143 164 0
148 169 0
141 162 0
146 168 0
145 167 0
144 165 0
149 171 0
146 167 0
151 172 0
145 165 0
149 170 0
146 168 0
138 158 0
145 167 0
143 165 0
141 161 0
152 173 0
139 161 0
142 162 0
140 162 0
150 171 0
140 161 0
142 162 0
137 157 0
145 165 0
153 175 0
141 162 0
148 169 0
146 167 0
136 156 0
137 157 0
144 165 0
147 168 0
145 166 0
150 171 0
142 161 0
134 154 0
142 162 0
147 167 0
152 173 0
139 160 0
146 168 0
142 163 0
145 167 0
147 168 0
136 158 0
136 157 0
138 158 0
141 162 0
147 168 0
137 158 0
143 163 0
151 170 0
135 155 0
141 161 0
134 154 0
141 160 0
138 159 0
151 171 0
148 169 0
148 169 0
143 162 0
145 166 0
140 161 0
142 162 0
146 167 0
136 156 0
133 153 0
148 168 0
138 158 0
134 154 0
136 156 0
144 165 0
143 164 0
145 165 0
140 160 0
145 165 0
147 167 0
145 163 0
144 165 0
138 158 0
140 159 0
143 162 0
143 161 0
142 161 0
137 157 0
139 159 0
134 153 0
136 157 0
145 166 0
137 156 0
142 161 0
143 162 0
145 164 0
144 163 0
146 166 0
137 156 0
140 158 0
151 171 0
139 158 0
144 163 0
135 154 0
139 159 0
150 168 0
151 172 0
145 163 0
141 161 0
146 166 0
142 162 0
139 159 0
142 160 0
139 156 0
142 161 0
151 171 0
153 173 0
151 171 0
140 157 0
141 163 0
155 174 0
145 163 0
140 160 0
141 159 0
150 168 0
143 163 0
151 171 0
146 161 0
143 161 0
142 162 0
143 162 0
145 161 0
141 157 0
153 173 0
139 158 0
145 165 0
136 156 0
147 166 0
140 159 0
140 158 0
145 164 0
146 165 0
145 163 0
146 165 0
149 166 0
152 171 0
147 164 0
148 168 0
151 167 0
144 163 0
143 162 0
140 158 0
148 165 0
144 161 0
149 168 0
145 164 0
151 169 0
148 167 0
149 168 0
147 165 0
155 174 0
146 164 0
151 169 0
142 160 0
153 170 0
141 159 0
143 159 0
156 171 0
150 168 0
152 170 0
151 170 0
157 176 0
150 168 0
152 168 0
150 168 0
147 166 0
147 167 0
148 166 0
150 167 0
147 164 0
151 168 0
156 173 0
150 166 0
150 168 0
153 170 0
157 174 0
151 168 0
152 168 0
155 172 0
150 167 0
146 160 0
155 170 0
153 171 0
149 165 0
157 175 0
145 163 0
146 161 0
153 169 0
154 172 0
151 166 0
157 173 0
146 162 0
157 172 0
157 171 0
152 169 0
145 158 0
157 175 0
159 175 0
146 162 0
161 177 0
156 172 0
155 170 0
157 170 0
156 172 0
159 175 0
155 170 0
151 166 0
157 173 0
161 177 0
153 167 0
152 166 0
163 177 0
152 167 0
158 174 0
158 173 0
155 170 0
158 173 0
155 171 0
159 172 0
161 180 0
155 168 0
162 178 0
157 170 0
155 168 0
152 167 0
156 170 0
158 173 0
162 176 0
160 174 0
157 172 0
156 170 0
158 174 0
151 165 0
153 168 0
158 171 0
157 172 0
151 164 0
155 168 0
158 171 0
155 170 0
170 193 0
166 190 0
172 194 0
166 189 0
166 189 0
167 190 0
166 189 0
169 192 0
164 188 0
168 191 0
169 192 0
163 187 0
169 191 0
168 191 0
169 192 0
166 188 0
165 188 0
168 191 0
165 188 0
167 190 0
170 194 0
167 191 0
165 188 0
163 185 0
166 189 0
165 188 0
164 187 0
165 188 0
168 191 0
158 181 0
163 186 0
161 183 0
170 192 0
164 187 0
165 187 0
168 191 0
167 189 0
168 191 0
164 187 0
163 186 0
159 183 0
162 185 0
167 190 0
166 189 0
162 185 0
164 186 0
163 186 0
167 189 0
161 184 0
165 188 0
168 190 0
167 190 0
165 187 0
165 187 0
165 188 0
165 188 0
163 186 0
169 191 0
170 193 0
159 183 0
171 193 0
156 178 0
161 184 0
162 184 0
161 183 0
161 185 0
164 187 0
164 186 0
160 183 0
168 190 0
161 182 0
162 185 0
161 184 0
160 182 0
158 180 0
159 181 0
161 184 0
158 181 0
161 183 0
160 182 0
158 180 0
151 173 0
163 186 0
162 184 0
158 181 0
158 180 0
157 179 0
158 180 0
158 181 0
152 174 0
162 185 0
158 181 0
153 176 0
158 180 0
154 176 0
156 179 0
154 176 0
160 182 0
150 173 0
150 173 0
155 178 0
159 183 0
158 180 0
156 178 0
150 172 0
153 175 0
155 176 0
158 180 0
156 178 0
161 183 0
156 179 0
156 179 0
157 179 0
153 175 0
154 177 0
150 172 0
154 175 0
154 176 0
155 177 0
151 174 0
157 179 0
145 168 0
149 172 0
151 173 0
154 176 0
148 171 0
152 173 0
157 178 0
153 174 0
151 173 0
153 176 0
144 166 0
159 180 0
149 172 0
152 173 0
150 171 0
159 180 0
150 171 0
150 172 0
144 165 0
148 170 0
146 167 0
151 172 0
153 174 0
143 164 0
140 163 0
149 170 0
145 167 0
151 173 0
145 165 0
138 158 0
137 159 0
146 168 0
149 171 0
146 167 0
145 169 0
147 167 0
152 174 0
147 168 0
151 173 0
139 161 0
149 172 0
149 171 0
148 169 0
149 170 0
144 166 0
143 164 0
146 167 0
143 163 0
147 168 0
151 172 0
138 159 0
143 162 0
144 165 0
137 156 0
141 162 0
148 169 0
133 154 0
144 164 0
138 160 0
140 162 0
145 165 0
138 158 0
144 165 0
143 164 0
134 154 0
144 165 0
142 163 0
142 163 0
140 159 0
149 170 0
140 162 0
147 168 0
131 152 0
140 160 0
140 161 0
136 158 0
134 155 0
152 173 0
143 164 0
136 156 0
144 166 0
150 172 0
138 159 0
139 160 0
133 153 0
137 157 0
139 160 0
140 160 0
139 161 0
138 158 0
140 160 0
142 162 0
142 162 0
147 167 0
141 161 0
148 169 0
141 163 0
131 151 0
139 160 0
151 170 0
137 157 0
137 157 0
146 165 0
136 155 0
139 159 0
140 161 0
140 162 0
142 161 0
145 166 0
141 161 0
143 163 0
130 149 0
136 158 0
140 160 0
133 152 0
137 157 0
143 161 0
138 160 0
141 162 0
136 155 0
138 158 0
147 168 0
145 166 0
134 153 0
134 153 0
143 164 0
141 162 0
148 169 0
152 173 0
145 165 0
142 161 0
141 159 0
141 160 0
147 166 0
145 165 0
154 173 0
144 165 0
147 166 0
134 152 0
150 170 0
148 168 0
139 158 0
144 163 0
141 161 0
138 158 0
147 166 0
147 167 0
142 160 0
140 161 0
143 162 0
143 163 0
146 165 0
134 155 0
149 167 0
148 167 0
148 167 0
143 162 0
141 161 0
141 161 0
141 159 0
150 169 0
150 171 0
142 161 0
142 161 0
147 167 0
141 161 0
145 163 0
145 163 0
140 159 0
148 165 0
141 159 0
152 170 0
140 159 0
154 173 0
147 165 0
152 171 0
143 159 0
155 174 0
155 173 0
148 167 0
149 167 0
151 170 0
144 162 0
146 165 0
147 167 0
150 169 0
148 167 0
150 168 0
144 163 0
148 168 0
141 159 0
143 162 0
145 163 0
148 165 0
146 165 0
146 162 0
150 167 0
150 169 0
148 166 0
148 167 0
151 169 0
143 161 0
154 172 0
151 170 0
154 173 0
152 169 0
147 165 0
147 163 0
152 167 0
152 169 0
144 159 0
150 169 0
150 167 0
151 168 0
153 169 0
148 166 0
156 172 0
148 164 0
148 164 0
145 159 0
148 164 0
149 167 0
155 173 0
154 171 0
151 169 0
157 175 0
150 168 0
151 167 0
158 177 0
158 176 0
156 172 0
156 175 0
149 166 0
151 169 0
154 169 0
156 173 0
153 169 0
151 166 0
156 174 0
157 175 0
156 170 0
150 164 0
145 161 0
155 172 0
151 164 0
157 174 0
154 169 0
150 164 0
158 176 0
158 174 0
153 166 0
156 170 0
154 170 0
158 172 0
155 167 0
149 163 0
162 177 0
161 176 0
162 177 0
157 170 0
159 175 0
156 174 0
154 169 0
155 168 0
158 171 0
155 168 0
152 165 0
156 169 0
156 168 0
159 174 0
157 172 0
159 172 0
160 174 0
161 176 0
156 169 0
155 169 0
152 165 0
157 170 0
151 164 0
