P3
400 225
255
217 233 255
217 233 255
217 233 255
217 233 255
217 233 255
217 233 255
217 233 255
217 233 255
217 233 255
217 233 255
217 233 255
217 233 255
217 233 255
217 233 255
217 233 255
217 233 255
217 233 255
217 233 255
217 233 255
217 233 255
217 233 255
217 233 255
217 233 255
217 233 255
217 233 255
217 233 255
217 233 255
217 233 255
217 233 255
217 233 255
217 233 255
217 233 255
217 233 255
217 233 255
217 233 255
217 233 255
217 233 255
217 233 255
217 233 255
217 233 255
217 233 255
217 233 255
217 233 255
217 233 255
217 233 255
217 233 255
217 233 255
217 233 255
217 233 255
217 233 255
217 233 255
217 233 255
217 233 255
217 233 255
217 233 255
217 233 255
217 233 255
217 233 255
217 233 255
217 233 255
217 233 255
217 233 255
216 233 255
216 233 255
216 233 255
216 233 255
216 233 255
216 233 255
216 233 255
216 233 255
216 233 255
216 233 255
216 233 255
216 233 255
216 233 255
216 233 255
216 233 255
216 233 255
216 233 255
216 233 255
216 233 255
216 233 255
216 233 255
216 233 255
216 233 255
216 233 255
216 233 255
216 233 255
216 233 255
216 233 255
216 233 255
216 233 255
216 233 255
216 233 255
216 233 255
216 233 255
216 233 255
216 233 255
216 233 255
216 233 255
216 233 255
216 233 255
216 233 255
216 233 255
216 233 255
216 233 255
216 233 255
216 232 255
216 232 255
216 232 255
216 232 255
216 232 255
216 232 255
216 232 255
216 232 255
216 232 255
216 232 255
216 232 255
216 232 255
216 232 255
216 232 255
216 232 255
216 232 255
216 232 255
216 232 255
216 232 255
216 232 255
216 232 255
216 232 255
216 232 255
215 232 255
215 232 255
215 232 255
215 232 255
215 232 255
215 232 255
215 232 255
215 232 255
215 232 255
215 232 255
215 232 255
215 232 255
215 232 255
215 232 255
215 232 255
215 232 255
215 232 255
215 232 255
215 232 255
215 232 255
215 232 255
215 232 255
215 232 255
215 232 255
215 232 255
215 232 255
215 232 255
215 232 255
215 232 255
215 232 255
215 232 255
215 232 255
215 232 255
215 232 255
215 232 255
215 232 255
215 232 255
215 232 255
215 232 255
215 232 255
215 232 255
215 232 255
215 232 255
215 232 255
215 232 255
215 232 255
215 232 255
215 232 255
215 232 255
215 232 255
215 232 255
215 232 255
215 232 255
215 232 255
215 232 255
215 232 255
215 232 255
215 232 255
215 232 255
215 232 255
215 232 255
215 232 255
215 232 255
215 232 255
215 232 255
215 232 255
215 232 255
215 232 255
215 232 255
215 232 255
215 232 255
215 232 255
215 232 255
215 232 255
215 232 255
215 232 255
215 232 255
215 232 255
215 232 255
215 232 255
215 232 255
215 232 255
215 232 255
215 232 255
215 232 255
215 232 255
215 232 255
215 232 255
215 232 255
215 232 255
215 232 255
215 232 255
215 232 255
215 232 255
215 232 255
215 232 255
215 232 255
215 232 255
215 232 255
215 232 255
215 232 255
215 232 255
215 232 255
215 232 255
215 232 255
215 232 255
215 232 255
215 232 255
215 232 255
215 232 255
215 232 255
215 232 255
215 232 255
215 232 255
215 232 255
215 232 255
215 232 255
215 232 255
215 232 255
215 232 255
215 232 255
215 232 255
215 232 255
215 232 255
215 232 255
215 232 255
215 232 255
215 232 255
215 232 255
215 232 255
215 232 255
215 232 255
215 232 255
215 232 255
215 232 255
215 232 255
215 232 255
215 232 255
215 232 255
215 232 255
215 232 255
216 232 255
216 232 255
216 232 255
216 232 255
216 232 255
216 232 255
216 232 255
216 232 255
216 232 255
216 232 255
216 232 255
216 232 255
216 232 255
216 232 255
216 232 255
216 232 255
216 232 255
216 232 255
216 232 255
216 232 255
216 232 255
216 232 255
216 233 255
216 233 255
216 233 255
216 233 255
216 233 255
216 233 255
216 233 255
216 233 255
216 233 255
216 233 255
216 233 255
216 233 255
216 233 255
216 233 255
216 233 255
216 233 255
216 233 255
216 233 255
216 233 255
216 233 255
216 233 255
216 233 255
216 233 255
216 233 255
216 233 255
216 233 255
216 233 255
216 233 255
216 233 255
216 233 255
216 233 255
216 233 255
216 233 255
216 233 255
216 233 255
216 233 255
216 233 255
216 233 255
216 233 255
216 233 255
216 233 255
216 233 255
216 233 255
216 233 255
216 233 255
217 233 255
217 233 255
217 233 255
217 233 255
217 233 255
217 233 255
217 233 255
217 233 255
217 233 255
217 233 255
217 233 255
217 233 255
217 233 255
217 233 255
217 233 255
217 233 255
217 233 255
217 233 255
217 233 255
217 233 255
217 233 255
217 233 255
217 233 255
217 233 255
217 233 255
217 233 255
217 233 255
217 233 255
217 233 255
217 233 255
217 233 255
217 233 255
217 233 255
217 233 255
217 233 255
217 233 255
217 233 255
217 233 255
217 233 255
217 233 255
217 233 255
217 233 255
217 233 255
217 233 255
217 233 255
217 233 255
217 233 255
217 233 255
217 233 255
217 233 255
217 233 255
217 233 255
217 233 255
217 233 255
217 233 255
217 233 255
217 233 255
217 233 255
217 233 255
217 233 255
217 233 255
217 233 255
217 233 255
217 233 255
217 233 255
217 233 255
217 233 255
217 233 255
217 233 255
217 233 255
217 233 255
217 233 255
217 233 255
217 233 255
217 233 255
217 233 255
217 233 255
217 233 255
217 233 255
217 233 255
217 233 255
217 233 255
217 233 255
217 233 255
217 233 255
217 233 255
217 233 255
217 233 255
217 233 255
217 233 255
217 233 255
217 233 255
217 233 255
217 233 255
217 233 255
217 233 255
217 233 255
217 233 255
217 233 255
217 233 255
217 233 255
217 233 255
217 233 255
217 233 255
217 233 255
217 233 255
217 233 255
217 233 255
217 233 255
217 233 255
217 233 255
217 233 255
217 233 255
217 233 255
217 233 255
217 233 255
217 233 255
217 233 255
217 233 255
217 233 255
217 233 255
217 233 255
217 233 255
217 233 255
217 233 255
217 233 255
217 233 255
217 233 255
217 233 255
217 233 255
217 233 255
217 233 255
217 233 255
216 233 255
216 233 255
216 233 255
216 233 255
216 233 255
216 233 255
216 233 255
216 233 255
216 233 255
216 233 255
216 233 255
216 233 255
216 233 255
216 233 255
216 233 255
216 233 255
216 233 255
216 233 255
216 233 255
216 233 255
216 233 255
216 233 255
216 233 255
216 233 255
216 233 255
216 233 255
216 233 255
216 233 255
216 233 255
216 233 255
216 233 255
216 233 255
216 233 255
216 233 255
216 233 255
216 233 255
216 233 255
216 233 255
216 233 255
216 233 255
216 233 255
216 233 255
216 233 255
216 233 255
216 233 255
216 233 255
216 233 255
216 232 255
216 232 255
216 232 255
216 232 255
216 232 255
216 232 255
216 232 255
216 232 255
216 232 255
216 232 255
216 232 255
216 232 255
216 232 255
216 232 255
216 232 255
216 232 255
216 232 255
216 232 255
216 232 255
216 232 255
216 232 255
216 232 255
216 232 255
216 232 255
215 232 255
215 232 255
215 232 255
215 232 255
215 232 255
215 232 255
215 232 255
215 232 255
215 232 255
215 232 255
215 232 255
215 232 255
215 232 255
215 232 255
215 232 255
215 232 255
215 232 255
215 232 255
215 232 255
215 232 255
215 232 255
215 232 255
215 232 255
215 232 255
215 232 255
215 232 255
215 232 255
215 232 255
215 232 255
215 232 255
215 232 255
215 232 255
215 232 255
215 232 255
215 232 255
215 232 255
215 232 255
215 232 255
215 232 255
215 232 255
215 232 255
215 232 255
215 232 255
215 232 255
215 232 255
215 232 255
215 232 255
215 232 255
215 232 255
215 232 255
215 232 255
215 232 255
215 232 255
215 232 255
215 232 255
215 232 255
215 232 255
215 232 255
215 232 255
215 232 255
215 232 255
215 232 255
215 232 255
215 232 255
215 232 255
215 232 255
215 232 255
215 232 255
215 232 255
215 232 255
215 232 255
215 232 255
215 232 255
215 232 255
215 232 255
215 232 255
215 232 255
215 232 255
215 232 255
215 232 255
215 232 255
215 232 255
215 232 255
215 232 255
215 232 255
215 232 255
215 232 255
215 232 255
215 232 255
215 232 255
215 232 255
215 232 255
215 232 255
215 232 255
215 232 255
215 232 255
215 232 255
215 232 255
215 232 255
215 232 255
215 232 255
215 232 255
215 232 255
215 232 255
215 232 255
215 232 255
215 232 255
215 232 255
215 232 255
215 232 255
215 232 255
215 232 255
215 232 255
215 232 255
215 232 255
215 232 255
215 232 255
216 232 255
216 232 255
216 232 255
216 232 255
216 232 255
216 232 255
216 232 255
216 232 255
216 232 255
216 232 255
216 232 255
216 232 255
216 232 255
216 232 255
216 232 255
216 232 255
216 232 255
216 232 255
216 232 255
216 232 255
216 232 255
216 232 255
216 232 255
216 233 255
216 233 255
216 233 255
216 233 255
216 233 255
216 233 255
216 233 255
216 233 255
216 233 255
216 233 255
216 233 255
216 233 255
216 233 255
216 233 255
216 233 255
216 233 255
216 233 255
216 233 255
216 233 255
216 233 255
216 233 255
216 233 255
216 233 255
216 233 255
216 233 255
216 233 255
216 233 255
216 233 255
216 233 255
216 233 255
216 233 255
216 233 255
216 233 255
216 233 255
216 233 255
216 233 255
216 233 255
216 233 255
216 233 255
216 233 255
216 233 255
216 233 255
216 233 255
216 233 255
216 233 255
216 233 255
216 233 255
217 233 255
217 233 255
217 233 255
217 233 255
217 233 255
217 233 255
217 233 255
217 233 255
217 233 255
217 233 255
217 233 255
217 233 255
217 233 255
217 233 255
217 233 255
217 233 255
217 233 255
217 233 255
217 233 255
217 233 255
217 233 255
217 233 255
217 233 255
217 233 255
217 233 255
217 233 255
217 233 255
217 233 255
217 233 255
217 233 255
217 233 255
217 233 255
217 233 255
217 233 255
217 233 255
217 233 255
217 233 255
217 233 255
217 233 255
217 233 255
217 233 255
217 233 255
217 233 255
217 233 255
217 233 255
217 233 255
217 233 255
217 233 255
217 233 255
217 233 255
217 233 255
217 233 255
217 233 255
217 233 255
217 233 255
217 233 255
217 233 255
217 233 255
217 233 255
217 233 255
217 233 255
217 233 255
217 233 255
217 233 255
217 233 255
217 233 255
217 233 255
217 233 255
217 233 255
217 233 255
217 233 255
218 233 255
218 233 255
218 233 255
218 233 255
218 233 255
217 233 255
217 233 255
217 233 255
217 233 255
217 233 255
217 233 255
217 233 255
217 233 255
217 233 255
217 233 255
217 233 255
217 233 255
217 233 255
217 233 255
217 233 255
217 233 255
217 233 255
217 233 255
217 233 255
217 233 255
217 233 255
217 233 255
217 233 255
217 233 255
217 233 255
217 233 255
217 233 255
217 233 255
217 233 255
217 233 255
217 233 255
217 233 255
217 233 255
217 233 255
217 233 255
217 233 255
217 233 255
217 233 255
217 233 255
217 233 255
217 233 255
217 233 255
217 233 255
217 233 255
217 233 255
217 233 255
217 233 255
217 233 255
217 233 255
217 233 255
217 233 255
217 233 255
217 233 255
217 233 255
217 233 255
217 233 255
217 233 255
217 233 255
217 233 255
217 233 255
217 233 255
217 233 255
217 233 255
217 233 255
217 233 255
217 233 255
217 233 255
217 233 255
217 233 255
217 233 255
217 233 255
217 233 255
217 233 255
217 233 255
217 233 255
217 233 255
216 233 255
216 233 255
216 233 255
216 233 255
216 233 255
216 233 255
216 233 255
216 233 255
216 233 255
216 233 255
216 233 255
216 233 255
216 233 255
216 233 255
216 233 255
216 233 255
216 233 255
216 233 255
216 233 255
216 233 255
216 233 255
216 233 255
216 233 255
216 233 255
216 233 255
216 233 255
216 233 255
216 233 255
216 233 255
216 233 255
216 233 255
216 233 255
216 233 255
216 233 255
216 233 255
216 233 255
216 233 255
216 233 255
216 233 255
216 233 255
216 233 255
216 233 255
216 233 255
216 233 255
216 233 255
216 233 255
216 233 255
216 233 255
216 232 255
216 232 255
216 232 255
216 232 255
216 232 255
216 232 255
216 232 255
216 232 255
216 232 255
216 232 255
216 232 255
216 232 255
216 232 255
216 232 255
216 232 255
216 232 255
216 232 255
216 232 255
216 232 255
216 232 255
216 232 255
216 232 255
216 232 255
216 232 255
216 232 255
216 232 255
216 232 255
215 232 255
215 232 255
215 232 255
215 232 255
215 232 255
215 232 255
215 232 255
215 232 255
215 232 255
215 232 255
215 232 255
215 232 255
215 232 255
215 232 255
215 232 255
215 232 255
215 232 255
215 232 255
215 232 255
215 232 255
215 232 255
215 232 255
215 232 255
215 232 255
215 232 255
215 232 255
215 232 255
215 232 255
215 232 255
215 232 255
215 232 255
215 232 255
215 232 255
215 232 255
215 232 255
215 232 255
215 232 255
215 232 255
215 232 255
215 232 255
215 232 255
215 232 255
215 232 255
215 232 255
215 232 255
215 232 255
215 232 255
215 232 255
215 232 255
215 232 255
215 232 255
215 232 255
215 232 255
215 232 255
215 232 255
215 232 255
215 232 255
215 232 255
215 232 255
215 232 255
215 232 255
215 232 255
215 232 255
215 232 255
215 232 255
215 232 255
215 232 255
215 232 255
215 232 255
215 232 255
215 232 255
215 232 255
215 232 255
215 232 255
215 232 255
215 232 255
215 232 255
215 232 255
215 232 255
215 232 255
215 232 255
215 232 255
215 232 255
215 232 255
215 232 255
215 232 255
215 232 255
216 232 255
216 232 255
216 232 255
216 232 255
216 232 255
216 232 255
216 232 255
216 232 255
216 232 255
216 232 255
216 232 255
216 232 255
216 232 255
216 232 255
216 232 255
216 232 255
216 232 255
216 232 255
216 232 255
216 232 255
216 232 255
216 232 255
216 232 255
216 232 255
216 232 255
216 232 255
216 232 255
216 232 255
216 233 255
216 233 255
216 233 255
216 233 255
216 233 255
216 233 255
216 233 255
216 233 255
216 233 255
216 233 255
216 233 255
216 233 255
216 233 255
216 233 255
216 233 255
216 233 255
216 233 255
216 233 255
216 233 255
216 233 255
216 233 255
216 233 255
216 233 255
216 233 255
216 233 255
216 233 255
216 233 255
216 233 255
216 233 255
216 233 255
216 233 255
216 233 255
216 233 255
216 233 255
216 233 255
216 233 255
216 233 255
216 233 255
216 233 255
216 233 255
216 233 255
216 233 255
216 233 255
216 233 255
216 233 255
216 233 255
216 233 255
216 233 255
217 233 255
217 233 255
217 233 255
217 233 255
217 233 255
217 233 255
217 233 255
217 233 255
217 233 255
217 233 255
217 233 255
217 233 255
217 233 255
217 233 255
217 233 255
217 233 255
217 233 255
217 233 255
217 233 255
217 233 255
217 233 255
217 233 255
217 233 255
217 233 255
217 233 255
217 233 255
217 233 255
217 233 255
217 233 255
217 233 255
217 233 255
217 233 255
217 233 255
217 233 255
217 233 255
217 233 255
217 233 255
217 233 255
217 233 255
217 233 255
217 233 255
217 233 255
217 233 255
217 233 255
217 233 255
217 233 255
217 233 255
217 233 255
217 233 255
217 233 255
217 233 255
217 233 255
217 233 255
217 233 255
217 233 255
217 233 255
217 233 255
217 233 255
217 233 255
217 233 255
217 233 255
217 233 255
217 233 255
217 233 255
217 233 255
217 233 255
217 233 255
217 233 255
217 233 255
217 233 255
217 233 255
217 233 255
217 233 255
217 233 255
217 233 255
217 233 255
218 233 255
218 233 255
218 233 255
218 233 255
218 233 255
218 234 255
218 234 255
218 234 255
218 234 255
218 234 255
218 234 255
218 233 255
218 233 255
218 233 255
218 233 255
218 233 255
218 233 255
218 233 255
218 233 255
218 233 255
218 233 255
217 233 255
217 233 255
217 233 255
217 233 255
217 233 255
217 233 255
217 233 255
217 233 255
217 233 255
217 233 255
217 233 255
217 233 255
217 233 255
217 233 255
217 233 255
217 233 255
217 233 255
217 233 255
217 233 255
217 233 255
217 233 255
217 233 255
217 233 255
217 233 255
217 233 255
217 233 255
217 233 255
217 233 255
217 233 255
217 233 255
217 233 255
217 233 255
217 233 255
217 233 255
217 233 255
217 233 255
217 233 255
217 233 255
217 233 255
217 233 255
217 233 255
217 233 255
217 233 255
217 233 255
217 233 255
217 233 255
217 233 255
217 233 255
217 233 255
217 233 255
217 233 255
217 233 255
217 233 255
217 233 255
217 233 255
217 233 255
217 233 255
217 233 255
217 233 255
217 233 255
217 233 255
217 233 255
217 233 255
217 233 255
217 233 255
217 233 255
217 233 255
217 233 255
217 233 255
217 233 255
217 233 255
217 233 255
217 233 255
217 233 255
217 233 255
216 233 255
216 233 255
216 233 255
216 233 255
216 233 255
216 233 255
216 233 255
216 233 255
216 233 255
216 233 255
216 233 255
216 233 255
216 233 255
216 233 255
216 233 255
216 233 255
216 233 255
216 233 255
216 233 255
216 233 255
216 233 255
216 233 255
216 233 255
216 233 255
216 233 255
216 233 255
216 233 255
216 233 255
216 233 255
216 233 255
216 233 255
216 233 255
216 233 255
216 233 255
216 233 255
216 233 255
216 233 255
216 233 255
216 233 255
216 233 255
216 233 255
216 233 255
216 233 255
216 233 255
216 233 255
216 233 255
216 233 255
216 233 255
216 233 255
216 233 255
216 233 255
216 233 255
216 232 255
216 232 255
216 232 255
216 232 255
216 232 255
216 232 255
216 232 255
216 232 255
216 232 255
216 232 255
216 232 255
216 232 255
216 232 255
216 232 255
216 232 255
216 232 255
216 232 255
216 232 255
216 232 255
216 232 255
216 232 255
216 232 255
216 232 255
216 232 255
216 232 255
216 232 255
216 232 255
216 232 255
216 232 255
216 232 255
216 232 255
216 232 255
216 232 255
216 232 255
216 232 255
216 232 255
216 232 255
216 232 255
216 232 255
215 232 255
215 232 255
215 232 255
215 232 255
215 232 255
215 232 255
215 232 255
215 232 255
215 232 255
215 232 255
215 232 255
215 232 255
215 232 255
215 232 255
215 232 255
215 232 255
215 232 255
215 232 255
215 232 255
215 232 255
215 232 255
215 232 255
215 232 255
215 232 255
215 232 255
215 232 255
215 232 255
215 232 255
215 232 255
215 232 255
215 232 255
215 232 255
215 232 255
215 232 255
215 232 255
215 232 255
215 232 255
216 232 255
216 232 255
216 232 255
216 232 255
216 232 255
216 232 255
216 232 255
216 232 255
216 232 255
216 232 255
216 232 255
216 232 255
216 232 255
216 232 255
216 232 255
216 232 255
216 232 255
216 232 255
216 232 255
216 232 255
216 232 255
216 232 255
216 232 255
216 232 255
216 232 255
216 232 255
216 232 255
216 232 255
216 232 255
216 232 255
216 232 255
216 232 255
216 232 255
216 232 255
216 232 255
216 232 255
216 232 255
216 232 255
216 233 255
216 233 255
216 233 255
216 233 255
216 233 255
216 233 255
216 233 255
216 233 255
216 233 255
216 233 255
216 233 255
216 233 255
216 233 255
216 233 255
216 233 255
216 233 255
216 233 255
216 233 255
216 233 255
216 233 255
216 233 255
216 233 255
216 233 255
216 233 255
216 233 255
216 233 255
216 233 255
216 233 255
216 233 255
216 233 255
216 233 255
216 233 255
216 233 255
216 233 255
216 233 255
216 233 255
216 233 255
216 233 255
216 233 255
216 233 255
216 233 255
216 233 255
216 233 255
216 233 255
216 233 255
216 233 255
216 233 255
216 233 255
216 233 255
216 233 255
216 233 255
216 233 255
217 233 255
217 233 255
217 233 255
217 233 255
217 233 255
217 233 255
217 233 255
217 233 255
217 233 255
217 233 255
217 233 255
217 233 255
217 233 255
217 233 255
217 233 255
217 233 255
217 233 255
217 233 255
217 233 255
217 233 255
217 233 255
217 233 255
217 233 255
217 233 255
217 233 255
217 233 255
217 233 255
217 233 255
217 233 255
217 233 255
217 233 255
217 233 255
217 233 255
217 233 255
217 233 255
217 233 255
217 233 255
217 233 255
217 233 255
217 233 255
217 233 255
217 233 255
217 233 255
217 233 255
217 233 255
217 233 255
217 233 255
217 233 255
217 233 255
217 233 255
217 233 255
217 233 255
217 233 255
217 233 255
217 233 255
217 233 255
217 233 255
217 233 255
217 233 255
217 233 255
217 233 255
217 233 255
217 233 255
217 233 255
217 233 255
217 233 255
217 233 255
217 233 255
217 233 255
217 233 255
217 233 255
217 233 255
217 233 255
217 233 255
217 233 255
217 233 255
218 233 255
218 233 255
218 233 255
218 233 255
218 233 255
218 233 255
218 233 255
218 233 255
218 234 255
218 234 255
218 234 255
218 234 255
218 234 255
218 234 255
218 234 255
218 234 255
218 234 255
218 234 255
218 234 255
218 234 255
218 234 255
218 234 255
218 234 255
218 234 255
218 234 255
218 234 255
218 234 255
218 234 255
218 234 255
218 234 255
218 234 255
218 234 255
218 233 255
218 233 255
218 233 255
218 233 255
218 233 255
218 233 255
218 233 255
218 233 255
218 233 255
217 233 255
217 233 255
217 233 255
217 233 255
217 233 255
217 233 255
217 233 255
217 233 255
217 233 255
217 233 255
217 233 255
217 233 255
217 233 255
217 233 255
217 233 255
217 233 255
217 233 255
217 233 255
217 233 255
217 233 255
217 233 255
217 233 255
217 233 255
217 233 255
217 233 255
217 233 255
217 233 255
217 233 255
217 233 255
217 233 255
217 233 255
217 233 255
217 233 255
217 233 255
217 233 255
217 233 255
217 233 255
217 233 255
217 233 255
217 233 255
217 233 255
217 233 255
217 233 255
217 233 255
217 233 255
217 233 255
217 233 255
217 233 255
217 233 255
217 233 255
217 233 255
217 233 255
217 233 255
217 233 255
217 233 255
217 233 255
217 233 255
217 233 255
217 233 255
217 233 255
217 233 255
217 233 255
217 233 255
217 233 255
217 233 255
217 233 255
217 233 255
217 233 255
217 233 255
217 233 255
217 233 255
217 233 255
217 233 255
217 233 255
217 233 255
217 233 255
216 233 255
216 233 255
216 233 255
216 233 255
216 233 255
216 233 255
216 233 255
216 233 255
216 233 255
216 233 255
216 233 255
216 233 255
216 233 255
216 233 255
216 233 255
216 233 255
216 233 255
216 233 255
216 233 255
216 233 255
216 233 255
216 233 255
216 233 255
216 233 255
216 233 255
216 233 255
216 233 255
216 233 255
216 233 255
216 233 255
216 233 255
216 233 255
216 233 255
216 233 255
216 233 255
216 233 255
216 233 255
216 233 255
216 233 255
216 233 255
216 233 255
216 233 255
216 233 255
216 233 255
216 233 255
216 233 255
216 233 255
216 233 255
216 233 255
216 233 255
216 233 255
216 233 255
216 233 255
216 233 255
216 233 255
216 233 255
216 233 255
216 232 255
216 232 255
216 232 255
216 232 255
216 232 255
216 232 255
216 232 255
216 232 255
216 232 255
216 232 255
216 232 255
216 232 255
216 232 255
216 232 255
216 232 255
216 232 255
216 232 255
216 232 255
216 232 255
216 232 255
216 232 255
216 232 255
216 232 255
216 232 255
216 232 255
216 232 255
216 232 255
216 232 255
216 232 255
216 232 255
216 232 255
216 232 255
216 232 255
216 232 255
216 232 255
216 232 255
216 232 255
216 232 255
216 232 255
216 232 255
216 232 255
216 232 255
216 232 255
216 232 255
216 232 255
216 232 255
216 232 255
216 232 255
216 232 255
216 232 255
216 232 255
216 232 255
216 232 255
216 232 255
216 232 255
216 232 255
216 232 255
216 232 255
216 232 255
216 232 255
216 232 255
216 232 255
216 232 255
216 232 255
216 232 255
216 232 255
216 232 255
216 232 255
216 232 255
216 232 255
216 232 255
216 232 255
216 232 255
216 232 255
216 232 255
216 232 255
216 232 255
216 232 255
216 232 255
216 232 255
216 232 255
216 232 255
216 232 255
216 233 255
216 233 255
216 233 255
216 233 255
216 233 255
216 233 255
216 233 255
216 233 255
216 233 255
216 233 255
216 233 255
216 233 255
216 233 255
216 233 255
216 233 255
216 233 255
216 233 255
216 233 255
216 233 255
216 233 255
216 233 255
216 233 255
216 233 255
216 233 255
216 233 255
216 233 255
216 233 255
216 233 255
216 233 255
216 233 255
216 233 255
216 233 255
216 233 255
216 233 255
216 233 255
216 233 255
216 233 255
216 233 255
216 233 255
216 233 255
216 233 255
216 233 255
216 233 255
216 233 255
216 233 255
216 233 255
216 233 255
216 233 255
216 233 255
216 233 255
216 233 255
216 233 255
216 233 255
216 233 255
216 233 255
216 233 255
217 233 255
217 233 255
217 233 255
217 233 255
217 233 255
217 233 255
217 233 255
217 233 255
217 233 255
217 233 255
217 233 255
217 233 255
217 233 255
217 233 255
217 233 255
217 233 255
217 233 255
217 233 255
217 233 255
217 233 255
217 233 255
217 233 255
217 233 255
217 233 255
217 233 255
217 233 255
217 233 255
217 233 255
217 233 255
217 233 255
217 233 255
217 233 255
217 233 255
217 233 255
217 233 255
217 233 255
217 233 255
217 233 255
217 233 255
217 233 255
217 233 255
217 233 255
217 233 255
217 233 255
217 233 255
217 233 255
217 233 255
217 233 255
217 233 255
217 233 255
217 233 255
217 233 255
217 233 255
217 233 255
217 233 255
217 233 255
217 233 255
217 233 255
217 233 255
217 233 255
217 233 255
217 233 255
217 233 255
217 233 255
217 233 255
217 233 255
217 233 255
217 233 255
217 233 255
217 233 255
217 233 255
217 233 255
217 233 255
217 233 255
217 233 255
217 233 255
218 233 255
218 233 255
218 233 255
218 233 255
218 233 255
218 233 255
218 233 255
218 233 255
218 233 255
218 234 255
218 234 255
218 234 255
218 234 255
218 234 255
218 234 255
218 234 255
218 234 255
218 234 255
218 234 255
218 234 255
218 234 255
218 234 255
218 234 255
218 234 255
218 234 255
218 234 255
218 234 255
218 234 255
218 234 255
218 234 255
218 234 255
218 234 255
218 234 255
218 234 255
218 234 255
218 234 255
218 234 255
218 234 255
218 234 255
218 234 255
218 234 255
218 234 255
218 234 255
218 234 255
218 234 255
218 234 255
218 234 255
218 234 255
218 234 255
218 234 255
218 234 255
218 234 255
218 234 255
218 233 255
218 233 255
218 233 255
218 233 255
218 233 255
218 233 255
218 233 255
218 233 255
218 233 255
217 233 255
217 233 255
217 233 255
217 233 255
217 233 255
217 233 255
217 233 255
217 233 255
217 233 255
217 233 255
217 233 255
217 233 255
217 233 255
217 233 255
217 233 255
217 233 255
217 233 255
217 233 255
217 233 255
217 233 255
217 233 255
217 233 255
217 233 255
217 233 255
217 233 255
217 233 255
217 233 255
217 233 255
217 233 255
217 233 255
217 233 255
217 233 255
217 233 255
217 233 255
217 233 255
217 233 255
217 233 255
217 233 255
217 233 255
217 233 255
217 233 255
217 233 255
217 233 255
217 233 255
217 233 255
217 233 255
217 233 255
217 233 255
217 233 255
217 233 255
217 233 255
217 233 255
217 233 255
217 233 255
217 233 255
217 233 255
217 233 255
217 233 255
217 233 255
217 233 255
217 233 255
217 233 255
217 233 255
217 233 255
217 233 255
217 233 255
217 233 255
217 233 255
217 233 255
217 233 255
217 233 255
217 233 255
217 233 255
217 233 255
217 233 255
217 233 255
217 233 255
216 233 255
216 233 255
216 233 255
216 233 255
216 233 255
216 233 255
216 233 255
216 233 255
216 233 255
216 233 255
216 233 255
216 233 255
216 233 255
216 233 255
216 233 255
216 233 255
216 233 255
216 233 255
216 233 255
216 233 255
216 233 255
216 233 255
216 233 255
216 233 255
216 233 255
216 233 255
216 233 255
216 233 255
216 233 255
216 233 255
216 233 255
216 233 255
216 233 255
216 233 255
216 233 255
216 233 255
216 233 255
216 233 255
216 233 255
216 233 255
216 233 255
216 233 255
216 233 255
216 233 255
216 233 255
216 233 255
216 233 255
216 233 255
216 233 255
216 233 255
216 233 255
216 233 255
216 233 255
216 233 255
216 233 255
216 233 255
216 233 255
216 233 255
216 233 255
216 233 255
216 233 255
216 233 255
216 233 255
216 233 255
216 233 255
216 233 255
216 233 255
216 233 255
216 233 255
216 233 255
216 233 255
216 233 255
216 233 255
216 233 255
216 233 255
216 233 255
216 232 255
216 233 255
216 232 255
216 233 255
216 232 255
216 232 255
216 232 255
216 232 255
216 232 255
216 232 255
216 232 255
216 232 255
216 232 255
216 232 255
216 232 255
216 232 255
216 232 255
216 232 255
216 232 255
216 232 255
216 233 255
216 233 255
216 233 255
216 233 255
216 233 255
216 233 255
216 233 255
216 233 255
216 233 255
216 233 255
216 233 255
216 233 255
216 233 255
216 233 255
216 233 255
216 233 255
216 233 255
216 233 255
216 233 255
216 233 255
216 233 255
216 233 255
216 233 255
216 233 255
216 233 255
216 233 255
216 233 255
216 233 255
216 233 255
216 233 255
216 233 255
216 233 255
216 233 255
216 233 255
216 233 255
216 233 255
216 233 255
216 233 255
216 233 255
216 233 255
216 233 255
216 233 255
216 233 255
216 233 255
216 233 255
216 233 255
216 233 255
216 233 255
216 233 255
216 233 255
216 233 255
216 233 255
216 233 255
216 233 255
216 233 255
216 233 255
216 233 255
216 233 255
216 233 255
216 233 255
216 233 255
216 233 255
216 233 255
216 233 255
216 233 255
216 233 255
216 233 255
216 233 255
216 233 255
216 233 255
216 233 255
216 233 255
216 233 255
216 233 255
216 233 255
216 233 255
216 233 255
216 233 255
217 233 255
217 233 255
217 233 255
217 233 255
217 233 255
217 233 255
217 233 255
217 233 255
217 233 255
217 233 255
217 233 255
217 233 255
217 233 255
217 233 255
217 233 255
217 233 255
217 233 255
217 233 255
217 233 255
217 233 255
217 233 255
217 233 255
217 233 255
217 233 255
217 233 255
217 233 255
217 233 255
217 233 255
217 233 255
217 233 255
217 233 255
217 233 255
217 233 255
217 233 255
217 233 255
217 233 255
217 233 255
217 233 255
217 233 255
217 233 255
217 233 255
217 233 255
217 233 255
217 233 255
217 233 255
217 233 255
217 233 255
217 233 255
217 233 255
217 233 255
217 233 255
217 233 255
217 233 255
217 233 255
217 233 255
217 233 255
217 233 255
217 233 255
217 233 255
217 233 255
217 233 255
217 233 255
217 233 255
217 233 255
217 233 255
217 233 255
217 233 255
217 233 255
217 233 255
217 233 255
217 233 255
217 233 255
217 233 255
217 233 255
217 233 255
217 233 255
217 233 255
218 233 255
218 233 255
218 233 255
218 233 255
218 233 255
218 233 255
218 233 255
218 233 255
218 234 255
218 234 255
218 234 255
218 234 255
218 234 255
218 234 255
218 234 255
218 234 255
218 234 255
218 234 255
218 234 255
218 234 255
218 234 255
218 234 255
218 234 255
218 234 255
218 234 255
218 234 255
218 234 255
218 234 255
218 234 255
218 234 255
218 234 255
218 234 255
218 234 255
218 234 255
218 234 255
218 234 255
218 234 255
218 234 255
218 234 255
218 234 255
218 234 255
218 234 255
218 234 255
218 234 255
218 234 255
218 234 255
218 234 255
218 234 255
218 234 255
218 234 255
218 234 255
218 234 255
218 234 255
218 234 255
218 234 255
218 234 255
218 234 255
218 234 255
218 234 255
218 234 255
218 234 255
218 234 255
218 234 255
218 234 255
218 234 255
218 234 255
218 234 255
218 234 255
218 234 255
218 234 255
218 234 255
218 234 255
218 234 255
218 234 255
218 234 255
218 233 255
218 233 255
218 233 255
218 233 255
218 233 255
218 233 255
218 233 255
218 233 255
217 233 255
217 233 255
217 233 255
217 233 255
217 233 255
217 233 255
217 233 255
217 233 255
217 233 255
217 233 255
217 233 255
217 233 255
217 233 255
217 233 255
217 233 255
217 233 255
217 233 255
217 233 255
217 233 255
217 233 255
217 233 255
217 233 255
217 233 255
217 233 255
217 233 255
217 233 255
217 233 255
217 233 255
217 233 255
217 233 255
217 233 255
217 233 255
217 233 255
217 233 255
217 233 255
217 233 255
217 233 255
217 233 255
217 233 255
217 233 255
217 233 255
217 233 255
217 233 255
217 233 255
217 233 255
217 233 255
217 233 255
217 233 255
217 233 255
217 233 255
217 233 255
217 233 255
217 233 255
217 233 255
217 233 255
217 233 255
217 233 255
217 233 255
217 233 255
217 233 255
217 233 255
217 233 255
217 233 255
217 233 255
217 233 255
217 233 255
217 233 255
217 233 255
217 233 255
217 233 255
217 233 255
217 233 255
217 233 255
217 233 255
217 233 255
217 233 255
217 233 255
217 233 255
216 233 255
216 233 255
216 233 255
216 233 255
216 233 255
216 233 255
216 233 255
216 233 255
216 233 255
216 233 255
216 233 255
216 233 255
216 233 255
216 233 255
216 233 255
216 233 255
216 233 255
216 233 255
216 233 255
216 233 255
216 233 255
216 233 255
216 233 255
216 233 255
216 233 255
216 233 255
216 233 255
216 233 255
216 233 255
216 233 255
216 233 255
216 233 255
216 233 255
216 233 255
216 233 255
216 233 255
216 233 255
216 233 255
216 233 255
216 233 255
216 233 255
216 233 255
216 233 255
216 233 255
216 233 255
216 233 255
216 233 255
216 233 255
216 233 255
216 233 255
216 233 255
216 233 255
216 233 255
216 233 255
216 233 255
216 233 255
216 233 255
216 233 255
216 233 255
216 233 255
216 233 255
216 233 255
216 233 255
216 233 255
216 233 255
216 233 255
216 233 255
216 233 255
216 233 255
216 233 255
216 233 255
216 233 255
216 233 255
216 233 255
216 233 255
216 233 255
216 233 255
216 233 255
216 233 255
216 233 255
216 233 255
216 233 255
216 233 255
216 233 255
216 233 255
216 233 255
216 233 255
216 233 255
216 233 255
216 233 255
216 233 255
216 233 255
216 233 255
216 233 255
216 233 255
216 233 255
216 233 255
216 233 255
216 233 255
216 233 255
216 233 255
216 233 255
216 233 255
216 233 255
216 233 255
216 233 255
216 233 255
216 233 255
216 233 255
216 233 255
216 233 255
216 233 255
216 233 255
216 233 255
216 233 255
216 233 255
216 233 255
216 233 255
216 233 255
216 233 255
216 233 255
216 233 255
216 233 255
216 233 255
216 233 255
216 233 255
216 233 255
216 233 255
216 233 255
216 233 255
216 233 255
216 233 255
216 233 255
216 233 255
216 233 255
216 233 255
216 233 255
216 233 255
216 233 255
216 233 255
216 233 255
216 233 255
216 233 255
216 233 255
216 233 255
216 233 255
216 233 255
216 233 255
216 233 255
217 233 255
217 233 255
217 233 255
217 233 255
217 233 255
217 233 255
217 233 255
217 233 255
217 233 255
217 233 255
217 233 255
217 233 255
217 233 255
217 233 255
217 233 255
217 233 255
217 233 255
217 233 255
217 233 255
217 233 255
217 233 255
217 233 255
217 233 255
217 233 255
217 233 255
217 233 255
217 233 255
217 233 255
217 233 255
217 233 255
217 233 255
217 233 255
217 233 255
217 233 255
217 233 255
217 233 255
217 233 255
217 233 255
217 233 255
217 233 255
217 233 255
217 233 255
217 233 255
217 233 255
217 233 255
217 233 255
217 233 255
217 233 255
217 233 255
217 233 255
217 233 255
217 233 255
217 233 255
217 233 255
217 233 255
217 233 255
217 233 255
217 233 255
217 233 255
217 233 255
217 233 255
217 233 255
217 233 255
217 233 255
217 233 255
217 233 255
217 233 255
217 233 255
217 233 255
217 233 255
217 233 255
217 233 255
217 233 255
217 233 255
217 233 255
217 233 255
217 233 255
217 233 255
217 233 255
218 233 255
218 233 255
218 233 255
218 233 255
218 233 255
218 233 255
218 233 255
218 233 255
218 233 255
218 234 255
218 234 255
218 234 255
218 234 255
218 234 255
218 234 255
218 234 255
218 234 255
218 234 255
218 234 255
218 234 255
218 234 255
218 234 255
218 234 255
218 234 255
218 234 255
218 234 255
218 234 255
218 234 255
218 234 255
218 234 255
218 234 255
218 234 255
218 234 255
218 234 255
218 234 255
218 234 255
218 234 255
218 234 255
218 234 255
218 234 255
218 234 255
218 234 255
218 234 255
218 234 255
218 234 255
218 234 255
218 234 255
218 234 255
218 234 255
218 234 255
218 234 255
218 234 255
218 234 255
218 234 255
218 234 255
218 234 255
218 234 255
218 234 255
218 234 255
218 234 255
218 234 255
218 234 255
218 234 255
218 234 255
218 234 255
218 234 255
218 234 255
218 234 255
218 234 255
218 234 255
218 234 255
218 234 255
218 234 255
218 234 255
218 234 255
218 234 255
218 234 255
218 234 255
218 234 255
218 234 255
218 234 255
218 234 255
218 234 255
218 234 255
218 234 255
218 234 255
218 234 255
218 234 255
218 234 255
218 234 255
218 234 255
218 234 255
218 234 255
218 234 255
218 234 255
218 234 255
218 234 255
218 233 255
218 233 255
218 233 255
218 233 255
218 233 255
218 233 255
218 233 255
218 233 255
217 233 255
217 233 255
217 233 255
217 233 255
217 233 255
217 233 255
217 233 255
217 233 255
217 233 255
217 233 255
217 233 255
217 233 255
217 233 255
217 233 255
217 233 255
217 233 255
217 233 255
217 233 255
217 233 255
217 233 255
217 233 255
217 233 255
217 233 255
217 233 255
217 233 255
217 233 255
217 233 255
217 233 255
217 233 255
217 233 255
217 233 255
217 233 255
217 233 255
217 233 255
217 233 255
217 233 255
217 233 255
217 233 255
217 233 255
217 233 255
217 233 255
217 233 255
217 233 255
217 233 255
217 233 255
217 233 255
217 233 255
217 233 255
217 233 255
217 233 255
217 233 255
217 233 255
217 233 255
217 233 255
217 233 255
217 233 255
217 233 255
217 233 255
217 233 255
217 233 255
217 233 255
217 233 255
217 233 255
217 233 255
217 233 255
217 233 255
217 233 255
217 233 255
217 233 255
217 233 255
217 233 255
217 233 255
217 233 255
217 233 255
217 233 255
217 233 255
217 233 255
217 233 255
217 233 255
217 233 255
217 233 255
217 233 255
216 233 255
216 233 255
216 233 255
216 233 255
216 233 255
216 233 255
216 233 255
216 233 255
216 233 255
216 233 255
216 233 255
216 233 255
216 233 255
216 233 255
216 233 255
216 233 255
216 233 255
216 233 255
216 233 255
216 233 255
216 233 255
216 233 255
216 233 255
216 233 255
216 233 255
216 233 255
216 233 255
216 233 255
216 233 255
216 233 255
216 233 255
216 233 255
216 233 255
216 233 255
216 233 255
216 233 255
216 233 255
216 233 255
216 233 255
216 233 255
216 233 255
216 233 255
216 233 255
216 233 255
216 233 255
216 233 255
216 233 255
216 233 255
216 233 255
216 233 255
216 233 255
216 233 255
216 233 255
216 233 255
216 233 255
216 233 255
216 233 255
216 233 255
216 233 255
216 233 255
216 233 255
216 233 255
216 233 255
216 233 255
216 233 255
216 233 255
216 233 255
216 233 255
216 233 255
216 233 255
216 233 255
216 233 255
216 233 255
216 233 255
216 233 255
216 233 255
216 233 255
216 233 255
216 233 255
216 233 255
216 233 255
216 233 255
216 233 255
216 233 255
216 233 255
216 233 255
216 233 255
216 233 255
216 233 255
216 233 255
216 233 255
216 233 255
216 233 255
216 233 255
216 233 255
216 233 255
216 233 255
216 233 255
216 233 255
216 233 255
216 233 255
216 233 255
216 233 255
216 233 255
216 233 255
216 233 255
216 233 255
216 233 255
216 233 255
216 233 255
216 233 255
216 233 255
216 233 255
216 233 255
216 233 255
216 233 255
216 233 255
216 233 255
216 233 255
216 233 255
217 233 255
217 233 255
217 233 255
217 233 255
217 233 255
217 233 255
217 233 255
217 233 255
217 233 255
217 233 255
217 233 255
217 233 255
217 233 255
217 233 255
217 233 255
217 233 255
217 233 255
217 233 255
217 233 255
217 233 255
217 233 255
217 233 255
217 233 255
217 233 255
217 233 255
217 233 255
217 233 255
217 233 255
217 233 255
217 233 255
217 233 255
217 233 255
217 233 255
217 233 255
217 233 255
217 233 255
217 233 255
217 233 255
217 233 255
217 233 255
217 233 255
217 233 255
217 233 255
217 233 255
217 233 255
217 233 255
217 233 255
217 233 255
217 233 255
217 233 255
217 233 255
217 233 255
217 233 255
217 233 255
217 233 255
217 233 255
217 233 255
217 233 255
217 233 255
217 233 255
217 233 255
217 233 255
217 233 255
217 233 255
217 233 255
217 233 255
217 233 255
217 233 255
217 233 255
217 233 255
217 233 255
217 233 255
217 233 255
217 233 255
217 233 255
217 233 255
217 233 255
217 233 255
217 233 255
217 233 255
217 233 255
217 233 255
218 233 255
218 233 255
218 233 255
218 233 255
218 233 255
218 233 255
218 233 255
218 233 255
218 233 255
218 234 255
218 234 255
218 234 255
218 234 255
218 234 255
218 234 255
218 234 255
218 234 255
218 234 255
218 234 255
218 234 255
218 234 255
218 234 255
218 234 255
218 234 255
218 234 255
218 234 255
218 234 255
218 234 255
218 234 255
218 234 255
218 234 255
218 234 255
218 234 255
218 234 255
218 234 255
218 234 255
218 234 255
218 234 255
218 234 255
218 234 255
218 234 255
218 234 255
218 234 255
218 234 255
218 234 255
218 234 255
218 234 255
218 234 255
218 234 255
218 234 255
218 234 255
218 234 255
218 234 255
218 234 255
218 234 255
218 234 255
218 234 255
218 234 255
218 234 255
218 234 255
218 234 255
218 234 255
218 234 255
218 234 255
218 234 255
218 234 255
218 234 255
218 234 255
218 234 255
218 234 255
218 234 255
218 234 255
218 234 255
218 234 255
218 234 255
218 234 255
218 234 255
218 234 255
218 234 255
218 234 255
218 234 255
218 234 255
218 234 255
218 234 255
218 234 255
218 234 255
218 234 255
218 234 255
218 234 255
218 234 255
218 234 255
218 234 255
218 234 255
218 234 255
218 234 255
218 234 255
218 234 255
218 234 255
218 234 255
218 234 255
218 234 255
218 234 255
218 234 255
218 234 255
218 234 255
218 234 255
218 234 255
218 234 255
218 234 255
218 234 255
218 234 255
218 234 255
218 234 255
218 234 255
218 234 255
218 234 255
218 234 255
218 234 255
218 234 255
218 233 255
218 233 255
218 233 255
218 233 255
218 233 255
218 233 255
218 233 255
218 233 255
217 233 255
217 233 255
217 233 255
217 233 255
217 233 255
217 233 255
217 233 255
217 233 255
217 233 255
217 233 255
217 233 255
217 233 255
217 233 255
217 233 255
217 233 255
217 233 255
217 233 255
217 233 255
217 233 255
217 233 255
217 233 255
217 233 255
217 233 255
217 233 255
217 233 255
217 233 255
217 233 255
217 233 255
217 233 255
217 233 255
217 233 255
217 233 255
217 233 255
217 233 255
217 233 255
217 233 255
217 233 255
217 233 255
217 233 255
217 233 255
217 233 255
217 233 255
217 233 255
217 233 255
217 233 255
217 233 255
217 233 255
217 233 255
217 233 255
217 233 255
217 233 255
217 233 255
217 233 255
217 233 255
217 233 255
217 233 255
217 233 255
217 233 255
217 233 255
217 233 255
217 233 255
217 233 255
217 233 255
217 233 255
217 233 255
217 233 255
217 233 255
217 233 255
217 233 255
217 233 255
217 233 255
217 233 255
217 233 255
217 233 255
217 233 255
217 233 255
217 233 255
217 233 255
217 233 255
217 233 255
217 233 255
217 233 255
217 233 255
217 233 255
217 233 255
217 233 255
217 233 255
217 233 255
217 233 255
217 233 255
217 233 255
216 233 255
216 233 255
216 233 255
216 233 255
216 233 255
216 233 255
216 233 255
216 233 255
216 233 255
216 233 255
216 233 255
216 233 255
216 233 255
216 233 255
216 233 255
216 233 255
216 233 255
216 233 255
216 233 255
216 233 255
216 233 255
216 233 255
216 233 255
216 233 255
216 233 255
216 233 255
216 233 255
216 233 255
216 233 255
216 233 255
216 233 255
216 233 255
216 233 255
216 233 255
216 233 255
216 233 255
216 233 255
216 233 255
216 233 255
216 233 255
216 233 255
216 233 255
216 233 255
216 233 255
216 233 255
216 233 255
216 233 255
216 233 255
216 233 255
216 233 255
216 233 255
216 233 255
216 233 255
216 233 255
216 233 255
216 233 255
216 233 255
216 233 255
216 233 255
216 233 255
216 233 255
216 233 255
216 233 255
216 233 255
216 233 255
216 233 255
216 233 255
216 233 255
216 233 255
216 233 255
216 233 255
216 233 255
216 233 255
216 233 255
216 233 255
216 233 255
216 233 255
216 233 255
216 233 255
216 233 255
217 233 255
217 233 255
217 233 255
217 233 255
217 233 255
217 233 255
217 233 255
217 233 255
217 233 255
217 233 255
217 233 255
217 233 255
217 233 255
217 233 255
217 233 255
217 233 255
217 233 255
217 233 255
217 233 255
217 233 255
217 233 255
217 233 255
217 233 255
217 233 255
217 233 255
217 233 255
217 233 255
217 233 255
217 233 255
217 233 255
217 233 255
217 233 255
217 233 255
217 233 255
217 233 255
217 233 255
217 233 255
217 233 255
217 233 255
217 233 255
217 233 255
217 233 255
217 233 255
217 233 255
217 233 255
217 233 255
217 233 255
217 233 255
217 233 255
217 233 255
217 233 255
217 233 255
217 233 255
217 233 255
217 233 255
217 233 255
217 233 255
217 233 255
217 233 255
217 233 255
217 233 255
217 233 255
217 233 255
217 233 255
217 233 255
217 233 255
217 233 255
217 233 255
217 233 255
217 233 255
217 233 255
217 233 255
217 233 255
217 233 255
217 233 255
217 233 255
217 233 255
217 233 255
217 233 255
217 233 255
217 233 255
217 233 255
217 233 255
217 233 255
217 233 255
217 233 255
217 233 255
217 233 255
217 233 255
217 233 255
218 233 255
218 233 255
218 233 255
218 233 255
218 233 255
218 233 255
218 233 255
218 233 255
218 234 255
218 234 255
218 234 255
218 234 255
218 234 255
218 234 255
218 234 255
218 234 255
218 234 255
218 234 255
218 234 255
218 234 255
218 234 255
218 234 255
218 234 255
218 234 255
218 234 255
218 234 255
218 234 255
218 234 255
218 234 255
218 234 255
218 234 255
218 234 255
218 234 255
218 234 255
218 234 255
218 234 255
218 234 255
218 234 255
218 234 255
218 234 255
218 234 255
218 234 255
218 234 255
218 234 255
218 234 255
218 234 255
218 234 255
218 234 255
218 234 255
218 234 255
218 234 255
218 234 255
218 234 255
218 234 255
218 234 255
218 234 255
218 234 255
218 234 255
218 234 255
218 234 255
218 234 255
218 234 255
218 234 255
218 234 255
218 234 255
218 234 255
218 234 255
218 234 255
218 234 255
218 234 255
218 234 255
218 234 255
218 234 255
218 234 255
218 234 255
218 234 255
218 234 255
218 234 255
218 234 255
218 234 255
218 234 255
218 234 255
218 234 255
218 234 255
218 234 255
218 234 255
218 234 255
218 234 255
218 234 255
218 234 255
218 234 255
218 234 255
218 234 255
218 234 255
218 234 255
218 234 255
218 234 255
218 234 255
218 234 255
218 234 255
218 234 255
218 234 255
218 234 255
218 234 255
218 234 255
218 234 255
218 234 255
218 234 255
218 234 255
218 234 255
218 234 255
218 234 255
218 234 255
218 234 255
218 234 255
218 234 255
218 234 255
218 234 255
218 234 255
218 234 255
218 234 255
218 234 255
218 234 255
218 234 255
218 234 255
218 234 255
218 234 255
218 234 255
218 234 255
218 234 255
218 234 255
218 234 255
218 234 255
218 234 255
218 234 255
218 234 255
218 234 255
218 234 255
218 234 255
218 234 255
218 234 255
218 234 255
218 234 255
218 233 255
218 233 255
218 233 255
218 233 255
218 233 255
218 233 255
218 233 255
218 233 255
218 233 255
217 233 255
217 233 255
217 233 255
217 233 255
217 233 255
217 233 255
217 233 255
217 233 255
217 233 255
217 233 255
217 233 255
217 233 255
217 233 255
217 233 255
217 233 255
217 233 255
217 233 255
217 233 255
217 233 255
217 233 255
217 233 255
217 233 255
217 233 255
217 233 255
217 233 255
217 233 255
217 233 255
217 233 255
217 233 255
217 233 255
217 233 255
217 233 255
217 233 255
217 233 255
217 233 255
217 233 255
217 233 255
217 233 255
217 233 255
217 233 255
217 233 255
217 233 255
217 233 255
217 233 255
217 233 255
217 233 255
217 233 255
217 233 255
217 233 255
217 233 255
217 233 255
217 233 255
217 233 255
217 233 255
217 233 255
217 233 255
217 233 255
217 233 255
217 233 255
217 233 255
217 233 255
217 233 255
217 233 255
217 233 255
217 233 255
217 233 255
217 233 255
217 233 255
217 233 255
217 233 255
217 233 255
217 233 255
217 233 255
217 233 255
217 233 255
217 233 255
217 233 255
217 233 255
217 233 255
217 233 255
217 233 255
217 233 255
217 233 255
217 233 255
217 233 255
217 233 255
217 233 255
217 233 255
217 233 255
217 233 255
217 233 255
217 233 255
217 233 255
217 233 255
217 233 255
217 233 255
217 233 255
217 233 255
217 233 255
217 233 255
217 233 255
217 233 255
217 233 255
217 233 255
217 233 255
217 233 255
217 233 255
217 233 255
217 233 255
217 233 255
217 233 255
217 233 255
217 233 255
217 233 255
217 233 255
217 233 255
217 233 255
217 233 255
217 233 255
217 233 255
217 233 255
217 233 255
217 233 255
217 233 255
217 233 255
217 233 255
217 233 255
217 233 255
217 233 255
217 233 255
217 233 255
217 233 255
217 233 255
217 233 255
217 233 255
217 233 255
217 233 255
217 233 255
217 233 255
217 233 255
217 233 255
217 233 255
217 233 255
217 233 255
217 233 255
217 233 255
217 233 255
217 233 255
217 233 255
217 233 255
217 233 255
217 233 255
217 233 255
217 233 255
217 233 255
217 233 255
217 233 255
217 233 255
217 233 255
217 233 255
217 233 255
217 233 255
217 233 255
217 233 255
217 233 255
217 233 255
217 233 255
217 233 255
217 233 255
217 233 255
217 233 255
217 233 255
217 233 255
217 233 255
217 233 255
217 233 255
217 233 255
217 233 255
217 233 255
217 233 255
217 233 255
217 233 255
217 233 255
217 233 255
217 233 255
217 233 255
217 233 255
217 233 255
217 233 255
217 233 255
217 233 255
217 233 255
217 233 255
217 233 255
217 233 255
217 233 255
217 233 255
217 233 255
217 233 255
217 233 255
217 233 255
217 233 255
217 233 255
217 233 255
217 233 255
217 233 255
217 233 255
217 233 255
217 233 255
217 233 255
217 233 255
217 233 255
217 233 255
217 233 255
217 233 255
217 233 255
217 233 255
217 233 255
217 233 255
217 233 255
217 233 255
217 233 255
217 233 255
217 233 255
217 233 255
217 233 255
217 233 255
217 233 255
217 233 255
217 233 255
217 233 255
217 233 255
217 233 255
217 233 255
217 233 255
217 233 255
218 233 255
218 233 255
218 233 255
218 233 255
218 233 255
218 233 255
218 233 255
218 233 255
218 234 255
218 234 255
218 234 255
218 234 255
218 234 255
218 234 255
218 234 255
218 234 255
218 234 255
218 234 255
218 234 255
218 234 255
218 234 255
218 234 255
218 234 255
218 234 255
218 234 255
218 234 255
218 234 255
218 234 255
218 234 255
218 234 255
218 234 255
218 234 255
218 234 255
218 234 255
218 234 255
218 234 255
218 234 255
218 234 255
218 234 255
218 234 255
218 234 255
218 234 255
218 234 255
218 234 255
218 234 255
218 234 255
218 234 255
218 234 255
218 234 255
218 234 255
218 234 255
218 234 255
218 234 255
218 234 255
218 234 255
218 234 255
218 234 255
218 234 255
218 234 255
218 234 255
218 234 255
218 234 255
218 234 255
218 234 255
218 234 255
218 234 255
218 234 255
218 234 255
218 234 255
218 234 255
218 234 255
218 234 255
218 234 255
218 234 255
218 234 255
218 234 255
218 234 255
218 234 255
218 234 255
218 234 255
218 234 255
218 234 255
218 234 255
218 234 255
218 234 255
218 234 255
218 234 255
218 234 255
218 234 255
218 234 255
218 234 255
218 234 255
218 234 255
218 234 255
218 234 255
218 234 255
218 234 255
218 234 255
218 234 255
218 234 255
218 234 255
218 234 255
218 234 255
218 234 255
218 234 255
218 234 255
218 234 255
218 234 255
218 234 255
218 234 255
218 234 255
218 234 255
218 234 255
218 234 255
218 234 255
218 234 255
218 234 255
218 234 255
218 234 255
218 234 255
218 234 255
218 234 255
218 234 255
218 234 255
218 234 255
218 234 255
218 234 255
218 234 255
218 234 255
218 234 255
218 234 255
218 234 255
218 234 255
218 234 255
218 234 255
218 234 255
218 234 255
218 234 255
218 234 255
218 234 255
218 234 255
218 234 255
218 234 255
218 234 255
218 234 255
218 234 255
218 234 255
218 234 255
218 234 255
218 234 255
218 234 255
218 234 255
218 234 255
218 234 255
218 234 255
218 234 255
218 234 255
218 234 255
218 234 255
218 234 255
218 234 255
218 234 255
218 234 255
218 234 255
218 234 255
218 234 255
218 234 255
218 234 255
218 233 255
218 233 255
218 233 255
218 233 255
218 233 255
218 233 255
218 233 255
218 233 255
218 233 255
217 233 255
217 233 255
217 233 255
217 233 255
217 233 255
217 233 255
217 233 255
217 233 255
217 233 255
217 233 255
217 233 255
217 233 255
217 233 255
217 233 255
217 233 255
217 233 255
217 233 255
217 233 255
217 233 255
217 233 255
217 233 255
217 233 255
217 233 255
217 233 255
217 233 255
217 233 255
217 233 255
217 233 255
217 233 255
217 233 255
217 233 255
217 233 255
217 233 255
217 233 255
217 233 255
217 233 255
217 233 255
217 233 255
217 233 255
217 233 255
217 233 255
217 233 255
217 233 255
217 233 255
217 233 255
217 233 255
217 233 255
217 233 255
217 233 255
217 233 255
217 233 255
217 233 255
217 233 255
217 233 255
217 233 255
217 233 255
217 233 255
217 233 255
217 233 255
217 233 255
217 233 255
217 233 255
217 233 255
217 233 255
217 233 255
217 233 255
217 233 255
217 233 255
217 233 255
217 233 255
217 233 255
217 233 255
217 233 255
217 233 255
217 233 255
217 233 255
217 233 255
217 233 255
217 233 255
217 233 255
217 233 255
217 233 255
217 233 255
217 233 255
217 233 255
217 233 255
217 233 255
217 233 255
217 233 255
217 233 255
217 233 255
217 233 255
217 233 255
217 233 255
217 233 255
217 233 255
217 233 255
217 233 255
217 233 255
217 233 255
217 233 255
217 233 255
217 233 255
217 233 255
217 233 255
217 233 255
217 233 255
217 233 255
217 233 255
217 233 255
217 233 255
217 233 255
217 233 255
217 233 255
217 233 255
217 233 255
217 233 255
217 233 255
217 233 255
217 233 255
217 233 255
217 233 255
217 233 255
217 233 255
217 233 255
217 233 255
217 233 255
217 233 255
217 233 255
217 233 255
217 233 255
217 233 255
217 233 255
217 233 255
217 233 255
217 233 255
217 233 255
217 233 255
217 233 255
217 233 255
217 233 255
217 233 255
217 233 255
217 233 255
217 233 255
217 233 255
217 233 255
217 233 255
217 233 255
217 233 255
217 233 255
217 233 255
217 233 255
217 233 255
217 233 255
217 233 255
217 233 255
217 233 255
217 233 255
217 233 255
217 233 255
217 233 255
217 233 255
217 233 255
217 233 255
217 233 255
217 233 255
217 233 255
217 233 255
217 233 255
217 233 255
217 233 255
217 233 255
217 233 255
217 233 255
217 233 255
217 233 255
217 233 255
217 233 255
217 233 255
217 233 255
217 233 255
217 233 255
217 233 255
217 233 255
217 233 255
217 233 255
217 233 255
217 233 255
217 233 255
217 233 255
217 233 255
217 233 255
217 233 255
217 233 255
217 233 255
217 233 255
217 233 255
217 233 255
217 233 255
217 233 255
217 233 255
217 233 255
217 233 255
217 233 255
217 233 255
217 233 255
217 233 255
217 233 255
217 233 255
218 233 255
218 233 255
218 233 255
218 233 255
218 233 255
218 233 255
218 233 255
218 233 255
218 233 255
218 234 255
218 234 255
218 234 255
218 234 255
218 234 255
218 234 255
218 234 255
218 234 255
218 234 255
218 234 255
218 234 255
218 234 255
218 234 255
218 234 255
218 234 255
218 234 255
218 234 255
218 234 255
218 234 255
218 234 255
218 234 255
218 234 255
218 234 255
218 234 255
218 234 255
218 234 255
218 234 255
218 234 255
218 234 255
218 234 255
218 234 255
218 234 255
218 234 255
218 234 255
218 234 255
218 234 255
218 234 255
218 234 255
218 234 255
218 234 255
218 234 255
218 234 255
218 234 255
218 234 255
218 234 255
218 234 255
218 234 255
218 234 255
218 234 255
218 234 255
218 234 255
218 234 255
218 234 255
218 234 255
218 234 255
218 234 255
218 234 255
218 234 255
218 234 255
218 234 255
218 234 255
218 234 255
218 234 255
218 234 255
218 234 255
218 234 255
218 234 255
218 234 255
218 234 255
218 234 255
218 234 255
218 234 255
218 234 255
218 234 255
218 234 255
218 234 255
218 234 255
218 234 255
218 234 255
218 234 255
218 234 255
218 234 255
218 234 255
218 234 255
218 234 255
218 234 255
219 234 255
219 234 255
219 234 255
219 234 255
219 234 255
219 234 255
219 234 255
219 234 255
219 234 255
219 234 255
219 234 255
219 234 255
218 234 255
218 234 255
218 234 255
218 234 255
218 234 255
218 234 255
218 234 255
218 234 255
218 234 255
218 234 255
218 234 255
218 234 255
218 234 255
218 234 255
218 234 255
218 234 255
218 234 255
218 234 255
218 234 255
218 234 255
218 234 255
218 234 255
218 234 255
218 234 255
218 234 255
218 234 255
218 234 255
218 234 255
218 234 255
218 234 255
218 234 255
218 234 255
218 234 255
218 234 255
218 234 255
218 234 255
218 234 255
218 234 255
218 234 255
218 234 255
218 234 255
218 234 255
218 234 255
218 234 255
218 234 255
218 234 255
218 234 255
218 234 255
218 234 255
218 234 255
218 234 255
218 234 255
218 234 255
218 234 255
218 234 255
218 234 255
218 234 255
218 234 255
218 234 255
218 234 255
218 234 255
218 234 255
218 234 255
218 234 255
218 234 255
218 234 255
218 234 255
218 234 255
218 234 255
218 234 255
218 234 255
218 234 255
218 234 255
218 234 255
218 234 255
218 234 255
218 234 255
218 234 255
218 234 255
218 234 255
218 234 255
218 234 255
218 234 255
218 234 255
218 234 255
218 234 255
218 234 255
218 234 255
218 234 255
218 233 255
218 233 255
218 233 255
218 233 255
218 233 255
218 233 255
218 233 255
218 233 255
217 233 255
217 233 255
217 233 255
217 233 255
217 233 255
217 233 255
217 233 255
217 233 255
217 233 255
217 233 255
217 233 255
217 233 255
217 233 255
217 233 255
217 233 255
217 233 255
217 233 255
217 233 255
217 233 255
217 233 255
217 233 255
217 233 255
217 233 255
217 233 255
217 233 255
217 233 255
217 233 255
217 233 255
217 233 255
217 233 255
217 233 255
217 233 255
217 233 255
217 233 255
217 233 255
217 233 255
217 233 255
217 233 255
217 233 255
217 233 255
217 233 255
217 233 255
217 233 255
217 233 255
217 233 255
217 233 255
217 233 255
217 233 255
217 233 255
217 233 255
217 233 255
217 233 255
217 233 255
217 233 255
217 233 255
217 233 255
217 233 255
217 233 255
217 233 255
217 233 255
217 233 255
217 233 255
217 233 255
217 233 255
217 233 255
217 233 255
217 233 255
217 233 255
217 233 255
217 233 255
217 233 255
217 233 255
217 233 255
217 233 255
217 233 255
217 233 255
217 233 255
217 233 255
217 233 255
217 233 255
217 233 255
217 233 255
217 233 255
217 233 255
217 233 255
217 233 255
217 233 255
217 233 255
217 233 255
217 233 255
217 233 255
217 233 255
217 233 255
217 233 255
217 233 255
217 233 255
217 233 255
217 233 255
217 233 255
217 233 255
217 233 255
217 233 255
217 233 255
217 233 255
217 233 255
217 233 255
217 233 255
217 233 255
217 233 255
217 233 255
217 233 255
217 233 255
217 233 255
217 233 255
217 233 255
217 233 255
217 233 255
217 233 255
217 233 255
217 233 255
217 233 255
217 233 255
217 233 255
217 233 255
217 233 255
217 233 255
217 233 255
217 233 255
217 233 255
217 233 255
217 233 255
217 233 255
217 233 255
217 233 255
217 233 255
217 233 255
217 233 255
217 233 255
217 233 255
217 233 255
217 233 255
217 233 255
217 233 255
217 233 255
217 233 255
217 233 255
217 233 255
217 233 255
217 233 255
217 233 255
217 233 255
217 233 255
217 233 255
217 233 255
217 233 255
217 233 255
217 233 255
217 233 255
217 233 255
217 233 255
217 233 255
217 233 255
217 233 255
217 233 255
217 233 255
217 233 255
217 233 255
217 233 255
217 233 255
217 233 255
217 233 255
217 233 255
217 233 255
217 233 255
217 233 255
217 233 255
217 233 255
217 233 255
217 233 255
217 233 255
217 233 255
217 233 255
218 233 255
218 233 255
218 233 255
218 233 255
218 233 255
218 233 255
218 233 255
218 233 255
218 233 255
218 234 255
218 234 255
218 234 255
218 234 255
218 234 255
218 234 255
218 234 255
218 234 255
218 234 255
218 234 255
218 234 255
218 234 255
218 234 255
218 234 255
218 234 255
218 234 255
218 234 255
218 234 255
218 234 255
218 234 255
218 234 255
218 234 255
218 234 255
218 234 255
218 234 255
218 234 255
218 234 255
218 234 255
218 234 255
218 234 255
218 234 255
218 234 255
218 234 255
218 234 255
218 234 255
218 234 255
218 234 255
218 234 255
218 234 255
218 234 255
218 234 255
218 234 255
218 234 255
218 234 255
218 234 255
218 234 255
218 234 255
218 234 255
218 234 255
218 234 255
218 234 255
218 234 255
218 234 255
218 234 255
218 234 255
218 234 255
218 234 255
218 234 255
218 234 255
218 234 255
218 234 255
218 234 255
218 234 255
218 234 255
218 234 255
218 234 255
218 234 255
218 234 255
218 234 255
218 234 255
218 234 255
218 234 255
218 234 255
218 234 255
218 234 255
218 234 255
218 234 255
218 234 255
218 234 255
218 234 255
218 234 255
218 234 255
218 234 255
218 234 255
218 234 255
218 234 255
218 234 255
218 234 255
219 234 255
219 234 255
219 234 255
219 234 255
219 234 255
219 234 255
219 234 255
219 234 255
219 234 255
219 234 255
219 234 255
219 234 255
219 234 255
219 234 255
219 234 255
219 234 255
219 234 255
219 234 255
219 234 255
219 234 255
219 234 255
219 234 255
219 234 255
219 234 255
219 234 255
219 234 255
219 234 255
219 234 255
219 234 255
219 234 255
219 234 255
219 234 255
219 234 255
219 234 255
219 234 255
219 234 255
219 234 255
219 234 255
219 234 255
218 234 255
218 234 255
218 234 255
218 234 255
218 234 255
218 234 255
218 234 255
218 234 255
218 234 255
218 234 255
218 234 255
218 234 255
218 234 255
218 234 255
218 234 255
218 234 255
218 234 255
218 234 255
218 234 255
218 234 255
218 234 255
218 234 255
218 234 255
218 234 255
218 234 255
218 234 255
218 234 255
218 234 255
218 234 255
218 234 255
218 234 255
218 234 255
218 234 255
218 234 255
218 234 255
218 234 255
218 234 255
218 234 255
218 234 255
218 234 255
218 234 255
218 234 255
218 234 255
218 234 255
218 234 255
218 234 255
218 234 255
218 234 255
218 234 255
218 234 255
218 234 255
218 234 255
218 234 255
218 234 255
218 234 255
218 234 255
218 234 255
218 234 255
218 234 255
218 234 255
218 234 255
218 234 255
218 234 255
218 234 255
218 234 255
218 234 255
218 234 255
218 234 255
218 234 255
218 234 255
218 234 255
218 234 255
218 234 255
218 234 255
218 234 255
218 234 255
218 234 255
218 234 255
218 234 255
218 234 255
218 234 255
218 234 255
218 234 255
218 234 255
218 234 255
218 234 255
218 234 255
218 234 255
218 233 255
218 233 255
218 233 255
218 233 255
218 233 255
218 233 255
218 233 255
218 233 255
218 233 255
218 233 255
218 233 255
217 233 255
217 233 255
217 233 255
217 233 255
217 233 255
217 233 255
217 233 255
217 233 255
217 233 255
217 233 255
217 233 255
217 233 255
217 233 255
217 233 255
217 233 255
217 233 255
217 233 255
217 233 255
217 233 255
217 233 255
217 233 255
217 233 255
217 233 255
217 233 255
217 233 255
217 233 255
217 233 255
217 233 255
217 233 255
217 233 255
217 233 255
217 233 255
217 233 255
217 233 255
217 233 255
217 233 255
217 233 255
217 233 255
217 233 255
217 233 255
217 233 255
217 233 255
217 233 255
217 233 255
217 233 255
217 233 255
217 233 255
217 233 255
217 233 255
217 233 255
217 233 255
217 233 255
217 233 255
217 233 255
217 233 255
217 233 255
217 233 255
217 233 255
217 233 255
217 233 255
217 233 255
217 233 255
217 233 255
217 233 255
217 233 255
217 233 255
217 233 255
217 233 255
217 233 255
217 233 255
217 233 255
217 233 255
217 233 255
217 233 255
217 233 255
217 233 255
217 233 255
217 233 255
217 233 255
217 233 255
217 233 255
217 233 255
217 233 255
217 233 255
217 233 255
217 233 255
217 233 255
217 233 255
217 233 255
217 233 255
217 233 255
217 233 255
217 233 255
217 233 255
217 233 255
217 233 255
217 233 255
217 233 255
217 233 255
217 233 255
217 233 255
217 233 255
217 233 255
217 233 255
217 233 255
217 233 255
217 233 255
217 233 255
217 233 255
217 233 255
217 233 255
217 233 255
217 233 255
217 233 255
217 233 255
217 233 255
217 233 255
217 233 255
217 233 255
217 233 255
217 233 255
217 233 255
217 233 255
217 233 255
217 233 255
217 233 255
217 233 255
217 233 255
217 233 255
217 233 255
217 233 255
217 233 255
217 233 255
217 233 255
217 233 255
217 233 255
217 233 255
217 233 255
217 233 255
217 233 255
217 233 255
217 233 255
217 233 255
217 233 255
217 233 255
217 233 255
217 233 255
217 233 255
217 233 255
218 233 255
218 233 255
218 233 255
218 233 255
218 233 255
218 233 255
218 233 255
218 233 255
218 233 255
218 233 255
218 234 255
218 234 255
218 234 255
218 234 255
218 234 255
218 234 255
218 234 255
218 234 255
218 234 255
218 234 255
218 234 255
218 234 255
218 234 255
218 234 255
218 234 255
218 234 255
218 234 255
218 234 255
218 234 255
218 234 255
218 234 255
218 234 255
218 234 255
218 234 255
218 234 255
218 234 255
218 234 255
218 234 255
218 234 255
218 234 255
218 234 255
218 234 255
218 234 255
218 234 255
218 234 255
218 234 255
218 234 255
218 234 255
218 234 255
218 234 255
218 234 255
218 234 255
218 234 255
218 234 255
218 234 255
218 234 255
218 234 255
218 234 255
218 234 255
218 234 255
218 234 255
218 234 255
218 234 255
218 234 255
218 234 255
218 234 255
218 234 255
218 234 255
218 234 255
218 234 255
218 234 255
218 234 255
218 234 255
218 234 255
218 234 255
218 234 255
218 234 255
218 234 255
218 234 255
218 234 255
218 234 255
218 234 255
218 234 255
218 234 255
218 234 255
218 234 255
218 234 255
218 234 255
218 234 255
218 234 255
218 234 255
218 234 255
218 234 255
218 234 255
218 234 255
218 234 255
218 234 255
218 234 255
219 234 255
219 234 255
219 234 255
219 234 255
219 234 255
219 234 255
219 234 255
219 234 255
219 234 255
219 234 255
219 234 255
219 234 255
219 234 255
219 234 255
219 234 255
219 234 255
219 234 255
219 234 255
219 234 255
219 234 255
219 234 255
219 234 255
219 234 255
219 234 255
219 234 255
219 234 255
219 234 255
219 234 255
219 234 255
219 234 255
219 234 255
219 234 255
219 234 255
219 234 255
219 234 255
219 234 255
219 234 255
219 234 255
219 234 255
219 234 255
219 234 255
219 234 255
219 234 255
219 234 255
219 234 255
219 234 255
219 234 255
219 234 255
219 234 255
219 234 255
219 234 255
219 234 255
219 234 255
219 234 255
219 234 255
219 234 255
219 234 255
219 234 255
219 234 255
219 234 255
219 234 255
219 234 255
219 234 255
219 234 255
219 234 255
219 234 255
219 234 255
219 234 255
218 234 255
218 234 255
218 234 255
218 234 255
218 234 255
218 234 255
218 234 255
218 234 255
218 234 255
218 234 255
218 234 255
218 234 255
218 234 255
218 234 255
218 234 255
218 234 255
218 234 255
218 234 255
218 234 255
218 234 255
218 234 255
218 234 255
218 234 255
218 234 255
218 234 255
218 234 255
218 234 255
218 234 255
218 234 255
218 234 255
218 234 255
218 234 255
218 234 255
218 234 255
218 234 255
218 234 255
218 234 255
218 234 255
218 234 255
218 234 255
218 234 255
218 234 255
218 234 255
218 234 255
218 234 255
218 234 255
218 234 255
218 234 255
218 234 255
218 234 255
218 234 255
218 234 255
218 234 255
218 234 255
218 234 255
218 234 255
218 234 255
218 234 255
218 234 255
218 234 255
218 234 255
218 234 255
218 234 255
218 234 255
218 234 255
218 234 255
218 234 255
218 234 255
218 234 255
218 234 255
218 234 255
218 234 255
218 234 255
218 234 255
218 234 255
218 234 255
218 234 255
218 234 255
218 234 255
218 234 255
218 234 255
218 234 255
218 234 255
218 234 255
218 234 255
218 234 255
218 234 255
218 234 255
218 234 255
218 234 255
218 234 255
218 233 255
218 233 255
218 233 255
218 233 255
218 233 255
218 233 255
218 233 255
218 233 255
218 233 255
218 233 255
218 233 255
218 233 255
217 233 255
217 233 255
217 233 255
217 233 255
217 233 255
217 233 255
217 233 255
217 233 255
217 233 255
217 233 255
217 233 255
217 233 255
217 233 255
217 233 255
217 233 255
217 233 255
217 233 255
217 233 255
217 233 255
217 233 255
217 233 255
217 233 255
217 233 255
217 233 255
217 233 255
217 233 255
217 233 255
217 233 255
217 233 255
217 233 255
217 233 255
217 233 255
217 233 255
217 233 255
217 233 255
217 233 255
217 233 255
217 233 255
217 233 255
217 233 255
217 233 255
217 233 255
217 233 255
217 233 255
217 233 255
217 233 255
217 233 255
217 233 255
217 233 255
217 233 255
217 233 255
217 233 255
217 233 255
217 233 255
217 233 255
217 233 255
217 233 255
217 233 255
217 233 255
217 233 255
217 233 255
217 233 255
217 233 255
217 233 255
217 233 255
217 233 255
217 233 255
217 233 255
217 233 255
217 233 255
217 233 255
217 233 255
217 233 255
217 233 255
217 233 255
217 233 255
217 233 255
217 233 255
217 233 255
217 233 255
217 233 255
217 233 255
217 233 255
217 233 255
217 233 255
217 233 255
217 233 255
217 233 255
217 233 255
217 233 255
217 233 255
217 233 255
217 233 255
217 233 255
217 233 255
217 233 255
217 233 255
217 233 255
217 233 255
217 233 255
217 233 255
217 233 255
217 233 255
217 233 255
217 233 255
217 233 255
217 233 255
217 233 255
217 233 255
217 233 255
217 233 255
218 233 255
218 233 255
218 233 255
218 233 255
218 233 255
218 233 255
218 233 255
218 233 255
218 233 255
218 233 255
218 233 255
218 233 255
218 234 255
218 234 255
218 234 255
218 234 255
218 234 255
218 234 255
218 234 255
218 234 255
218 234 255
218 234 255
218 234 255
218 234 255
218 234 255
218 234 255
218 234 255
218 234 255
218 234 255
218 234 255
218 234 255
218 234 255
218 234 255
218 234 255
218 234 255
218 234 255
218 234 255
218 234 255
218 234 255
218 234 255
218 234 255
218 234 255
218 234 255
218 234 255
218 234 255
218 234 255
218 234 255
218 234 255
218 234 255
218 234 255
218 234 255
218 234 255
218 234 255
218 234 255
218 234 255
218 234 255
218 234 255
218 234 255
218 234 255
218 234 255
218 234 255
218 234 255
218 234 255
218 234 255
218 234 255
218 234 255
218 234 255
218 234 255
218 234 255
218 234 255
218 234 255
218 234 255
218 234 255
218 234 255
218 234 255
218 234 255
218 234 255
218 234 255
218 234 255
218 234 255
218 234 255
218 234 255
218 234 255
218 234 255
218 234 255
218 234 255
218 234 255
218 234 255
218 234 255
218 234 255
218 234 255
218 234 255
218 234 255
218 234 255
218 234 255
218 234 255
218 234 255
218 234 255
218 234 255
218 234 255
218 234 255
218 234 255
218 234 255
218 234 255
219 234 255
219 234 255
219 234 255
219 234 255
219 234 255
219 234 255
219 234 255
219 234 255
219 234 255
219 234 255
219 234 255
219 234 255
219 234 255
219 234 255
219 234 255
219 234 255
219 234 255
219 234 255
219 234 255
219 234 255
219 234 255
219 234 255
219 234 255
219 234 255
219 234 255
219 234 255
219 234 255
219 234 255
219 234 255
219 234 255
219 234 255
219 234 255
219 234 255
219 234 255
219 234 255
219 234 255
219 234 255
219 234 255
219 234 255
219 234 255
219 234 255
219 234 255
219 234 255
219 234 255
219 234 255
219 234 255
219 234 255
219 234 255
219 234 255
219 234 255
219 234 255
219 234 255
219 234 255
219 234 255
219 234 255
219 234 255
219 234 255
219 234 255
219 234 255
219 234 255
219 234 255
219 234 255
219 234 255
219 234 255
219 234 255
219 234 255
219 234 255
219 234 255
219 234 255
219 234 255
219 234 255
219 234 255
219 234 255
219 234 255
219 234 255
219 234 255
219 234 255
219 234 255
219 234 255
219 234 255
219 234 255
219 234 255
219 234 255
219 234 255
219 234 255
219 234 255
219 234 255
219 234 255
219 234 255
219 234 255
219 234 255
219 234 255
219 234 255
219 234 255
219 234 255
219 234 255
219 234 255
218 234 255
218 234 255
218 234 255
218 234 255
218 234 255
218 234 255
218 234 255
218 234 255
218 234 255
218 234 255
218 234 255
218 234 255
218 234 255
218 234 255
218 234 255
218 234 255
218 234 255
218 234 255
218 234 255
218 234 255
218 234 255
218 234 255
218 234 255
218 234 255
218 234 255
218 234 255
218 234 255
218 234 255
218 234 255
218 234 255
218 234 255
218 234 255
218 234 255
218 234 255
218 234 255
218 234 255
218 234 255
218 234 255
218 234 255
218 234 255
218 234 255
218 234 255
218 234 255
218 234 255
218 234 255
218 234 255
218 234 255
218 234 255
218 234 255
218 234 255
218 234 255
218 234 255
218 234 255
218 234 255
218 234 255
218 234 255
218 234 255
218 234 255
218 234 255
218 234 255
218 234 255
218 234 255
218 234 255
218 234 255
218 234 255
218 234 255
218 234 255
218 234 255
218 234 255
218 234 255
218 234 255
218 234 255
218 234 255
218 234 255
218 234 255
218 234 255
218 234 255
218 234 255
218 234 255
218 234 255
218 234 255
218 234 255
218 234 255
218 234 255
218 234 255
218 234 255
218 234 255
218 234 255
218 234 255
218 234 255
218 234 255
218 234 255
218 234 255
218 234 255
218 234 255
218 234 255
218 234 255
218 234 255
218 234 255
218 233 255
218 233 255
218 233 255
218 233 255
218 233 255
218 233 255
218 233 255
218 233 255
218 233 255
218 233 255
218 233 255
218 233 255
218 233 255
218 233 255
218 233 255
218 233 255
218 233 255
217 233 255
217 233 255
217 233 255
217 233 255
217 233 255
217 233 255
217 233 255
217 233 255
217 233 255
217 233 255
217 233 255
217 233 255
217 233 255
217 233 255
217 233 255
217 233 255
217 233 255
217 233 255
217 233 255
217 233 255
217 233 255
217 233 255
217 233 255
217 233 255
217 233 255
217 233 255
217 233 255
217 233 255
217 233 255
217 233 255
217 233 255
217 233 255
217 233 255
217 233 255
217 233 255
217 233 255
217 233 255
217 233 255
217 233 255
217 233 255
217 233 255
217 233 255
217 233 255
217 233 255
217 233 255
217 233 255
217 233 255
217 233 255
217 233 255
217 233 255
217 233 255
217 233 255
217 233 255
217 233 255
218 233 255
217 233 255
218 233 255
218 233 255
218 233 255
218 233 255
218 233 255
218 233 255
218 233 255
218 233 255
218 233 255
218 233 255
218 233 255
218 233 255
218 233 255
218 233 255
218 233 255
218 233 255
218 233 255
218 233 255
218 234 255
218 234 255
218 234 255
218 234 255
218 234 255
218 234 255
218 234 255
218 234 255
218 234 255
218 234 255
218 234 255
218 234 255
218 234 255
218 234 255
218 234 255
218 234 255
218 234 255
218 234 255
218 234 255
218 234 255
218 234 255
218 234 255
218 234 255
218 234 255
218 234 255
218 234 255
218 234 255
218 234 255
218 234 255
218 234 255
218 234 255
218 234 255
218 234 255
218 234 255
218 234 255
218 234 255
218 234 255
218 234 255
218 234 255
218 234 255
218 234 255
218 234 255
218 234 255
218 234 255
218 234 255
218 234 255
218 234 255
218 234 255
218 234 255
218 234 255
218 234 255
218 234 255
218 234 255
218 234 255
218 234 255
218 234 255
218 234 255
218 234 255
218 234 255
218 234 255
218 234 255
218 234 255
218 234 255
218 234 255
218 234 255
218 234 255
218 234 255
218 234 255
218 234 255
218 234 255
218 234 255
218 234 255
218 234 255
218 234 255
218 234 255
218 234 255
218 234 255
218 234 255
218 234 255
218 234 255
218 234 255
218 234 255
218 234 255
218 234 255
218 234 255
218 234 255
218 234 255
218 234 255
218 234 255
218 234 255
218 234 255
218 234 255
218 234 255
218 234 255
218 234 255
218 234 255
218 234 255
218 234 255
219 234 255
219 234 255
219 234 255
219 234 255
219 234 255
219 234 255
219 234 255
219 234 255
219 234 255
219 234 255
219 234 255
219 234 255
219 234 255
219 234 255
219 234 255
219 234 255
219 234 255
219 234 255
219 234 255
219 234 255
219 234 255
219 234 255
219 234 255
219 234 255
219 234 255
219 234 255
219 234 255
219 234 255
219 234 255
219 234 255
219 234 255
219 234 255
219 234 255
219 234 255
219 234 255
219 234 255
219 234 255
219 234 255
219 234 255
219 234 255
219 234 255
219 234 255
219 234 255
219 234 255
219 234 255
219 234 255
219 234 255
219 234 255
219 234 255
219 234 255
219 234 255
219 234 255
219 234 255
219 234 255
219 234 255
219 234 255
219 234 255
219 234 255
219 234 255
219 234 255
219 234 255
219 234 255
219 234 255
219 234 255
219 234 255
219 234 255
219 234 255
219 234 255
219 234 255
219 234 255
219 234 255
219 234 255
219 234 255
219 234 255
219 234 255
219 234 255
219 234 255
219 234 255
219 234 255
219 234 255
219 234 255
219 234 255
219 234 255
219 234 255
219 234 255
219 234 255
219 234 255
219 234 255
219 234 255
219 234 255
219 234 255
219 234 255
219 234 255
219 234 255
219 234 255
219 234 255
219 234 255
219 234 255
219 234 255
219 234 255
219 234 255
219 234 255
219 234 255
219 234 255
219 234 255
219 234 255
219 234 255
219 234 255
219 234 255
219 234 255
219 234 255
219 234 255
219 234 255
219 234 255
219 234 255
219 234 255
219 234 255
219 234 255
219 234 255
219 234 255
219 234 255
219 234 255
219 234 255
219 234 255
219 234 255
219 234 255
219 234 255
219 234 255
218 234 255
218 234 255
218 234 255
218 234 255
218 234 255
218 234 255
218 234 255
218 234 255
218 234 255
218 234 255
218 234 255
218 234 255
218 234 255
218 234 255
218 234 255
218 234 255
218 234 255
218 234 255
218 234 255
218 234 255
218 234 255
218 234 255
218 234 255
218 234 255
218 234 255
218 234 255
218 234 255
218 234 255
218 234 255
218 234 255
218 234 255
218 234 255
218 234 255
218 234 255
218 234 255
218 234 255
218 234 255
218 234 255
218 234 255
218 234 255
218 234 255
218 234 255
218 234 255
218 234 255
218 234 255
218 234 255
218 234 255
218 234 255
218 234 255
218 234 255
218 234 255
218 234 255
218 234 255
218 234 255
218 234 255
218 234 255
218 234 255
218 234 255
218 234 255
218 234 255
218 234 255
218 234 255
218 234 255
218 234 255
218 234 255
218 234 255
218 234 255
218 234 255
218 234 255
218 234 255
218 234 255
218 234 255
218 234 255
218 234 255
218 234 255
218 234 255
218 234 255
218 234 255
218 234 255
218 234 255
218 234 255
218 234 255
218 234 255
218 234 255
218 234 255
218 234 255
218 234 255
218 234 255
218 234 255
218 234 255
218 234 255
218 234 255
218 234 255
218 234 255
218 234 255
218 234 255
218 234 255
218 234 255
218 234 255
218 234 255
218 234 255
218 234 255
218 234 255
218 234 255
218 234 255
218 234 255
218 234 255
218 234 255
218 234 255
218 234 255
218 234 255
218 234 255
218 234 255
218 234 255
218 234 255
218 234 255
218 234 255
218 234 255
218 234 255
218 234 255
218 234 255
218 234 255
218 234 255
218 234 255
218 234 255
218 234 255
218 234 255
218 234 255
218 234 255
218 234 255
218 234 255
218 234 255
218 234 255
218 234 255
218 234 255
218 234 255
218 234 255
218 234 255
218 234 255
218 234 255
218 234 255
218 234 255
218 234 255
218 234 255
218 234 255
218 234 255
218 234 255
218 234 255
218 234 255
218 234 255
218 234 255
218 234 255
218 234 255
218 234 255
218 234 255
218 234 255
218 234 255
218 234 255
218 234 255
218 234 255
218 234 255
218 234 255
218 234 255
218 234 255
218 234 255
218 234 255
218 234 255
218 234 255
218 234 255
218 234 255
218 234 255
218 234 255
218 234 255
218 234 255
218 234 255
218 234 255
218 234 255
218 234 255
218 234 255
218 234 255
218 234 255
218 234 255
218 234 255
218 234 255
218 234 255
218 234 255
218 234 255
218 234 255
218 234 255
218 234 255
218 234 255
218 234 255
218 234 255
218 234 255
218 234 255
218 234 255
218 234 255
218 234 255
218 234 255
218 234 255
218 234 255
218 234 255
218 234 255
218 234 255
218 234 255
218 234 255
218 234 255
218 234 255
218 234 255
218 234 255
218 234 255
218 234 255
218 234 255
218 234 255
218 234 255
218 234 255
218 234 255
218 234 255
218 234 255
218 234 255
218 234 255
218 234 255
218 234 255
218 234 255
218 234 255
218 234 255
218 234 255
218 234 255
218 234 255
218 234 255
218 234 255
218 234 255
218 234 255
218 234 255
218 234 255
218 234 255
218 234 255
218 234 255
218 234 255
218 234 255
218 234 255
218 234 255
218 234 255
218 234 255
218 234 255
218 234 255
218 234 255
218 234 255
218 234 255
218 234 255
218 234 255
218 234 255
218 234 255
218 234 255
218 234 255
218 234 255
218 234 255
219 234 255
219 234 255
219 234 255
219 234 255
219 234 255
219 234 255
219 234 255
219 234 255
219 234 255
219 234 255
219 234 255
219 234 255
219 234 255
219 234 255
219 234 255
219 234 255
219 234 255
219 234 255
219 234 255
219 234 255
219 234 255
219 234 255
219 234 255
219 234 255
219 234 255
219 234 255
219 234 255
219 234 255
219 234 255
219 234 255
219 234 255
219 234 255
219 234 255
219 234 255
219 234 255
219 234 255
219 234 255
219 234 255
219 234 255
219 234 255
219 234 255
219 234 255
219 234 255
219 234 255
219 234 255
219 234 255
219 234 255
219 234 255
219 234 255
219 234 255
219 234 255
219 234 255
219 234 255
219 234 255
219 234 255
219 234 255
219 234 255
219 234 255
219 234 255
219 234 255
219 234 255
219 234 255
219 234 255
219 234 255
219 234 255
219 234 255
219 234 255
219 234 255
219 234 255
219 234 255
219 234 255
219 234 255
219 234 255
219 234 255
219 234 255
219 234 255
219 234 255
219 234 255
219 234 255
219 234 255
219 234 255
219 234 255
219 234 255
219 234 255
219 234 255
219 234 255
219 234 255
219 234 255
219 234 255
219 234 255
219 234 255
219 234 255
219 234 255
219 234 255
219 234 255
219 234 255
219 234 255
219 234 255
219 234 255
219 234 255
219 234 255
219 234 255
219 234 255
219 234 255
219 234 255
219 234 255
219 234 255
219 234 255
219 234 255
219 234 255
219 234 255
219 234 255
219 234 255
219 234 255
219 234 255
219 234 255
219 234 255
219 234 255
219 234 255
219 234 255
219 234 255
219 234 255
219 234 255
219 234 255
219 234 255
219 234 255
219 234 255
219 234 255
219 234 255
219 234 255
219 234 255
219 234 255
219 234 255
219 234 255
219 234 255
219 234 255
219 234 255
219 234 255
219 234 255
219 234 255
219 234 255
219 234 255
219 234 255
219 234 255
219 234 255
219 234 255
219 234 255
219 234 255
219 234 255
219 234 255
219 234 255
219 234 255
219 234 255
219 234 255
219 234 255
219 234 255
219 234 255
219 234 255
219 234 255
219 234 255
219 234 255
218 234 255
218 234 255
218 234 255
218 234 255
218 234 255
218 234 255
218 234 255
218 234 255
218 234 255
218 234 255
218 234 255
218 234 255
218 234 255
218 234 255
218 234 255
218 234 255
218 234 255
218 234 255
218 234 255
218 234 255
218 234 255
218 234 255
218 234 255
218 234 255
218 234 255
218 234 255
218 234 255
218 234 255
218 234 255
218 234 255
218 234 255
218 234 255
218 234 255
218 234 255
218 234 255
218 234 255
218 234 255
218 234 255
218 234 255
218 234 255
218 234 255
218 234 255
218 234 255
218 234 255
218 234 255
218 234 255
218 234 255
218 234 255
218 234 255
218 234 255
218 234 255
218 234 255
218 234 255
218 234 255
218 234 255
218 234 255
218 234 255
218 234 255
218 234 255
218 234 255
218 234 255
218 234 255
218 234 255
218 234 255
218 234 255
218 234 255
218 234 255
218 234 255
218 234 255
218 234 255
218 234 255
218 234 255
218 234 255
218 234 255
218 234 255
218 234 255
218 234 255
218 234 255
218 234 255
218 234 255
218 234 255
218 234 255
218 234 255
218 234 255
218 234 255
218 234 255
218 234 255
218 234 255
218 234 255
218 234 255
218 234 255
218 234 255
218 234 255
218 234 255
218 234 255
218 234 255
218 234 255
218 234 255
218 234 255
218 234 255
218 234 255
218 234 255
218 234 255
218 234 255
218 234 255
218 234 255
218 234 255
218 234 255
218 234 255
218 234 255
218 234 255
218 234 255
218 234 255
218 234 255
218 234 255
218 234 255
218 234 255
218 234 255
218 234 255
218 234 255
218 234 255
218 234 255
218 234 255
218 234 255
218 234 255
218 234 255
218 234 255
218 234 255
218 234 255
218 234 255
218 234 255
218 234 255
218 234 255
218 234 255
218 234 255
218 234 255
218 234 255
218 234 255
218 234 255
218 234 255
218 234 255
218 234 255
218 234 255
218 234 255
218 234 255
218 234 255
218 234 255
218 234 255
218 234 255
218 234 255
218 234 255
218 234 255
218 234 255
218 234 255
218 234 255
218 234 255
218 234 255
218 234 255
218 234 255
218 234 255
218 234 255
218 234 255
218 234 255
218 234 255
218 234 255
218 234 255
218 234 255
218 234 255
218 234 255
218 234 255
218 234 255
218 234 255
218 234 255
218 234 255
218 234 255
218 234 255
218 234 255
218 234 255
218 234 255
218 234 255
218 234 255
218 234 255
218 234 255
218 234 255
218 234 255
218 234 255
218 234 255
218 234 255
218 234 255
218 234 255
218 234 255
218 234 255
218 234 255
218 234 255
218 234 255
218 234 255
218 234 255
218 234 255
218 234 255
218 234 255
218 234 255
218 234 255
218 234 255
218 234 255
218 234 255
218 234 255
218 234 255
218 234 255
218 234 255
218 234 255
218 234 255
218 234 255
218 234 255
218 234 255
218 234 255
218 234 255
218 234 255
218 234 255
218 234 255
218 234 255
218 234 255
219 234 255
219 234 255
219 234 255
219 234 255
219 234 255
219 234 255
219 234 255
219 234 255
219 234 255
219 234 255
219 234 255
219 234 255
219 234 255
219 234 255
219 234 255
219 234 255
219 234 255
219 234 255
219 234 255
219 234 255
219 234 255
219 234 255
219 234 255
219 234 255
219 234 255
219 234 255
219 234 255
219 234 255
219 234 255
219 234 255
219 234 255
219 234 255
219 234 255
219 234 255
219 234 255
219 234 255
219 234 255
219 234 255
219 234 255
219 234 255
219 234 255
219 234 255
219 234 255
219 234 255
219 234 255
219 234 255
219 234 255
219 234 255
219 234 255
219 234 255
219 234 255
219 234 255
219 234 255
219 234 255
219 234 255
219 234 255
219 234 255
219 234 255
219 234 255
219 234 255
219 234 255
219 234 255
219 234 255
219 234 255
219 234 255
219 234 255
219 234 255
219 234 255
219 234 255
219 234 255
219 234 255
219 234 255
219 234 255
219 234 255
219 234 255
219 234 255
219 234 255
219 234 255
219 234 255
219 234 255
219 234 255
219 234 255
219 234 255
219 234 255
219 234 255
219 234 255
219 234 255
219 234 255
219 234 255
219 234 255
219 234 255
219 234 255
219 234 255
219 234 255
219 234 255
219 234 255
219 234 255
219 234 255
219 234 255
219 234 255
219 234 255
219 234 255
219 234 255
219 234 255
219 234 255
219 234 255
219 234 255
219 234 255
219 234 255
219 234 255
219 234 255
219 234 255
219 234 255
219 234 255
219 234 255
219 234 255
219 234 255
219 234 255
219 234 255
219 234 255
219 234 255
219 234 255
219 234 255
219 234 255
219 234 255
219 234 255
219 234 255
219 234 255
219 234 255
219 234 255
219 234 255
219 234 255
219 234 255
219 234 255
219 234 255
219 234 255
219 234 255
219 234 255
219 234 255
219 234 255
219 234 255
219 234 255
219 234 255
219 234 255
219 234 255
219 234 255
219 234 255
219 234 255
219 234 255
219 234 255
219 234 255
219 234 255
219 234 255
219 234 255
219 234 255
219 234 255
219 234 255
219 234 255
219 234 255
219 234 255
219 234 255
219 234 255
219 234 255
219 234 255
219 234 255
219 234 255
219 234 255
219 234 255
219 234 255
219 234 255
219 234 255
219 234 255
219 234 255
219 234 255
219 234 255
219 234 255
219 234 255
219 234 255
219 234 255
219 234 255
219 234 255
219 234 255
219 234 255
219 234 255
219 234 255
219 234 255
219 234 255
219 234 255
219 234 255
219 234 255
219 234 255
219 234 255
219 234 255
219 234 255
219 234 255
219 234 255
219 234 255
218 234 255
218 234 255
218 234 255
218 234 255
218 234 255
218 234 255
218 234 255
218 234 255
218 234 255
218 234 255
218 234 255
218 234 255
218 234 255
218 234 255
218 234 255
218 234 255
218 234 255
218 234 255
218 234 255
218 234 255
218 234 255
218 234 255
218 234 255
218 234 255
218 234 255
218 234 255
218 234 255
218 234 255
218 234 255
218 234 255
218 234 255
218 234 255
218 234 255
218 234 255
218 234 255
218 234 255
218 234 255
218 234 255
218 234 255
218 234 255
218 234 255
218 234 255
218 234 255
218 234 255
218 234 255
218 234 255
218 234 255
218 234 255
218 234 255
218 234 255
218 234 255
218 234 255
218 234 255
218 234 255
218 234 255
218 234 255
218 234 255
218 234 255
218 234 255
218 234 255
218 234 255
218 234 255
218 234 255
218 234 255
218 234 255
218 234 255
218 234 255
218 234 255
218 234 255
218 234 255
218 234 255
218 234 255
218 234 255
218 234 255
218 234 255
218 234 255
218 234 255
218 234 255
218 234 255
218 234 255
218 234 255
218 234 255
218 234 255
218 234 255
218 234 255
218 234 255
218 234 255
218 234 255
218 234 255
218 234 255
218 234 255
218 234 255
218 234 255
218 234 255
218 234 255
218 234 255
218 234 255
218 234 255
218 234 255
218 234 255
218 234 255
218 234 255
218 234 255
218 234 255
218 234 255
218 234 255
218 234 255
218 234 255
218 234 255
218 234 255
218 234 255
218 234 255
218 234 255
218 234 255
218 234 255
218 234 255
218 234 255
218 234 255
218 234 255
218 234 255
218 234 255
218 234 255
218 234 255
218 234 255
218 234 255
218 234 255
218 234 255
218 234 255
218 234 255
218 234 255
218 234 255
218 234 255
218 234 255
218 234 255
218 234 255
218 234 255
218 234 255
218 234 255
218 234 255
218 234 255
218 234 255
218 234 255
218 234 255
218 234 255
218 234 255
218 234 255
218 234 255
218 234 255
218 234 255
218 234 255
218 234 255
218 234 255
218 234 255
218 234 255
218 234 255
218 234 255
218 234 255
218 234 255
218 234 255
218 234 255
218 234 255
218 234 255
218 234 255
218 234 255
218 234 255
218 234 255
218 234 255
218 234 255
218 234 255
218 234 255
218 234 255
218 234 255
218 234 255
218 234 255
218 234 255
218 234 255
218 234 255
218 234 255
218 234 255
218 234 255
218 234 255
218 234 255
218 234 255
219 234 255
219 234 255
219 234 255
219 234 255
219 234 255
219 234 255
219 234 255
219 234 255
219 234 255
219 234 255
219 234 255
219 234 255
219 234 255
219 234 255
219 234 255
219 234 255
219 234 255
219 234 255
219 234 255
219 234 255
219 234 255
219 234 255
219 234 255
219 234 255
219 234 255
219 234 255
219 234 255
219 234 255
219 234 255
219 234 255
219 234 255
219 234 255
219 234 255
219 234 255
219 234 255
219 234 255
219 234 255
219 234 255
219 234 255
219 234 255
219 234 255
219 234 255
219 234 255
219 234 255
219 234 255
219 234 255
219 234 255
219 234 255
219 234 255
219 234 255
219 234 255
219 234 255
219 234 255
219 234 255
219 234 255
219 234 255
219 234 255
219 234 255
219 234 255
219 234 255
219 234 255
219 234 255
219 234 255
219 234 255
219 234 255
219 234 255
219 234 255
219 234 255
219 234 255
219 234 255
219 234 255
219 234 255
219 234 255
219 234 255
219 234 255
219 234 255
219 234 255
219 234 255
219 234 255
219 234 255
219 234 255
219 234 255
219 234 255
219 234 255
219 234 255
219 234 255
219 234 255
219 234 255
219 234 255
219 234 255
219 234 255
219 234 255
219 234 255
219 234 255
219 234 255
219 234 255
219 234 255
219 234 255
219 234 255
219 234 255
219 234 255
219 234 255
219 234 255
219 234 255
219 234 255
219 234 255
219 234 255
219 234 255
219 234 255
219 235 255
219 235 255
219 235 255
219 235 255
219 235 255
219 235 255
219 235 255
219 235 255
219 234 255
219 234 255
219 234 255
219 234 255
219 234 255
219 234 255
219 234 255
219 234 255
219 234 255
219 234 255
219 234 255
219 234 255
219 234 255
219 234 255
219 234 255
219 234 255
219 234 255
219 234 255
219 234 255
219 234 255
219 234 255
219 234 255
219 234 255
219 234 255
219 234 255
219 234 255
219 234 255
219 234 255
219 234 255
219 234 255
219 234 255
219 234 255
219 234 255
219 234 255
219 234 255
219 234 255
219 234 255
219 234 255
219 234 255
219 234 255
219 234 255
219 234 255
219 234 255
219 234 255
219 234 255
219 234 255
219 234 255
219 234 255
219 234 255
219 234 255
219 234 255
219 234 255
219 234 255
219 234 255
219 234 255
219 234 255
219 234 255
219 234 255
219 234 255
219 234 255
219 234 255
219 234 255
219 234 255
219 234 255
219 234 255
219 234 255
219 234 255
219 234 255
219 234 255
219 234 255
219 234 255
219 234 255
219 234 255
219 234 255
219 234 255
219 234 255
219 234 255
219 234 255
219 234 255
219 234 255
219 234 255
219 234 255
219 234 255
219 234 255
219 234 255
219 234 255
219 234 255
219 234 255
219 234 255
219 234 255
219 234 255
219 234 255
219 234 255
219 234 255
219 234 255
219 234 255
219 234 255
219 234 255
219 234 255
219 234 255
219 234 255
219 234 255
219 234 255
219 234 255
219 234 255
219 234 255
219 234 255
219 234 255
219 234 255
219 234 255
219 234 255
219 234 255
219 234 255
219 234 255
219 234 255
219 234 255
219 234 255
219 234 255
219 234 255
219 234 255
219 234 255
219 234 255
218 234 255
218 234 255
218 234 255
218 234 255
218 234 255
218 234 255
218 234 255
218 234 255
218 234 255
218 234 255
218 234 255
218 234 255
218 234 255
218 234 255
218 234 255
218 234 255
218 234 255
218 234 255
218 234 255
218 234 255
218 234 255
218 234 255
218 234 255
218 234 255
218 234 255
218 234 255
218 234 255
218 234 255
218 234 255
218 234 255
218 234 255
218 234 255
218 234 255
218 234 255
218 234 255
218 234 255
218 234 255
218 234 255
218 234 255
218 234 255
218 234 255
218 234 255
218 234 255
218 234 255
218 234 255
218 234 255
218 234 255
218 234 255
218 234 255
218 234 255
218 234 255
218 234 255
218 234 255
218 234 255
218 234 255
218 234 255
218 234 255
218 234 255
218 234 255
218 234 255
218 234 255
218 234 255
218 234 255
218 234 255
218 234 255
218 234 255
218 234 255
218 234 255
218 234 255
218 234 255
218 234 255
218 234 255
218 234 255
218 234 255
218 234 255
218 234 255
218 234 255
218 234 255
218 234 255
218 234 255
218 234 255
218 234 255
218 234 255
218 234 255
218 234 255
218 234 255
218 234 255
218 234 255
218 234 255
218 234 255
218 234 255
218 234 255
218 234 255
218 234 255
218 234 255
218 234 255
218 234 255
218 234 255
218 234 255
218 234 255
218 234 255
218 234 255
218 234 255
218 234 255
218 234 255
218 234 255
218 234 255
218 234 255
218 234 255
218 234 255
218 234 255
218 234 255
218 234 255
218 234 255
218 234 255
218 234 255
218 234 255
218 234 255
218 234 255
218 234 255
218 234 255
218 234 255
218 234 255
218 234 255
218 234 255
218 234 255
218 234 255
218 234 255
218 234 255
218 234 255
218 234 255
218 234 255
218 234 255
218 234 255
218 234 255
218 234 255
218 234 255
218 234 255
218 234 255
218 234 255
219 234 255
219 234 255
219 234 255
219 234 255
219 234 255
219 234 255
219 234 255
219 234 255
219 234 255
219 234 255
219 234 255
219 234 255
219 234 255
219 234 255
219 234 255
219 234 255
219 234 255
219 234 255
219 234 255
219 234 255
219 234 255
219 234 255
219 234 255
219 234 255
219 234 255
219 234 255
219 234 255
219 234 255
219 234 255
219 234 255
219 234 255
219 234 255
219 234 255
219 234 255
219 234 255
219 234 255
219 234 255
219 234 255
219 234 255
219 234 255
219 234 255
219 234 255
219 234 255
219 234 255
219 234 255
219 234 255
219 234 255
219 234 255
219 234 255
219 234 255
219 234 255
219 234 255
219 234 255
219 234 255
219 234 255
219 234 255
219 234 255
219 234 255
219 234 255
219 234 255
219 234 255
219 234 255
219 234 255
219 234 255
219 234 255
219 234 255
219 234 255
219 234 255
219 234 255
219 234 255
219 234 255
219 234 255
219 234 255
219 234 255
219 234 255
219 234 255
219 234 255
219 234 255
219 234 255
219 234 255
219 234 255
219 234 255
219 234 255
219 234 255
219 234 255
219 234 255
219 234 255
219 234 255
219 234 255
219 234 255
219 234 255
219 234 255
219 234 255
219 234 255
219 234 255
219 234 255
219 234 255
219 234 255
219 234 255
219 234 255
219 234 255
219 234 255
219 234 255
219 234 255
219 234 255
219 234 255
219 234 255
219 234 255
219 234 255
219 234 255
219 234 255
219 234 255
219 234 255
219 234 255
219 234 255
219 234 255
219 234 255
219 234 255
219 234 255
219 234 255
219 234 255
219 234 255
219 235 255
219 235 255
219 235 255
219 235 255
219 235 255
219 235 255
219 235 255
219 235 255
220 235 255
220 235 255
220 235 255
220 235 255
220 235 255
220 235 255
220 235 255
220 235 255
220 235 255
220 235 255
219 235 255
219 235 255
219 235 255
219 235 255
219 235 255
219 235 255
219 235 255
219 235 255
219 235 255
219 235 255
219 235 255
219 235 255
219 235 255
219 235 255
219 235 255
219 235 255
219 235 255
219 235 255
219 235 255
219 234 255
219 234 255
219 234 255
219 234 255
219 234 255
219 234 255
219 234 255
219 234 255
219 234 255
219 234 255
219 234 255
219 234 255
219 234 255
219 234 255
219 234 255
219 234 255
219 234 255
219 234 255
219 234 255
219 234 255
219 234 255
219 234 255
219 234 255
219 234 255
219 234 255
219 234 255
219 234 255
219 234 255
219 234 255
219 234 255
219 234 255
219 234 255
219 234 255
219 234 255
219 234 255
219 234 255
219 234 255
219 234 255
219 234 255
219 234 255
219 234 255
219 234 255
219 234 255
219 234 255
219 234 255
219 234 255
219 234 255
219 234 255
219 234 255
219 234 255
219 234 255
219 234 255
219 234 255
219 234 255
219 234 255
219 234 255
219 234 255
219 234 255
219 234 255
219 234 255
219 234 255
219 234 255
219 234 255
219 234 255
219 234 255
219 234 255
219 234 255
219 234 255
219 234 255
219 234 255
219 234 255
219 234 255
219 234 255
219 234 255
219 234 255
219 234 255
219 234 255
219 234 255
219 234 255
219 234 255
219 234 255
219 234 255
219 234 255
219 234 255
219 234 255
219 234 255
219 234 255
219 234 255
219 234 255
219 234 255
219 234 255
219 234 255
219 234 255
219 234 255
219 234 255
219 234 255
219 234 255
219 234 255
219 234 255
219 234 255
219 234 255
219 234 255
219 234 255
219 234 255
219 234 255
219 234 255
219 234 255
219 234 255
219 234 255
219 234 255
219 234 255
219 234 255
219 234 255
219 234 255
219 234 255
219 234 255
219 234 255
219 234 255
219 234 255
219 234 255
219 234 255
219 234 255
219 234 255
219 234 255
219 234 255
219 234 255
219 234 255
219 234 255
219 234 255
219 234 255
219 234 255
219 234 255
218 234 255
218 234 255
218 234 255
218 234 255
218 234 255
218 234 255
218 234 255
218 234 255
218 234 255
218 234 255
218 234 255
218 234 255
218 234 255
218 234 255
218 234 255
218 234 255
218 234 255
218 234 255
218 234 255
218 234 255
218 234 255
218 234 255
218 234 255
218 234 255
218 234 255
218 234 255
218 234 255
218 234 255
218 234 255
218 234 255
218 234 255
218 234 255
218 234 255
218 234 255
218 234 255
218 234 255
218 234 255
218 234 255
218 234 255
218 234 255
218 234 255
218 234 255
218 234 255
218 234 255
218 234 255
218 234 255
218 234 255
218 234 255
218 234 255
218 234 255
218 234 255
218 234 255
218 234 255
218 234 255
218 234 255
218 234 255
218 234 255
218 234 255
218 234 255
218 234 255
218 234 255
218 234 255
218 234 255
218 234 255
218 234 255
218 234 255
218 234 255
218 234 255
218 234 255
218 234 255
218 234 255
218 234 255
218 234 255
218 234 255
218 234 255
218 234 255
218 234 255
219 234 255
219 234 255
219 234 255
219 234 255
219 234 255
219 234 255
219 234 255
219 234 255
219 234 255
219 234 255
219 234 255
219 234 255
219 234 255
219 234 255
219 234 255
219 234 255
219 234 255
219 234 255
219 234 255
219 234 255
219 234 255
219 234 255
219 234 255
219 234 255
219 234 255
219 234 255
219 234 255
219 234 255
219 234 255
219 234 255
219 234 255
219 234 255
219 234 255
219 234 255
219 234 255
219 234 255
219 234 255
219 234 255
219 234 255
219 234 255
219 234 255
219 234 255
219 234 255
219 234 255
219 234 255
219 234 255
219 234 255
219 234 255
219 234 255
219 234 255
219 234 255
219 234 255
219 234 255
219 234 255
219 234 255
219 234 255
219 234 255
219 234 255
219 234 255
219 234 255
219 234 255
219 234 255
219 234 255
219 234 255
219 234 255
219 234 255
219 234 255
219 234 255
219 234 255
219 234 255
219 234 255
219 234 255
219 234 255
219 234 255
219 234 255
219 234 255
219 234 255
219 234 255
219 234 255
219 234 255
219 234 255
219 234 255
219 234 255
219 234 255
219 234 255
219 234 255
219 234 255
219 234 255
219 234 255
219 234 255
219 234 255
219 234 255
219 234 255
219 234 255
219 234 255
219 234 255
219 234 255
219 234 255
219 234 255
219 234 255
219 234 255
219 234 255
219 234 255
219 234 255
219 234 255
219 234 255
219 234 255
219 234 255
219 234 255
219 234 255
219 234 255
219 234 255
219 234 255
219 234 255
219 234 255
219 234 255
219 234 255
219 234 255
219 234 255
219 234 255
219 234 255
219 234 255
219 234 255
219 234 255
219 234 255
219 234 255
219 234 255
219 234 255
219 234 255
219 234 255
219 234 255
219 234 255
219 234 255
219 235 255
219 235 255
219 235 255
219 235 255
219 235 255
219 235 255
219 235 255
219 235 255
219 235 255
219 235 255
219 235 255
219 235 255
219 235 255
219 235 255
219 235 255
219 235 255
219 235 255
219 235 255
219 235 255
219 235 255
220 235 255
220 235 255
220 235 255
220 235 255
220 235 255
220 235 255
220 235 255
220 235 255
220 235 255
220 235 255
220 235 255
220 235 255
220 235 255
220 235 255
220 235 255
220 235 255
220 235 255
220 235 255
220 235 255
220 235 255
220 235 255
220 235 255
220 235 255
220 235 255
220 235 255
220 235 255
220 235 255
220 235 255
220 235 255
220 235 255
220 235 255
220 235 255
220 235 255
220 235 255
220 235 255
220 235 255
220 235 255
220 235 255
220 235 255
220 235 255
220 235 255
220 235 255
219 235 255
219 235 255
219 235 255
219 235 255
219 235 255
219 235 255
219 235 255
219 235 255
219 235 255
219 235 255
219 235 255
219 235 255
219 235 255
219 235 255
219 235 255
219 235 255
219 235 255
219 235 255
219 234 255
219 234 255
219 234 255
219 234 255
219 234 255
219 234 255
219 234 255
219 234 255
219 234 255
219 234 255
219 234 255
219 234 255
219 234 255
219 234 255
219 234 255
219 234 255
219 234 255
219 234 255
219 234 255
219 234 255
219 234 255
219 234 255
219 234 255
219 234 255
219 234 255
219 234 255
219 234 255
219 234 255
219 234 255
219 234 255
219 234 255
219 234 255
219 234 255
219 234 255
219 234 255
219 234 255
219 234 255
219 234 255
219 234 255
219 234 255
219 234 255
219 234 255
219 234 255
219 234 255
219 234 255
219 234 255
219 234 255
219 234 255
219 234 255
219 234 255
219 234 255
219 234 255
219 234 255
219 234 255
219 234 255
219 234 255
219 234 255
219 234 255
219 234 255
219 234 255
219 234 255
219 234 255
219 234 255
219 234 255
219 234 255
219 234 255
219 234 255
219 234 255
219 234 255
219 234 255
219 234 255
219 234 255
219 234 255
219 234 255
219 234 255
219 234 255
219 234 255
219 234 255
219 234 255
219 234 255
219 234 255
219 234 255
219 234 255
219 234 255
219 234 255
219 234 255
219 234 255
219 234 255
219 234 255
219 234 255
219 234 255
219 234 255
219 234 255
219 234 255
219 234 255
219 234 255
219 234 255
219 234 255
219 234 255
219 234 255
219 234 255
219 234 255
219 234 255
219 234 255
219 234 255
219 234 255
219 234 255
219 234 255
219 234 255
219 234 255
219 234 255
219 234 255
219 234 255
219 234 255
219 234 255
219 234 255
219 234 255
219 234 255
219 234 255
219 234 255
219 234 255
219 234 255
219 234 255
219 234 255
219 234 255
219 234 255
219 234 255
219 234 255
219 234 255
219 234 255
219 234 255
219 234 255
219 234 255
219 234 255
219 234 255
219 234 255
219 234 255
219 234 255
219 234 255
219 234 255
219 234 255
219 234 255
219 234 255
219 234 255
219 234 255
219 234 255
219 234 255
219 234 255
219 234 255
219 234 255
219 234 255
219 234 255
219 234 255
219 234 255
219 234 255
219 234 255
219 234 255
219 234 255
219 234 255
219 234 255
219 234 255
219 234 255
219 234 255
219 234 255
219 234 255
219 234 255
219 234 255
219 234 255
219 234 255
219 234 255
219 234 255
219 234 255
219 234 255
219 234 255
219 234 255
219 234 255
219 234 255
219 234 255
219 234 255
219 234 255
219 234 255
219 234 255
219 234 255
219 234 255
219 234 255
219 234 255
219 234 255
219 234 255
219 234 255
219 234 255
219 234 255
219 234 255
219 234 255
219 234 255
219 234 255
219 234 255
219 234 255
219 234 255
219 234 255
219 234 255
219 234 255
219 234 255
219 234 255
219 234 255
219 234 255
219 234 255
219 234 255
219 234 255
219 234 255
219 234 255
219 234 255
219 234 255
219 234 255
219 234 255
219 234 255
219 234 255
219 234 255
219 234 255
219 234 255
219 234 255
219 234 255
219 234 255
219 234 255
219 234 255
219 234 255
219 234 255
219 234 255
219 234 255
219 234 255
219 234 255
219 234 255
219 234 255
219 234 255
219 234 255
219 234 255
219 234 255
219 234 255
219 234 255
219 234 255
219 234 255
219 234 255
219 234 255
219 234 255
219 234 255
219 234 255
219 234 255
219 234 255
219 234 255
219 234 255
219 234 255
219 234 255
219 234 255
219 234 255
219 234 255
219 234 255
219 234 255
219 234 255
219 234 255
219 234 255
219 234 255
219 234 255
219 234 255
219 234 255
219 234 255
219 234 255
219 234 255
219 234 255
219 234 255
219 234 255
219 234 255
219 234 255
219 234 255
219 234 255
219 234 255
219 234 255
219 234 255
219 234 255
219 234 255
219 234 255
219 234 255
219 234 255
219 234 255
219 234 255
219 234 255
219 234 255
219 234 255
219 234 255
219 234 255
219 234 255
219 234 255
219 234 255
219 234 255
219 234 255
219 234 255
219 234 255
219 234 255
219 234 255
219 235 255
219 234 255
219 235 255
219 235 255
219 235 255
219 235 255
219 235 255
219 235 255
219 235 255
219 235 255
219 235 255
219 235 255
219 235 255
219 235 255
219 235 255
219 235 255
219 235 255
219 235 255
219 235 255
220 235 255
220 235 255
220 235 255
220 235 255
220 235 255
220 235 255
220 235 255
220 235 255
220 235 255
220 235 255
220 235 255
220 235 255
220 235 255
220 235 255
220 235 255
220 235 255
220 235 255
220 235 255
220 235 255
220 235 255
220 235 255
220 235 255
220 235 255
220 235 255
220 235 255
220 235 255
220 235 255
220 235 255
220 235 255
220 235 255
220 235 255
220 235 255
220 235 255
220 235 255
220 235 255
220 235 255
220 235 255
220 235 255
220 235 255
220 235 255
220 235 255
220 235 255
220 235 255
220 235 255
220 235 255
220 235 255
220 235 255
220 235 255
220 235 255
220 235 255
220 235 255
220 235 255
220 235 255
220 235 255
220 235 255
220 235 255
220 235 255
220 235 255
220 235 255
220 235 255
220 235 255
220 235 255
220 235 255
220 235 255
220 235 255
220 235 255
220 235 255
220 235 255
220 235 255
220 235 255
220 235 255
220 235 255
220 235 255
220 235 255
220 235 255
220 235 255
220 235 255
220 235 255
220 235 255
220 235 255
220 235 255
220 235 255
220 235 255
220 235 255
220 235 255
220 235 255
220 235 255
220 235 255
220 235 255
219 235 255
219 235 255
219 235 255
219 235 255
219 235 255
219 235 255
219 235 255
219 235 255
219 235 255
219 235 255
219 235 255
219 235 255
219 235 255
219 235 255
219 235 255
219 235 255
219 235 255
219 235 255
219 235 255
219 235 255
219 234 255
219 234 255
219 234 255
219 234 255
219 234 255
219 234 255
219 234 255
219 234 255
219 234 255
219 234 255
219 234 255
219 234 255
219 234 255
219 234 255
219 234 255
219 234 255
219 234 255
219 234 255
219 234 255
219 234 255
219 234 255
219 234 255
219 234 255
219 234 255
219 234 255
219 234 255
219 234 255
219 234 255
219 234 255
219 234 255
219 234 255
219 234 255
219 234 255
219 234 255
219 234 255
219 234 255
219 234 255
219 234 255
219 234 255
219 234 255
219 234 255
219 234 255
219 234 255
219 234 255
219 234 255
219 234 255
219 234 255
219 234 255
219 234 255
219 234 255
219 234 255
219 234 255
219 234 255
219 234 255
219 234 255
219 234 255
219 234 255
219 234 255
219 234 255
219 234 255
219 234 255
219 234 255
219 234 255
219 234 255
219 234 255
219 234 255
219 234 255
219 234 255
219 234 255
219 234 255
219 234 255
219 234 255
219 234 255
219 234 255
219 234 255
219 234 255
219 234 255
219 234 255
219 234 255
219 234 255
219 234 255
219 234 255
219 234 255
219 234 255
219 234 255
219 234 255
219 234 255
219 234 255
219 234 255
219 234 255
219 234 255
219 234 255
219 234 255
219 234 255
219 234 255
219 234 255
219 234 255
219 234 255
219 234 255
219 234 255
219 234 255
219 234 255
219 234 255
219 234 255
219 234 255
219 234 255
219 234 255
219 234 255
219 234 255
219 234 255
219 234 255
219 234 255
219 234 255
219 234 255
219 234 255
219 234 255
219 234 255
219 234 255
219 234 255
219 234 255
219 234 255
219 234 255
219 234 255
219 234 255
219 234 255
219 234 255
219 234 255
219 234 255
219 234 255
219 234 255
219 234 255
219 234 255
219 234 255
219 234 255
219 234 255
219 234 255
219 234 255
219 234 255
219 234 255
219 234 255
219 234 255
219 234 255
219 234 255
219 234 255
219 234 255
219 234 255
219 234 255
219 234 255
219 234 255
219 234 255
219 234 255
219 234 255
219 234 255
219 234 255
219 234 255
219 234 255
219 234 255
219 234 255
219 234 255
219 234 255
219 234 255
219 234 255
219 234 255
219 234 255
219 234 255
219 234 255
219 234 255
219 234 255
219 234 255
219 234 255
219 234 255
219 234 255
219 234 255
219 234 255
219 234 255
219 234 255
219 234 255
219 234 255
219 234 255
219 234 255
219 234 255
219 234 255
219 234 255
219 234 255
219 234 255
219 234 255
219 234 255
219 234 255
219 234 255
219 234 255
219 234 255
219 234 255
219 234 255
219 234 255
219 234 255
219 234 255
219 234 255
219 234 255
219 234 255
219 234 255
219 234 255
219 234 255
219 234 255
219 234 255
219 234 255
219 234 255
219 234 255
219 234 255
219 234 255
219 234 255
219 234 255
219 234 255
219 234 255
219 234 255
219 234 255
219 234 255
219 234 255
219 234 255
219 234 255
219 234 255
219 234 255
219 234 255
219 234 255
219 234 255
219 234 255
219 234 255
219 234 255
219 234 255
219 234 255
219 234 255
219 234 255
219 234 255
219 234 255
219 234 255
219 234 255
219 234 255
219 234 255
219 234 255
219 234 255
219 234 255
219 234 255
219 234 255
219 234 255
219 234 255
219 234 255
219 234 255
219 234 255
219 234 255
219 234 255
219 234 255
219 235 255
219 235 255
219 235 255
219 235 255
219 235 255
219 235 255
219 235 255
219 235 255
219 235 255
219 235 255
219 235 255
219 235 255
219 235 255
219 235 255
219 235 255
219 235 255
219 235 255
220 235 255
220 235 255
220 235 255
220 235 255
220 235 255
220 235 255
220 235 255
220 235 255
220 235 255
220 235 255
220 235 255
220 235 255
220 235 255
220 235 255
220 235 255
220 235 255
220 235 255
220 235 255
220 235 255
220 235 255
220 235 255
220 235 255
220 235 255
220 235 255
220 235 255
220 235 255
220 235 255
220 235 255
220 235 255
220 235 255
220 235 255
220 235 255
220 235 255
220 235 255
220 235 255
220 235 255
220 235 255
220 235 255
220 235 255
220 235 255
220 235 255
220 235 255
220 235 255
220 235 255
220 235 255
220 235 255
220 235 255
220 235 255
220 235 255
220 235 255
220 235 255
220 235 255
220 235 255
220 235 255
220 235 255
220 235 255
220 235 255
220 235 255
220 235 255
220 235 255
220 235 255
220 235 255
220 235 255
220 235 255
220 235 255
220 235 255
220 235 255
220 235 255
220 235 255
220 235 255
220 235 255
220 235 255
220 235 255
220 235 255
220 235 255
220 235 255
220 235 255
220 235 255
220 235 255
220 235 255
220 235 255
220 235 255
220 235 255
220 235 255
220 235 255
220 235 255
220 235 255
220 235 255
220 235 255
220 235 255
220 235 255
220 235 255
220 235 255
220 235 255
220 235 255
220 235 255
220 235 255
220 235 255
220 235 255
220 235 255
220 235 255
220 235 255
220 235 255
220 235 255
220 235 255
220 235 255
220 235 255
220 235 255
220 235 255
220 235 255
220 235 255
220 235 255
220 235 255
220 235 255
220 235 255
220 235 255
220 235 255
220 235 255
220 235 255
220 235 255
220 235 255
220 235 255
220 235 255
220 235 255
220 235 255
220 235 255
220 235 255
220 235 255
220 235 255
220 235 255
220 235 255
220 235 255
220 235 255
220 235 255
220 235 255
220 235 255
220 235 255
219 235 255
220 235 255
220 235 255
219 235 255
219 235 255
219 235 255
219 235 255
219 235 255
219 235 255
219 235 255
219 235 255
219 235 255
219 235 255
219 235 255
219 235 255
219 235 255
219 235 255
219 235 255
219 235 255
219 235 255
219 235 255
219 234 255
219 234 255
219 234 255
219 234 255
219 234 255
219 234 255
219 234 255
219 234 255
219 234 255
219 234 255
219 234 255
219 234 255
219 234 255
219 234 255
219 234 255
219 234 255
219 234 255
219 234 255
219 234 255
219 234 255
219 234 255
219 234 255
219 234 255
219 234 255
219 234 255
219 234 255
219 234 255
219 234 255
219 234 255
219 234 255
219 234 255
219 234 255
219 234 255
219 234 255
219 234 255
219 234 255
219 234 255
219 234 255
219 234 255
219 234 255
219 234 255
219 234 255
219 234 255
219 234 255
219 234 255
219 234 255
219 234 255
219 234 255
219 234 255
219 234 255
219 234 255
219 234 255
219 234 255
219 234 255
219 234 255
219 234 255
219 234 255
219 234 255
219 234 255
219 234 255
219 234 255
219 234 255
219 234 255
219 234 255
219 234 255
219 234 255
219 234 255
219 234 255
219 234 255
219 234 255
219 234 255
219 234 255
219 234 255
219 234 255
219 234 255
219 234 255
219 234 255
219 234 255
219 234 255
219 234 255
219 234 255
219 234 255
219 234 255
219 234 255
219 234 255
219 234 255
219 234 255
219 234 255
219 234 255
219 234 255
219 234 255
219 234 255
219 234 255
219 234 255
219 234 255
219 234 255
219 234 255
219 234 255
219 234 255
219 234 255
219 234 255
219 234 255
219 234 255
219 234 255
219 234 255
219 234 255
219 234 255
219 234 255
219 234 255
219 234 255
219 234 255
219 234 255
219 234 255
219 234 255
219 234 255
219 234 255
219 234 255
219 234 255
219 234 255
219 234 255
219 234 255
219 234 255
219 234 255
219 234 255
219 234 255
219 234 255
219 234 255
219 234 255
219 234 255
219 234 255
219 234 255
219 234 255
219 234 255
219 234 255
219 234 255
219 234 255
219 234 255
219 234 255
219 234 255
219 234 255
219 234 255
219 234 255
219 234 255
219 234 255
219 234 255
219 234 255
219 234 255
219 234 255
219 234 255
219 234 255
219 234 255
219 234 255
219 234 255
219 234 255
219 234 255
219 234 255
219 234 255
219 234 255
219 234 255
219 234 255
219 234 255
219 234 255
219 234 255
219 234 255
219 234 255
219 234 255
219 234 255
219 234 255
219 234 255
219 234 255
219 234 255
219 234 255
219 234 255
219 234 255
219 234 255
219 234 255
219 234 255
219 234 255
219 234 255
219 234 255
219 234 255
219 234 255
219 234 255
219 234 255
219 234 255
219 234 255
219 234 255
219 234 255
219 234 255
219 234 255
219 234 255
219 234 255
219 234 255
219 234 255
219 234 255
219 234 255
219 234 255
219 235 255
219 235 255
219 235 255
219 235 255
219 235 255
219 235 255
219 235 255
219 235 255
219 235 255
219 235 255
219 235 255
219 235 255
219 235 255
219 235 255
219 235 255
219 235 255
219 235 255
219 235 255
219 235 255
219 235 255
219 235 255
220 235 255
220 235 255
220 235 255
220 235 255
220 235 255
220 235 255
220 235 255
220 235 255
220 235 255
220 235 255
220 235 255
220 235 255
220 235 255
220 235 255
220 235 255
220 235 255
220 235 255
220 235 255
220 235 255
220 235 255
220 235 255
220 235 255
220 235 255
220 235 255
220 235 255
220 235 255
220 235 255
220 235 255
220 235 255
220 235 255
220 235 255
220 235 255
220 235 255
220 235 255
220 235 255
220 235 255
220 235 255
220 235 255
220 235 255
220 235 255
220 235 255
220 235 255
220 235 255
220 235 255
220 235 255
220 235 255
220 235 255
220 235 255
220 235 255
220 235 255
220 235 255
220 235 255
220 235 255
220 235 255
220 235 255
220 235 255
220 235 255
220 235 255
220 235 255
220 235 255
220 235 255
220 235 255
220 235 255
220 235 255
220 235 255
220 235 255
220 235 255
220 235 255
220 235 255
220 235 255
220 235 255
220 235 255
220 235 255
220 235 255
220 235 255
220 235 255
220 235 255
220 235 255
220 235 255
220 235 255
220 235 255
220 235 255
220 235 255
220 235 255
220 235 255
220 235 255
220 235 255
220 235 255
220 235 255
220 235 255
220 235 255
220 235 255
220 235 255
220 235 255
220 235 255
220 235 255
220 235 255
220 235 255
220 235 255
220 235 255
220 235 255
220 235 255
220 235 255
220 235 255
220 235 255
220 235 255
220 235 255
220 235 255
220 235 255
220 235 255
220 235 255
220 235 255
220 235 255
220 235 255
220 235 255
220 235 255
220 235 255
220 235 255
220 235 255
220 235 255
220 235 255
220 235 255
220 235 255
220 235 255
220 235 255
220 235 255
220 235 255
220 235 255
220 235 255
220 235 255
220 235 255
220 235 255
220 235 255
220 235 255
220 235 255
220 235 255
220 235 255
220 235 255
220 235 255
220 235 255
220 235 255
220 235 255
220 235 255
220 235 255
220 235 255
220 235 255
220 235 255
220 235 255
220 235 255
220 235 255
220 235 255
220 235 255
220 235 255
220 235 255
220 235 255
220 235 255
220 235 255
220 235 255
220 235 255
220 235 255
220 235 255
220 235 255
220 235 255
220 235 255
220 235 255
220 235 255
220 235 255
220 235 255
220 235 255
220 235 255
220 235 255
220 235 255
220 235 255
220 235 255
220 235 255
220 235 255
220 235 255
220 235 255
220 235 255
220 235 255
220 235 255
220 235 255
220 235 255
220 235 255
220 235 255
220 235 255
220 235 255
220 235 255
220 235 255
220 235 255
220 235 255
220 235 255
220 235 255
219 235 255
219 235 255
219 235 255
219 235 255
219 235 255
219 235 255
219 235 255
219 235 255
219 235 255
219 235 255
219 235 255
219 235 255
219 235 255
219 235 255
219 235 255
219 235 255
219 235 255
219 235 255
219 235 255
219 235 255
219 235 255
219 234 255
219 234 255
219 234 255
219 234 255
219 234 255
219 234 255
219 234 255
219 234 255
219 234 255
219 234 255
219 234 255
219 234 255
219 234 255
219 234 255
219 234 255
219 234 255
219 234 255
219 234 255
219 234 255
219 234 255
219 234 255
219 234 255
219 234 255
219 234 255
219 234 255
219 234 255
219 234 255
219 234 255
219 234 255
219 234 255
219 234 255
219 234 255
219 234 255
219 234 255
219 234 255
219 234 255
219 234 255
219 234 255
219 234 255
219 234 255
219 234 255
219 234 255
219 234 255
219 234 255
219 234 255
219 234 255
219 234 255
219 234 255
219 234 255
219 234 255
219 234 255
219 234 255
219 234 255
219 234 255
219 234 255
219 234 255
219 234 255
219 234 255
219 234 255
219 234 255
219 234 255
219 234 255
219 234 255
219 234 255
219 234 255
219 234 255
219 234 255
219 234 255
219 234 255
219 234 255
219 234 255
219 234 255
219 234 255
219 234 255
219 234 255
219 234 255
219 234 255
219 234 255
219 234 255
219 234 255
219 234 255
219 234 255
219 234 255
219 234 255
219 234 255
219 234 255
219 234 255
219 234 255
219 234 255
219 234 255
219 234 255
219 234 255
219 234 255
219 234 255
219 234 255
219 234 255
219 234 255
219 234 255
219 234 255
219 234 255
219 234 255
219 234 255
219 234 255
219 234 255
219 234 255
219 234 255
219 234 255
219 234 255
219 234 255
219 234 255
219 234 255
219 234 255
219 234 255
219 234 255
219 234 255
219 234 255
219 234 255
219 234 255
219 234 255
219 234 255
219 234 255
219 234 255
219 234 255
219 234 255
219 234 255
219 234 255
219 234 255
219 234 255
219 234 255
219 234 255
219 234 255
219 234 255
219 234 255
219 235 255
219 235 255
219 235 255
219 235 255
219 235 255
219 235 255
219 235 255
219 235 255
219 235 255
219 235 255
219 235 255
219 235 255
219 235 255
219 235 255
219 235 255
219 235 255
219 235 255
219 235 255
219 235 255
219 235 255
219 235 255
220 235 255
220 235 255
220 235 255
220 235 255
220 235 255
220 235 255
220 235 255
220 235 255
220 235 255
220 235 255
220 235 255
220 235 255
220 235 255
220 235 255
220 235 255
220 235 255
220 235 255
220 235 255
220 235 255
220 235 255
220 235 255
220 235 255
220 235 255
220 235 255
220 235 255
220 235 255
220 235 255
220 235 255
220 235 255
220 235 255
220 235 255
220 235 255
220 235 255
220 235 255
220 235 255
220 235 255
220 235 255
220 235 255
220 235 255
220 235 255
220 235 255
220 235 255
220 235 255
220 235 255
220 235 255
220 235 255
220 235 255
220 235 255
220 235 255
220 235 255
220 235 255
220 235 255
220 235 255
220 235 255
220 235 255
220 235 255
220 235 255
220 235 255
220 235 255
220 235 255
220 235 255
220 235 255
220 235 255
220 235 255
220 235 255
220 235 255
220 235 255
220 235 255
220 235 255
220 235 255
220 235 255
220 235 255
220 235 255
220 235 255
220 235 255
220 235 255
220 235 255
220 235 255
220 235 255
220 235 255
220 235 255
220 235 255
220 235 255
220 235 255
220 235 255
220 235 255
220 235 255
220 235 255
220 235 255
220 235 255
220 235 255
220 235 255
220 235 255
220 235 255
220 235 255
220 235 255
220 235 255
220 235 255
220 235 255
220 235 255
220 235 255
220 235 255
220 235 255
220 235 255
220 235 255
220 235 255
220 235 255
220 235 255
220 235 255
220 235 255
220 235 255
220 235 255
220 235 255
220 235 255
220 235 255
220 235 255
220 235 255
220 235 255
220 235 255
220 235 255
220 235 255
220 235 255
220 235 255
220 235 255
220 235 255
220 235 255
220 235 255
220 235 255
220 235 255
220 235 255
220 235 255
220 235 255
220 235 255
220 235 255
220 235 255
220 235 255
220 235 255
220 235 255
220 235 255
220 235 255
220 235 255
220 235 255
220 235 255
220 235 255
220 235 255
220 235 255
220 235 255
220 235 255
220 235 255
220 235 255
220 235 255
220 235 255
220 235 255
220 235 255
220 235 255
220 235 255
220 235 255
220 235 255
220 235 255
220 235 255
220 235 255
220 235 255
220 235 255
220 235 255
220 235 255
220 235 255
220 235 255
220 235 255
220 235 255
220 235 255
220 235 255
220 235 255
220 235 255
220 235 255
220 235 255
220 235 255
220 235 255
220 235 255
220 235 255
220 235 255
220 235 255
220 235 255
220 235 255
220 235 255
220 235 255
220 235 255
220 235 255
220 235 255
220 235 255
220 235 255
220 235 255
220 235 255
220 235 255
220 235 255
220 235 255
220 235 255
220 235 255
220 235 255
220 235 255
220 235 255
220 235 255
220 235 255
220 235 255
220 235 255
220 235 255
220 235 255
220 235 255
220 235 255
220 235 255
220 235 255
220 235 255
220 235 255
220 235 255
220 235 255
220 235 255
220 235 255
220 235 255
220 235 255
220 235 255
220 235 255
220 235 255
220 235 255
220 235 255
220 235 255
220 235 255
220 235 255
220 235 255
220 235 255
220 235 255
220 235 255
220 235 255
220 235 255
220 235 255
220 235 255
220 235 255
220 235 255
220 235 255
220 235 255
220 235 255
220 235 255
220 235 255
220 235 255
220 235 255
220 235 255
220 235 255
220 235 255
220 235 255
220 235 255
220 235 255
220 235 255
220 235 255
220 235 255
220 235 255
220 235 255
220 235 255
220 235 255
220 235 255
220 235 255
220 235 255
220 235 255
220 235 255
220 235 255
220 235 255
220 235 255
220 235 255
220 235 255
219 235 255
219 235 255
220 235 255
219 235 255
219 235 255
219 235 255
219 235 255
219 235 255
219 235 255
219 235 255
219 235 255
219 235 255
219 235 255
219 235 255
219 235 255
219 235 255
219 235 255
219 235 255
219 235 255
219 235 255
219 235 255
219 235 255
219 235 255
219 235 255
219 235 255
219 235 255
219 235 255
219 235 255
219 235 255
219 235 255
219 235 255
219 235 255
219 235 255
219 235 255
219 235 255
219 235 255
219 235 255
219 235 255
219 235 255
219 235 255
219 235 255
219 235 255
219 235 255
219 235 255
219 235 255
219 235 255
219 235 255
219 235 255
219 235 255
219 235 255
219 235 255
219 235 255
219 235 255
219 235 255
219 235 255
219 235 255
219 235 255
219 235 255
219 235 255
219 235 255
219 235 255
219 235 255
219 235 255
219 235 255
219 235 255
219 235 255
219 235 255
219 235 255
219 235 255
219 235 255
219 235 255
219 235 255
219 235 255
219 235 255
219 235 255
219 235 255
219 235 255
219 235 255
219 235 255
219 235 255
219 235 255
219 235 255
219 235 255
219 235 255
219 235 255
219 235 255
219 235 255
219 235 255
219 235 255
219 235 255
219 235 255
219 235 255
220 235 255
220 235 255
220 235 255
219 235 255
220 235 255
220 235 255
220 235 255
220 235 255
220 235 255
220 235 255
220 235 255
220 235 255
220 235 255
220 235 255
220 235 255
220 235 255
220 235 255
220 235 255
220 235 255
220 235 255
220 235 255
220 235 255
220 235 255
220 235 255
220 235 255
220 235 255
220 235 255
220 235 255
220 235 255
220 235 255
220 235 255
220 235 255
220 235 255
220 235 255
220 235 255
220 235 255
220 235 255
220 235 255
220 235 255
220 235 255
220 235 255
220 235 255
220 235 255
220 235 255
220 235 255
220 235 255
220 235 255
220 235 255
220 235 255
220 235 255
220 235 255
220 235 255
220 235 255
220 235 255
220 235 255
220 235 255
220 235 255
220 235 255
220 235 255
220 235 255
220 235 255
220 235 255
220 235 255
220 235 255
220 235 255
220 235 255
220 235 255
220 235 255
220 235 255
220 235 255
220 235 255
220 235 255
220 235 255
220 235 255
220 235 255
220 235 255
220 235 255
220 235 255
220 235 255
220 235 255
220 235 255
220 235 255
220 235 255
220 235 255
220 235 255
220 235 255
220 235 255
220 235 255
220 235 255
220 235 255
220 235 255
220 235 255
220 235 255
220 235 255
220 235 255
220 235 255
220 235 255
220 235 255
220 235 255
220 235 255
220 235 255
220 235 255
220 235 255
220 235 255
220 235 255
220 235 255
220 235 255
220 235 255
220 235 255
220 235 255
220 235 255
220 235 255
220 235 255
220 235 255
220 235 255
220 235 255
220 235 255
220 235 255
220 235 255
220 235 255
220 235 255
220 235 255
220 235 255
220 235 255
220 235 255
220 235 255
220 235 255
220 235 255
220 235 255
220 235 255
220 235 255
220 235 255
220 235 255
220 235 255
220 235 255
220 235 255
220 235 255
220 235 255
220 235 255
220 235 255
220 235 255
220 235 255
220 235 255
220 235 255
220 235 255
220 235 255
220 235 255
220 235 255
220 235 255
220 235 255
220 235 255
220 235 255
220 235 255
220 235 255
220 235 255
220 235 255
220 235 255
220 235 255
220 235 255
220 235 255
220 235 255
220 235 255
220 235 255
220 235 255
220 235 255
220 235 255
220 235 255
220 235 255
220 235 255
220 235 255
220 235 255
220 235 255
220 235 255
220 235 255
220 235 255
220 235 255
220 235 255
220 235 255
220 235 255
220 235 255
220 235 255
220 235 255
220 235 255
220 235 255
220 235 255
220 235 255
220 235 255
220 235 255
220 235 255
220 235 255
220 235 255
220 235 255
220 235 255
220 235 255
220 235 255
220 235 255
220 235 255
220 235 255
220 235 255
220 235 255
220 235 255
220 235 255
220 235 255
220 235 255
220 235 255
220 235 255
220 235 255
220 235 255
220 235 255
220 235 255
220 235 255
220 235 255
220 235 255
220 235 255
220 235 255
220 235 255
220 235 255
220 235 255
220 235 255
220 235 255
220 235 255
220 235 255
220 235 255
220 235 255
220 235 255
220 235 255
220 235 255
220 235 255
220 235 255
220 235 255
220 235 255
220 235 255
220 235 255
220 235 255
220 235 255
220 235 255
220 235 255
220 235 255
220 235 255
220 235 255
220 235 255
220 235 255
220 235 255
220 235 255
220 235 255
220 235 255
220 235 255
220 235 255
220 235 255
220 235 255
220 235 255
220 235 255
220 235 255
220 235 255
220 235 255
220 235 255
220 235 255
220 235 255
220 235 255
220 235 255
220 235 255
220 235 255
220 235 255
220 235 255
220 235 255
220 235 255
220 235 255
220 235 255
220 235 255
220 235 255
220 235 255
220 235 255
220 235 255
220 235 255
220 235 255
220 235 255
220 235 255
220 235 255
220 235 255
220 235 255
220 235 255
220 235 255
220 235 255
220 235 255
220 235 255
220 235 255
220 235 255
220 235 255
220 235 255
220 235 255
220 235 255
220 235 255
220 235 255
220 235 255
220 235 255
220 235 255
220 235 255
220 235 255
220 235 255
220 235 255
220 235 255
220 235 255
220 235 255
220 235 255
220 235 255
220 235 255
220 235 255
220 235 255
220 235 255
220 235 255
220 235 255
220 235 255
220 235 255
220 235 255
220 235 255
220 235 255
220 235 255
220 235 255
220 235 255
220 235 255
220 235 255
220 235 255
220 235 255
220 235 255
220 235 255
220 235 255
220 235 255
220 235 255
220 235 255
220 235 255
220 235 255
220 235 255
220 235 255
220 235 255
220 235 255
220 235 255
220 235 255
220 235 255
220 235 255
220 235 255
220 235 255
220 235 255
220 235 255
220 235 255
220 235 255
220 235 255
220 235 255
220 235 255
220 235 255
220 235 255
220 235 255
220 235 255
220 235 255
220 235 255
220 235 255
220 235 255
220 235 255
220 235 255
220 235 255
220 235 255
220 235 255
220 235 255
220 235 255
220 235 255
220 235 255
220 235 255
220 235 255
220 235 255
220 235 255
220 235 255
220 235 255
220 235 255
220 235 255
220 235 255
220 235 255
220 235 255
220 235 255
220 235 255
220 235 255
220 235 255
220 235 255
220 235 255
220 235 255
220 235 255
220 235 255
220 235 255
220 235 255
220 235 255
220 235 255
220 235 255
220 235 255
220 235 255
220 235 255
220 235 255
220 235 255
220 235 255
220 235 255
220 235 255
220 235 255
220 235 255
220 235 255
220 235 255
220 235 255
220 235 255
220 235 255
220 235 255
220 235 255
220 235 255
220 235 255
220 235 255
220 235 255
220 235 255
220 235 255
220 235 255
220 235 255
220 235 255
220 235 255
220 235 255
220 235 255
220 235 255
220 235 255
220 235 255
220 235 255
220 235 255
220 235 255
220 235 255
220 235 255
220 235 255
220 235 255
220 235 255
220 235 255
220 235 255
220 235 255
220 235 255
220 235 255
220 235 255
220 235 255
220 235 255
220 235 255
220 235 255
220 235 255
220 235 255
220 235 255
220 235 255
220 235 255
220 235 255
220 235 255
220 235 255
220 235 255
220 235 255
220 235 255
220 235 255
220 235 255
220 235 255
220 235 255
220 235 255
220 235 255
220 235 255
220 235 255
220 235 255
220 235 255
220 235 255
220 235 255
220 235 255
220 235 255
220 235 255
220 235 255
220 235 255
220 235 255
220 235 255
220 235 255
220 235 255
220 235 255
220 235 255
220 235 255
220 235 255
220 235 255
220 235 255
220 235 255
220 235 255
220 235 255
220 235 255
220 235 255
220 235 255
220 235 255
220 235 255
220 235 255
220 235 255
220 235 255
220 235 255
220 235 255
220 235 255
220 235 255
220 235 255
220 235 255
220 235 255
220 235 255
220 235 255
220 235 255
220 235 255
220 235 255
220 235 255
220 235 255
220 235 255
220 235 255
220 235 255
220 235 255
220 235 255
220 235 255
220 235 255
220 235 255
220 235 255
220 235 255
220 235 255
220 235 255
220 235 255
220 235 255
220 235 255
220 235 255
220 235 255
220 235 255
220 235 255
220 235 255
220 235 255
220 235 255
220 235 255
220 235 255
220 235 255
220 235 255
220 235 255
220 235 255
220 235 255
220 235 255
220 235 255
220 235 255
220 235 255
220 235 255
220 235 255
220 235 255
220 235 255
220 235 255
220 235 255
220 235 255
220 235 255
220 235 255
220 235 255
220 235 255
220 235 255
220 235 255
220 235 255
220 235 255
220 235 255
220 235 255
220 235 255
220 235 255
220 235 255
220 235 255
220 235 255
220 235 255
220 235 255
220 235 255
220 235 255
220 235 255
220 235 255
220 235 255
220 235 255
220 235 255
220 235 255
220 235 255
220 235 255
220 235 255
220 235 255
220 235 255
220 235 255
220 235 255
220 235 255
220 235 255
220 235 255
220 235 255
220 235 255
220 235 255
220 235 255
220 235 255
220 235 255
220 235 255
220 235 255
220 235 255
220 235 255
220 235 255
220 235 255
220 235 255
220 235 255
220 235 255
220 235 255
220 235 255
220 235 255
220 235 255
220 235 255
220 235 255
220 235 255
220 235 255
220 235 255
220 235 255
220 235 255
220 235 255
220 235 255
220 235 255
220 235 255
220 235 255
220 235 255
220 235 255
220 235 255
220 235 255
220 235 255
220 235 255
220 235 255
220 235 255
220 235 255
220 235 255
220 235 255
220 235 255
220 235 255
220 235 255
220 235 255
220 235 255
220 235 255
220 235 255
220 235 255
220 235 255
220 235 255
220 235 255
220 235 255
220 235 255
220 235 255
220 235 255
220 235 255
220 235 255
220 235 255
220 235 255
220 235 255
220 235 255
220 235 255
220 235 255
220 235 255
220 235 255
220 235 255
220 235 255
220 235 255
220 235 255
220 235 255
220 235 255
220 235 255
220 235 255
220 235 255
220 235 255
220 235 255
220 235 255
220 235 255
220 235 255
220 235 255
220 235 255
220 235 255
220 235 255
220 235 255
220 235 255
220 235 255
220 235 255
220 235 255
220 235 255
220 235 255
220 235 255
220 235 255
220 235 255
220 235 255
220 235 255
220 235 255
220 235 255
220 235 255
220 235 255
220 235 255
220 235 255
220 235 255
220 235 255
220 235 255
220 235 255
220 235 255
220 235 255
220 235 255
220 235 255
220 235 255
220 235 255
220 235 255
220 235 255
220 235 255
220 235 255
220 235 255
220 235 255
220 235 255
220 235 255
220 235 255
220 235 255
220 235 255
220 235 255
220 235 255
220 235 255
220 235 255
220 235 255
220 235 255
220 235 255
220 235 255
220 235 255
220 235 255
220 235 255
220 235 255
220 235 255
220 235 255
220 235 255
220 235 255
220 235 255
220 235 255
220 235 255
220 235 255
220 235 255
220 235 255
220 235 255
220 235 255
220 235 255
220 235 255
220 235 255
220 235 255
220 235 255
220 235 255
220 235 255
220 235 255
220 235 255
220 235 255
220 235 255
220 235 255
220 235 255
220 235 255
220 235 255
220 235 255
220 235 255
220 235 255
220 235 255
220 235 255
220 235 255
220 235 255
220 235 255
220 235 255
220 235 255
220 235 255
220 235 255
220 235 255
220 235 255
220 235 255
220 235 255
220 235 255
220 235 255
220 235 255
220 235 255
220 235 255
220 235 255
220 235 255
220 235 255
220 235 255
220 235 255
220 235 255
220 235 255
220 235 255
220 235 255
220 235 255
220 235 255
220 235 255
220 235 255
220 235 255
220 235 255
220 235 255
220 235 255
220 235 255
220 235 255
220 235 255
220 235 255
220 235 255
220 235 255
220 235 255
220 235 255
220 235 255
220 235 255
220 235 255
220 235 255
220 235 255
220 235 255
220 235 255
220 235 255
220 235 255
220 235 255
220 235 255
220 235 255
220 235 255
220 235 255
220 235 255
220 235 255
220 235 255
220 235 255
220 235 255
220 235 255
220 235 255
220 235 255
220 235 255
220 235 255
220 235 255
220 235 255
220 235 255
220 235 255
220 235 255
220 235 255
220 235 255
220 235 255
220 235 255
220 235 255
220 235 255
220 235 255
220 235 255
220 235 255
220 235 255
220 235 255
220 235 255
220 235 255
220 235 255
220 235 255
220 235 255
220 235 255
220 235 255
220 235 255
220 235 255
220 235 255
220 235 255
220 235 255
220 235 255
220 235 255
220 235 255
220 235 255
220 235 255
220 235 255
220 235 255
220 235 255
220 235 255
220 235 255
220 235 255
220 235 255
220 235 255
220 235 255
220 235 255
220 235 255
220 235 255
220 235 255
220 235 255
220 235 255
220 235 255
220 235 255
220 235 255
220 235 255
220 235 255
220 235 255
220 235 255
220 235 255
220 235 255
220 235 255
220 235 255
220 235 255
220 235 255
220 235 255
220 235 255
220 235 255
220 235 255
220 235 255
220 235 255
220 235 255
220 235 255
220 235 255
220 235 255
220 235 255
220 235 255
220 235 255
220 235 255
220 235 255
220 235 255
220 235 255
220 235 255
220 235 255
220 235 255
220 235 255
220 235 255
220 235 255
220 235 255
220 235 255
220 235 255
220 235 255
220 235 255
220 235 255
220 235 255
220 235 255
220 235 255
220 235 255
220 235 255
220 235 255
220 235 255
220 235 255
220 235 255
220 235 255
220 235 255
220 235 255
220 235 255
220 235 255
220 235 255
220 235 255
220 235 255
220 235 255
220 235 255
220 235 255
220 235 255
220 235 255
220 235 255
220 235 255
220 235 255
220 235 255
220 235 255
220 235 255
220 235 255
220 235 255
220 235 255
220 235 255
220 235 255
220 235 255
220 235 255
220 235 255
220 235 255
220 235 255
220 235 255
220 235 255
220 235 255
220 235 255
220 235 255
220 235 255
220 235 255
220 235 255
220 235 255
220 235 255
220 235 255
220 235 255
220 235 255
220 235 255
220 235 255
220 235 255
221 235 255
221 235 255
221 235 255
221 235 255
221 235 255
221 235 255
221 235 255
221 235 255
221 235 255
221 235 255
221 235 255
221 235 255
221 235 255
221 235 255
220 235 255
220 235 255
220 235 255
220 235 255
220 235 255
220 235 255
220 235 255
220 235 255
220 235 255
220 235 255
220 235 255
220 235 255
220 235 255
220 235 255
220 235 255
220 235 255
220 235 255
220 235 255
220 235 255
220 235 255
220 235 255
220 235 255
220 235 255
220 235 255
220 235 255
220 235 255
220 235 255
220 235 255
220 235 255
220 235 255
220 235 255
220 235 255
220 235 255
220 235 255
220 235 255
220 235 255
220 235 255
220 235 255
220 235 255
220 235 255
220 235 255
220 235 255
220 235 255
220 235 255
220 235 255
220 235 255
220 235 255
220 235 255
220 235 255
220 235 255
220 235 255
220 235 255
220 235 255
220 235 255
220 235 255
220 235 255
220 235 255
220 235 255
220 235 255
220 235 255
220 235 255
220 235 255
220 235 255
220 235 255
220 235 255
220 235 255
220 235 255
220 235 255
220 235 255
220 235 255
220 235 255
220 235 255
220 235 255
220 235 255
220 235 255
220 235 255
220 235 255
220 235 255
220 235 255
220 235 255
220 235 255
220 235 255
220 235 255
220 235 255
220 235 255
220 235 255
220 235 255
220 235 255
220 235 255
220 235 255
220 235 255
220 235 255
220 235 255
220 235 255
220 235 255
220 235 255
220 235 255
220 235 255
220 235 255
220 235 255
220 235 255
220 235 255
220 235 255
220 235 255
220 235 255
220 235 255
220 235 255
220 235 255
220 235 255
220 235 255
220 235 255
220 235 255
220 235 255
220 235 255
220 235 255
220 235 255
220 235 255
220 235 255
220 235 255
220 235 255
220 235 255
220 235 255
220 235 255
220 235 255
220 235 255
220 235 255
220 235 255
220 235 255
220 235 255
220 235 255
220 235 255
220 235 255
220 235 255
220 235 255
220 235 255
220 235 255
220 235 255
220 235 255
220 235 255
220 235 255
220 235 255
220 235 255
220 235 255
220 235 255
220 235 255
220 235 255
220 235 255
220 235 255
220 235 255
220 235 255
220 235 255
220 235 255
220 235 255
220 235 255
220 235 255
220 235 255
220 235 255
220 235 255
220 235 255
220 235 255
220 235 255
220 235 255
220 235 255
220 235 255
220 235 255
220 235 255
220 235 255
220 235 255
220 235 255
220 235 255
220 235 255
220 235 255
220 235 255
220 235 255
220 235 255
220 235 255
220 235 255
220 235 255
220 235 255
220 235 255
220 235 255
220 235 255
220 235 255
220 235 255
220 235 255
220 235 255
220 235 255
220 235 255
220 235 255
220 235 255
220 235 255
220 235 255
220 235 255
220 235 255
220 235 255
220 235 255
220 235 255
220 235 255
220 235 255
220 235 255
220 235 255
220 235 255
220 235 255
220 235 255
220 235 255
220 235 255
220 235 255
220 235 255
220 235 255
220 235 255
220 235 255
220 235 255
220 235 255
220 235 255
220 235 255
220 235 255
220 235 255
220 235 255
220 235 255
220 235 255
220 235 255
220 235 255
220 235 255
220 235 255
220 235 255
220 235 255
220 235 255
220 235 255
220 235 255
220 235 255
220 235 255
220 235 255
220 235 255
220 235 255
220 235 255
220 235 255
220 235 255
220 235 255
220 235 255
220 235 255
220 235 255
220 235 255
220 235 255
220 235 255
220 235 255
220 235 255
220 235 255
220 235 255
220 235 255
220 235 255
220 235 255
220 235 255
220 235 255
220 235 255
220 235 255
220 235 255
220 235 255
220 235 255
220 235 255
220 235 255
220 235 255
220 235 255
220 235 255
220 235 255
220 235 255
220 235 255
220 235 255
220 235 255
220 235 255
220 235 255
220 235 255
220 235 255
220 235 255
220 235 255
220 235 255
220 235 255
220 235 255
220 235 255
220 235 255
220 235 255
220 235 255
220 235 255
220 235 255
220 235 255
220 235 255
220 235 255
220 235 255
220 235 255
220 235 255
220 235 255
220 235 255
220 235 255
220 235 255
220 235 255
220 235 255
220 235 255
220 235 255
220 235 255
220 235 255
220 235 255
220 235 255
220 235 255
220 235 255
220 235 255
220 235 255
220 235 255
220 235 255
220 235 255
220 235 255
220 235 255
220 235 255
220 235 255
220 235 255
220 235 255
220 235 255
220 235 255
220 235 255
220 235 255
220 235 255
220 235 255
220 235 255
220 235 255
220 235 255
220 235 255
220 235 255
220 235 255
220 235 255
220 235 255
220 235 255
220 235 255
220 235 255
220 235 255
220 235 255
220 235 255
220 235 255
220 235 255
220 235 255
220 235 255
220 235 255
220 235 255
220 235 255
220 235 255
220 235 255
220 235 255
220 235 255
220 235 255
220 235 255
220 235 255
220 235 255
220 235 255
220 235 255
220 235 255
220 235 255
220 235 255
220 235 255
220 235 255
220 235 255
220 235 255
220 235 255
220 235 255
220 235 255
220 235 255
220 235 255
220 235 255
220 235 255
220 235 255
220 235 255
220 235 255
220 235 255
220 235 255
220 235 255
220 235 255
221 235 255
221 235 255
220 235 255
221 235 255
221 235 255
221 235 255
221 235 255
221 235 255
221 235 255
221 235 255
221 235 255
221 235 255
221 235 255
221 235 255
221 235 255
221 235 255
221 235 255
221 235 255
221 235 255
221 235 255
221 235 255
221 235 255
221 235 255
221 235 255
221 235 255
221 235 255
221 235 255
221 235 255
221 235 255
221 235 255
221 235 255
221 235 255
221 235 255
221 235 255
221 235 255
221 235 255
221 235 255
221 235 255
221 235 255
221 235 255
221 235 255
221 235 255
221 235 255
221 235 255
221 235 255
221 235 255
221 235 255
221 235 255
221 235 255
221 235 255
221 235 255
221 235 255
221 235 255
221 235 255
221 235 255
221 235 255
221 235 255
221 235 255
221 235 255
221 235 255
221 235 255
221 235 255
221 235 255
221 235 255
221 235 255
221 235 255
221 235 255
221 235 255
221 235 255
221 235 255
221 235 255
221 235 255
221 235 255
221 235 255
221 235 255
221 235 255
221 235 255
221 235 255
221 235 255
221 235 255
221 235 255
221 235 255
221 235 255
220 235 255
220 235 255
220 235 255
220 235 255
220 235 255
220 235 255
220 235 255
220 235 255
220 235 255
220 235 255
220 235 255
220 235 255
220 235 255
220 235 255
220 235 255
220 235 255
220 235 255
220 235 255
220 235 255
220 235 255
220 235 255
220 235 255
220 235 255
220 235 255
220 235 255
220 235 255
220 235 255
220 235 255
220 235 255
220 235 255
220 235 255
220 235 255
220 235 255
220 235 255
220 235 255
220 235 255
220 235 255
220 235 255
220 235 255
220 235 255
220 235 255
220 235 255
220 235 255
220 235 255
220 235 255
220 235 255
220 235 255
220 235 255
220 235 255
220 235 255
220 235 255
220 235 255
220 235 255
220 235 255
220 235 255
220 235 255
220 235 255
220 235 255
220 235 255
220 235 255
220 235 255
220 235 255
220 235 255
220 235 255
220 235 255
220 235 255
220 235 255
220 235 255
220 235 255
220 235 255
220 235 255
220 235 255
220 235 255
220 235 255
220 235 255
220 235 255
220 235 255
220 235 255
220 235 255
220 235 255
220 235 255
220 235 255
220 235 255
220 235 255
220 235 255
220 235 255
220 235 255
220 235 255
220 235 255
220 235 255
220 235 255
220 235 255
220 235 255
220 235 255
220 235 255
220 235 255
220 235 255
220 235 255
220 235 255
220 235 255
220 235 255
220 235 255
220 235 255
220 235 255
220 235 255
220 235 255
220 235 255
220 235 255
220 235 255
220 235 255
220 235 255
220 235 255
220 235 255
220 235 255
220 235 255
220 235 255
220 235 255
220 235 255
220 235 255
220 235 255
220 235 255
220 235 255
220 235 255
220 235 255
220 235 255
220 235 255
220 235 255
220 235 255
220 235 255
220 235 255
220 235 255
220 235 255
220 235 255
220 235 255
220 235 255
220 235 255
220 235 255
220 235 255
220 235 255
220 235 255
220 235 255
220 235 255
220 235 255
220 235 255
220 235 255
220 235 255
220 235 255
220 235 255
220 235 255
220 235 255
220 235 255
220 235 255
220 235 255
220 235 255
220 235 255
220 235 255
220 235 255
220 235 255
220 235 255
220 235 255
220 235 255
220 235 255
220 235 255
220 235 255
220 235 255
220 235 255
220 235 255
220 235 255
220 235 255
220 235 255
220 235 255
220 235 255
220 235 255
220 235 255
220 235 255
220 235 255
220 235 255
220 235 255
220 235 255
220 235 255
220 235 255
220 235 255
220 235 255
220 235 255
220 235 255
220 235 255
220 235 255
220 235 255
220 235 255
220 235 255
220 235 255
220 235 255
220 235 255
220 235 255
220 235 255
220 235 255
220 235 255
220 235 255
220 235 255
220 235 255
220 235 255
220 235 255
220 235 255
220 235 255
220 235 255
220 235 255
220 235 255
220 235 255
220 235 255
220 235 255
220 235 255
220 235 255
220 235 255
220 235 255
220 235 255
220 235 255
220 235 255
220 235 255
220 235 255
220 235 255
220 235 255
220 235 255
220 235 255
220 235 255
220 235 255
220 235 255
220 235 255
220 235 255
220 235 255
220 235 255
220 235 255
220 235 255
220 235 255
220 235 255
220 235 255
220 235 255
220 235 255
220 235 255
220 235 255
220 235 255
220 235 255
220 235 255
220 235 255
220 235 255
220 235 255
220 235 255
220 235 255
220 235 255
220 235 255
220 235 255
220 235 255
220 235 255
220 235 255
220 235 255
220 235 255
220 235 255
220 235 255
220 235 255
221 235 255
220 235 255
220 235 255
220 235 255
221 235 255
221 235 255
221 235 255
221 235 255
221 235 255
221 235 255
221 235 255
221 235 255
221 235 255
221 235 255
221 235 255
221 235 255
221 235 255
221 235 255
221 235 255
221 235 255
221 235 255
221 235 255
221 235 255
221 235 255
221 235 255
221 235 255
221 235 255
221 235 255
221 235 255
221 235 255
221 235 255
221 235 255
221 235 255
221 235 255
221 235 255
221 235 255
221 235 255
221 235 255
221 235 255
221 235 255
221 235 255
221 235 255
221 235 255
221 235 255
221 235 255
221 235 255
221 235 255
221 235 255
221 235 255
221 235 255
221 235 255
221 235 255
221 235 255
221 235 255
221 235 255
221 235 255
221 235 255
221 235 255
221 235 255
221 235 255
221 235 255
221 235 255
221 235 255
221 235 255
221 235 255
221 235 255
221 235 255
221 235 255
221 235 255
221 235 255
221 235 255
221 235 255
221 235 255
221 235 255
221 235 255
221 235 255
221 235 255
221 235 255
221 235 255
221 235 255
221 235 255
221 235 255
221 235 255
221 235 255
221 235 255
221 235 255
221 235 255
221 235 255
221 235 255
221 235 255
221 235 255
221 235 255
221 235 255
221 235 255
221 235 255
221 235 255
221 235 255
221 235 255
221 235 255
221 235 255
221 235 255
221 235 255
221 235 255
221 235 255
221 235 255
221 235 255
221 235 255
221 235 255
221 235 255
221 235 255
221 235 255
221 235 255
221 235 255
221 235 255
221 235 255
221 235 255
221 235 255
221 235 255
221 235 255
221 235 255
221 235 255
221 235 255
221 235 255
221 235 255
221 235 255
221 235 255
221 235 255
221 235 255
221 235 255
221 235 255
221 235 255
221 235 255
221 235 255
221 235 255
221 235 255
221 235 255
221 235 255
221 235 255
221 235 255
221 235 255
221 235 255
221 235 255
221 235 255
221 235 255
221 235 255
221 235 255
221 235 255
221 235 255
221 235 255
221 235 255
221 235 255
221 235 255
221 235 255
221 235 255
221 235 255
221 235 255
221 235 255
221 235 255
221 235 255
221 235 255
221 235 255
221 235 255
221 235 255
221 235 255
221 235 255
221 235 255
221 235 255
221 235 255
221 235 255
221 235 255
221 235 255
221 235 255
221 235 255
221 235 255
221 235 255
221 235 255
221 235 255
221 235 255
221 235 255
221 235 255
221 235 255
221 235 255
221 235 255
221 235 255
221 235 255
221 235 255
221 235 255
221 235 255
221 235 255
221 235 255
221 235 255
221 235 255
221 235 255
221 235 255
221 235 255
221 235 255
221 235 255
221 235 255
221 235 255
221 235 255
221 235 255
221 235 255
221 235 255
221 235 255
221 235 255
221 235 255
221 235 255
221 235 255
221 235 255
221 235 255
221 235 255
221 235 255
221 235 255
221 235 255
221 235 255
221 235 255
221 235 255
221 235 255
221 235 255
221 235 255
221 235 255
221 235 255
221 235 255
221 235 255
220 235 255
220 235 255
220 235 255
220 235 255
220 235 255
220 235 255
220 235 255
220 235 255
220 235 255
220 235 255
220 235 255
220 235 255
220 235 255
220 235 255
220 235 255
220 235 255
220 235 255
220 235 255
220 235 255
220 235 255
220 235 255
220 235 255
220 235 255
220 235 255
220 235 255
220 235 255
220 235 255
220 235 255
220 235 255
220 235 255
220 235 255
220 235 255
220 235 255
220 235 255
220 235 255
220 235 255
220 235 255
220 235 255
220 235 255
220 235 255
220 235 255
220 235 255
220 235 255
220 235 255
220 235 255
220 235 255
220 235 255
220 235 255
220 235 255
220 235 255
220 235 255
220 235 255
220 235 255
220 235 255
220 235 255
220 235 255
220 235 255
220 235 255
220 235 255
220 235 255
220 235 255
220 235 255
220 235 255
220 235 255
220 235 255
220 235 255
220 235 255
220 235 255
220 235 255
220 235 255
220 235 255
220 235 255
220 235 255
220 235 255
220 235 255
220 235 255
220 235 255
220 235 255
220 235 255
220 235 255
220 235 255
220 235 255
220 235 255
220 235 255
220 235 255
220 235 255
220 235 255
220 235 255
220 235 255
220 235 255
220 235 255
220 235 255
220 235 255
220 235 255
220 235 255
220 235 255
220 235 255
221 235 255
220 235 255
221 235 255
221 235 255
220 235 255
221 235 255
221 235 255
221 235 255
221 235 255
221 235 255
221 235 255
221 235 255
221 235 255
221 235 255
221 235 255
221 235 255
221 235 255
221 235 255
221 235 255
221 235 255
221 235 255
221 235 255
221 235 255
221 235 255
221 235 255
221 235 255
221 235 255
221 235 255
221 235 255
221 235 255
221 235 255
221 235 255
221 235 255
221 235 255
221 235 255
221 235 255
221 235 255
221 235 255
221 235 255
221 235 255
221 235 255
221 235 255
221 235 255
221 235 255
221 235 255
221 235 255
221 235 255
221 235 255
221 235 255
221 235 255
221 235 255
221 235 255
221 235 255
221 235 255
221 235 255
221 235 255
221 235 255
221 235 255
221 235 255
221 235 255
221 235 255
221 235 255
221 235 255
221 235 255
221 235 255
221 235 255
221 235 255
221 235 255
221 235 255
221 235 255
221 235 255
221 235 255
221 235 255
221 235 255
221 235 255
221 235 255
221 235 255
221 235 255
221 235 255
221 235 255
221 235 255
221 235 255
221 235 255
221 235 255
221 235 255
221 235 255
221 235 255
221 235 255
221 235 255
221 235 255
221 235 255
221 235 255
221 235 255
221 235 255
221 235 255
221 235 255
221 235 255
221 235 255
221 235 255
221 235 255
221 235 255
221 235 255
221 235 255
221 235 255
221 235 255
221 235 255
221 235 255
221 235 255
221 235 255
221 235 255
221 235 255
221 235 255
221 235 255
221 235 255
221 235 255
221 235 255
221 235 255
221 235 255
221 235 255
221 235 255
221 235 255
221 235 255
221 235 255
221 235 255
221 235 255
221 235 255
221 235 255
221 235 255
221 235 255
221 235 255
221 235 255
221 235 255
221 235 255
221 235 255
221 235 255
221 235 255
221 235 255
221 235 255
221 235 255
221 235 255
221 235 255
221 235 255
221 235 255
221 235 255
221 235 255
221 235 255
221 235 255
221 235 255
221 235 255
221 235 255
221 235 255
221 235 255
221 235 255
221 235 255
221 235 255
221 235 255
221 235 255
221 235 255
221 235 255
221 235 255
221 235 255
221 235 255
221 235 255
221 235 255
221 235 255
221 235 255
221 235 255
221 235 255
221 235 255
221 235 255
221 235 255
221 235 255
221 235 255
221 235 255
221 235 255
221 235 255
221 235 255
221 235 255
221 235 255
221 235 255
221 235 255
221 235 255
221 235 255
221 235 255
221 235 255
221 235 255
221 235 255
221 235 255
221 235 255
221 235 255
221 235 255
221 235 255
221 235 255
221 235 255
221 235 255
221 235 255
221 235 255
221 235 255
221 235 255
221 235 255
221 235 255
221 235 255
221 235 255
221 235 255
221 235 255
221 235 255
221 235 255
221 235 255
221 235 255
221 235 255
221 235 255
221 235 255
221 235 255
221 235 255
221 235 255
221 235 255
221 235 255
221 235 255
221 235 255
221 235 255
221 235 255
221 235 255
221 235 255
221 235 255
221 235 255
221 235 255
221 235 255
221 235 255
221 235 255
221 235 255
221 235 255
221 235 255
221 235 255
221 235 255
221 235 255
221 235 255
221 235 255
221 235 255
221 235 255
221 235 255
221 235 255
221 235 255
221 235 255
221 235 255
221 235 255
221 235 255
221 235 255
221 235 255
221 235 255
221 235 255
221 235 255
221 235 255
221 235 255
221 235 255
221 235 255
221 235 255
221 235 255
221 235 255
221 235 255
221 235 255
221 235 255
221 235 255
221 235 255
221 235 255
221 235 255
221 235 255
221 235 255
221 235 255
221 235 255
221 235 255
221 235 255
221 235 255
221 235 255
221 235 255
221 235 255
221 235 255
221 235 255
221 235 255
221 235 255
221 235 255
221 235 255
221 235 255
221 235 255
221 235 255
221 235 255
221 235 255
221 235 255
221 235 255
221 235 255
221 235 255
221 235 255
221 235 255
221 235 255
221 235 255
221 235 255
221 235 255
221 235 255
221 235 255
221 235 255
221 235 255
221 235 255
221 235 255
221 235 255
221 235 255
221 235 255
221 235 255
221 235 255
221 235 255
221 235 255
221 235 255
221 235 255
221 235 255
221 235 255
221 235 255
221 235 255
221 235 255
221 235 255
221 235 255
221 235 255
221 235 255
221 235 255
221 235 255
221 235 255
221 235 255
221 235 255
221 235 255
221 235 255
221 235 255
221 235 255
221 235 255
221 235 255
221 235 255
221 235 255
221 235 255
221 235 255
221 235 255
221 235 255
221 235 255
221 235 255
221 235 255
221 235 255
221 235 255
221 235 255
221 235 255
221 235 255
221 235 255
221 235 255
221 235 255
221 235 255
221 235 255
221 235 255
221 235 255
221 235 255
221 235 255
221 235 255
221 235 255
221 235 255
221 235 255
221 235 255
221 235 255
221 235 255
221 235 255
221 235 255
221 235 255
221 235 255
221 235 255
221 235 255
221 235 255
221 235 255
221 235 255
221 235 255
221 235 255
221 235 255
221 235 255
221 235 255
221 235 255
221 235 255
221 235 255
221 235 255
221 235 255
221 235 255
221 235 255
221 235 255
221 235 255
221 235 255
221 235 255
221 235 255
221 235 255
221 235 255
221 235 255
221 235 255
221 235 255
221 235 255
221 235 255
221 235 255
221 235 255
221 235 255
221 235 255
221 235 255
221 235 255
221 235 255
221 235 255
221 235 255
221 235 255
221 235 255
221 235 255
221 235 255
221 235 255
221 235 255
221 235 255
221 235 255
221 235 255
221 235 255
221 235 255
221 235 255
221 235 255
221 235 255
221 235 255
221 235 255
221 235 255
221 235 255
221 235 255
221 235 255
221 235 255
221 235 255
221 235 255
221 235 255
221 235 255
221 235 255
221 235 255
221 235 255
221 235 255
221 235 255
221 235 255
221 235 255
221 235 255
221 235 255
221 235 255
221 235 255
221 235 255
221 235 255
221 235 255
221 235 255
221 235 255
221 235 255
221 235 255
221 235 255
221 235 255
221 235 255
221 235 255
221 235 255
221 235 255
221 235 255
221 235 255
221 235 255
221 235 255
221 235 255
221 235 255
221 235 255
221 235 255
221 235 255
221 235 255
221 235 255
221 235 255
221 235 255
221 235 255
221 235 255
221 235 255
221 235 255
221 235 255
221 235 255
221 235 255
221 235 255
221 235 255
221 235 255
221 235 255
221 235 255
221 235 255
221 235 255
221 235 255
221 235 255
221 235 255
221 235 255
221 235 255
221 235 255
221 235 255
221 235 255
221 235 255
221 235 255
221 235 255
221 235 255
221 235 255
221 235 255
221 235 255
221 235 255
221 235 255
221 235 255
221 235 255
221 235 255
221 235 255
221 235 255
221 235 255
221 235 255
221 235 255
221 235 255
221 235 255
221 235 255
221 235 255
221 235 255
221 235 255
221 235 255
221 235 255
221 235 255
221 235 255
221 235 255
221 235 255
221 235 255
221 235 255
221 235 255
221 235 255
221 235 255
221 235 255
221 235 255
221 235 255
221 235 255
221 235 255
221 235 255
221 235 255
221 235 255
221 235 255
221 235 255
221 235 255
221 235 255
221 235 255
221 235 255
221 235 255
221 235 255
221 235 255
221 235 255
221 235 255
221 235 255
221 235 255
221 235 255
221 235 255
221 235 255
221 235 255
221 235 255
221 235 255
221 235 255
221 235 255
221 235 255
221 235 255
221 235 255
221 235 255
221 235 255
221 235 255
221 235 255
221 235 255
221 235 255
221 235 255
221 235 255
221 235 255
221 235 255
221 235 255
221 235 255
221 235 255
221 235 255
221 235 255
221 235 255
221 235 255
221 235 255
221 235 255
221 235 255
221 235 255
221 235 255
221 235 255
221 235 255
221 235 255
221 235 255
221 235 255
221 235 255
221 235 255
221 235 255
221 235 255
221 235 255
221 235 255
221 235 255
221 235 255
221 235 255
221 235 255
221 235 255
221 235 255
221 235 255
221 235 255
221 235 255
221 235 255
221 235 255
221 235 255
221 235 255
221 235 255
221 235 255
221 235 255
221 235 255
221 235 255
221 235 255
221 235 255
221 235 255
221 235 255
221 235 255
221 235 255
221 235 255
221 235 255
221 235 255
221 235 255
221 235 255
221 235 255
221 235 255
221 235 255
221 235 255
221 235 255
221 235 255
221 235 255
221 235 255
221 235 255
221 235 255
221 235 255
221 235 255
221 235 255
221 235 255
221 235 255
221 235 255
221 235 255
221 235 255
221 235 255
221 235 255
221 235 255
221 235 255
221 235 255
221 235 255
221 235 255
221 235 255
221 235 255
221 235 255
221 235 255
221 235 255
221 235 255
221 235 255
221 235 255
221 235 255
221 235 255
221 235 255
221 235 255
221 235 255
221 235 255
221 235 255
221 235 255
221 235 255
221 235 255
221 235 255
221 235 255
221 235 255
221 235 255
221 235 255
221 235 255
221 235 255
221 235 255
221 235 255
221 235 255
221 235 255
221 235 255
221 235 255
221 235 255
221 235 255
221 235 255
221 235 255
221 235 255
221 235 255
221 235 255
221 235 255
221 235 255
221 235 255
221 235 255
221 235 255
221 235 255
221 235 255
221 235 255
221 235 255
221 235 255
221 235 255
221 235 255
221 235 255
221 235 255
221 235 255
221 235 255
221 235 255
221 235 255
221 235 255
221 235 255
221 235 255
221 235 255
221 235 255
221 235 255
221 235 255
221 235 255
221 235 255
221 235 255
221 235 255
221 235 255
221 235 255
221 235 255
221 235 255
221 235 255
221 235 255
221 235 255
221 235 255
221 235 255
221 235 255
221 235 255
221 235 255
221 235 255
221 235 255
221 235 255
221 235 255
221 235 255
221 235 255
221 235 255
221 235 255
221 235 255
221 235 255
221 235 255
221 235 255
221 235 255
221 235 255
221 235 255
221 235 255
221 235 255
221 235 255
221 235 255
221 235 255
221 235 255
221 235 255
221 235 255
221 235 255
221 235 255
221 235 255
221 235 255
221 235 255
221 235 255
221 235 255
221 235 255
221 235 255
221 235 255
221 235 255
221 235 255
221 235 255
221 235 255
221 235 255
221 235 255
221 235 255
221 235 255
221 235 255
221 235 255
221 235 255
221 235 255
221 235 255
221 235 255
221 235 255
221 235 255
221 235 255
221 235 255
221 235 255
221 235 255
221 235 255
221 235 255
221 235 255
221 235 255
221 235 255
221 235 255
221 235 255
221 235 255
221 235 255
221 235 255
221 235 255
221 235 255
221 235 255
221 235 255
221 235 255
221 235 255
221 235 255
221 235 255
221 235 255
221 235 255
221 235 255
221 235 255
221 235 255
221 235 255
221 235 255
221 235 255
221 235 255
221 235 255
221 235 255
221 235 255
221 235 255
221 235 255
221 235 255
221 235 255
221 235 255
221 235 255
221 235 255
221 235 255
221 235 255
221 235 255
221 235 255
221 235 255
221 235 255
221 235 255
221 235 255
221 235 255
221 235 255
221 235 255
221 235 255
221 235 255
221 235 255
221 235 255
221 235 255
221 235 255
221 235 255
221 235 255
221 235 255
221 235 255
221 235 255
221 235 255
221 235 255
221 235 255
221 235 255
221 235 255
221 235 255
221 235 255
221 235 255
221 235 255
221 235 255
221 235 255
221 235 255
221 235 255
221 235 255
221 235 255
221 235 255
221 235 255
221 235 255
221 235 255
221 235 255
221 235 255
221 235 255
221 235 255
221 235 255
221 235 255
221 235 255
221 235 255
221 235 255
221 235 255
221 235 255
221 235 255
221 235 255
221 235 255
221 235 255
221 235 255
221 235 255
221 235 255
221 235 255
221 235 255
221 235 255
221 235 255
221 235 255
221 235 255
221 235 255
221 235 255
221 235 255
221 235 255
221 235 255
221 235 255
221 235 255
221 235 255
221 235 255
221 235 255
221 235 255
221 235 255
221 235 255
221 235 255
221 235 255
221 235 255
221 235 255
221 235 255
221 235 255
221 235 255
221 235 255
221 235 255
221 235 255
221 235 255
221 235 255
221 235 255
221 235 255
221 235 255
221 235 255
221 235 255
221 235 255
221 235 255
221 235 255
221 235 255
221 235 255
221 235 255
221 235 255
221 235 255
221 235 255
221 235 255
221 235 255
221 235 255
221 235 255
221 235 255
221 235 255
221 235 255
221 235 255
221 235 255
221 235 255
221 235 255
221 235 255
221 235 255
221 235 255
221 235 255
221 235 255
221 235 255
221 235 255
221 235 255
221 235 255
221 235 255
221 235 255
221 235 255
221 235 255
221 235 255
221 235 255
221 235 255
221 235 255
221 235 255
221 235 255
221 235 255
221 235 255
221 235 255
221 235 255
221 235 255
221 235 255
221 235 255
221 235 255
221 235 255
221 235 255
221 235 255
221 235 255
221 235 255
221 235 255
221 235 255
221 235 255
221 235 255
221 235 255
221 235 255
221 235 255
221 235 255
221 235 255
221 235 255
221 235 255
221 235 255
221 235 255
221 235 255
221 235 255
221 235 255
221 235 255
221 235 255
221 235 255
221 235 255
221 235 255
221 235 255
221 235 255
221 235 255
221 235 255
221 235 255
221 235 255
221 235 255
221 235 255
221 235 255
221 235 255
221 235 255
221 235 255
221 235 255
221 235 255
221 235 255
221 235 255
221 235 255
221 235 255
221 235 255
221 235 255
221 235 255
221 235 255
221 235 255
221 235 255
221 235 255
221 235 255
221 235 255
221 235 255
221 235 255
221 235 255
221 235 255
221 235 255
221 235 255
221 235 255
221 235 255
221 235 255
221 235 255
221 235 255
221 235 255
221 235 255
221 235 255
221 235 255
221 235 255
221 235 255
221 235 255
221 235 255
221 235 255
221 235 255
221 235 255
221 235 255
221 235 255
221 235 255
221 235 255
221 235 255
221 235 255
221 235 255
221 235 255
221 235 255
221 235 255
221 235 255
221 235 255
221 235 255
221 235 255
221 235 255
221 235 255
221 235 255
221 235 255
221 235 255
221 235 255
221 235 255
221 235 255
221 235 255
221 235 255
221 235 255
221 235 255
221 235 255
221 235 255
221 235 255
221 235 255
221 235 255
221 235 255
221 235 255
221 235 255
221 235 255
221 235 255
221 235 255
221 235 255
221 235 255
221 235 255
221 235 255
221 235 255
221 235 255
221 235 255
221 235 255
221 235 255
221 235 255
221 235 255
221 235 255
221 235 255
221 235 255
221 235 255
221 235 255
221 235 255
221 235 255
221 235 255
221 235 255
221 235 255
221 235 255
221 235 255
221 235 255
221 235 255
221 235 255
221 235 255
221 235 255
221 235 255
221 235 255
221 235 255
221 235 255
221 235 255
221 235 255
221 235 255
221 235 255
221 235 255
221 235 255
221 235 255
221 235 255
221 235 255
221 235 255
221 235 255
221 235 255
221 235 255
221 235 255
221 235 255
221 235 255
221 235 255
221 235 255
221 235 255
221 235 255
221 235 255
221 235 255
221 235 255
221 235 255
221 235 255
221 235 255
221 235 255
221 235 255
221 235 255
221 235 255
221 235 255
221 235 255
221 235 255
221 235 255
221 235 255
221 235 255
221 235 255
221 235 255
221 235 255
221 235 255
221 235 255
221 235 255
221 235 255
221 235 255
221 235 255
221 235 255
221 235 255
221 235 255
221 235 255
221 235 255
221 235 255
221 235 255
221 235 255
221 235 255
221 235 255
221 235 255
221 235 255
221 235 255
221 235 255
221 235 255
221 235 255
221 235 255
221 235 255
221 235 255
221 235 255
221 235 255
221 235 255
221 235 255
221 235 255
221 235 255
221 235 255
221 235 255
221 235 255
221 235 255
221 235 255
221 235 255
221 235 255
221 235 255
221 235 255
221 235 255
221 235 255
221 235 255
221 235 255
221 235 255
221 235 255
221 235 255
221 235 255
221 235 255
221 235 255
221 235 255
221 235 255
221 235 255
221 235 255
221 235 255
221 235 255
221 235 255
221 235 255
221 235 255
221 235 255
221 235 255
221 235 255
221 235 255
221 235 255
221 235 255
221 235 255
221 235 255
221 235 255
221 235 255
221 235 255
221 235 255
221 235 255
221 235 255
221 235 255
221 235 255
221 235 255
221 235 255
221 235 255
221 235 255
221 235 255
221 235 255
221 235 255
221 235 255
221 235 255
221 235 255
221 235 255
221 235 255
221 235 255
221 235 255
221 235 255
221 235 255
221 235 255
221 235 255
221 235 255
221 235 255
221 235 255
221 235 255
221 235 255
221 235 255
221 235 255
221 235 255
221 235 255
221 235 255
221 235 255
221 235 255
221 235 255
221 235 255
221 235 255
221 235 255
221 235 255
221 235 255
221 235 255
221 235 255
221 235 255
221 235 255
221 235 255
221 235 255
221 235 255
221 235 255
221 235 255
221 235 255
221 235 255
221 235 255
221 235 255
221 235 255
221 235 255
221 235 255
221 235 255
221 235 255
221 235 255
221 235 255
221 235 255
221 235 255
221 235 255
221 235 255
221 235 255
221 235 255
221 235 255
221 235 255
221 235 255
221 235 255
221 235 255
221 235 255
221 235 255
221 235 255
221 235 255
221 235 255
221 235 255
221 235 255
221 235 255
221 235 255
221 235 255
221 235 255
221 235 255
221 235 255
221 235 255
221 235 255
221 235 255
221 235 255
221 235 255
221 235 255
221 235 255
221 235 255
221 235 255
221 235 255
221 235 255
221 235 255
221 235 255
221 235 255
221 235 255
221 235 255
221 235 255
221 235 255
221 235 255
221 235 255
221 235 255
221 235 255
221 235 255
221 235 255
221 235 255
221 235 255
221 235 255
221 235 255
221 235 255
221 235 255
221 235 255
221 235 255
221 235 255
221 235 255
221 235 255
221 235 255
221 235 255
221 235 255
221 235 255
221 235 255
221 235 255
221 235 255
221 235 255
221 235 255
221 235 255
221 235 255
221 235 255
221 235 255
221 235 255
221 235 255
221 235 255
221 235 255
221 235 255
221 235 255
221 235 255
221 235 255
221 235 255
221 235 255
221 235 255
221 235 255
221 235 255
221 235 255
221 235 255
221 236 255
221 236 255
221 236 255
221 236 255
221 236 255
221 236 255
221 236 255
221 236 255
221 236 255
221 236 255
221 236 255
221 236 255
221 236 255
221 236 255
221 236 255
221 236 255
221 236 255
221 236 255
221 236 255
221 236 255
221 236 255
221 236 255
221 236 255
221 236 255
221 236 255
221 236 255
221 236 255
221 236 255
221 236 255
221 236 255
221 236 255
221 236 255
221 236 255
221 236 255
221 236 255
221 236 255
221 236 255
221 236 255
221 236 255
221 236 255
221 236 255
221 236 255
221 236 255
221 236 255
221 236 255
221 236 255
221 236 255
221 236 255
221 236 255
221 236 255
221 236 255
221 236 255
221 236 255
221 236 255
221 236 255
221 236 255
221 236 255
221 236 255
221 236 255
221 236 255
221 236 255
221 236 255
221 236 255
221 236 255
221 236 255
221 236 255
221 236 255
221 236 255
221 236 255
221 236 255
221 236 255
221 236 255
221 236 255
221 236 255
221 236 255
221 236 255
221 236 255
221 236 255
221 236 255
221 236 255
221 236 255
221 236 255
221 236 255
221 236 255
221 236 255
221 236 255
221 236 255
221 236 255
221 236 255
221 236 255
221 236 255
221 236 255
221 236 255
221 236 255
221 236 255
221 236 255
221 236 255
221 236 255
221 236 255
221 236 255
221 236 255
221 236 255
221 236 255
221 236 255
221 236 255
221 236 255
221 236 255
221 236 255
221 236 255
221 236 255
221 236 255
221 236 255
221 236 255
221 236 255
221 236 255
221 236 255
221 236 255
221 236 255
221 236 255
221 236 255
221 236 255
221 236 255
221 236 255
221 236 255
221 236 255
221 236 255
221 236 255
221 236 255
221 236 255
221 236 255
221 236 255
221 236 255
221 236 255
221 236 255
221 236 255
221 236 255
221 236 255
221 236 255
221 236 255
221 236 255
221 236 255
221 236 255
221 236 255
221 236 255
221 236 255
221 236 255
221 236 255
221 236 255
221 236 255
221 236 255
221 236 255
221 236 255
221 236 255
221 236 255
221 236 255
221 236 255
221 236 255
221 236 255
221 236 255
221 236 255
221 236 255
221 236 255
221 236 255
221 236 255
221 236 255
221 236 255
221 236 255
221 236 255
221 236 255
221 236 255
221 236 255
221 236 255
221 236 255
221 236 255
221 236 255
221 236 255
221 236 255
221 236 255
221 236 255
221 236 255
221 236 255
221 236 255
221 236 255
221 236 255
221 236 255
221 236 255
221 236 255
221 236 255
221 236 255
221 236 255
221 236 255
221 236 255
221 236 255
221 236 255
221 236 255
221 236 255
221 236 255
221 236 255
221 236 255
221 236 255
221 236 255
221 236 255
221 236 255
221 236 255
221 236 255
221 236 255
221 236 255
221 236 255
221 236 255
221 236 255
221 236 255
221 236 255
221 236 255
221 236 255
221 236 255
221 236 255
221 236 255
221 236 255
221 236 255
221 236 255
221 236 255
221 236 255
221 236 255
221 236 255
221 236 255
221 236 255
221 236 255
221 236 255
221 236 255
221 236 255
221 236 255
221 236 255
221 236 255
221 236 255
221 236 255
221 236 255
221 236 255
221 236 255
221 236 255
221 236 255
221 236 255
221 236 255
221 236 255
221 236 255
221 236 255
221 236 255
221 236 255
221 236 255
221 236 255
221 236 255
221 236 255
221 236 255
221 236 255
221 236 255
221 236 255
221 236 255
221 236 255
221 236 255
221 236 255
221 236 255
221 236 255
221 236 255
221 236 255
221 236 255
221 236 255
221 236 255
221 236 255
221 236 255
221 236 255
221 236 255
221 236 255
221 236 255
221 236 255
221 236 255
221 236 255
221 236 255
221 236 255
221 236 255
221 236 255
221 236 255
221 236 255
221 236 255
221 236 255
221 236 255
221 236 255
221 236 255
221 236 255
221 236 255
221 236 255
221 236 255
221 236 255
221 236 255
221 236 255
221 236 255
221 236 255
221 236 255
221 236 255
221 236 255
221 236 255
221 236 255
221 236 255
221 236 255
221 236 255
221 236 255
221 236 255
221 236 255
221 236 255
221 236 255
221 236 255
221 236 255
221 236 255
221 236 255
221 236 255
221 236 255
221 236 255
221 236 255
221 236 255
221 236 255
221 236 255
221 236 255
221 236 255
221 236 255
221 236 255
221 236 255
221 236 255
221 236 255
221 236 255
221 236 255
221 236 255
221 236 255
221 236 255
221 236 255
221 236 255
221 236 255
221 236 255
221 236 255
221 236 255
221 236 255
221 236 255
221 236 255
221 236 255
221 236 255
221 236 255
221 236 255
221 236 255
221 236 255
221 236 255
221 236 255
221 236 255
221 236 255
221 236 255
221 236 255
221 236 255
221 236 255
221 236 255
221 236 255
221 236 255
221 236 255
221 236 255
221 236 255
221 236 255
221 236 255
221 236 255
221 236 255
221 236 255
221 236 255
221 236 255
221 236 255
221 236 255
221 236 255
221 236 255
221 236 255
221 236 255
221 236 255
221 236 255
221 236 255
221 236 255
221 236 255
221 236 255
221 236 255
221 236 255
221 236 255
221 236 255
221 236 255
221 236 255
221 236 255
221 236 255
221 236 255
221 236 255
221 236 255
221 236 255
221 236 255
221 236 255
221 236 255
221 236 255
221 236 255
221 236 255
221 236 255
221 236 255
221 236 255
221 236 255
221 236 255
221 236 255
221 236 255
221 236 255
221 236 255
221 236 255
221 236 255
221 236 255
221 236 255
221 236 255
221 236 255
221 236 255
221 236 255
221 236 255
221 236 255
221 236 255
221 236 255
221 236 255
221 236 255
221 236 255
221 236 255
221 236 255
221 236 255
221 236 255
221 236 255
221 236 255
221 236 255
221 236 255
221 236 255
221 236 255
221 236 255
221 236 255
221 236 255
221 236 255
221 236 255
221 236 255
221 236 255
221 236 255
221 236 255
221 236 255
221 236 255
221 236 255
221 236 255
221 236 255
221 236 255
221 236 255
221 236 255
221 236 255
221 236 255
221 236 255
221 236 255
221 236 255
221 236 255
221 236 255
221 236 255
221 236 255
221 236 255
221 236 255
221 236 255
221 236 255
221 236 255
221 236 255
221 236 255
221 236 255
221 236 255
221 236 255
221 236 255
221 236 255
221 236 255
221 236 255
221 236 255
221 236 255
221 236 255
221 236 255
221 236 255
221 236 255
221 236 255
221 236 255
221 236 255
221 236 255
221 236 255
221 236 255
221 236 255
221 236 255
221 236 255
221 236 255
221 236 255
221 236 255
221 236 255
221 236 255
221 236 255
221 236 255
221 236 255
221 236 255
221 236 255
221 236 255
221 236 255
221 236 255
221 236 255
221 236 255
221 236 255
221 236 255
221 236 255
221 236 255
221 236 255
221 236 255
221 236 255
221 236 255
221 236 255
221 236 255
221 236 255
221 236 255
222 236 255
221 236 255
222 236 255
221 236 255
221 236 255
222 236 255
222 236 255
221 236 255
221 236 255
222 236 255
222 236 255
222 236 255
221 236 255
222 236 255
222 236 255
222 236 255
222 236 255
221 236 255
222 236 255
222 236 255
222 236 255
222 236 255
222 236 255
222 236 255
222 236 255
222 236 255
222 236 255
222 236 255
222 236 255
222 236 255
222 236 255
222 236 255
222 236 255
222 236 255
222 236 255
222 236 255
222 236 255
222 236 255
222 236 255
222 236 255
222 236 255
222 236 255
222 236 255
222 236 255
222 236 255
222 236 255
222 236 255
222 236 255
222 236 255
222 236 255
222 236 255
222 236 255
222 236 255
222 236 255
222 236 255
222 236 255
222 236 255
222 236 255
222 236 255
222 236 255
222 236 255
222 236 255
222 236 255
222 236 255
222 236 255
222 236 255
222 236 255
222 236 255
222 236 255
222 236 255
222 236 255
222 236 255
222 236 255
222 236 255
222 236 255
222 236 255
222 236 255
222 236 255
222 236 255
222 236 255
222 236 255
222 236 255
222 236 255
222 236 255
222 236 255
222 236 255
222 236 255
222 236 255
222 236 255
222 236 255
222 236 255
222 236 255
222 236 255
222 236 255
222 236 255
222 236 255
222 236 255
222 236 255
222 236 255
222 236 255
222 236 255
222 236 255
222 236 255
222 236 255
222 236 255
222 236 255
222 236 255
222 236 255
222 236 255
222 236 255
222 236 255
222 236 255
222 236 255
222 236 255
222 236 255
222 236 255
222 236 255
222 236 255
222 236 255
222 236 255
222 236 255
222 236 255
222 236 255
222 236 255
222 236 255
222 236 255
222 236 255
222 236 255
222 236 255
222 236 255
222 236 255
222 236 255
222 236 255
222 236 255
222 236 255
222 236 255
222 236 255
222 236 255
222 236 255
222 236 255
222 236 255
222 236 255
222 236 255
222 236 255
222 236 255
222 236 255
222 236 255
222 236 255
222 236 255
222 236 255
222 236 255
222 236 255
221 236 255
222 236 255
221 236 255
222 236 255
222 236 255
222 236 255
222 236 255
221 236 255
222 236 255
222 236 255
221 236 255
221 236 255
222 236 255
221 236 255
221 236 255
222 236 255
221 236 255
221 236 255
221 236 255
221 236 255
221 236 255
221 236 255
221 236 255
221 236 255
221 236 255
221 236 255
221 236 255
221 236 255
221 236 255
221 236 255
221 236 255
221 236 255
221 236 255
221 236 255
221 236 255
221 236 255
221 236 255
221 236 255
221 236 255
221 236 255
221 236 255
221 236 255
221 236 255
221 236 255
221 236 255
221 236 255
221 236 255
221 236 255
221 236 255
221 236 255
221 236 255
221 236 255
221 236 255
221 236 255
221 236 255
221 236 255
221 236 255
221 236 255
221 236 255
221 236 255
221 236 255
221 236 255
221 236 255
221 236 255
221 236 255
221 236 255
221 236 255
221 236 255
221 236 255
221 236 255
221 236 255
221 236 255
221 236 255
221 236 255
221 236 255
221 236 255
221 236 255
221 236 255
221 236 255
221 236 255
221 236 255
221 236 255
221 236 255
221 236 255
221 236 255
221 236 255
221 236 255
221 236 255
221 236 255
221 236 255
221 236 255
221 236 255
221 236 255
221 236 255
221 236 255
221 236 255
221 236 255
221 236 255
221 236 255
221 236 255
221 236 255
221 236 255
221 236 255
221 236 255
221 236 255
221 236 255
221 236 255
221 236 255
221 236 255
221 236 255
221 236 255
221 236 255
221 236 255
221 236 255
221 236 255
221 236 255
221 236 255
221 236 255
221 236 255
221 236 255
221 236 255
221 236 255
221 236 255
221 236 255
221 236 255
221 236 255
221 236 255
221 236 255
221 236 255
221 236 255
221 236 255
221 236 255
221 236 255
221 236 255
221 236 255
222 236 255
222 236 255
222 236 255
222 236 255
222 236 255
222 236 255
222 236 255
222 236 255
222 236 255
222 236 255
222 236 255
222 236 255
222 236 255
222 236 255
222 236 255
222 236 255
222 236 255
222 236 255
222 236 255
222 236 255
222 236 255
222 236 255
222 236 255
222 236 255
222 236 255
222 236 255
222 236 255
222 236 255
222 236 255
222 236 255
222 236 255
222 236 255
222 236 255
222 236 255
222 236 255
222 236 255
222 236 255
222 236 255
222 236 255
222 236 255
222 236 255
222 236 255
222 236 255
222 236 255
222 236 255
222 236 255
222 236 255
222 236 255
222 236 255
222 236 255
222 236 255
222 236 255
222 236 255
222 236 255
222 236 255
222 236 255
222 236 255
222 236 255
222 236 255
222 236 255
222 236 255
222 236 255
222 236 255
222 236 255
222 236 255
222 236 255
222 236 255
222 236 255
222 236 255
222 236 255
222 236 255
222 236 255
222 236 255
222 236 255
222 236 255
222 236 255
222 236 255
222 236 255
222 236 255
222 236 255
222 236 255
222 236 255
222 236 255
222 236 255
222 236 255
222 236 255
222 236 255
222 236 255
222 236 255
222 236 255
222 236 255
222 236 255
222 236 255
222 236 255
222 236 255
222 236 255
222 236 255
222 236 255
222 236 255
222 236 255
222 236 255
222 236 255
222 236 255
222 236 255
222 236 255
222 236 255
222 236 255
222 236 255
222 236 255
222 236 255
222 236 255
222 236 255
222 236 255
222 236 255
222 236 255
222 236 255
222 236 255
222 236 255
222 236 255
222 236 255
222 236 255
222 236 255
222 236 255
222 236 255
222 236 255
222 236 255
222 236 255
222 236 255
222 236 255
222 236 255
222 236 255
222 236 255
222 236 255
222 236 255
222 236 255
222 236 255
222 236 255
222 236 255
222 236 255
222 236 255
222 236 255
222 236 255
222 236 255
222 236 255
222 236 255
222 236 255
222 236 255
222 236 255
222 236 255
222 236 255
222 236 255
222 236 255
222 236 255
222 236 255
222 236 255
222 236 255
222 236 255
222 236 255
222 236 255
222 236 255
222 236 255
222 236 255
222 236 255
222 236 255
222 236 255
222 236 255
222 236 255
222 236 255
222 236 255
222 236 255
222 236 255
222 236 255
222 236 255
222 236 255
222 236 255
222 236 255
222 236 255
222 236 255
222 236 255
222 236 255
222 236 255
222 236 255
222 236 255
222 236 255
222 236 255
222 236 255
222 236 255
222 236 255
222 236 255
222 236 255
222 236 255
222 236 255
222 236 255
222 236 255
222 236 255
222 236 255
222 236 255
222 236 255
222 236 255
222 236 255
222 236 255
222 236 255
222 236 255
222 236 255
222 236 255
222 236 255
222 236 255
222 236 255
222 236 255
222 236 255
222 236 255
222 236 255
222 236 255
222 236 255
222 236 255
222 236 255
222 236 255
222 236 255
222 236 255
222 236 255
222 236 255
222 236 255
222 236 255
222 236 255
222 236 255
222 236 255
222 236 255
222 236 255
222 236 255
222 236 255
222 236 255
222 236 255
222 236 255
222 236 255
222 236 255
222 236 255
222 236 255
222 236 255
222 236 255
222 236 255
222 236 255
222 236 255
222 236 255
222 236 255
222 236 255
222 236 255
222 236 255
222 236 255
222 236 255
222 236 255
222 236 255
222 236 255
222 236 255
222 236 255
222 236 255
222 236 255
222 236 255
222 236 255
222 236 255
222 236 255
222 236 255
222 236 255
222 236 255
222 236 255
222 236 255
222 236 255
222 236 255
222 236 255
222 236 255
222 236 255
222 236 255
222 236 255
222 236 255
222 236 255
222 236 255
222 236 255
222 236 255
222 236 255
222 236 255
222 236 255
222 236 255
222 236 255
222 236 255
222 236 255
222 236 255
222 236 255
222 236 255
222 236 255
222 236 255
222 236 255
222 236 255
222 236 255
222 236 255
222 236 255
222 236 255
222 236 255
222 236 255
222 236 255
222 236 255
222 236 255
222 236 255
222 236 255
222 236 255
222 236 255
222 236 255
222 236 255
222 236 255
222 236 255
222 236 255
222 236 255
222 236 255
222 236 255
222 236 255
222 236 255
222 236 255
222 236 255
222 236 255
222 236 255
222 236 255
222 236 255
222 236 255
222 236 255
222 236 255
222 236 255
222 236 255
222 236 255
222 236 255
222 236 255
222 236 255
222 236 255
222 236 255
222 236 255
222 236 255
222 236 255
222 236 255
222 236 255
222 236 255
222 236 255
222 236 255
222 236 255
222 236 255
222 236 255
222 236 255
222 236 255
222 236 255
222 236 255
222 236 255
222 236 255
222 236 255
222 236 255
222 236 255
222 236 255
222 236 255
222 236 255
222 236 255
222 236 255
222 236 255
222 236 255
222 236 255
222 236 255
222 236 255
222 236 255
222 236 255
222 236 255
222 236 255
222 236 255
222 236 255
222 236 255
222 236 255
222 236 255
222 236 255
222 236 255
222 236 255
222 236 255
222 236 255
222 236 255
222 236 255
222 236 255
222 236 255
222 236 255
222 236 255
222 236 255
222 236 255
222 236 255
222 236 255
222 236 255
222 236 255
222 236 255
222 236 255
222 236 255
222 236 255
222 236 255
222 236 255
222 236 255
222 236 255
222 236 255
222 236 255
222 236 255
222 236 255
222 236 255
222 236 255
222 236 255
222 236 255
222 236 255
222 236 255
222 236 255
222 236 255
222 236 255
222 236 255
222 236 255
222 236 255
222 236 255
222 236 255
222 236 255
222 236 255
222 236 255
222 236 255
222 236 255
222 236 255
222 236 255
222 236 255
222 236 255
222 236 255
222 236 255
222 236 255
222 236 255
222 236 255
222 236 255
222 236 255
222 236 255
222 236 255
222 236 255
222 236 255
222 236 255
222 236 255
222 236 255
222 236 255
222 236 255
222 236 255
222 236 255
222 236 255
222 236 255
222 236 255
222 236 255
222 236 255
222 236 255
222 236 255
222 236 255
222 236 255
222 236 255
222 236 255
222 236 255
222 236 255
222 236 255
222 236 255
222 236 255
222 236 255
222 236 255
222 236 255
222 236 255
222 236 255
222 236 255
222 236 255
222 236 255
222 236 255
222 236 255
222 236 255
222 236 255
222 236 255
222 236 255
222 236 255
222 236 255
222 236 255
222 236 255
222 236 255
222 236 255
222 236 255
222 236 255
222 236 255
222 236 255
222 236 255
222 236 255
222 236 255
222 236 255
222 236 255
222 236 255
222 236 255
222 236 255
222 236 255
222 236 255
222 236 255
222 236 255
222 236 255
222 236 255
222 236 255
222 236 255
222 236 255
222 236 255
222 236 255
222 236 255
222 236 255
222 236 255
222 236 255
222 236 255
222 236 255
222 236 255
222 236 255
222 236 255
222 236 255
222 236 255
222 236 255
222 236 255
222 236 255
222 236 255
222 236 255
222 236 255
222 236 255
222 236 255
222 236 255
222 236 255
222 236 255
222 236 255
222 236 255
222 236 255
222 236 255
222 236 255
222 236 255
222 236 255
222 236 255
222 236 255
222 236 255
222 236 255
222 236 255
222 236 255
222 236 255
222 236 255
222 236 255
222 236 255
222 236 255
222 236 255
222 236 255
222 236 255
222 236 255
222 236 255
222 236 255
222 236 255
222 236 255
222 236 255
222 236 255
222 236 255
222 236 255
222 236 255
222 236 255
222 236 255
222 236 255
222 236 255
222 236 255
222 236 255
222 236 255
222 236 255
222 236 255
222 236 255
222 236 255
222 236 255
222 236 255
222 236 255
222 236 255
222 236 255
222 236 255
222 236 255
222 236 255
222 236 255
222 236 255
222 236 255
222 236 255
222 236 255
222 236 255
222 236 255
222 236 255
222 236 255
222 236 255
222 236 255
222 236 255
222 236 255
222 236 255
222 236 255
222 236 255
222 236 255
222 236 255
222 236 255
222 236 255
222 236 255
222 236 255
222 236 255
222 236 255
222 236 255
222 236 255
222 236 255
222 236 255
222 236 255
222 236 255
222 236 255
222 236 255
222 236 255
222 236 255
222 236 255
222 236 255
222 236 255
222 236 255
222 236 255
222 236 255
222 236 255
222 236 255
222 236 255
222 236 255
222 236 255
222 236 255
222 236 255
222 236 255
222 236 255
222 236 255
222 236 255
222 236 255
222 236 255
222 236 255
222 236 255
222 236 255
222 236 255
222 236 255
222 236 255
222 236 255
222 236 255
222 236 255
222 236 255
222 236 255
222 236 255
222 236 255
222 236 255
222 236 255
222 236 255
222 236 255
222 236 255
222 236 255
222 236 255
222 236 255
222 236 255
222 236 255
222 236 255
222 236 255
222 236 255
222 236 255
222 236 255
222 236 255
222 236 255
222 236 255
222 236 255
222 236 255
222 236 255
222 236 255
222 236 255
222 236 255
222 236 255
222 236 255
222 236 255
222 236 255
222 236 255
222 236 255
222 236 255
222 236 255
222 236 255
222 236 255
222 236 255
222 236 255
222 236 255
222 236 255
222 236 255
222 236 255
222 236 255
222 236 255
222 236 255
222 236 255
222 236 255
222 236 255
222 236 255
222 236 255
222 236 255
222 236 255
222 236 255
222 236 255
222 236 255
222 236 255
222 236 255
222 236 255
222 236 255
222 236 255
222 236 255
222 236 255
222 236 255
222 236 255
222 236 255
222 236 255
222 236 255
222 236 255
222 236 255
222 236 255
222 236 255
222 236 255
222 236 255
222 236 255
222 236 255
222 236 255
222 236 255
222 236 255
222 236 255
222 236 255
222 236 255
222 236 255
222 236 255
222 236 255
222 236 255
222 236 255
222 236 255
222 236 255
222 236 255
222 236 255
222 236 255
222 236 255
222 236 255
222 236 255
222 236 255
222 236 255
222 236 255
222 236 255
222 236 255
222 236 255
222 236 255
222 236 255
222 236 255
222 236 255
222 236 255
222 236 255
222 236 255
222 236 255
222 236 255
222 236 255
222 236 255
222 236 255
222 236 255
222 236 255
222 236 255
222 236 255
222 236 255
222 236 255
222 236 255
222 236 255
222 236 255
222 236 255
222 236 255
222 236 255
222 236 255
222 236 255
222 236 255
222 236 255
222 236 255
222 236 255
222 236 255
222 236 255
222 236 255
222 236 255
222 236 255
222 236 255
222 236 255
222 236 255
222 236 255
222 236 255
222 236 255
222 236 255
222 236 255
222 236 255
222 236 255
222 236 255
222 236 255
222 236 255
222 236 255
222 236 255
222 236 255
222 236 255
222 236 255
222 236 255
222 236 255
222 236 255
222 236 255
222 236 255
222 236 255
222 236 255
222 236 255
222 236 255
222 236 255
222 236 255
222 236 255
222 236 255
222 236 255
222 236 255
222 236 255
222 236 255
222 236 255
222 236 255
222 236 255
222 236 255
222 236 255
222 236 255
222 236 255
222 236 255
222 236 255
222 236 255
222 236 255
222 236 255
222 236 255
222 236 255
222 236 255
222 236 255
222 236 255
222 236 255
222 236 255
222 236 255
222 236 255
222 236 255
222 236 255
222 236 255
222 236 255
222 236 255
222 236 255
222 236 255
222 236 255
222 236 255
222 236 255
222 236 255
222 236 255
222 236 255
222 236 255
222 236 255
222 236 255
222 236 255
222 236 255
222 236 255
222 236 255
222 236 255
222 236 255
222 236 255
222 236 255
222 236 255
222 236 255
222 236 255
222 236 255
222 236 255
222 236 255
222 236 255
222 236 255
222 236 255
222 236 255
222 236 255
222 236 255
222 236 255
222 236 255
222 236 255
222 236 255
222 236 255
222 236 255
222 236 255
222 236 255
222 236 255
222 236 255
222 236 255
222 236 255
222 236 255
222 236 255
222 236 255
222 236 255
222 236 255
222 236 255
222 236 255
222 236 255
222 236 255
222 236 255
222 236 255
222 236 255
222 236 255
222 236 255
222 236 255
222 236 255
222 236 255
222 236 255
222 236 255
222 236 255
222 236 255
222 236 255
222 236 255
222 236 255
222 236 255
222 236 255
222 236 255
222 236 255
222 236 255
222 236 255
222 236 255
222 236 255
222 236 255
222 236 255
222 236 255
222 236 255
222 236 255
222 236 255
222 236 255
222 236 255
222 236 255
222 236 255
222 236 255
222 236 255
222 236 255
222 236 255
222 236 255
222 236 255
222 236 255
222 236 255
222 236 255
222 236 255
222 236 255
222 236 255
222 236 255
222 236 255
222 236 255
222 236 255
222 236 255
222 236 255
222 236 255
222 236 255
222 236 255
222 236 255
222 236 255
222 236 255
222 236 255
222 236 255
222 236 255
222 236 255
222 236 255
222 236 255
222 236 255
222 236 255
222 236 255
222 236 255
222 236 255
222 236 255
222 236 255
222 236 255
222 236 255
222 236 255
222 236 255
222 236 255
222 236 255
222 236 255
222 236 255
222 236 255
222 236 255
222 236 255
222 236 255
222 236 255
222 236 255
222 236 255
222 236 255
222 236 255
222 236 255
222 236 255
222 236 255
222 236 255
222 236 255
222 236 255
222 236 255
222 236 255
222 236 255
222 236 255
222 236 255
222 236 255
222 236 255
222 236 255
222 236 255
222 236 255
222 236 255
222 236 255
222 236 255
222 236 255
222 236 255
222 236 255
222 236 255
222 236 255
222 236 255
222 236 255
222 236 255
222 236 255
222 236 255
222 236 255
222 236 255
222 236 255
222 236 255
222 236 255
222 236 255
222 236 255
222 236 255
222 236 255
222 236 255
222 236 255
222 236 255
222 236 255
222 236 255
222 236 255
222 236 255
222 236 255
222 236 255
222 236 255
222 236 255
222 236 255
222 236 255
222 236 255
222 236 255
222 236 255
222 236 255
222 236 255
222 236 255
222 236 255
222 236 255
222 236 255
222 236 255
222 236 255
222 236 255
222 236 255
222 236 255
222 236 255
222 236 255
222 236 255
222 236 255
222 236 255
222 236 255
222 236 255
222 236 255
222 236 255
222 236 255
222 236 255
222 236 255
222 236 255
222 236 255
222 236 255
222 236 255
222 236 255
222 236 255
222 236 255
222 236 255
222 236 255
222 236 255
222 236 255
222 236 255
222 236 255
222 236 255
222 236 255
222 236 255
222 236 255
222 236 255
222 236 255
222 236 255
222 236 255
222 236 255
222 236 255
222 236 255
222 236 255
222 236 255
222 236 255
222 236 255
222 236 255
222 236 255
222 236 255
222 236 255
222 236 255
222 236 255
222 236 255
222 236 255
222 236 255
222 236 255
222 236 255
222 236 255
222 236 255
222 236 255
222 236 255
222 236 255
222 236 255
222 236 255
222 236 255
222 236 255
222 236 255
222 236 255
222 236 255
222 236 255
222 236 255
222 236 255
222 236 255
222 236 255
222 236 255
222 236 255
222 236 255
222 236 255
222 236 255
222 236 255
222 236 255
222 236 255
222 236 255
222 236 255
222 236 255
222 236 255
222 236 255
222 236 255
222 236 255
222 236 255
222 236 255
222 236 255
222 236 255
222 236 255
222 236 255
222 236 255
222 236 255
222 236 255
222 236 255
222 236 255
222 236 255
222 236 255
222 236 255
222 236 255
222 236 255
222 236 255
222 236 255
222 236 255
222 236 255
222 236 255
222 236 255
222 236 255
222 236 255
222 236 255
222 236 255
222 236 255
222 236 255
222 236 255
222 236 255
222 236 255
222 236 255
222 236 255
222 236 255
222 236 255
222 236 255
222 236 255
222 236 255
222 236 255
222 236 255
222 236 255
222 236 255
222 236 255
222 236 255
222 236 255
222 236 255
222 236 255
222 236 255
222 236 255
222 236 255
222 236 255
222 236 255
222 236 255
222 236 255
222 236 255
222 236 255
222 236 255
222 236 255
222 236 255
222 236 255
222 236 255
222 236 255
222 236 255
222 236 255
222 236 255
222 236 255
222 236 255
222 236 255
222 236 255
222 236 255
222 236 255
222 236 255
222 236 255
222 236 255
222 236 255
222 236 255
222 236 255
222 236 255
222 236 255
222 236 255
222 236 255
222 236 255
222 236 255
222 236 255
222 236 255
222 236 255
222 236 255
222 236 255
222 236 255
222 236 255
222 236 255
222 236 255
222 236 255
222 236 255
222 236 255
222 236 255
222 236 255
222 236 255
222 236 255
222 236 255
222 236 255
222 236 255
222 236 255
222 236 255
222 236 255
222 236 255
222 236 255
222 236 255
222 236 255
222 236 255
222 236 255
222 236 255
222 236 255
222 236 255
222 236 255
222 236 255
222 236 255
222 236 255
222 236 255
222 236 255
222 236 255
222 236 255
222 236 255
222 236 255
222 236 255
222 236 255
222 236 255
222 236 255
222 236 255
222 236 255
222 236 255
222 236 255
222 236 255
222 236 255
222 236 255
222 236 255
222 236 255
222 236 255
222 236 255
222 236 255
222 236 255
222 236 255
222 236 255
222 236 255
222 236 255
222 236 255
222 236 255
222 236 255
222 236 255
222 236 255
222 236 255
222 236 255
222 236 255
222 236 255
222 236 255
222 236 255
222 236 255
222 236 255
222 236 255
222 236 255
222 236 255
222 236 255
222 236 255
222 236 255
222 236 255
222 236 255
222 236 255
222 236 255
222 236 255
222 236 255
222 236 255
222 236 255
222 236 255
222 236 255
222 236 255
222 236 255
222 236 255
222 236 255
222 236 255
222 236 255
222 236 255
222 236 255
222 236 255
222 236 255
222 236 255
222 236 255
222 236 255
222 236 255
222 236 255
222 236 255
222 236 255
222 236 255
222 236 255
222 236 255
222 236 255
222 236 255
222 236 255
222 236 255
222 236 255
222 236 255
222 236 255
222 236 255
222 236 255
222 236 255
222 236 255
222 236 255
222 236 255
222 236 255
222 236 255
222 236 255
222 236 255
222 236 255
222 236 255
222 236 255
222 236 255
222 236 255
222 236 255
222 236 255
222 236 255
222 236 255
222 236 255
222 236 255
222 236 255
222 236 255
222 236 255
222 236 255
222 236 255
222 236 255
222 236 255
222 236 255
222 236 255
222 236 255
222 236 255
222 236 255
222 236 255
222 236 255
222 236 255
222 236 255
222 236 255
222 236 255
222 236 255
222 236 255
222 236 255
222 236 255
222 236 255
222 236 255
222 236 255
222 236 255
222 236 255
222 236 255
222 236 255
222 236 255
222 236 255
222 236 255
222 236 255
222 236 255
222 236 255
222 236 255
222 236 255
222 236 255
222 236 255
222 236 255
222 236 255
222 236 255
222 236 255
222 236 255
222 236 255
222 236 255
222 236 255
222 236 255
222 236 255
222 236 255
222 236 255
222 236 255
222 236 255
222 236 255
222 236 255
222 236 255
222 236 255
222 236 255
222 236 255
222 236 255
222 236 255
222 236 255
222 236 255
222 236 255
222 236 255
222 236 255
222 236 255
222 236 255
222 236 255
222 236 255
222 236 255
222 236 255
222 236 255
222 236 255
222 236 255
222 236 255
222 236 255
222 236 255
222 236 255
222 236 255
222 236 255
222 236 255
222 236 255
222 236 255
222 236 255
222 236 255
222 236 255
222 236 255
222 236 255
222 236 255
222 236 255
222 236 255
222 236 255
222 236 255
222 236 255
222 236 255
222 236 255
222 236 255
222 236 255
222 236 255
222 236 255
222 236 255
222 236 255
222 236 255
222 236 255
222 236 255
222 236 255
222 236 255
222 236 255
222 236 255
222 236 255
222 236 255
222 236 255
222 236 255
222 236 255
222 236 255
222 236 255
222 236 255
222 236 255
222 236 255
222 236 255
222 236 255
222 236 255
222 236 255
222 236 255
222 236 255
222 236 255
222 236 255
222 236 255
222 236 255
222 236 255
222 236 255
222 236 255
222 236 255
222 236 255
222 236 255
222 236 255
222 236 255
222 236 255
222 236 255
222 236 255
222 236 255
222 236 255
222 236 255
222 236 255
222 236 255
222 236 255
222 236 255
222 236 255
222 236 255
222 236 255
222 236 255
222 236 255
222 236 255
222 236 255
222 236 255
222 236 255
222 236 255
222 236 255
222 236 255
222 236 255
222 236 255
222 236 255
222 236 255
222 236 255
222 236 255
222 236 255
222 236 255
222 236 255
222 236 255
222 236 255
222 236 255
222 236 255
222 236 255
222 236 255
222 236 255
222 236 255
222 236 255
222 236 255
222 236 255
222 236 255
222 236 255
222 236 255
222 236 255
222 236 255
222 236 255
222 236 255
222 236 255
222 236 255
222 236 255
222 236 255
222 236 255
222 236 255
222 236 255
222 236 255
222 236 255
222 236 255
222 236 255
222 236 255
222 236 255
222 236 255
222 236 255
222 236 255
222 236 255
222 236 255
222 236 255
222 236 255
222 236 255
222 236 255
222 236 255
222 236 255
222 236 255
222 236 255
222 236 255
222 236 255
222 236 255
222 236 255
222 236 255
222 236 255
222 236 255
222 236 255
222 236 255
222 236 255
222 236 255
222 236 255
222 236 255
222 236 255
222 236 255
222 236 255
222 236 255
222 236 255
222 236 255
222 236 255
222 236 255
222 236 255
222 236 255
222 236 255
222 236 255
222 236 255
222 236 255
222 236 255
222 236 255
222 236 255
222 236 255
222 236 255
222 236 255
222 236 255
222 236 255
222 236 255
222 236 255
222 236 255
222 236 255
222 236 255
222 236 255
222 236 255
222 236 255
222 236 255
222 236 255
222 236 255
222 236 255
222 236 255
222 236 255
222 236 255
222 236 255
222 236 255
222 236 255
222 236 255
222 236 255
222 236 255
222 236 255
222 236 255
222 236 255
222 236 255
222 236 255
222 236 255
222 236 255
222 236 255
222 236 255
222 236 255
222 236 255
222 236 255
222 236 255
222 236 255
222 236 255
222 236 255
222 236 255
222 236 255
222 236 255
222 236 255
222 236 255
222 236 255
222 236 255
222 236 255
222 236 255
222 236 255
222 236 255
222 236 255
222 236 255
222 236 255
222 236 255
222 236 255
222 236 255
222 236 255
222 236 255
222 236 255
222 236 255
222 236 255
222 236 255
222 236 255
222 236 255
222 236 255
222 236 255
222 236 255
222 236 255
222 236 255
222 236 255
222 236 255
222 236 255
222 236 255
222 236 255
222 236 255
222 236 255
222 236 255
222 236 255
222 236 255
222 236 255
222 236 255
222 236 255
222 236 255
222 236 255
222 236 255
222 236 255
222 236 255
222 236 255
222 236 255
222 236 255
222 236 255
222 236 255
222 236 255
222 236 255
222 236 255
222 236 255
222 236 255
222 236 255
222 236 255
222 236 255
222 236 255
222 236 255
222 236 255
222 236 255
222 236 255
222 236 255
222 236 255
222 236 255
222 236 255
222 236 255
222 236 255
222 236 255
222 236 255
222 236 255
222 236 255
222 236 255
222 236 255
222 236 255
222 236 255
222 236 255
222 236 255
222 236 255
222 236 255
222 236 255
222 236 255
222 236 255
222 236 255
222 236 255
222 236 255
222 236 255
222 236 255
222 236 255
222 236 255
222 236 255
222 236 255
222 236 255
222 236 255
222 236 255
222 236 255
222 236 255
222 236 255
222 236 255
223 236 255
222 236 255
223 236 255
223 236 255
223 236 255
223 236 255
223 236 255
223 236 255
223 236 255
223 236 255
223 236 255
223 236 255
223 236 255
223 236 255
223 236 255
223 236 255
223 236 255
223 236 255
223 236 255
223 236 255
223 236 255
223 236 255
223 236 255
223 236 255
223 236 255
223 236 255
223 236 255
223 236 255
223 236 255
223 236 255
223 236 255
223 236 255
223 236 255
223 236 255
223 236 255
223 236 255
223 236 255
223 236 255
223 236 255
223 236 255
223 236 255
223 236 255
223 236 255
223 236 255
223 236 255
223 236 255
223 236 255
223 236 255
223 236 255
223 236 255
223 236 255
223 236 255
223 236 255
223 236 255
223 236 255
223 236 255
223 236 255
223 236 255
223 236 255
223 236 255
223 236 255
223 236 255
223 236 255
223 236 255
223 236 255
223 236 255
223 236 255
223 236 255
223 236 255
223 236 255
223 236 255
223 236 255
223 236 255
223 236 255
223 236 255
223 236 255
223 236 255
223 236 255
223 236 255
223 236 255
223 236 255
223 236 255
223 236 255
223 236 255
223 236 255
223 236 255
223 236 255
223 236 255
223 236 255
223 236 255
223 236 255
223 236 255
223 236 255
223 236 255
223 236 255
223 236 255
223 236 255
223 236 255
223 236 255
223 236 255
223 236 255
223 236 255
223 236 255
223 236 255
223 236 255
223 236 255
223 236 255
223 236 255
223 236 255
223 236 255
223 236 255
223 236 255
223 236 255
223 236 255
223 236 255
223 236 255
223 236 255
223 236 255
223 236 255
223 236 255
223 236 255
223 236 255
223 236 255
223 236 255
223 236 255
223 236 255
223 236 255
223 236 255
223 236 255
223 236 255
223 236 255
223 236 255
223 236 255
223 236 255
223 236 255
223 236 255
223 236 255
223 236 255
223 236 255
223 236 255
223 236 255
223 236 255
222 236 255
222 236 255
222 236 255
222 236 255
222 236 255
222 236 255
222 236 255
222 236 255
222 236 255
222 236 255
222 236 255
222 236 255
222 236 255
222 236 255
222 236 255
222 236 255
222 236 255
222 236 255
222 236 255
222 236 255
222 236 255
222 236 255
222 236 255
222 236 255
222 236 255
222 236 255
222 236 255
222 236 255
222 236 255
222 236 255
222 236 255
222 236 255
222 236 255
222 236 255
222 236 255
222 236 255
222 236 255
222 236 255
222 236 255
222 236 255
222 236 255
222 236 255
222 236 255
222 236 255
222 236 255
222 236 255
222 236 255
222 236 255
222 236 255
222 236 255
222 236 255
222 236 255
222 236 255
222 236 255
222 236 255
222 236 255
222 236 255
222 236 255
222 236 255
222 236 255
222 236 255
222 236 255
222 236 255
222 236 255
222 236 255
222 236 255
222 236 255
222 236 255
222 236 255
222 236 255
222 236 255
222 236 255
222 236 255
222 236 255
222 236 255
222 236 255
222 236 255
222 236 255
222 236 255
222 236 255
222 236 255
222 236 255
222 236 255
222 236 255
222 236 255
222 236 255
222 236 255
222 236 255
222 236 255
222 236 255
222 236 255
222 236 255
222 236 255
222 236 255
222 236 255
222 236 255
222 236 255
222 236 255
222 236 255
222 236 255
222 236 255
222 236 255
222 236 255
222 236 255
222 236 255
222 236 255
222 236 255
222 236 255
222 236 255
222 236 255
222 236 255
222 236 255
222 236 255
222 236 255
222 236 255
222 236 255
222 236 255
222 236 255
222 236 255
222 236 255
222 236 255
222 236 255
222 236 255
222 236 255
222 236 255
222 236 255
222 236 255
222 236 255
222 236 255
222 236 255
222 236 255
222 236 255
222 236 255
222 236 255
222 236 255
222 236 255
222 236 255
222 236 255
222 236 255
222 236 255
222 236 255
222 236 255
222 236 255
222 236 255
222 236 255
222 236 255
222 236 255
222 236 255
222 236 255
222 236 255
222 236 255
222 236 255
222 236 255
222 236 255
222 236 255
222 236 255
222 236 255
222 236 255
222 236 255
222 236 255
222 236 255
222 236 255
222 236 255
222 236 255
222 236 255
222 236 255
222 236 255
222 236 255
222 236 255
222 236 255
222 236 255
222 236 255
222 236 255
222 236 255
222 236 255
222 236 255
222 236 255
222 236 255
222 236 255
222 236 255
222 236 255
222 236 255
222 236 255
222 236 255
222 236 255
222 236 255
222 236 255
222 236 255
222 236 255
222 236 255
222 236 255
222 236 255
222 236 255
222 236 255
222 236 255
222 236 255
222 236 255
222 236 255
222 236 255
222 236 255
222 236 255
222 236 255
222 236 255
222 236 255
222 236 255
222 236 255
222 236 255
222 236 255
222 236 255
222 236 255
222 236 255
222 236 255
222 236 255
222 236 255
222 236 255
222 236 255
222 236 255
222 236 255
223 236 255
223 236 255
223 236 255
223 236 255
223 236 255
223 236 255
223 236 255
223 236 255
223 236 255
223 236 255
223 236 255
223 236 255
223 236 255
223 236 255
223 236 255
223 236 255
223 236 255
223 236 255
223 236 255
223 236 255
223 236 255
223 236 255
223 236 255
223 236 255
223 236 255
223 236 255
223 236 255
223 236 255
223 236 255
223 236 255
223 236 255
223 236 255
223 236 255
223 236 255
223 236 255
223 236 255
223 236 255
223 236 255
223 236 255
223 236 255
223 236 255
223 236 255
223 236 255
223 236 255
223 236 255
223 236 255
223 236 255
223 236 255
223 236 255
223 236 255
223 236 255
223 236 255
223 236 255
223 236 255
223 236 255
223 236 255
223 236 255
223 236 255
223 236 255
223 236 255
223 236 255
223 236 255
223 236 255
223 236 255
223 236 255
223 236 255
223 236 255
223 236 255
223 236 255
223 236 255
223 236 255
223 236 255
223 236 255
223 236 255
223 236 255
223 236 255
223 236 255
223 236 255
223 236 255
223 236 255
223 236 255
223 236 255
223 236 255
223 236 255
223 236 255
223 236 255
223 236 255
223 236 255
223 236 255
223 236 255
223 236 255
223 236 255
223 236 255
223 236 255
223 236 255
223 236 255
223 236 255
223 236 255
223 236 255
223 236 255
223 236 255
223 236 255
223 236 255
223 236 255
223 236 255
223 236 255
223 236 255
223 236 255
223 236 255
223 236 255
223 236 255
223 236 255
223 236 255
223 236 255
223 236 255
223 236 255
223 236 255
223 236 255
223 236 255
223 236 255
223 236 255
223 236 255
223 236 255
223 236 255
223 236 255
223 236 255
223 236 255
223 236 255
223 236 255
223 236 255
223 236 255
223 236 255
223 236 255
223 236 255
223 236 255
223 236 255
223 236 255
223 236 255
223 236 255
223 236 255
223 236 255
223 236 255
223 236 255
223 236 255
223 236 255
223 236 255
223 236 255
223 236 255
223 236 255
223 236 255
223 236 255
223 236 255
223 236 255
223 236 255
223 236 255
223 236 255
223 236 255
223 236 255
223 236 255
223 236 255
223 236 255
223 236 255
223 236 255
223 236 255
223 236 255
223 236 255
223 236 255
223 236 255
223 236 255
223 236 255
223 236 255
223 236 255
223 236 255
223 236 255
223 236 255
223 236 255
223 236 255
223 236 255
223 236 255
223 236 255
223 236 255
223 236 255
223 236 255
223 236 255
223 236 255
223 236 255
223 236 255
223 236 255
223 236 255
223 236 255
223 236 255
223 236 255
223 236 255
223 236 255
223 236 255
223 236 255
223 236 255
223 236 255
223 236 255
223 236 255
223 236 255
223 236 255
223 236 255
223 236 255
223 236 255
223 236 255
223 236 255
223 236 255
223 236 255
223 236 255
223 236 255
223 236 255
223 236 255
223 236 255
223 236 255
223 236 255
223 236 255
223 236 255
223 236 255
223 236 255
223 236 255
223 236 255
223 236 255
222 236 255
223 236 255
222 236 255
222 236 255
222 236 255
222 236 255
222 236 255
222 236 255
222 236 255
222 236 255
222 236 255
222 236 255
222 236 255
222 236 255
222 236 255
222 236 255
222 236 255
222 236 255
222 236 255
222 236 255
222 236 255
222 236 255
222 236 255
222 236 255
222 236 255
222 236 255
222 236 255
222 236 255
222 236 255
222 236 255
222 236 255
222 236 255
222 236 255
222 236 255
222 236 255
222 236 255
222 236 255
222 236 255
222 236 255
222 236 255
222 236 255
222 236 255
222 236 255
222 236 255
222 236 255
222 236 255
222 236 255
222 236 255
222 236 255
222 236 255
222 236 255
222 236 255
222 236 255
222 236 255
222 236 255
222 236 255
222 236 255
222 236 255
222 236 255
222 236 255
222 236 255
222 236 255
222 236 255
222 236 255
222 236 255
222 236 255
222 236 255
222 236 255
222 236 255
222 236 255
222 236 255
222 236 255
222 236 255
222 236 255
222 236 255
222 236 255
222 236 255
222 236 255
222 236 255
222 236 255
222 236 255
222 236 255
222 236 255
222 236 255
222 236 255
222 236 255
222 236 255
222 236 255
222 236 255
222 236 255
222 236 255
222 236 255
222 236 255
222 236 255
222 236 255
222 236 255
222 236 255
222 236 255
222 236 255
222 236 255
222 236 255
222 236 255
222 236 255
222 236 255
222 236 255
222 236 255
222 236 255
222 236 255
222 236 255
222 236 255
222 236 255
222 236 255
222 236 255
222 236 255
222 236 255
222 236 255
222 236 255
222 236 255
222 236 255
222 236 255
222 236 255
222 236 255
222 236 255
222 236 255
222 236 255
222 236 255
222 236 255
222 236 255
222 236 255
222 236 255
222 236 255
222 236 255
222 236 255
222 236 255
222 236 255
222 236 255
222 236 255
222 236 255
222 236 255
222 236 255
222 236 255
222 236 255
222 236 255
223 236 255
223 236 255
223 236 255
223 236 255
223 236 255
223 236 255
223 236 255
223 236 255
223 236 255
223 236 255
223 236 255
223 236 255
223 236 255
223 236 255
223 236 255
223 236 255
223 236 255
223 236 255
223 236 255
223 236 255
223 236 255
223 236 255
223 236 255
223 236 255
223 236 255
223 236 255
223 236 255
223 236 255
223 236 255
223 236 255
223 236 255
223 236 255
223 236 255
223 236 255
223 236 255
223 236 255
223 236 255
223 236 255
223 236 255
223 236 255
223 236 255
223 236 255
223 236 255
223 236 255
223 236 255
223 236 255
223 236 255
223 236 255
223 236 255
223 236 255
223 236 255
223 236 255
223 236 255
223 236 255
223 236 255
223 236 255
223 236 255
223 236 255
223 236 255
223 236 255
223 236 255
223 236 255
223 236 255
223 236 255
223 236 255
223 236 255
223 236 255
223 236 255
223 236 255
223 236 255
223 236 255
223 236 255
223 236 255
223 236 255
223 236 255
223 236 255
223 236 255
223 236 255
223 236 255
223 236 255
223 236 255
223 237 255
223 237 255
223 237 255
223 237 255
223 237 255
223 237 255
223 237 255
223 237 255
223 237 255
223 237 255
223 237 255
223 237 255
223 237 255
223 237 255
223 237 255
223 237 255
223 237 255
223 237 255
223 237 255
223 237 255
223 237 255
223 237 255
223 237 255
223 237 255
223 237 255
223 237 255
223 237 255
223 237 255
223 237 255
223 237 255
223 237 255
223 237 255
223 237 255
223 237 255
223 237 255
223 237 255
223 237 255
223 237 255
223 237 255
223 237 255
223 237 255
223 237 255
223 237 255
223 237 255
223 237 255
223 237 255
223 237 255
223 237 255
223 237 255
223 237 255
223 237 255
223 237 255
223 237 255
223 237 255
223 237 255
223 237 255
223 237 255
223 237 255
223 237 255
223 237 255
223 237 255
223 237 255
223 237 255
223 237 255
223 237 255
223 237 255
223 237 255
223 237 255
223 237 255
223 237 255
223 237 255
223 237 255
223 237 255
223 237 255
223 237 255
223 237 255
223 237 255
223 237 255
223 237 255
223 237 255
223 237 255
223 237 255
223 237 255
223 237 255
223 237 255
223 237 255
223 237 255
223 237 255
223 237 255
223 237 255
223 237 255
223 237 255
223 237 255
223 237 255
223 237 255
223 237 255
223 237 255
223 237 255
223 237 255
223 237 255
223 237 255
223 237 255
223 237 255
223 237 255
223 237 255
223 237 255
223 237 255
223 237 255
223 237 255
223 237 255
223 237 255
223 237 255
223 237 255
223 237 255
223 237 255
223 237 255
223 237 255
223 237 255
223 237 255
223 237 255
223 237 255
223 237 255
223 237 255
223 237 255
223 237 255
223 237 255
223 237 255
223 237 255
223 237 255
223 237 255
223 237 255
223 236 255
223 236 255
223 236 255
223 236 255
223 236 255
223 236 255
223 236 255
223 236 255
223 236 255
223 236 255
223 236 255
223 236 255
223 236 255
223 236 255
223 236 255
223 236 255
223 236 255
223 236 255
223 236 255
223 236 255
223 236 255
223 236 255
223 236 255
223 236 255
223 236 255
223 236 255
223 236 255
223 236 255
223 236 255
223 236 255
223 236 255
223 236 255
223 236 255
223 236 255
223 236 255
223 236 255
223 236 255
223 236 255
223 236 255
223 236 255
223 236 255
223 236 255
223 236 255
223 236 255
223 236 255
223 236 255
223 236 255
223 236 255
223 236 255
223 236 255
223 236 255
223 236 255
223 236 255
223 236 255
223 236 255
223 236 255
223 236 255
223 236 255
223 236 255
223 236 255
223 236 255
223 236 255
223 236 255
223 236 255
223 236 255
223 236 255
223 236 255
223 236 255
223 236 255
223 236 255
223 236 255
223 236 255
223 236 255
223 236 255
223 236 255
223 236 255
223 236 255
223 236 255
223 236 255
223 236 255
223 236 255
222 236 255
222 236 255
222 236 255
222 236 255
222 236 255
222 236 255
222 236 255
222 236 255
222 236 255
222 236 255
222 236 255
222 236 255
222 236 255
222 236 255
222 236 255
222 236 255
222 236 255
222 236 255
222 236 255
222 236 255
222 236 255
222 236 255
222 236 255
222 236 255
222 236 255
222 236 255
222 236 255
222 236 255
222 236 255
222 236 255
222 236 255
222 236 255
222 236 255
222 236 255
222 236 255
222 236 255
222 236 255
222 236 255
222 236 255
222 236 255
222 236 255
222 236 255
222 236 255
222 236 255
222 236 255
222 236 255
222 236 255
222 236 255
222 236 255
222 236 255
222 236 255
222 236 255
222 236 255
222 236 255
222 236 255
222 236 255
222 236 255
222 236 255
222 236 255
222 236 255
222 236 255
222 236 255
222 236 255
222 236 255
222 236 255
222 236 255
222 236 255
222 236 255
222 236 255
222 236 255
222 236 255
222 236 255
222 236 255
222 236 255
222 236 255
222 236 255
223 236 255
223 236 255
223 236 255
223 236 255
223 236 255
223 236 255
223 236 255
223 236 255
223 236 255
223 236 255
223 236 255
223 236 255
223 236 255
223 236 255
223 236 255
223 236 255
223 236 255
223 236 255
223 236 255
223 236 255
223 236 255
223 236 255
223 236 255
223 236 255
223 236 255
223 236 255
223 236 255
223 236 255
223 236 255
223 236 255
223 236 255
223 236 255
223 236 255
223 236 255
223 236 255
223 236 255
223 236 255
223 236 255
223 236 255
223 236 255
223 236 255
223 236 255
223 236 255
223 236 255
223 236 255
223 236 255
223 236 255
223 236 255
223 236 255
223 236 255
223 236 255
223 236 255
223 236 255
223 236 255
223 236 255
223 236 255
223 236 255
223 236 255
223 236 255
223 236 255
223 236 255
223 236 255
223 236 255
223 236 255
223 236 255
223 236 255
223 236 255
223 236 255
223 236 255
223 236 255
223 236 255
223 236 255
223 236 255
223 236 255
223 236 255
223 236 255
223 236 255
223 236 255
223 237 255
223 237 255
223 237 255
223 237 255
223 237 255
223 237 255
223 237 255
223 237 255
223 237 255
223 237 255
223 237 255
223 237 255
223 237 255
223 237 255
223 237 255
223 237 255
223 237 255
223 237 255
223 237 255
223 237 255
223 237 255
223 237 255
223 237 255
223 237 255
223 237 255
223 237 255
223 237 255
223 237 255
223 237 255
223 237 255
223 237 255
223 237 255
223 237 255
223 237 255
223 237 255
223 237 255
223 237 255
223 237 255
223 237 255
223 237 255
223 237 255
223 237 255
223 237 255
223 237 255
223 237 255
223 237 255
223 237 255
223 237 255
223 237 255
223 237 255
223 237 255
223 237 255
223 237 255
223 237 255
223 237 255
223 237 255
223 237 255
223 237 255
223 237 255
223 237 255
223 237 255
223 237 255
223 237 255
223 237 255
223 237 255
223 237 255
223 237 255
223 237 255
223 237 255
223 237 255
223 237 255
223 237 255
223 237 255
223 237 255
223 237 255
223 237 255
223 237 255
223 237 255
223 237 255
223 237 255
223 237 255
223 237 255
223 237 255
223 237 255
223 237 255
223 237 255
223 237 255
223 237 255
223 237 255
223 237 255
223 237 255
223 237 255
223 237 255
223 237 255
223 237 255
223 237 255
223 237 255
223 237 255
223 237 255
223 237 255
223 237 255
223 237 255
223 237 255
223 237 255
223 237 255
223 237 255
223 237 255
223 237 255
223 237 255
223 237 255
223 237 255
223 237 255
223 237 255
223 237 255
223 237 255
223 237 255
223 237 255
223 237 255
223 237 255
223 237 255
223 237 255
223 237 255
223 237 255
223 237 255
223 237 255
223 237 255
223 237 255
223 237 255
223 237 255
223 237 255
223 237 255
223 237 255
223 237 255
223 237 255
223 237 255
223 237 255
223 237 255
223 237 255
223 237 255
223 237 255
223 237 255
223 237 255
223 237 255
223 237 255
223 237 255
223 237 255
223 237 255
223 237 255
223 237 255
223 237 255
223 237 255
223 237 255
223 237 255
223 237 255
223 237 255
223 237 255
223 237 255
223 237 255
223 237 255
223 237 255
223 237 255
223 237 255
223 237 255
223 237 255
223 237 255
223 237 255
223 237 255
223 237 255
223 237 255
223 237 255
223 237 255
223 237 255
223 237 255
223 237 255
223 237 255
223 237 255
223 237 255
223 237 255
223 237 255
223 237 255
223 237 255
223 237 255
223 237 255
223 237 255
223 237 255
223 237 255
223 237 255
223 237 255
223 237 255
223 237 255
223 237 255
223 237 255
223 237 255
223 237 255
223 237 255
223 237 255
223 237 255
223 236 255
223 236 255
223 236 255
223 236 255
223 236 255
223 236 255
223 236 255
223 236 255
223 236 255
223 236 255
223 236 255
223 236 255
223 236 255
223 236 255
223 236 255
223 236 255
223 236 255
223 236 255
223 236 255
223 236 255
223 236 255
223 236 255
223 236 255
223 236 255
223 236 255
223 236 255
223 236 255
223 236 255
223 236 255
223 236 255
223 236 255
223 236 255
223 236 255
223 236 255
223 236 255
223 236 255
223 236 255
223 236 255
223 236 255
223 236 255
223 236 255
223 236 255
223 236 255
223 236 255
223 236 255
223 236 255
223 236 255
223 236 255
223 236 255
223 236 255
223 236 255
223 236 255
223 236 255
223 236 255
223 236 255
223 236 255
223 236 255
223 236 255
223 236 255
223 236 255
223 236 255
223 236 255
223 236 255
223 236 255
223 236 255
223 236 255
223 236 255
223 236 255
223 236 255
223 236 255
223 236 255
223 236 255
223 236 255
223 236 255
223 236 255
223 236 255
223 236 255
223 236 255
223 236 255
222 236 255
222 236 255
222 236 255
222 236 255
222 236 255
222 236 255
222 236 255
222 236 255
222 236 255
222 236 255
222 236 255
222 236 255
222 236 255
222 236 255
222 236 255
222 236 255
222 236 255
222 236 255
222 236 255
222 236 255
222 236 255
222 236 255
222 236 255
223 236 255
223 236 255
223 236 255
223 236 255
223 236 255
223 236 255
223 236 255
223 236 255
223 236 255
223 236 255
223 236 255
223 236 255
223 236 255
223 236 255
223 236 255
223 236 255
223 236 255
223 236 255
223 236 255
223 236 255
223 236 255
223 236 255
223 236 255
223 236 255
223 236 255
223 236 255
223 236 255
223 236 255
223 236 255
223 236 255
223 236 255
223 236 255
223 236 255
223 236 255
223 236 255
223 236 255
223 236 255
223 236 255
223 236 255
223 236 255
223 236 255
223 236 255
223 236 255
223 236 255
223 236 255
223 236 255
223 236 255
223 236 255
223 236 255
223 236 255
223 236 255
223 236 255
223 236 255
223 236 255
223 236 255
223 236 255
223 236 255
223 236 255
223 236 255
223 236 255
223 236 255
223 236 255
223 236 255
223 236 255
223 236 255
223 236 255
223 236 255
223 236 255
223 236 255
223 236 255
223 236 255
223 236 255
223 236 255
223 236 255
223 237 255
223 237 255
223 237 255
223 237 255
223 237 255
223 237 255
223 237 255
223 237 255
223 237 255
223 237 255
223 237 255
223 237 255
223 237 255
223 237 255
223 237 255
223 237 255
223 237 255
223 237 255
223 237 255
223 237 255
223 237 255
223 237 255
223 237 255
223 237 255
223 237 255
223 237 255
223 237 255
223 237 255
223 237 255
223 237 255
223 237 255
223 237 255
223 237 255
223 237 255
223 237 255
223 237 255
223 237 255
223 237 255
223 237 255
223 237 255
223 237 255
223 237 255
223 237 255
223 237 255
223 237 255
223 237 255
223 237 255
223 237 255
223 237 255
223 237 255
223 237 255
223 237 255
223 237 255
223 237 255
223 237 255
223 237 255
223 237 255
223 237 255
223 237 255
223 237 255
223 237 255
223 237 255
223 237 255
223 237 255
223 237 255
223 237 255
223 237 255
223 237 255
223 237 255
223 237 255
223 237 255
223 237 255
223 237 255
223 237 255
223 237 255
223 237 255
223 237 255
223 237 255
223 237 255
223 237 255
223 237 255
223 237 255
223 237 255
223 237 255
223 237 255
223 237 255
224 237 255
224 237 255
224 237 255
224 237 255
224 237 255
224 237 255
224 237 255
224 237 255
224 237 255
224 237 255
224 237 255
224 237 255
224 237 255
224 237 255
224 237 255
224 237 255
224 237 255
224 237 255
224 237 255
224 237 255
224 237 255
224 237 255
224 237 255
224 237 255
224 237 255
224 237 255
224 237 255
224 237 255
224 237 255
224 237 255
224 237 255
224 237 255
224 237 255
224 237 255
224 237 255
224 237 255
224 237 255
224 237 255
224 237 255
224 237 255
224 237 255
224 237 255
224 237 255
224 237 255
224 237 255
224 237 255
224 237 255
224 237 255
224 237 255
224 237 255
224 237 255
224 237 255
224 237 255
224 237 255
224 237 255
224 237 255
224 237 255
224 237 255
224 237 255
224 237 255
224 237 255
224 237 255
224 237 255
224 237 255
224 237 255
224 237 255
224 237 255
224 237 255
224 237 255
224 237 255
224 237 255
224 237 255
224 237 255
224 237 255
224 237 255
224 237 255
224 237 255
224 237 255
224 237 255
223 237 255
223 237 255
223 237 255
223 237 255
223 237 255
223 237 255
223 237 255
223 237 255
223 237 255
223 237 255
223 237 255
223 237 255
223 237 255
223 237 255
223 237 255
223 237 255
223 237 255
223 237 255
223 237 255
223 237 255
223 237 255
223 237 255
223 237 255
223 237 255
223 237 255
223 237 255
223 237 255
223 237 255
223 237 255
223 237 255
223 237 255
223 237 255
223 237 255
223 237 255
223 237 255
223 237 255
223 237 255
223 237 255
223 237 255
223 237 255
223 237 255
223 237 255
223 237 255
223 237 255
223 237 255
223 237 255
223 237 255
223 237 255
223 237 255
223 237 255
223 237 255
223 237 255
223 237 255
223 237 255
223 237 255
223 237 255
223 237 255
223 237 255
223 237 255
223 237 255
223 237 255
223 237 255
223 237 255
223 237 255
223 237 255
223 237 255
223 237 255
223 237 255
223 237 255
223 237 255
223 237 255
223 237 255
223 237 255
223 237 255
223 237 255
223 237 255
223 237 255
223 237 255
223 237 255
223 237 255
223 237 255
223 237 255
223 237 255
223 237 255
223 237 255
223 237 255
223 237 255
223 237 255
223 236 255
223 236 255
223 236 255
223 236 255
223 236 255
223 236 255
223 236 255
223 236 255
223 236 255
223 236 255
223 236 255
223 236 255
223 236 255
223 236 255
223 236 255
223 236 255
223 236 255
223 236 255
223 236 255
223 236 255
223 236 255
223 236 255
223 236 255
223 236 255
223 236 255
223 236 255
223 236 255
223 236 255
223 236 255
223 236 255
223 236 255
223 236 255
223 236 255
223 236 255
223 236 255
223 236 255
223 236 255
223 236 255
223 236 255
223 236 255
223 236 255
223 236 255
223 236 255
223 236 255
223 236 255
223 236 255
223 236 255
223 236 255
223 236 255
223 236 255
223 236 255
223 236 255
223 236 255
223 236 255
223 236 255
223 236 255
223 236 255
223 236 255
223 236 255
223 236 255
223 236 255
223 236 255
223 236 255
223 236 255
223 236 255
223 236 255
223 236 255
223 236 255
223 236 255
223 236 255
223 236 255
223 236 255
223 236 255
223 236 255
223 236 255
223 236 255
223 236 255
223 236 255
223 236 255
223 236 255
223 236 255
223 236 255
223 236 255
223 236 255
223 236 255
223 236 255
223 236 255
223 236 255
223 236 255
223 236 255
223 236 255
223 236 255
223 236 255
223 236 255
223 236 255
223 236 255
223 236 255
223 236 255
223 236 255
223 236 255
223 236 255
223 236 255
223 236 255
223 236 255
223 236 255
223 236 255
223 236 255
223 236 255
223 236 255
223 236 255
223 236 255
223 236 255
223 236 255
223 236 255
223 236 255
223 236 255
223 236 255
223 236 255
223 236 255
223 236 255
223 236 255
223 236 255
223 237 255
223 237 255
223 237 255
223 237 255
223 237 255
223 237 255
223 237 255
223 237 255
223 237 255
223 237 255
223 237 255
223 237 255
223 237 255
223 237 255
223 237 255
223 237 255
223 237 255
223 237 255
223 237 255
223 237 255
223 237 255
223 237 255
223 237 255
223 237 255
223 237 255
223 237 255
223 237 255
223 237 255
223 237 255
223 237 255
223 237 255
223 237 255
223 237 255
223 237 255
223 237 255
223 237 255
223 237 255
223 237 255
223 237 255
223 237 255
223 237 255
223 237 255
223 237 255
223 237 255
223 237 255
223 237 255
223 237 255
223 237 255
223 237 255
223 237 255
223 237 255
223 237 255
223 237 255
223 237 255
223 237 255
223 237 255
223 237 255
223 237 255
223 237 255
223 237 255
223 237 255
223 237 255
223 237 255
223 237 255
223 237 255
223 237 255
223 237 255
223 237 255
223 237 255
223 237 255
223 237 255
223 237 255
223 237 255
223 237 255
223 237 255
223 237 255
223 237 255
224 237 255
224 237 255
224 237 255
224 237 255
224 237 255
224 237 255
224 237 255
224 237 255
224 237 255
224 237 255
224 237 255
224 237 255
224 237 255
224 237 255
224 237 255
224 237 255
224 237 255
224 237 255
224 237 255
224 237 255
224 237 255
224 237 255
224 237 255
224 237 255
224 237 255
224 237 255
224 237 255
224 237 255
224 237 255
224 237 255
224 237 255
224 237 255
224 237 255
224 237 255
224 237 255
224 237 255
224 237 255
224 237 255
224 237 255
224 237 255
224 237 255
224 237 255
224 237 255
224 237 255
224 237 255
224 237 255
224 237 255
224 237 255
224 237 255
224 237 255
224 237 255
224 237 255
224 237 255
224 237 255
224 237 255
224 237 255
224 237 255
224 237 255
224 237 255
224 237 255
224 237 255
224 237 255
224 237 255
224 237 255
224 237 255
224 237 255
224 237 255
224 237 255
224 237 255
224 237 255
224 237 255
224 237 255
224 237 255
224 237 255
224 237 255
224 237 255
224 237 255
224 237 255
224 237 255
224 237 255
224 237 255
224 237 255
224 237 255
224 237 255
224 237 255
224 237 255
224 237 255
224 237 255
224 237 255
224 237 255
224 237 255
224 237 255
224 237 255
224 237 255
224 237 255
224 237 255
224 237 255
224 237 255
224 237 255
224 237 255
224 237 255
224 237 255
224 237 255
224 237 255
224 237 255
224 237 255
224 237 255
224 237 255
224 237 255
224 237 255
224 237 255
224 237 255
224 237 255
224 237 255
224 237 255
224 237 255
224 237 255
224 237 255
224 237 255
224 237 255
224 237 255
224 237 255
224 237 255
224 237 255
224 237 255
224 237 255
224 237 255
224 237 255
224 237 255
224 237 255
224 237 255
224 237 255
224 237 255
224 237 255
224 237 255
224 237 255
224 237 255
224 237 255
224 237 255
224 237 255
224 237 255
224 237 255
224 237 255
224 237 255
224 237 255
224 237 255
223 237 255
224 237 255
223 237 255
223 237 255
223 237 255
223 237 255
223 237 255
223 237 255
223 237 255
223 237 255
223 237 255
223 237 255
223 237 255
223 237 255
223 237 255
223 237 255
223 237 255
223 237 255
223 237 255
223 237 255
223 237 255
223 237 255
223 237 255
223 237 255
223 237 255
223 237 255
223 237 255
223 237 255
223 237 255
223 237 255
223 237 255
223 237 255
223 237 255
223 237 255
223 237 255
223 237 255
223 237 255
223 237 255
223 237 255
223 237 255
223 237 255
223 237 255
223 237 255
223 237 255
223 237 255
223 237 255
223 237 255
223 237 255
223 237 255
223 237 255
223 237 255
223 237 255
223 237 255
223 237 255
223 237 255
223 237 255
223 237 255
223 237 255
223 237 255
223 237 255
223 237 255
223 237 255
223 237 255
223 237 255
223 237 255
223 237 255
223 237 255
223 237 255
223 237 255
223 237 255
223 237 255
223 237 255
223 237 255
223 237 255
223 237 255
223 237 255
223 237 255
223 237 255
223 236 255
223 236 255
223 236 255
223 236 255
223 236 255
223 236 255
223 236 255
223 236 255
223 236 255
223 236 255
223 236 255
223 236 255
223 236 255
223 236 255
223 236 255
223 236 255
223 236 255
223 236 255
223 236 255
223 236 255
223 236 255
223 236 255
223 236 255
223 236 255
223 236 255
223 236 255
223 236 255
223 236 255
223 236 255
223 236 255
223 236 255
223 236 255
223 236 255
223 236 255
223 236 255
223 236 255
223 236 255
223 236 255
223 236 255
223 236 255
223 236 255
223 236 255
223 236 255
223 236 255
223 236 255
223 236 255
223 236 255
223 236 255
223 236 255
223 236 255
223 236 255
223 236 255
223 236 255
223 236 255
223 236 255
223 236 255
223 236 255
223 236 255
223 236 255
223 236 255
223 236 255
223 236 255
223 236 255
223 236 255
223 236 255
223 236 255
223 236 255
223 236 255
223 236 255
223 236 255
223 236 255
223 236 255
223 236 255
223 236 255
223 236 255
223 236 255
223 236 255
223 236 255
223 237 255
223 237 255
223 237 255
223 237 255
223 237 255
223 237 255
223 237 255
223 237 255
223 237 255
223 237 255
223 237 255
223 237 255
223 237 255
223 237 255
223 237 255
223 237 255
223 237 255
223 237 255
223 237 255
223 237 255
223 237 255
223 237 255
223 237 255
223 237 255
223 237 255
223 237 255
223 237 255
223 237 255
223 237 255
223 237 255
223 237 255
223 237 255
223 237 255
223 237 255
223 237 255
223 237 255
223 237 255
223 237 255
223 237 255
223 237 255
223 237 255
223 237 255
223 237 255
223 237 255
223 237 255
223 237 255
223 237 255
223 237 255
223 237 255
223 237 255
223 237 255
223 237 255
223 237 255
223 237 255
223 237 255
223 237 255
223 237 255
223 237 255
223 237 255
223 237 255
223 237 255
223 237 255
223 237 255
223 237 255
223 237 255
223 237 255
223 237 255
223 237 255
223 237 255
223 237 255
223 237 255
223 237 255
223 237 255
224 237 255
224 237 255
224 237 255
224 237 255
224 237 255
224 237 255
224 237 255
224 237 255
224 237 255
224 237 255
224 237 255
224 237 255
224 237 255
224 237 255
224 237 255
224 237 255
224 237 255
224 237 255
224 237 255
224 237 255
224 237 255
224 237 255
224 237 255
224 237 255
224 237 255
224 237 255
224 237 255
224 237 255
224 237 255
224 237 255
224 237 255
224 237 255
224 237 255
224 237 255
224 237 255
224 237 255
224 237 255
224 237 255
224 237 255
224 237 255
224 237 255
224 237 255
224 237 255
224 237 255
224 237 255
224 237 255
224 237 255
224 237 255
224 237 255
224 237 255
224 237 255
224 237 255
224 237 255
224 237 255
224 237 255
224 237 255
224 237 255
224 237 255
224 237 255
224 237 255
224 237 255
224 237 255
224 237 255
224 237 255
224 237 255
224 237 255
224 237 255
224 237 255
224 237 255
224 237 255
224 237 255
224 237 255
224 237 255
224 237 255
224 237 255
224 237 255
224 237 255
224 237 255
224 237 255
224 237 255
224 237 255
224 237 255
224 237 255
224 237 255
224 237 255
224 237 255
224 237 255
224 237 255
224 237 255
224 237 255
224 237 255
224 237 255
224 237 255
224 237 255
224 237 255
224 237 255
224 237 255
224 237 255
224 237 255
224 237 255
224 237 255
224 237 255
224 237 255
224 237 255
224 237 255
224 237 255
224 237 255
224 237 255
224 237 255
224 237 255
224 237 255
224 237 255
224 237 255
224 237 255
224 237 255
224 237 255
224 237 255
224 237 255
224 237 255
224 237 255
224 237 255
224 237 255
224 237 255
224 237 255
224 237 255
224 237 255
224 237 255
224 237 255
224 237 255
224 237 255
224 237 255
224 237 255
224 237 255
224 237 255
224 237 255
224 237 255
224 237 255
224 237 255
224 237 255
224 237 255
224 237 255
224 237 255
224 237 255
224 237 255
224 237 255
224 237 255
224 237 255
224 237 255
224 237 255
224 237 255
224 237 255
224 237 255
224 237 255
224 237 255
224 237 255
224 237 255
224 237 255
224 237 255
224 237 255
224 237 255
224 237 255
224 237 255
224 237 255
224 237 255
224 237 255
224 237 255
224 237 255
224 237 255
224 237 255
224 237 255
224 237 255
224 237 255
224 237 255
224 237 255
224 237 255
224 237 255
224 237 255
224 237 255
224 237 255
224 237 255
224 237 255
224 237 255
224 237 255
224 237 255
224 237 255
224 237 255
224 237 255
224 237 255
224 237 255
224 237 255
224 237 255
224 237 255
224 237 255
224 237 255
224 237 255
224 237 255
224 237 255
224 237 255
223 237 255
223 237 255
223 237 255
223 237 255
223 237 255
223 237 255
223 237 255
223 237 255
223 237 255
223 237 255
223 237 255
223 237 255
223 237 255
223 237 255
223 237 255
223 237 255
223 237 255
223 237 255
223 237 255
223 237 255
223 237 255
223 237 255
223 237 255
223 237 255
223 237 255
223 237 255
223 237 255
223 237 255
223 237 255
223 237 255
223 237 255
223 237 255
223 237 255
223 237 255
223 237 255
223 237 255
223 237 255
223 237 255
223 237 255
223 237 255
223 237 255
223 237 255
223 237 255
223 237 255
223 237 255
223 237 255
223 237 255
223 237 255
223 237 255
223 237 255
223 237 255
223 237 255
223 237 255
223 237 255
223 237 255
223 237 255
223 237 255
223 237 255
223 237 255
223 237 255
223 237 255
223 237 255
223 237 255
223 237 255
223 237 255
223 237 255
223 237 255
223 237 255
223 237 255
223 237 255
223 237 255
223 237 255
223 237 255
223 237 255
223 236 255
223 237 255
223 236 255
223 236 255
223 236 255
223 236 255
223 236 255
223 236 255
223 236 255
223 236 255
223 236 255
223 236 255
223 236 255
223 236 255
223 236 255
223 236 255
223 236 255
223 236 255
223 236 255
223 236 255
223 236 255
223 236 255
223 236 255
223 236 255
223 236 255
223 236 255
223 236 255
223 236 255
223 236 255
223 236 255
223 236 255
223 237 255
223 236 255
223 237 255
223 237 255
223 237 255
223 237 255
223 237 255
223 237 255
223 237 255
223 237 255
223 237 255
223 237 255
223 237 255
223 237 255
223 237 255
223 237 255
223 237 255
223 237 255
223 237 255
223 237 255
223 237 255
223 237 255
223 237 255
223 237 255
223 237 255
223 237 255
223 237 255
223 237 255
223 237 255
223 237 255
223 237 255
223 237 255
223 237 255
223 237 255
223 237 255
223 237 255
223 237 255
223 237 255
223 237 255
223 237 255
223 237 255
223 237 255
223 237 255
223 237 255
223 237 255
223 237 255
223 237 255
223 237 255
223 237 255
223 237 255
223 237 255
223 237 255
223 237 255
223 237 255
223 237 255
223 237 255
223 237 255
223 237 255
223 237 255
223 237 255
223 237 255
223 237 255
223 237 255
223 237 255
223 237 255
223 237 255
223 237 255
223 237 255
223 237 255
223 237 255
223 237 255
223 237 255
223 237 255
223 237 255
223 237 255
223 237 255
223 237 255
223 237 255
224 237 255
224 237 255
224 237 255
224 237 255
224 237 255
224 237 255
224 237 255
224 237 255
224 237 255
224 237 255
224 237 255
224 237 255
224 237 255
224 237 255
224 237 255
224 237 255
224 237 255
224 237 255
224 237 255
224 237 255
224 237 255
224 237 255
224 237 255
224 237 255
224 237 255
224 237 255
224 237 255
224 237 255
224 237 255
224 237 255
224 237 255
224 237 255
224 237 255
224 237 255
224 237 255
224 237 255
224 237 255
224 237 255
224 237 255
224 237 255
224 237 255
224 237 255
224 237 255
224 237 255
224 237 255
224 237 255
224 237 255
224 237 255
224 237 255
224 237 255
224 237 255
224 237 255
224 237 255
224 237 255
224 237 255
224 237 255
224 237 255
224 237 255
224 237 255
224 237 255
224 237 255
224 237 255
224 237 255
224 237 255
224 237 255
224 237 255
224 237 255
224 237 255
224 237 255
224 237 255
224 237 255
224 237 255
224 237 255
224 237 255
224 237 255
224 237 255
224 237 255
224 237 255
224 237 255
224 237 255
224 237 255
224 237 255
224 237 255
224 237 255
224 237 255
224 237 255
224 237 255
224 237 255
224 237 255
224 237 255
224 237 255
224 237 255
224 237 255
224 237 255
224 237 255
224 237 255
224 237 255
224 237 255
224 237 255
224 237 255
224 237 255
224 237 255
224 237 255
224 237 255
224 237 255
224 237 255
224 237 255
224 237 255
224 237 255
224 237 255
224 237 255
224 237 255
224 237 255
224 237 255
224 237 255
224 237 255
224 237 255
224 237 255
224 237 255
224 237 255
224 237 255
224 237 255
224 237 255
224 237 255
224 237 255
224 237 255
224 237 255
224 237 255
224 237 255
224 237 255
224 237 255
224 237 255
224 237 255
224 237 255
224 237 255
224 237 255
224 237 255
224 237 255
224 237 255
224 237 255
224 237 255
224 237 255
224 237 255
224 237 255
224 237 255
224 237 255
224 237 255
224 237 255
224 237 255
224 237 255
224 237 255
224 237 255
224 237 255
224 237 255
224 237 255
224 237 255
224 237 255
224 237 255
224 237 255
224 237 255
224 237 255
224 237 255
224 237 255
224 237 255
224 237 255
224 237 255
224 237 255
224 237 255
224 237 255
224 237 255
224 237 255
224 237 255
224 237 255
224 237 255
224 237 255
224 237 255
224 237 255
224 237 255
224 237 255
224 237 255
224 237 255
224 237 255
224 237 255
224 237 255
224 237 255
224 237 255
224 237 255
224 237 255
224 237 255
224 237 255
224 237 255
224 237 255
224 237 255
224 237 255
224 237 255
224 237 255
224 237 255
224 237 255
224 237 255
224 237 255
224 237 255
224 237 255
224 237 255
224 237 255
224 237 255
224 237 255
224 237 255
224 237 255
224 237 255
224 237 255
224 237 255
224 237 255
224 237 255
224 237 255
224 237 255
224 237 255
224 237 255
224 237 255
224 237 255
224 237 255
224 237 255
224 237 255
224 237 255
224 237 255
224 237 255
224 237 255
224 237 255
224 237 255
224 237 255
224 237 255
224 237 255
224 237 255
224 237 255
224 237 255
224 237 255
224 237 255
224 237 255
224 237 255
223 237 255
223 237 255
223 237 255
223 237 255
223 237 255
223 237 255
223 237 255
223 237 255
223 237 255
223 237 255
223 237 255
223 237 255
223 237 255
223 237 255
223 237 255
223 237 255
223 237 255
223 237 255
223 237 255
223 237 255
223 237 255
223 237 255
223 237 255
223 237 255
223 237 255
223 237 255
223 237 255
223 237 255
223 237 255
223 237 255
223 237 255
223 237 255
223 237 255
223 237 255
223 237 255
223 237 255
223 237 255
223 237 255
223 237 255
223 237 255
223 237 255
223 237 255
223 237 255
223 237 255
223 237 255
223 237 255
223 237 255
223 237 255
223 237 255
223 237 255
223 237 255
223 237 255
223 237 255
223 237 255
223 237 255
223 237 255
223 237 255
223 237 255
223 237 255
223 237 255
223 237 255
223 237 255
223 237 255
223 237 255
223 237 255
223 237 255
223 237 255
223 237 255
223 237 255
223 237 255
223 237 255
223 237 255
223 237 255
223 237 255
223 237 255
223 236 255
223 236 255
223 236 255
223 236 255
223 236 255
223 237 255
223 237 255
223 237 255
223 237 255
223 237 255
223 237 255
223 237 255
223 237 255
223 237 255
223 237 255
223 237 255
223 237 255
223 237 255
223 237 255
223 237 255
223 237 255
223 237 255
223 237 255
223 237 255
223 237 255
223 237 255
223 237 255
223 237 255
223 237 255
223 237 255
223 237 255
223 237 255
223 237 255
223 237 255
223 237 255
223 237 255
223 237 255
223 237 255
223 237 255
223 237 255
223 237 255
223 237 255
223 237 255
223 237 255
223 237 255
223 237 255
223 237 255
223 237 255
223 237 255
223 237 255
223 237 255
223 237 255
223 237 255
223 237 255
223 237 255
223 237 255
223 237 255
223 237 255
223 237 255
223 237 255
223 237 255
223 237 255
223 237 255
223 237 255
223 237 255
223 237 255
224 237 255
224 237 255
224 237 255
224 237 255
224 237 255
224 237 255
224 237 255
224 237 255
224 237 255
224 237 255
224 237 255
224 237 255
224 237 255
224 237 255
224 237 255
224 237 255
224 237 255
224 237 255
224 237 255
224 237 255
224 237 255
224 237 255
224 237 255
224 237 255
224 237 255
224 237 255
224 237 255
224 237 255
224 237 255
224 237 255
224 237 255
224 237 255
224 237 255
224 237 255
224 237 255
224 237 255
224 237 255
224 237 255
224 237 255
224 237 255
224 237 255
224 237 255
224 237 255
224 237 255
224 237 255
224 237 255
224 237 255
224 237 255
224 237 255
224 237 255
224 237 255
224 237 255
224 237 255
224 237 255
224 237 255
224 237 255
224 237 255
224 237 255
224 237 255
224 237 255
224 237 255
224 237 255
224 237 255
224 237 255
224 237 255
224 237 255
224 237 255
224 237 255
224 237 255
224 237 255
224 237 255
224 237 255
224 237 255
224 237 255
224 237 255
224 237 255
224 237 255
224 237 255
224 237 255
224 237 255
224 237 255
224 237 255
224 237 255
224 237 255
224 237 255
224 237 255
224 237 255
224 237 255
224 237 255
224 237 255
224 237 255
224 237 255
224 237 255
224 237 255
224 237 255
224 237 255
224 237 255
224 237 255
224 237 255
224 237 255
224 237 255
224 237 255
224 237 255
224 237 255
224 237 255
224 237 255
224 237 255
224 237 255
224 237 255
224 237 255
224 237 255
224 237 255
224 237 255
225 237 255
225 237 255
225 237 255
225 237 255
225 237 255
225 237 255
225 237 255
225 237 255
225 237 255
225 237 255
225 237 255
225 237 255
225 237 255
225 237 255
225 237 255
225 237 255
225 237 255
225 237 255
225 237 255
225 237 255
225 237 255
225 237 255
225 237 255
225 237 255
225 237 255
225 237 255
225 237 255
225 237 255
225 237 255
225 237 255
225 237 255
225 237 255
225 237 255
225 237 255
225 237 255
225 237 255
225 237 255
225 237 255
225 237 255
225 237 255
225 237 255
225 237 255
225 237 255
225 237 255
225 237 255
225 237 255
225 237 255
225 237 255
225 237 255
224 237 255
225 237 255
224 237 255
224 237 255
224 237 255
224 237 255
224 237 255
224 237 255
224 237 255
224 237 255
224 237 255
224 237 255
224 237 255
224 237 255
224 237 255
224 237 255
224 237 255
224 237 255
224 237 255
224 237 255
224 237 255
224 237 255
224 237 255
224 237 255
224 237 255
224 237 255
224 237 255
224 237 255
224 237 255
224 237 255
224 237 255
224 237 255
224 237 255
224 237 255
224 237 255
224 237 255
224 237 255
224 237 255
224 237 255
224 237 255
224 237 255
224 237 255
224 237 255
224 237 255
224 237 255
224 237 255
224 237 255
224 237 255
224 237 255
224 237 255
224 237 255
224 237 255
224 237 255
224 237 255
224 237 255
224 237 255
224 237 255
224 237 255
224 237 255
224 237 255
224 237 255
224 237 255
224 237 255
224 237 255
224 237 255
224 237 255
224 237 255
224 237 255
224 237 255
224 237 255
224 237 255
224 237 255
224 237 255
224 237 255
224 237 255
224 237 255
224 237 255
224 237 255
224 237 255
224 237 255
224 237 255
224 237 255
224 237 255
224 237 255
224 237 255
224 237 255
224 237 255
224 237 255
224 237 255
224 237 255
224 237 255
224 237 255
224 237 255
224 237 255
224 237 255
224 237 255
224 237 255
224 237 255
224 237 255
224 237 255
224 237 255
224 237 255
224 237 255
224 237 255
224 237 255
224 237 255
224 237 255
224 237 255
224 237 255
224 237 255
224 237 255
224 237 255
224 237 255
224 237 255
224 237 255
223 237 255
223 237 255
223 237 255
223 237 255
223 237 255
223 237 255
223 237 255
223 237 255
223 237 255
223 237 255
223 237 255
223 237 255
223 237 255
223 237 255
223 237 255
223 237 255
223 237 255
223 237 255
223 237 255
223 237 255
223 237 255
223 237 255
223 237 255
223 237 255
223 237 255
223 237 255
223 237 255
223 237 255
223 237 255
223 237 255
223 237 255
223 237 255
223 237 255
223 237 255
223 237 255
223 237 255
223 237 255
223 237 255
223 237 255
223 237 255
223 237 255
223 237 255
223 237 255
223 237 255
223 237 255
223 237 255
223 237 255
223 237 255
223 237 255
223 237 255
223 237 255
223 237 255
223 237 255
223 237 255
223 237 255
223 237 255
223 237 255
223 237 255
223 237 255
223 237 255
223 237 255
223 237 255
223 237 255
223 237 255
223 237 255
223 237 255
223 237 255
223 237 255
223 237 255
223 237 255
223 237 255
223 237 255
223 237 255
223 237 255
223 237 255
223 237 255
223 237 255
223 237 255
223 237 255
223 237 255
223 237 255
223 237 255
223 237 255
223 237 255
223 237 255
223 237 255
223 237 255
223 237 255
223 237 255
223 237 255
223 237 255
223 237 255
223 237 255
223 237 255
223 237 255
223 237 255
223 237 255
223 237 255
223 237 255
223 237 255
223 237 255
223 237 255
223 237 255
223 237 255
223 237 255
224 237 255
224 237 255
224 237 255
224 237 255
224 237 255
224 237 255
224 237 255
224 237 255
224 237 255
224 237 255
224 237 255
224 237 255
224 237 255
224 237 255
224 237 255
224 237 255
224 237 255
224 237 255
224 237 255
224 237 255
224 237 255
224 237 255
224 237 255
224 237 255
224 237 255
224 237 255
224 237 255
224 237 255
224 237 255
224 237 255
224 237 255
224 237 255
224 237 255
224 237 255
224 237 255
224 237 255
224 237 255
224 237 255
224 237 255
224 237 255
224 237 255
224 237 255
224 237 255
224 237 255
224 237 255
224 237 255
224 237 255
224 237 255
224 237 255
224 237 255
224 237 255
224 237 255
224 237 255
224 237 255
224 237 255
224 237 255
224 237 255
224 237 255
224 237 255
224 237 255
224 237 255
224 237 255
224 237 255
224 237 255
224 237 255
224 237 255
224 237 255
224 237 255
224 237 255
224 237 255
224 237 255
224 237 255
224 237 255
224 237 255
224 237 255
224 237 255
224 237 255
224 237 255
224 237 255
224 237 255
224 237 255
224 237 255
224 237 255
224 237 255
224 237 255
224 237 255
224 237 255
224 237 255
224 237 255
224 237 255
224 237 255
224 237 255
224 237 255
224 237 255
224 237 255
224 237 255
224 237 255
224 237 255
224 237 255
224 237 255
224 237 255
225 237 255
225 237 255
225 237 255
225 237 255
225 237 255
225 237 255
225 237 255
225 237 255
225 237 255
225 237 255
225 237 255
225 237 255
225 237 255
225 237 255
225 237 255
225 237 255
225 237 255
225 237 255
225 237 255
225 237 255
225 237 255
225 237 255
225 237 255
225 237 255
225 237 255
225 238 255
225 238 255
225 238 255
225 238 255
225 238 255
225 238 255
225 238 255
225 238 255
225 238 255
225 238 255
225 238 255
225 238 255
225 238 255
225 238 255
225 238 255
225 238 255
225 238 255
225 238 255
225 238 255
225 238 255
225 238 255
225 238 255
225 238 255
225 238 255
225 238 255
225 238 255
225 238 255
225 238 255
225 238 255
225 238 255
225 238 255
225 238 255
225 238 255
225 238 255
225 238 255
225 238 255
225 238 255
225 238 255
225 238 255
225 238 255
225 238 255
225 238 255
225 238 255
225 238 255
225 238 255
225 238 255
225 238 255
225 238 255
225 238 255
225 238 255
225 238 255
225 238 255
225 238 255
225 238 255
225 238 255
225 238 255
225 238 255
225 238 255
225 238 255
225 238 255
225 238 255
225 238 255
225 238 255
225 237 255
225 237 255
225 237 255
225 237 255
225 237 255
225 237 255
225 237 255
225 237 255
225 237 255
225 237 255
225 237 255
225 237 255
225 237 255
225 237 255
225 237 255
225 237 255
225 237 255
225 237 255
225 237 255
225 237 255
225 237 255
225 237 255
225 237 255
224 237 255
225 237 255
224 237 255
224 237 255
224 237 255
224 237 255
224 237 255
224 237 255
224 237 255
224 237 255
224 237 255
224 237 255
224 237 255
224 237 255
224 237 255
224 237 255
224 237 255
224 237 255
224 237 255
224 237 255
224 237 255
224 237 255
224 237 255
224 237 255
224 237 255
224 237 255
224 237 255
224 237 255
224 237 255
224 237 255
224 237 255
224 237 255
224 237 255
224 237 255
224 237 255
224 237 255
224 237 255
224 237 255
224 237 255
224 237 255
224 237 255
224 237 255
224 237 255
224 237 255
224 237 255
224 237 255
224 237 255
224 237 255
224 237 255
224 237 255
224 237 255
224 237 255
224 237 255
224 237 255
224 237 255
224 237 255
224 237 255
224 237 255
224 237 255
224 237 255
224 237 255
224 237 255
224 237 255
224 237 255
224 237 255
224 237 255
224 237 255
224 237 255
224 237 255
224 237 255
224 237 255
224 237 255
224 237 255
224 237 255
224 237 255
224 237 255
224 237 255
224 237 255
224 237 255
224 237 255
224 237 255
224 237 255
224 237 255
224 237 255
224 237 255
224 237 255
224 237 255
224 237 255
224 237 255
224 237 255
224 237 255
224 237 255
224 237 255
224 237 255
224 237 255
224 237 255
224 237 255
224 237 255
224 237 255
224 237 255
224 237 255
223 237 255
223 237 255
223 237 255
223 237 255
223 237 255
223 237 255
223 237 255
223 237 255
223 237 255
223 237 255
223 237 255
223 237 255
223 237 255
223 237 255
223 237 255
223 237 255
223 237 255
223 237 255
223 237 255
223 237 255
223 237 255
223 237 255
223 237 255
223 237 255
223 237 255
223 237 255
223 237 255
223 237 255
223 237 255
223 237 255
223 237 255
223 237 255
223 237 255
223 237 255
223 237 255
223 237 255
223 237 255
223 237 255
223 237 255
223 237 255
223 237 255
223 237 255
223 237 255
223 237 255
223 237 255
223 237 255
223 237 255
223 237 255
223 237 255
223 237 255
223 237 255
223 237 255
223 237 255
223 237 255
223 237 255
223 237 255
223 237 255
223 237 255
223 237 255
223 237 255
223 237 255
223 237 255
223 237 255
223 237 255
223 237 255
223 237 255
223 237 255
223 237 255
223 237 255
223 237 255
223 237 255
224 237 255
224 237 255
224 237 255
224 237 255
224 237 255
224 237 255
224 237 255
224 237 255
224 237 255
224 237 255
224 237 255
224 237 255
224 237 255
224 237 255
224 237 255
224 237 255
224 237 255
224 237 255
224 237 255
224 237 255
224 237 255
224 237 255
224 237 255
224 237 255
224 237 255
224 237 255
224 237 255
224 237 255
224 237 255
224 237 255
224 237 255
224 237 255
224 237 255
224 237 255
224 237 255
224 237 255
224 237 255
224 237 255
224 237 255
224 237 255
224 237 255
224 237 255
224 237 255
224 237 255
224 237 255
224 237 255
224 237 255
224 237 255
224 237 255
224 237 255
224 237 255
224 237 255
224 237 255
224 237 255
224 237 255
224 237 255
224 237 255
224 237 255
224 237 255
224 237 255
224 237 255
224 237 255
224 237 255
224 237 255
224 237 255
224 237 255
224 237 255
224 237 255
224 237 255
224 237 255
224 237 255
224 237 255
224 237 255
224 237 255
224 237 255
224 237 255
224 237 255
224 237 255
224 237 255
224 237 255
224 237 255
224 237 255
224 237 255
224 237 255
224 237 255
224 237 255
224 237 255
224 237 255
224 237 255
224 237 255
224 237 255
224 237 255
224 237 255
224 237 255
224 237 255
224 237 255
225 237 255
225 237 255
225 237 255
225 237 255
225 237 255
225 237 255
225 237 255
225 237 255
225 237 255
225 237 255
225 237 255
225 237 255
225 237 255
225 237 255
225 237 255
225 237 255
225 237 255
225 237 255
225 238 255
225 238 255
225 238 255
225 238 255
225 238 255
225 238 255
225 238 255
225 238 255
225 238 255
225 238 255
225 238 255
225 238 255
225 238 255
225 238 255
225 238 255
225 238 255
225 238 255
225 238 255
225 238 255
225 238 255
225 238 255
225 238 255
225 238 255
225 238 255
225 238 255
225 238 255
225 238 255
225 238 255
225 238 255
225 238 255
225 238 255
225 238 255
225 238 255
225 238 255
225 238 255
225 238 255
225 238 255
225 238 255
225 238 255
225 238 255
225 238 255
225 238 255
225 238 255
225 238 255
225 238 255
225 238 255
225 238 255
225 238 255
225 238 255
225 238 255
225 238 255
225 238 255
225 238 255
225 238 255
225 238 255
225 238 255
225 238 255
225 238 255
225 238 255
225 238 255
225 238 255
225 238 255
225 238 255
225 238 255
225 238 255
225 238 255
225 238 255
225 238 255
225 238 255
225 238 255
225 238 255
225 238 255
225 238 255
225 238 255
225 238 255
225 238 255
225 238 255
225 238 255
225 238 255
225 238 255
225 238 255
225 238 255
225 238 255
225 238 255
225 238 255
225 238 255
225 238 255
225 238 255
225 238 255
225 238 255
225 238 255
225 238 255
225 238 255
225 238 255
225 238 255
225 238 255
225 238 255
225 238 255
225 238 255
225 238 255
225 238 255
225 238 255
225 238 255
225 238 255
225 238 255
225 238 255
225 238 255
225 238 255
225 238 255
225 238 255
225 238 255
225 238 255
225 238 255
225 238 255
225 238 255
225 238 255
225 238 255
225 238 255
225 237 255
225 237 255
225 237 255
225 237 255
225 237 255
225 237 255
225 237 255
225 237 255
225 237 255
225 237 255
225 237 255
225 237 255
225 237 255
225 237 255
225 237 255
225 237 255
225 237 255
225 237 255
224 237 255
224 237 255
224 237 255
224 237 255
224 237 255
224 237 255
224 237 255
224 237 255
224 237 255
224 237 255
224 237 255
224 237 255
224 237 255
224 237 255
224 237 255
224 237 255
224 237 255
224 237 255
224 237 255
224 237 255
224 237 255
224 237 255
224 237 255
224 237 255
224 237 255
224 237 255
224 237 255
224 237 255
224 237 255
224 237 255
224 237 255
224 237 255
224 237 255
224 237 255
224 237 255
224 237 255
224 237 255
224 237 255
224 237 255
224 237 255
224 237 255
224 237 255
224 237 255
224 237 255
224 237 255
224 237 255
224 237 255
224 237 255
224 237 255
224 237 255
224 237 255
224 237 255
224 237 255
224 237 255
224 237 255
224 237 255
224 237 255
224 237 255
224 237 255
224 237 255
224 237 255
224 237 255
224 237 255
224 237 255
224 237 255
224 237 255
224 237 255
224 237 255
224 237 255
224 237 255
224 237 255
224 237 255
224 237 255
224 237 255
224 237 255
224 237 255
224 237 255
224 237 255
224 237 255
224 237 255
224 237 255
224 237 255
224 237 255
224 237 255
224 237 255
224 237 255
224 237 255
224 237 255
224 237 255
224 237 255
224 237 255
224 237 255
224 237 255
224 237 255
224 237 255
224 237 255
224 237 255
223 237 255
223 237 255
223 237 255
223 237 255
223 237 255
223 237 255
223 237 255
223 237 255
223 237 255
223 237 255
223 237 255
223 237 255
223 237 255
223 237 255
223 237 255
223 237 255
223 237 255
223 237 255
223 237 255
223 237 255
223 237 255
223 237 255
223 237 255
223 237 255
223 237 255
223 237 255
223 237 255
223 237 255
223 237 255
223 237 255
223 237 255
223 237 255
223 237 255
223 237 255
223 237 255
224 237 255
224 237 255
224 237 255
224 237 255
224 237 255
224 237 255
224 237 255
224 237 255
224 237 255
224 237 255
224 237 255
224 237 255
224 237 255
224 237 255
224 237 255
224 237 255
224 237 255
224 237 255
224 237 255
224 237 255
224 237 255
224 237 255
224 237 255
224 237 255
224 237 255
224 237 255
224 237 255
224 237 255
224 237 255
224 237 255
224 237 255
224 237 255
224 237 255
224 237 255
224 237 255
224 237 255
224 237 255
224 237 255
224 237 255
224 237 255
224 237 255
224 237 255
224 237 255
224 237 255
224 237 255
224 237 255
224 237 255
224 237 255
224 237 255
224 237 255
224 237 255
224 237 255
224 237 255
224 237 255
224 237 255
224 237 255
224 237 255
224 237 255
224 237 255
224 237 255
224 237 255
224 237 255
224 237 255
224 237 255
224 237 255
224 237 255
224 237 255
224 237 255
224 237 255
224 237 255
224 237 255
224 237 255
224 237 255
224 237 255
224 237 255
224 237 255
224 237 255
224 237 255
224 237 255
224 237 255
224 237 255
224 237 255
224 237 255
224 237 255
224 237 255
224 237 255
224 237 255
224 237 255
224 237 255
224 237 255
224 237 255
224 237 255
224 237 255
224 237 255
224 237 255
224 237 255
224 237 255
225 237 255
225 237 255
225 237 255
225 237 255
225 237 255
225 237 255
225 237 255
225 237 255
225 237 255
225 237 255
225 237 255
225 237 255
225 237 255
225 237 255
225 237 255
225 237 255
225 237 255
225 238 255
225 238 255
225 238 255
225 238 255
225 238 255
225 238 255
225 238 255
225 238 255
225 238 255
225 238 255
225 238 255
225 238 255
225 238 255
225 238 255
225 238 255
225 238 255
225 238 255
225 238 255
225 238 255
225 238 255
225 238 255
225 238 255
225 238 255
225 238 255
225 238 255
225 238 255
225 238 255
225 238 255
225 238 255
225 238 255
225 238 255
225 238 255
225 238 255
225 238 255
225 238 255
225 238 255
225 238 255
225 238 255
225 238 255
225 238 255
225 238 255
225 238 255
225 238 255
225 238 255
225 238 255
225 238 255
225 238 255
225 238 255
225 238 255
225 238 255
225 238 255
225 238 255
225 238 255
225 238 255
225 238 255
225 238 255
225 238 255
225 238 255
225 238 255
225 238 255
225 238 255
225 238 255
225 238 255
225 238 255
225 238 255
225 238 255
225 238 255
225 238 255
225 238 255
225 238 255
225 238 255
225 238 255
225 238 255
225 238 255
225 238 255
225 238 255
225 238 255
225 238 255
225 238 255
225 238 255
225 238 255
225 238 255
225 238 255
225 238 255
225 238 255
225 238 255
225 238 255
225 238 255
225 238 255
225 238 255
225 238 255
225 238 255
225 238 255
225 238 255
225 238 255
225 238 255
225 238 255
225 238 255
225 238 255
225 238 255
225 238 255
225 238 255
225 238 255
225 238 255
225 238 255
225 238 255
225 238 255
225 238 255
225 238 255
225 238 255
225 238 255
225 238 255
225 238 255
225 238 255
225 238 255
225 238 255
225 238 255
225 238 255
225 238 255
225 238 255
225 238 255
225 238 255
225 238 255
225 238 255
225 238 255
225 238 255
225 238 255
225 238 255
225 238 255
225 238 255
225 238 255
225 238 255
225 238 255
225 238 255
225 238 255
225 238 255
225 238 255
225 238 255
225 238 255
225 238 255
225 238 255
225 238 255
225 238 255
225 238 255
225 238 255
225 238 255
225 238 255
225 238 255
225 238 255
225 238 255
225 238 255
225 238 255
225 238 255
225 238 255
225 238 255
225 237 255
225 237 255
225 237 255
225 237 255
225 237 255
225 237 255
225 237 255
225 237 255
225 237 255
225 237 255
225 237 255
225 237 255
225 237 255
225 237 255
225 237 255
225 237 255
224 237 255
224 237 255
224 237 255
224 237 255
224 237 255
224 237 255
224 237 255
224 237 255
224 237 255
224 237 255
224 237 255
224 237 255
224 237 255
224 237 255
224 237 255
224 237 255
224 237 255
224 237 255
224 237 255
224 237 255
224 237 255
224 237 255
224 237 255
224 237 255
224 237 255
224 237 255
224 237 255
224 237 255
224 237 255
224 237 255
224 237 255
224 237 255
224 237 255
224 237 255
224 237 255
224 237 255
224 237 255
224 237 255
224 237 255
224 237 255
224 237 255
224 237 255
224 237 255
224 237 255
224 237 255
224 237 255
224 237 255
224 237 255
224 237 255
224 237 255
224 237 255
224 237 255
224 237 255
224 237 255
224 237 255
224 237 255
224 237 255
224 237 255
224 237 255
224 237 255
224 237 255
224 237 255
224 237 255
224 237 255
224 237 255
224 237 255
224 237 255
224 237 255
224 237 255
224 237 255
224 237 255
224 237 255
224 237 255
224 237 255
224 237 255
224 237 255
224 237 255
224 237 255
224 237 255
224 237 255
224 237 255
224 237 255
224 237 255
224 237 255
224 237 255
224 237 255
224 237 255
224 237 255
224 237 255
224 237 255
224 237 255
224 237 255
224 237 255
224 237 255
224 237 255
224 237 255
223 237 255
223 237 255
223 237 255
223 237 255
223 237 255
223 237 255
223 237 255
223 237 255
223 237 255
223 237 255
224 237 255
224 237 255
224 237 255
224 237 255
224 237 255
224 237 255
224 237 255
224 237 255
224 237 255
224 237 255
224 237 255
224 237 255
224 237 255
224 237 255
224 237 255
224 237 255
224 237 255
224 237 255
224 237 255
224 237 255
224 237 255
224 237 255
224 237 255
224 237 255
224 237 255
224 237 255
224 237 255
224 237 255
224 237 255
224 237 255
224 237 255
224 237 255
224 237 255
224 237 255
224 237 255
224 237 255
224 237 255
224 237 255
224 237 255
224 237 255
224 237 255
224 237 255
224 237 255
224 237 255
224 237 255
224 237 255
224 237 255
224 237 255
224 237 255
224 237 255
224 237 255
224 237 255
224 237 255
224 237 255
224 237 255
224 237 255
224 237 255
224 237 255
224 237 255
224 237 255
224 237 255
224 237 255
224 237 255
224 237 255
224 237 255
224 237 255
224 237 255
224 237 255
224 237 255
224 237 255
224 237 255
224 237 255
224 237 255
224 237 255
224 237 255
224 237 255
224 237 255
224 237 255
224 237 255
224 237 255
224 237 255
224 237 255
224 237 255
224 237 255
224 237 255
224 237 255
224 237 255
224 237 255
224 237 255
224 237 255
224 237 255
225 237 255
225 237 255
225 237 255
225 237 255
225 237 255
225 237 255
225 237 255
225 237 255
225 237 255
225 237 255
225 237 255
225 237 255
225 237 255
225 237 255
225 237 255
225 238 255
225 238 255
225 238 255
225 238 255
225 238 255
225 238 255
225 238 255
225 238 255
225 238 255
225 238 255
225 238 255
225 238 255
225 238 255
225 238 255
225 238 255
225 238 255
225 238 255
225 238 255
225 238 255
225 238 255
225 238 255
225 238 255
225 238 255
225 238 255
225 238 255
225 238 255
225 238 255
225 238 255
225 238 255
225 238 255
225 238 255
225 238 255
225 238 255
225 238 255
225 238 255
225 238 255
225 238 255
225 238 255
225 238 255
225 238 255
225 238 255
225 238 255
225 238 255
225 238 255
225 238 255
225 238 255
225 238 255
225 238 255
225 238 255
225 238 255
225 238 255
225 238 255
225 238 255
225 238 255
225 238 255
225 238 255
225 238 255
225 238 255
225 238 255
225 238 255
225 238 255
225 238 255
225 238 255
225 238 255
225 238 255
225 238 255
225 238 255
225 238 255
225 238 255
225 238 255
225 238 255
225 238 255
225 238 255
225 238 255
225 238 255
225 238 255
225 238 255
225 238 255
225 238 255
226 238 255
225 238 255
226 238 255
226 238 255
226 238 255
226 238 255
226 238 255
226 238 255
226 238 255
226 238 255
226 238 255
226 238 255
226 238 255
226 238 255
226 238 255
226 238 255
226 238 255
226 238 255
226 238 255
226 238 255
226 238 255
226 238 255
226 238 255
226 238 255
226 238 255
226 238 255
226 238 255
226 238 255
226 238 255
225 238 255
225 238 255
225 238 255
225 238 255
225 238 255
225 238 255
225 238 255
225 238 255
225 238 255
225 238 255
225 238 255
225 238 255
225 238 255
225 238 255
225 238 255
225 238 255
225 238 255
225 238 255
225 238 255
225 238 255
225 238 255
225 238 255
225 238 255
225 238 255
225 238 255
225 238 255
225 238 255
225 238 255
225 238 255
225 238 255
225 238 255
225 238 255
225 238 255
225 238 255
225 238 255
225 238 255
225 238 255
225 238 255
225 238 255
225 238 255
225 238 255
225 238 255
225 238 255
225 238 255
225 238 255
225 238 255
225 238 255
225 238 255
225 238 255
225 238 255
225 238 255
225 238 255
225 238 255
225 238 255
225 238 255
225 238 255
225 238 255
225 238 255
225 238 255
225 238 255
225 238 255
225 238 255
225 238 255
225 238 255
225 238 255
225 238 255
225 238 255
225 238 255
225 238 255
225 238 255
225 238 255
225 238 255
225 238 255
225 238 255
225 238 255
225 238 255
225 238 255
225 238 255
225 238 255
225 238 255
225 237 255
225 237 255
225 237 255
225 237 255
225 237 255
225 237 255
225 237 255
225 237 255
225 237 255
225 237 255
225 237 255
225 237 255
225 237 255
225 237 255
225 237 255
225 237 255
224 237 255
224 237 255
224 237 255
224 237 255
224 237 255
224 237 255
224 237 255
224 237 255
224 237 255
224 237 255
224 237 255
224 237 255
224 237 255
224 237 255
224 237 255
224 237 255
224 237 255
224 237 255
224 237 255
224 237 255
224 237 255
224 237 255
224 237 255
224 237 255
224 237 255
224 237 255
224 237 255
224 237 255
224 237 255
224 237 255
224 237 255
224 237 255
224 237 255
224 237 255
224 237 255
224 237 255
224 237 255
224 237 255
224 237 255
224 237 255
224 237 255
224 237 255
224 237 255
224 237 255
224 237 255
224 237 255
224 237 255
224 237 255
224 237 255
224 237 255
224 237 255
224 237 255
224 237 255
224 237 255
224 237 255
224 237 255
224 237 255
224 237 255
224 237 255
224 237 255
224 237 255
224 237 255
224 237 255
224 237 255
224 237 255
224 237 255
224 237 255
224 237 255
224 237 255
224 237 255
224 237 255
224 237 255
224 237 255
224 237 255
224 237 255
224 237 255
224 237 255
224 237 255
224 237 255
224 237 255
224 237 255
224 237 255
224 237 255
224 237 255
224 237 255
224 237 255
224 237 255
224 237 255
224 237 255
224 237 255
224 237 255
224 237 255
224 237 255
224 237 255
224 237 255
224 237 255
224 237 255
224 237 255
224 237 255
224 237 255
224 237 255
224 237 255
224 237 255
224 237 255
224 237 255
224 237 255
224 237 255
224 237 255
224 237 255
224 237 255
224 237 255
224 237 255
224 237 255
224 237 255
224 237 255
224 237 255
224 237 255
224 237 255
224 237 255
224 237 255
224 237 255
224 237 255
224 237 255
224 237 255
224 237 255
224 237 255
224 237 255
224 237 255
224 237 255
224 237 255
224 237 255
224 237 255
224 237 255
224 237 255
224 237 255
224 237 255
224 237 255
224 237 255
224 237 255
224 237 255
224 237 255
224 237 255
224 237 255
224 237 255
224 237 255
224 237 255
224 237 255
224 237 255
224 237 255
224 237 255
224 237 255
224 237 255
224 237 255
224 237 255
224 237 255
224 237 255
224 237 255
224 237 255
224 237 255
224 237 255
224 237 255
224 237 255
224 237 255
224 237 255
224 237 255
224 237 255
225 237 255
225 237 255
225 237 255
225 237 255
225 237 255
225 237 255
225 237 255
225 237 255
225 237 255
225 237 255
225 237 255
225 237 255
225 237 255
225 237 255
225 237 255
225 238 255
225 238 255
225 238 255
225 238 255
225 238 255
225 238 255
225 238 255
225 238 255
225 238 255
225 238 255
225 238 255
225 238 255
225 238 255
225 238 255
225 238 255
225 238 255
225 238 255
225 238 255
225 238 255
225 238 255
225 238 255
225 238 255
225 238 255
225 238 255
225 238 255
225 238 255
225 238 255
225 238 255
225 238 255
225 238 255
225 238 255
225 238 255
225 238 255
225 238 255
225 238 255
225 238 255
225 238 255
225 238 255
225 238 255
225 238 255
225 238 255
225 238 255
225 238 255
225 238 255
225 238 255
225 238 255
225 238 255
225 238 255
225 238 255
225 238 255
225 238 255
225 238 255
225 238 255
225 238 255
225 238 255
225 238 255
225 238 255
225 238 255
225 238 255
225 238 255
225 238 255
225 238 255
226 238 255
226 238 255
226 238 255
226 238 255
226 238 255
226 238 255
226 238 255
226 238 255
226 238 255
226 238 255
226 238 255
226 238 255
226 238 255
226 238 255
226 238 255
226 238 255
226 238 255
226 238 255
226 238 255
226 238 255
226 238 255
226 238 255
226 238 255
226 238 255
226 238 255
226 238 255
226 238 255
226 238 255
226 238 255
226 238 255
226 238 255
226 238 255
226 238 255
226 238 255
226 238 255
226 238 255
226 238 255
226 238 255
226 238 255
226 238 255
226 238 255
226 238 255
226 238 255
226 238 255
226 238 255
226 238 255
226 238 255
226 238 255
226 238 255
226 238 255
226 238 255
226 238 255
226 238 255
226 238 255
226 238 255
226 238 255
226 238 255
226 238 255
226 238 255
226 238 255
226 238 255
226 238 255
226 238 255
226 238 255
226 238 255
226 238 255
226 238 255
226 238 255
226 238 255
226 238 255
226 238 255
226 238 255
226 238 255
226 238 255
226 238 255
226 238 255
226 238 255
226 238 255
226 238 255
226 238 255
226 238 255
226 238 255
226 238 255
226 238 255
226 238 255
226 238 255
226 238 255
226 238 255
226 238 255
226 238 255
226 238 255
226 238 255
226 238 255
226 238 255
225 238 255
225 238 255
225 238 255
225 238 255
225 238 255
225 238 255
225 238 255
225 238 255
225 238 255
225 238 255
225 238 255
225 238 255
225 238 255
225 238 255
225 238 255
225 238 255
225 238 255
225 238 255
225 238 255
225 238 255
225 238 255
225 238 255
225 238 255
225 238 255
225 238 255
225 238 255
225 238 255
225 238 255
225 238 255
225 238 255
225 238 255
225 238 255
225 238 255
225 238 255
225 238 255
225 238 255
225 238 255
225 238 255
225 238 255
225 238 255
225 238 255
225 238 255
225 238 255
225 238 255
225 238 255
225 238 255
225 238 255
225 238 255
225 238 255
225 238 255
225 238 255
225 238 255
225 238 255
225 238 255
225 238 255
225 238 255
225 238 255
225 238 255
225 238 255
225 238 255
225 238 255
225 237 255
225 237 255
225 237 255
225 237 255
225 237 255
225 237 255
225 237 255
225 237 255
225 237 255
225 237 255
225 237 255
225 237 255
225 237 255
225 237 255
225 237 255
224 237 255
224 237 255
224 237 255
224 237 255
224 237 255
224 237 255
224 237 255
224 237 255
224 237 255
224 237 255
224 237 255
224 237 255
224 237 255
224 237 255
224 237 255
224 237 255
224 237 255
224 237 255
224 237 255
224 237 255
224 237 255
224 237 255
224 237 255
224 237 255
224 237 255
224 237 255
224 237 255
224 237 255
224 237 255
224 237 255
224 237 255
224 237 255
224 237 255
224 237 255
224 237 255
224 237 255
224 237 255
224 237 255
224 237 255
224 237 255
224 237 255
224 237 255
224 237 255
224 237 255
224 237 255
224 237 255
224 237 255
224 237 255
224 237 255
224 237 255
224 237 255
224 237 255
224 237 255
224 237 255
224 237 255
224 237 255
224 237 255
224 237 255
224 237 255
224 237 255
224 237 255
224 237 255
224 237 255
224 237 255
224 237 255
224 237 255
224 237 255
224 237 255
224 237 255
224 237 255
224 237 255
224 237 255
224 237 255
224 237 255
224 237 255
224 237 255
224 237 255
224 237 255
224 237 255
224 237 255
224 237 255
224 237 255
224 237 255
224 237 255
224 237 255
224 237 255
224 237 255
224 237 255
224 237 255
224 237 255
224 237 255
224 237 255
224 237 255
224 237 255
224 237 255
224 237 255
224 237 255
224 237 255
224 237 255
224 237 255
224 237 255
224 237 255
224 237 255
224 237 255
224 237 255
224 237 255
224 237 255
224 237 255
224 237 255
224 237 255
224 237 255
224 237 255
224 237 255
224 237 255
224 237 255
224 237 255
224 237 255
224 237 255
224 237 255
224 237 255
224 237 255
224 237 255
224 237 255
224 237 255
224 237 255
224 237 255
224 237 255
224 237 255
224 237 255
224 237 255
224 237 255
224 237 255
224 237 255
224 237 255
224 237 255
224 237 255
224 237 255
224 237 255
224 237 255
224 237 255
225 237 255
225 237 255
225 237 255
225 237 255
225 237 255
225 237 255
225 237 255
225 237 255
225 237 255
225 237 255
225 237 255
225 237 255
225 237 255
225 237 255
225 237 255
225 238 255
225 238 255
225 238 255
225 238 255
225 238 255
225 238 255
225 238 255
225 238 255
225 238 255
225 238 255
225 238 255
225 238 255
225 238 255
225 238 255
225 238 255
225 238 255
225 238 255
225 238 255
225 238 255
225 238 255
225 238 255
225 238 255
225 238 255
225 238 255
225 238 255
225 238 255
225 238 255
225 238 255
225 238 255
225 238 255
225 238 255
225 238 255
225 238 255
225 238 255
225 238 255
225 238 255
225 238 255
225 238 255
225 238 255
225 238 255
225 238 255
225 238 255
225 238 255
225 238 255
225 238 255
225 238 255
225 238 255
225 238 255
225 238 255
225 238 255
225 238 255
225 238 255
225 238 255
225 238 255
225 238 255
225 238 255
225 238 255
226 238 255
226 238 255
226 238 255
226 238 255
226 238 255
226 238 255
226 238 255
226 238 255
226 238 255
226 238 255
226 238 255
226 238 255
226 238 255
226 238 255
226 238 255
226 238 255
226 238 255
226 238 255
226 238 255
226 238 255
226 238 255
226 238 255
226 238 255
226 238 255
226 238 255
226 238 255
226 238 255
226 238 255
226 238 255
226 238 255
226 238 255
226 238 255
226 238 255
226 238 255
226 238 255
226 238 255
226 238 255
226 238 255
226 238 255
226 238 255
226 238 255
226 238 255
226 238 255
226 238 255
226 238 255
226 238 255
226 238 255
226 238 255
226 238 255
226 238 255
226 238 255
226 238 255
226 238 255
226 238 255
226 238 255
226 238 255
226 238 255
226 238 255
226 238 255
226 238 255
226 238 255
226 238 255
226 238 255
226 238 255
226 238 255
226 238 255
226 238 255
226 238 255
226 238 255
226 238 255
226 238 255
226 238 255
226 238 255
226 238 255
226 238 255
226 238 255
226 238 255
226 238 255
226 238 255
226 238 255
226 238 255
226 238 255
226 238 255
226 238 255
226 238 255
226 238 255
226 238 255
226 238 255
226 238 255
226 238 255
226 238 255
226 238 255
226 238 255
226 238 255
226 238 255
226 238 255
226 238 255
226 238 255
226 238 255
226 238 255
226 238 255
226 238 255
226 238 255
226 238 255
226 238 255
226 238 255
226 238 255
226 238 255
226 238 255
226 238 255
226 238 255
226 238 255
226 238 255
226 238 255
226 238 255
226 238 255
226 238 255
226 238 255
226 238 255
226 238 255
226 238 255
226 238 255
226 238 255
226 238 255
226 238 255
226 238 255
226 238 255
226 238 255
226 238 255
226 238 255
225 238 255
225 238 255
225 238 255
225 238 255
225 238 255
225 238 255
225 238 255
225 238 255
225 238 255
225 238 255
225 238 255
225 238 255
225 238 255
225 238 255
225 238 255
225 238 255
225 238 255
225 238 255
225 238 255
225 238 255
225 238 255
225 238 255
225 238 255
225 238 255
225 238 255
225 238 255
225 238 255
225 238 255
225 238 255
225 238 255
225 238 255
225 238 255
225 238 255
225 238 255
225 238 255
225 238 255
225 238 255
225 238 255
225 238 255
225 238 255
225 238 255
225 238 255
225 238 255
225 238 255
225 238 255
225 238 255
225 238 255
225 238 255
225 238 255
225 238 255
225 238 255
225 238 255
225 238 255
225 238 255
225 238 255
225 238 255
225 237 255
225 237 255
225 237 255
225 237 255
225 237 255
225 237 255
225 237 255
225 237 255
225 237 255
225 237 255
225 237 255
225 237 255
225 237 255
225 237 255
225 237 255
225 237 255
224 237 255
224 237 255
224 237 255
224 237 255
224 237 255
224 237 255
224 237 255
224 237 255
224 237 255
224 237 255
224 237 255
224 237 255
224 237 255
224 237 255
224 237 255
224 237 255
224 237 255
224 237 255
224 237 255
224 237 255
224 237 255
224 237 255
224 237 255
224 237 255
224 237 255
224 237 255
224 237 255
224 237 255
224 237 255
224 237 255
224 237 255
224 237 255
224 237 255
224 237 255
224 237 255
224 237 255
224 237 255
224 237 255
224 237 255
224 237 255
224 237 255
224 237 255
224 237 255
224 237 255
224 237 255
224 237 255
224 237 255
224 237 255
224 237 255
224 237 255
224 237 255
224 237 255
224 237 255
224 237 255
224 237 255
224 237 255
224 237 255
224 237 255
224 237 255
224 237 255
224 237 255
224 237 255
224 237 255
224 237 255
224 237 255
224 237 255
224 237 255
224 237 255
224 237 255
224 237 255
224 237 255
224 237 255
224 237 255
224 237 255
224 237 255
224 237 255
224 237 255
224 237 255
224 237 255
224 237 255
224 237 255
224 237 255
224 237 255
224 237 255
224 237 255
224 237 255
224 237 255
224 237 255
224 237 255
224 237 255
224 237 255
224 237 255
224 237 255
224 237 255
224 237 255
224 237 255
224 237 255
224 237 255
224 237 255
224 237 255
224 237 255
224 237 255
224 237 255
224 237 255
224 237 255
224 237 255
224 237 255
224 237 255
224 237 255
224 237 255
224 237 255
224 237 255
224 237 255
225 237 255
225 237 255
225 237 255
225 237 255
225 237 255
225 237 255
225 237 255
225 237 255
225 237 255
225 237 255
225 237 255
225 237 255
225 237 255
225 237 255
225 237 255
225 237 255
225 238 255
225 238 255
225 238 255
225 238 255
225 238 255
225 238 255
225 238 255
225 238 255
225 238 255
225 238 255
225 238 255
225 238 255
225 238 255
225 238 255
225 238 255
225 238 255
225 238 255
225 238 255
225 238 255
225 238 255
225 238 255
225 238 255
225 238 255
225 238 255
225 238 255
225 238 255
225 238 255
225 238 255
225 238 255
225 238 255
225 238 255
225 238 255
225 238 255
225 238 255
225 238 255
225 238 255
225 238 255
225 238 255
225 238 255
225 238 255
225 238 255
225 238 255
225 238 255
225 238 255
225 238 255
225 238 255
225 238 255
225 238 255
225 238 255
225 238 255
225 238 255
225 238 255
225 238 255
225 238 255
226 238 255
226 238 255
226 238 255
226 238 255
226 238 255
226 238 255
226 238 255
226 238 255
226 238 255
226 238 255
226 238 255
226 238 255
226 238 255
226 238 255
226 238 255
226 238 255
226 238 255
226 238 255
226 238 255
226 238 255
226 238 255
226 238 255
226 238 255
226 238 255
226 238 255
226 238 255
226 238 255
226 238 255
226 238 255
226 238 255
226 238 255
226 238 255
226 238 255
226 238 255
226 238 255
226 238 255
226 238 255
226 238 255
226 238 255
226 238 255
226 238 255
226 238 255
226 238 255
226 238 255
226 238 255
226 238 255
226 238 255
226 238 255
226 238 255
226 238 255
226 238 255
226 238 255
226 238 255
226 238 255
226 238 255
226 238 255
226 238 255
226 238 255
226 238 255
226 238 255
226 238 255
226 238 255
226 238 255
226 238 255
226 238 255
226 238 255
226 238 255
226 238 255
226 238 255
226 238 255
226 238 255
226 238 255
226 238 255
226 238 255
226 238 255
226 238 255
226 238 255
226 238 255
226 238 255
226 238 255
226 238 255
226 238 255
226 238 255
226 238 255
226 238 255
226 238 255
226 238 255
226 238 255
226 238 255
226 238 255
226 238 255
226 238 255
226 238 255
226 238 255
226 238 255
226 238 255
226 238 255
226 238 255
226 238 255
226 238 255
226 238 255
226 238 255
226 238 255
226 238 255
226 238 255
226 238 255
226 238 255
226 238 255
226 238 255
226 238 255
226 238 255
226 238 255
226 238 255
226 238 255
226 238 255
226 238 255
226 238 255
226 238 255
226 238 255
226 238 255
226 238 255
226 238 255
226 238 255
226 238 255
226 238 255
226 238 255
226 238 255
226 238 255
226 238 255
226 238 255
226 238 255
226 238 255
226 238 255
226 238 255
226 238 255
226 238 255
226 238 255
226 238 255
226 238 255
226 238 255
226 238 255
226 238 255
226 238 255
226 238 255
226 238 255
226 238 255
226 238 255
226 238 255
226 238 255
226 238 255
226 238 255
226 238 255
226 238 255
226 238 255
226 238 255
226 238 255
226 238 255
226 238 255
226 238 255
226 238 255
225 238 255
225 238 255
225 238 255
225 238 255
225 238 255
225 238 255
225 238 255
225 238 255
225 238 255
225 238 255
225 238 255
225 238 255
225 238 255
225 238 255
225 238 255
225 238 255
225 238 255
225 238 255
225 238 255
225 238 255
225 238 255
225 238 255
225 238 255
225 238 255
225 238 255
225 238 255
225 238 255
225 238 255
225 238 255
225 238 255
225 238 255
225 238 255
225 238 255
225 238 255
225 238 255
225 238 255
225 238 255
225 238 255
225 238 255
225 238 255
225 238 255
225 238 255
225 238 255
225 238 255
225 238 255
225 238 255
225 238 255
225 238 255
225 238 255
225 238 255
225 238 255
225 238 255
225 238 255
225 238 255
225 237 255
225 237 255
225 237 255
225 237 255
225 237 255
225 237 255
225 237 255
225 237 255
225 237 255
225 237 255
225 237 255
225 237 255
225 237 255
225 237 255
225 237 255
224 237 255
224 237 255
224 237 255
224 237 255
224 237 255
224 237 255
224 237 255
224 237 255
224 237 255
224 237 255
224 237 255
224 237 255
224 237 255
224 237 255
224 237 255
224 237 255
224 237 255
224 237 255
224 237 255
224 237 255
224 237 255
224 237 255
224 237 255
224 237 255
224 237 255
224 237 255
224 237 255
224 237 255
224 237 255
224 237 255
224 237 255
224 237 255
224 237 255
224 237 255
224 237 255
224 237 255
224 237 255
224 237 255
224 237 255
224 237 255
224 237 255
224 237 255
224 237 255
224 237 255
224 237 255
224 237 255
224 237 255
224 237 255
224 237 255
224 237 255
224 237 255
224 237 255
224 237 255
224 237 255
224 237 255
224 237 255
224 237 255
224 237 255
224 237 255
224 237 255
224 237 255
224 237 255
224 237 255
224 237 255
224 237 255
224 237 255
224 237 255
224 237 255
224 237 255
224 237 255
224 237 255
224 237 255
224 237 255
224 237 255
224 237 255
224 237 255
224 237 255
224 237 255
224 237 255
224 237 255
224 237 255
224 237 255
224 237 255
224 237 255
224 237 255
224 237 255
224 237 255
224 237 255
224 237 255
224 237 255
225 237 255
225 237 255
225 237 255
225 237 255
225 237 255
225 237 255
225 237 255
225 237 255
225 237 255
225 237 255
225 237 255
225 237 255
225 237 255
225 237 255
225 237 255
225 238 255
225 238 255
225 238 255
225 238 255
225 238 255
225 238 255
225 238 255
225 238 255
225 238 255
225 238 255
225 238 255
225 238 255
225 238 255
225 238 255
225 238 255
225 238 255
225 238 255
225 238 255
225 238 255
225 238 255
225 238 255
225 238 255
225 238 255
225 238 255
225 238 255
225 238 255
225 238 255
225 238 255
225 238 255
225 238 255
225 238 255
225 238 255
225 238 255
225 238 255
225 238 255
225 238 255
225 238 255
225 238 255
225 238 255
225 238 255
225 238 255
225 238 255
225 238 255
225 238 255
225 238 255
225 238 255
225 238 255
225 238 255
225 238 255
225 238 255
225 238 255
225 238 255
226 238 255
226 238 255
226 238 255
226 238 255
226 238 255
226 238 255
226 238 255
226 238 255
226 238 255
226 238 255
226 238 255
226 238 255
226 238 255
226 238 255
226 238 255
226 238 255
226 238 255
226 238 255
226 238 255
226 238 255
226 238 255
226 238 255
226 238 255
226 238 255
226 238 255
226 238 255
226 238 255
226 238 255
226 238 255
226 238 255
226 238 255
226 238 255
226 238 255
226 238 255
226 238 255
226 238 255
226 238 255
226 238 255
226 238 255
226 238 255
226 238 255
226 238 255
226 238 255
226 238 255
226 238 255
226 238 255
226 238 255
226 238 255
226 238 255
226 238 255
226 238 255
226 238 255
226 238 255
226 238 255
226 238 255
226 238 255
226 238 255
226 238 255
226 238 255
226 238 255
226 238 255
226 238 255
226 238 255
226 238 255
226 238 255
226 238 255
226 238 255
226 238 255
226 238 255
226 238 255
226 238 255
226 238 255
226 238 255
226 238 255
226 239 255
226 239 255
226 239 255
226 239 255
226 239 255
226 239 255
227 239 255
226 239 255
227 239 255
227 239 255
227 239 255
227 239 255
227 239 255
227 239 255
227 239 255
227 239 255
227 239 255
227 239 255
227 239 255
227 239 255
227 239 255
227 239 255
227 239 255
227 239 255
227 239 255
227 239 255
227 239 255
227 239 255
227 239 255
227 239 255
227 239 255
227 239 255
227 239 255
227 239 255
226 239 255
226 239 255
226 239 255
226 239 255
226 239 255
226 239 255
226 238 255
226 238 255
226 238 255
226 238 255
226 238 255
226 238 255
226 238 255
226 238 255
226 238 255
226 238 255
226 238 255
226 238 255
226 238 255
226 238 255
226 238 255
226 238 255
226 238 255
226 238 255
226 238 255
226 238 255
226 238 255
226 238 255
226 238 255
226 238 255
226 238 255
226 238 255
226 238 255
226 238 255
226 238 255
226 238 255
226 238 255
226 238 255
226 238 255
226 238 255
226 238 255
226 238 255
226 238 255
226 238 255
226 238 255
226 238 255
226 238 255
226 238 255
226 238 255
226 238 255
226 238 255
226 238 255
226 238 255
226 238 255
226 238 255
226 238 255
226 238 255
226 238 255
226 238 255
226 238 255
226 238 255
226 238 255
226 238 255
226 238 255
226 238 255
226 238 255
226 238 255
226 238 255
226 238 255
226 238 255
226 238 255
226 238 255
226 238 255
226 238 255
226 238 255
226 238 255
226 238 255
226 238 255
226 238 255
225 238 255
225 238 255
225 238 255
225 238 255
225 238 255
225 238 255
225 238 255
225 238 255
225 238 255
225 238 255
225 238 255
225 238 255
225 238 255
225 238 255
225 238 255
225 238 255
225 238 255
225 238 255
225 238 255
225 238 255
225 238 255
225 238 255
225 238 255
225 238 255
225 238 255
225 238 255
225 238 255
225 238 255
225 238 255
225 238 255
225 238 255
225 238 255
225 238 255
225 238 255
225 238 255
225 238 255
225 238 255
225 238 255
225 238 255
225 238 255
225 238 255
225 238 255
225 238 255
225 238 255
225 238 255
225 238 255
225 238 255
225 238 255
225 238 255
225 238 255
225 238 255
225 238 255
225 238 255
225 237 255
225 237 255
225 237 255
225 237 255
225 237 255
225 237 255
225 237 255
225 237 255
225 237 255
225 237 255
225 237 255
225 237 255
225 237 255
225 237 255
225 237 255
224 237 255
224 237 255
224 237 255
224 237 255
224 237 255
224 237 255
224 237 255
224 237 255
224 237 255
224 237 255
224 237 255
224 237 255
224 237 255
224 237 255
224 237 255
224 237 255
224 237 255
224 237 255
224 237 255
224 237 255
224 237 255
224 237 255
224 237 255
224 237 255
224 237 255
224 237 255
224 237 255
224 237 255
224 237 255
224 237 255
224 237 255
224 237 255
224 237 255
224 237 255
224 237 255
224 237 255
224 237 255
224 237 255
224 237 255
224 237 255
224 237 255
224 237 255
224 237 255
224 237 255
224 237 255
224 237 255
224 237 255
224 237 255
224 237 255
224 237 255
224 237 255
224 237 255
224 237 255
224 237 255
224 237 255
224 237 255
224 237 255
224 237 255
224 237 255
224 237 255
224 237 255
224 237 255
224 237 255
224 237 255
224 237 255
224 237 255
225 237 255
225 237 255
225 237 255
225 237 255
225 237 255
225 237 255
225 237 255
225 237 255
225 237 255
225 237 255
225 237 255
225 237 255
225 237 255
225 237 255
225 237 255
225 238 255
225 238 255
225 238 255
225 238 255
225 238 255
225 238 255
225 238 255
225 238 255
225 238 255
225 238 255
225 238 255
225 238 255
225 238 255
225 238 255
225 238 255
225 238 255
225 238 255
225 238 255
225 238 255
225 238 255
225 238 255
225 238 255
225 238 255
225 238 255
225 238 255
225 238 255
225 238 255
225 238 255
225 238 255
225 238 255
225 238 255
225 238 255
225 238 255
225 238 255
225 238 255
225 238 255
225 238 255
225 238 255
225 238 255
225 238 255
225 238 255
225 238 255
225 238 255
225 238 255
225 238 255
225 238 255
225 238 255
225 238 255
225 238 255
225 238 255
225 238 255
225 238 255
225 238 255
226 238 255
226 238 255
226 238 255
226 238 255
226 238 255
226 238 255
226 238 255
226 238 255
226 238 255
226 238 255
226 238 255
226 238 255
226 238 255
226 238 255
226 238 255
226 238 255
226 238 255
226 238 255
226 238 255
226 238 255
226 238 255
226 238 255
226 238 255
226 238 255
226 238 255
226 238 255
226 238 255
226 238 255
226 238 255
226 238 255
226 238 255
226 238 255
226 238 255
226 238 255
226 238 255
226 238 255
226 238 255
226 238 255
226 238 255
226 238 255
226 238 255
226 238 255
226 238 255
226 238 255
226 238 255
226 238 255
226 238 255
226 238 255
226 238 255
226 238 255
226 238 255
226 238 255
226 238 255
226 238 255
226 238 255
226 238 255
226 238 255
226 238 255
226 238 255
226 238 255
226 238 255
226 239 255
226 239 255
227 239 255
227 239 255
227 239 255
227 239 255
227 239 255
227 239 255
227 239 255
227 239 255
227 239 255
227 239 255
227 239 255
227 239 255
227 239 255
227 239 255
227 239 255
227 239 255
227 239 255
227 239 255
227 239 255
227 239 255
227 239 255
227 239 255
227 239 255
227 239 255
227 239 255
227 239 255
227 239 255
227 239 255
227 239 255
227 239 255
227 239 255
227 239 255
227 239 255
227 239 255
227 239 255
227 239 255
227 239 255
227 239 255
227 239 255
227 239 255
227 239 255
227 239 255
227 239 255
227 239 255
227 239 255
227 239 255
227 239 255
227 239 255
227 239 255
227 239 255
227 239 255
227 239 255
227 239 255
227 239 255
227 239 255
227 239 255
227 239 255
227 239 255
227 239 255
227 239 255
227 239 255
227 239 255
227 239 255
227 239 255
227 239 255
227 239 255
227 239 255
227 239 255
227 239 255
227 239 255
227 239 255
227 239 255
227 239 255
227 239 255
227 239 255
227 239 255
227 239 255
227 239 255
227 239 255
227 239 255
227 239 255
227 239 255
227 239 255
227 239 255
226 239 255
226 239 255
226 239 255
226 238 255
226 238 255
226 238 255
226 238 255
226 238 255
226 238 255
226 238 255
226 238 255
226 238 255
226 238 255
226 238 255
226 238 255
226 238 255
226 238 255
226 238 255
226 238 255
226 238 255
226 238 255
226 238 255
226 238 255
226 238 255
226 238 255
226 238 255
226 238 255
226 238 255
226 238 255
226 238 255
226 238 255
226 238 255
226 238 255
226 238 255
226 238 255
226 238 255
226 238 255
226 238 255
226 238 255
226 238 255
226 238 255
226 238 255
226 238 255
226 238 255
226 238 255
226 238 255
226 238 255
226 238 255
226 238 255
226 238 255
226 238 255
226 238 255
226 238 255
226 238 255
226 238 255
226 238 255
226 238 255
226 238 255
226 238 255
226 238 255
226 238 255
226 238 255
226 238 255
225 238 255
225 238 255
225 238 255
225 238 255
225 238 255
225 238 255
225 238 255
225 238 255
225 238 255
225 238 255
225 238 255
225 238 255
225 238 255
225 238 255
225 238 255
225 238 255
225 238 255
225 238 255
225 238 255
225 238 255
225 238 255
225 238 255
225 238 255
225 238 255
225 238 255
225 238 255
225 238 255
225 238 255
225 238 255
225 238 255
225 238 255
225 238 255
225 238 255
225 238 255
225 238 255
225 238 255
225 238 255
225 238 255
225 238 255
225 238 255
225 238 255
225 238 255
225 238 255
225 238 255
225 238 255
225 238 255
225 238 255
225 238 255
225 238 255
225 238 255
225 238 255
225 238 255
225 238 255
225 237 255
225 237 255
225 237 255
225 237 255
225 237 255
225 237 255
225 237 255
225 237 255
225 237 255
225 237 255
225 237 255
225 237 255
225 237 255
225 237 255
225 237 255
225 237 255
224 237 255
224 237 255
224 237 255
224 237 255
224 237 255
224 237 255
224 237 255
224 237 255
224 237 255
224 237 255
224 237 255
224 237 255
224 237 255
224 237 255
224 237 255
224 237 255
224 237 255
224 237 255
224 237 255
224 237 255
224 237 255
224 237 255
224 237 255
224 237 255
224 237 255
224 237 255
224 237 255
224 237 255
224 237 255
224 237 255
224 237 255
224 237 255
224 237 255
224 237 255
224 237 255
224 237 255
224 237 255
224 237 255
224 237 255
224 237 255
224 237 255
224 237 255
225 237 255
225 237 255
225 237 255
225 237 255
225 237 255
225 237 255
225 237 255
225 237 255
225 237 255
225 237 255
225 237 255
225 237 255
225 237 255
225 237 255
225 237 255
225 237 255
225 238 255
225 238 255
225 238 255
225 238 255
225 238 255
225 238 255
225 238 255
225 238 255
225 238 255
225 238 255
225 238 255
225 238 255
225 238 255
225 238 255
225 238 255
225 238 255
225 238 255
225 238 255
225 238 255
225 238 255
225 238 255
225 238 255
225 238 255
225 238 255
225 238 255
225 238 255
225 238 255
225 238 255
225 238 255
225 238 255
225 238 255
225 238 255
225 238 255
225 238 255
225 238 255
225 238 255
225 238 255
225 238 255
225 238 255
225 238 255
225 238 255
225 238 255
225 238 255
225 238 255
225 238 255
225 238 255
225 238 255
225 238 255
225 238 255
225 238 255
225 238 255
225 238 255
226 238 255
226 238 255
226 238 255
226 238 255
226 238 255
226 238 255
226 238 255
226 238 255
226 238 255
226 238 255
226 238 255
226 238 255
226 238 255
226 238 255
226 238 255
226 238 255
226 238 255
226 238 255
226 238 255
226 238 255
226 238 255
226 238 255
226 238 255
226 238 255
226 238 255
226 238 255
226 238 255
226 238 255
226 238 255
226 238 255
226 238 255
226 238 255
226 238 255
226 238 255
226 238 255
226 238 255
226 238 255
226 238 255
226 238 255
226 238 255
226 238 255
226 238 255
226 238 255
226 238 255
226 238 255
226 238 255
226 238 255
226 238 255
226 238 255
226 238 255
226 238 255
226 238 255
226 238 255
226 238 255
226 238 255
226 239 255
226 239 255
227 239 255
227 239 255
227 239 255
227 239 255
227 239 255
227 239 255
227 239 255
227 239 255
227 239 255
227 239 255
227 239 255
227 239 255
227 239 255
227 239 255
227 239 255
227 239 255
227 239 255
227 239 255
227 239 255
227 239 255
227 239 255
227 239 255
227 239 255
227 239 255
227 239 255
227 239 255
227 239 255
227 239 255
227 239 255
227 239 255
227 239 255
227 239 255
227 239 255
227 239 255
227 239 255
227 239 255
227 239 255
227 239 255
227 239 255
227 239 255
227 239 255
227 239 255
227 239 255
227 239 255
227 239 255
227 239 255
227 239 255
227 239 255
227 239 255
227 239 255
227 239 255
227 239 255
227 239 255
227 239 255
227 239 255
227 239 255
227 239 255
227 239 255
227 239 255
227 239 255
227 239 255
227 239 255
227 239 255
227 239 255
227 239 255
227 239 255
227 239 255
227 239 255
227 239 255
227 239 255
227 239 255
227 239 255
227 239 255
227 239 255
227 239 255
227 239 255
227 239 255
227 239 255
227 239 255
227 239 255
227 239 255
227 239 255
227 239 255
227 239 255
227 239 255
227 239 255
227 239 255
227 239 255
227 239 255
227 239 255
227 239 255
227 239 255
227 239 255
227 239 255
227 239 255
227 239 255
227 239 255
227 239 255
227 239 255
227 239 255
227 239 255
227 239 255
227 239 255
227 239 255
227 239 255
227 239 255
227 239 255
227 239 255
227 239 255
227 239 255
227 239 255
227 239 255
227 239 255
227 239 255
227 239 255
227 239 255
227 239 255
227 239 255
226 239 255
226 239 255
226 238 255
226 238 255
226 238 255
226 238 255
226 238 255
226 238 255
226 238 255
226 238 255
226 238 255
226 238 255
226 238 255
226 238 255
226 238 255
226 238 255
226 238 255
226 238 255
226 238 255
226 238 255
226 238 255
226 238 255
226 238 255
226 238 255
226 238 255
226 238 255
226 238 255
226 238 255
226 238 255
226 238 255
226 238 255
226 238 255
226 238 255
226 238 255
226 238 255
226 238 255
226 238 255
226 238 255
226 238 255
226 238 255
226 238 255
226 238 255
226 238 255
226 238 255
226 238 255
226 238 255
226 238 255
226 238 255
226 238 255
226 238 255
226 238 255
226 238 255
226 238 255
226 238 255
226 238 255
226 238 255
226 238 255
225 238 255
225 238 255
225 238 255
225 238 255
225 238 255
225 238 255
225 238 255
225 238 255
225 238 255
225 238 255
225 238 255
225 238 255
225 238 255
225 238 255
225 238 255
225 238 255
225 238 255
225 238 255
225 238 255
225 238 255
225 238 255
225 238 255
225 238 255
225 238 255
225 238 255
225 238 255
225 238 255
225 238 255
225 238 255
225 238 255
225 238 255
225 238 255
225 238 255
225 238 255
225 238 255
225 238 255
225 238 255
225 238 255
225 238 255
225 238 255
225 238 255
225 238 255
225 238 255
225 238 255
225 238 255
225 238 255
225 238 255
225 238 255
225 238 255
225 238 255
225 238 255
225 238 255
225 237 255
225 237 255
225 237 255
225 237 255
225 237 255
225 237 255
225 237 255
225 237 255
225 237 255
225 237 255
225 237 255
225 237 255
225 237 255
225 237 255
225 237 255
225 237 255
224 237 255
224 237 255
224 237 255
224 237 255
224 237 255
224 237 255
224 237 255
224 237 255
224 237 255
224 237 255
224 237 255
224 237 255
224 237 255
224 237 255
224 237 255
224 237 255
224 237 255
224 237 255
224 237 255
224 237 255
225 237 255
225 237 255
225 237 255
225 237 255
225 237 255
225 237 255
225 237 255
225 237 255
225 237 255
225 237 255
225 237 255
225 237 255
225 237 255
225 237 255
225 237 255
225 237 255
225 237 255
225 238 255
225 238 255
225 238 255
225 238 255
225 238 255
225 238 255
225 238 255
225 238 255
225 238 255
225 238 255
225 238 255
225 238 255
225 238 255
225 238 255
225 238 255
225 238 255
225 238 255
225 238 255
225 238 255
225 238 255
225 238 255
225 238 255
225 238 255
225 238 255
225 238 255
225 238 255
225 238 255
225 238 255
225 238 255
225 238 255
225 238 255
225 238 255
225 238 255
225 238 255
225 238 255
225 238 255
225 238 255
225 238 255
225 238 255
225 238 255
225 238 255
225 238 255
225 238 255
225 238 255
225 238 255
225 238 255
225 238 255
225 238 255
225 238 255
225 238 255
225 238 255
225 238 255
226 238 255
226 238 255
226 238 255
226 238 255
226 238 255
226 238 255
226 238 255
226 238 255
226 238 255
226 238 255
226 238 255
226 238 255
226 238 255
226 238 255
226 238 255
226 238 255
226 238 255
226 238 255
226 238 255
226 238 255
226 238 255
226 238 255
226 238 255
226 238 255
226 238 255
226 238 255
226 238 255
226 238 255
226 238 255
226 238 255
226 238 255
226 238 255
226 238 255
226 238 255
226 238 255
226 238 255
226 238 255
226 238 255
226 238 255
226 238 255
226 238 255
226 238 255
226 238 255
226 238 255
226 238 255
226 238 255
226 238 255
226 238 255
226 238 255
226 238 255
226 238 255
226 238 255
226 238 255
226 239 255
226 239 255
227 239 255
227 239 255
227 239 255
227 239 255
227 239 255
227 239 255
227 239 255
227 239 255
227 239 255
227 239 255
227 239 255
227 239 255
227 239 255
227 239 255
227 239 255
227 239 255
227 239 255
227 239 255
227 239 255
227 239 255
227 239 255
227 239 255
227 239 255
227 239 255
227 239 255
227 239 255
227 239 255
227 239 255
227 239 255
227 239 255
227 239 255
227 239 255
227 239 255
227 239 255
227 239 255
227 239 255
227 239 255
227 239 255
227 239 255
227 239 255
227 239 255
227 239 255
227 239 255
227 239 255
227 239 255
227 239 255
227 239 255
227 239 255
227 239 255
227 239 255
227 239 255
227 239 255
227 239 255
227 239 255
227 239 255
227 239 255
227 239 255
227 239 255
227 239 255
227 239 255
227 239 255
227 239 255
227 239 255
227 239 255
227 239 255
227 239 255
227 239 255
227 239 255
227 239 255
227 239 255
227 239 255
227 239 255
227 239 255
227 239 255
227 239 255
227 239 255
227 239 255
227 239 255
227 239 255
227 239 255
227 239 255
227 239 255
227 239 255
227 239 255
227 239 255
227 239 255
227 239 255
227 239 255
227 239 255
227 239 255
227 239 255
227 239 255
227 239 255
227 239 255
227 239 255
227 239 255
227 239 255
227 239 255
227 239 255
227 239 255
227 239 255
227 239 255
227 239 255
227 239 255
227 239 255
227 239 255
227 239 255
227 239 255
227 239 255
227 239 255
227 239 255
227 239 255
227 239 255
227 239 255
227 239 255
227 239 255
227 239 255
227 239 255
227 239 255
227 239 255
227 239 255
227 239 255
227 239 255
227 239 255
227 239 255
227 239 255
227 239 255
227 239 255
227 239 255
227 239 255
227 239 255
227 239 255
227 239 255
227 239 255
227 239 255
227 239 255
227 239 255
227 239 255
227 239 255
227 239 255
227 239 255
227 239 255
227 239 255
226 239 255
226 239 255
226 239 255
226 238 255
226 238 255
226 238 255
226 238 255
226 238 255
226 238 255
226 238 255
226 238 255
226 238 255
226 238 255
226 238 255
226 238 255
226 238 255
226 238 255
226 238 255
226 238 255
226 238 255
226 238 255
226 238 255
226 238 255
226 238 255
226 238 255
226 238 255
226 238 255
226 238 255
226 238 255
226 238 255
226 238 255
226 238 255
226 238 255
226 238 255
226 238 255
226 238 255
226 238 255
226 238 255
226 238 255
226 238 255
226 238 255
226 238 255
226 238 255
226 238 255
226 238 255
226 238 255
226 238 255
226 238 255
226 238 255
226 238 255
226 238 255
226 238 255
226 238 255
226 238 255
226 238 255
226 238 255
225 238 255
225 238 255
225 238 255
225 238 255
225 238 255
225 238 255
225 238 255
225 238 255
225 238 255
225 238 255
225 238 255
225 238 255
225 238 255
225 238 255
225 238 255
225 238 255
225 238 255
225 238 255
225 238 255
225 238 255
225 238 255
225 238 255
225 238 255
225 238 255
225 238 255
225 238 255
225 238 255
225 238 255
225 238 255
225 238 255
225 238 255
225 238 255
225 238 255
225 238 255
225 238 255
225 238 255
225 238 255
225 238 255
225 238 255
225 238 255
225 238 255
225 238 255
225 238 255
225 238 255
225 238 255
225 238 255
225 238 255
225 238 255
225 238 255
225 238 255
225 238 255
225 238 255
225 237 255
225 237 255
225 237 255
225 237 255
225 237 255
225 237 255
225 237 255
225 237 255
225 237 255
225 237 255
225 237 255
225 237 255
225 237 255
225 237 255
225 237 255
225 237 255
225 237 255
224 237 255
224 237 255
224 237 255
224 237 255
225 237 255
225 237 255
225 237 255
225 237 255
225 237 255
225 237 255
225 237 255
225 237 255
225 237 255
225 237 255
225 238 255
225 238 255
225 238 255
225 238 255
225 238 255
225 238 255
225 238 255
225 238 255
225 238 255
225 238 255
225 238 255
225 238 255
225 238 255
225 238 255
225 238 255
225 238 255
225 238 255
225 238 255
225 238 255
225 238 255
225 238 255
225 238 255
225 238 255
225 238 255
225 238 255
225 238 255
225 238 255
225 238 255
225 238 255
225 238 255
225 238 255
225 238 255
225 238 255
225 238 255
225 238 255
225 238 255
225 238 255
225 238 255
225 238 255
225 238 255
225 238 255
225 238 255
225 238 255
225 238 255
225 238 255
225 238 255
225 238 255
225 238 255
225 238 255
225 238 255
225 238 255
225 238 255
225 238 255
225 238 255
226 238 255
226 238 255
226 238 255
226 238 255
226 238 255
226 238 255
226 238 255
226 238 255
226 238 255
226 238 255
226 238 255
226 238 255
226 238 255
226 238 255
226 238 255
226 238 255
226 238 255
226 238 255
226 238 255
226 238 255
226 238 255
226 238 255
226 238 255
226 238 255
226 238 255
226 238 255
226 238 255
226 238 255
226 238 255
226 238 255
226 238 255
226 238 255
226 238 255
226 238 255
226 238 255
226 238 255
226 238 255
226 238 255
226 238 255
226 238 255
226 238 255
226 238 255
226 238 255
226 238 255
226 238 255
226 238 255
226 238 255
226 238 255
226 238 255
226 238 255
226 238 255
226 238 255
226 239 255
227 239 255
227 239 255
227 239 255
227 239 255
227 239 255
227 239 255
227 239 255
227 239 255
227 239 255
227 239 255
227 239 255
227 239 255
227 239 255
227 239 255
227 239 255
227 239 255
227 239 255
227 239 255
227 239 255
227 239 255
227 239 255
227 239 255
227 239 255
227 239 255
227 239 255
227 239 255
227 239 255
227 239 255
227 239 255
227 239 255
227 239 255
227 239 255
227 239 255
227 239 255
227 239 255
227 239 255
227 239 255
227 239 255
227 239 255
227 239 255
227 239 255
227 239 255
227 239 255
227 239 255
227 239 255
227 239 255
227 239 255
227 239 255
227 239 255
227 239 255
227 239 255
227 239 255
227 239 255
227 239 255
227 239 255
227 239 255
227 239 255
227 239 255
227 239 255
227 239 255
227 239 255
227 239 255
227 239 255
227 239 255
227 239 255
227 239 255
227 239 255
228 239 255
228 239 255
228 239 255
228 239 255
228 239 255
228 239 255
228 239 255
228 239 255
228 239 255
228 239 255
228 239 255
228 239 255
228 239 255
228 239 255
228 239 255
228 239 255
228 239 255
228 239 255
228 239 255
228 239 255
228 239 255
228 239 255
228 239 255
228 239 255
228 239 255
228 239 255
228 239 255
228 239 255
228 239 255
228 239 255
228 239 255
227 239 255
227 239 255
227 239 255
227 239 255
227 239 255
227 239 255
227 239 255
227 239 255
227 239 255
227 239 255
227 239 255
227 239 255
227 239 255
227 239 255
227 239 255
227 239 255
227 239 255
227 239 255
227 239 255
227 239 255
227 239 255
227 239 255
227 239 255
227 239 255
227 239 255
227 239 255
227 239 255
227 239 255
227 239 255
227 239 255
227 239 255
227 239 255
227 239 255
227 239 255
227 239 255
227 239 255
227 239 255
227 239 255
227 239 255
227 239 255
227 239 255
227 239 255
227 239 255
227 239 255
227 239 255
227 239 255
227 239 255
227 239 255
227 239 255
227 239 255
227 239 255
227 239 255
227 239 255
227 239 255
227 239 255
227 239 255
227 239 255
227 239 255
227 239 255
227 239 255
227 239 255
227 239 255
227 239 255
227 239 255
227 239 255
227 239 255
227 239 255
226 239 255
226 239 255
226 238 255
226 238 255
226 238 255
226 238 255
226 238 255
226 238 255
226 238 255
226 238 255
226 238 255
226 238 255
226 238 255
226 238 255
226 238 255
226 238 255
226 238 255
226 238 255
226 238 255
226 238 255
226 238 255
226 238 255
226 238 255
226 238 255
226 238 255
226 238 255
226 238 255
226 238 255
226 238 255
226 238 255
226 238 255
226 238 255
226 238 255
226 238 255
226 238 255
226 238 255
226 238 255
226 238 255
226 238 255
226 238 255
226 238 255
226 238 255
226 238 255
226 238 255
226 238 255
226 238 255
226 238 255
226 238 255
226 238 255
226 238 255
226 238 255
226 238 255
226 238 255
226 238 255
225 238 255
225 238 255
225 238 255
225 238 255
225 238 255
225 238 255
225 238 255
225 238 255
225 238 255
225 238 255
225 238 255
225 238 255
225 238 255
225 238 255
225 238 255
225 238 255
225 238 255
225 238 255
225 238 255
225 238 255
225 238 255
225 238 255
225 238 255
225 238 255
225 238 255
225 238 255
225 238 255
225 238 255
225 238 255
225 238 255
225 238 255
225 238 255
225 238 255
225 238 255
225 238 255
225 238 255
225 238 255
225 238 255
225 238 255
225 238 255
225 238 255
225 238 255
225 238 255
225 238 255
225 238 255
225 238 255
225 238 255
225 238 255
225 238 255
225 238 255
225 238 255
225 238 255
225 238 255
225 238 255
225 237 255
225 237 255
225 237 255
225 237 255
225 237 255
225 237 255
225 237 255
225 237 255
225 237 255
225 237 255
225 238 255
225 238 255
225 238 255
225 238 255
225 238 255
225 238 255
225 238 255
225 238 255
225 238 255
225 238 255
225 238 255
225 238 255
225 238 255
225 238 255
225 238 255
225 238 255
225 238 255
225 238 255
225 238 255
225 238 255
225 238 255
225 238 255
225 238 255
225 238 255
225 238 255
225 238 255
225 238 255
225 238 255
225 238 255
225 238 255
225 238 255
225 238 255
225 238 255
225 238 255
225 238 255
225 238 255
225 238 255
225 238 255
225 238 255
225 238 255
225 238 255
225 238 255
225 238 255
225 238 255
225 238 255
225 238 255
225 238 255
225 238 255
225 238 255
225 238 255
225 238 255
225 238 255
225 238 255
225 238 255
226 238 255
226 238 255
226 238 255
226 238 255
226 238 255
226 238 255
226 238 255
226 238 255
226 238 255
226 238 255
226 238 255
226 238 255
226 238 255
226 238 255
226 238 255
226 238 255
226 238 255
226 238 255
226 238 255
226 238 255
226 238 255
226 238 255
226 238 255
226 238 255
226 238 255
226 238 255
226 238 255
226 238 255
226 238 255
226 238 255
226 238 255
226 238 255
226 238 255
226 238 255
226 238 255
226 238 255
226 238 255
226 238 255
226 238 255
226 238 255
226 238 255
226 238 255
226 238 255
226 238 255
226 238 255
226 238 255
226 238 255
226 238 255
226 238 255
226 238 255
226 238 255
226 239 255
226 239 255
227 239 255
227 239 255
227 239 255
227 239 255
227 239 255
227 239 255
227 239 255
227 239 255
227 239 255
227 239 255
227 239 255
227 239 255
227 239 255
227 239 255
227 239 255
227 239 255
227 239 255
227 239 255
227 239 255
227 239 255
227 239 255
227 239 255
227 239 255
227 239 255
227 239 255
227 239 255
227 239 255
227 239 255
227 239 255
227 239 255
227 239 255
227 239 255
227 239 255
227 239 255
227 239 255
227 239 255
227 239 255
227 239 255
227 239 255
227 239 255
227 239 255
227 239 255
227 239 255
227 239 255
227 239 255
227 239 255
227 239 255
227 239 255
227 239 255
227 239 255
227 239 255
227 239 255
227 239 255
227 239 255
228 239 255
228 239 255
228 239 255
228 239 255
228 239 255
228 239 255
228 239 255
228 239 255
228 239 255
228 239 255
228 239 255
228 239 255
228 239 255
228 239 255
228 239 255
228 239 255
228 239 255
228 239 255
228 239 255
228 239 255
228 239 255
228 239 255
228 239 255
228 239 255
228 239 255
228 239 255
228 239 255
228 239 255
228 239 255
228 239 255
228 239 255
228 239 255
228 239 255
228 239 255
228 239 255
228 239 255
228 239 255
228 239 255
228 239 255
228 239 255
228 239 255
228 239 255
228 239 255
228 239 255
228 239 255
228 239 255
228 239 255
228 239 255
228 239 255
228 239 255
228 239 255
228 239 255
228 239 255
228 239 255
228 239 255
228 239 255
228 239 255
228 239 255
228 239 255
228 239 255
228 239 255
228 239 255
228 239 255
228 239 255
228 239 255
228 239 255
228 239 255
228 239 255
228 239 255
228 239 255
228 239 255
228 239 255
228 239 255
228 239 255
228 239 255
228 239 255
228 239 255
228 239 255
227 239 255
227 239 255
227 239 255
227 239 255
227 239 255
227 239 255
227 239 255
227 239 255
227 239 255
227 239 255
227 239 255
227 239 255
227 239 255
227 239 255
227 239 255
227 239 255
227 239 255
227 239 255
227 239 255
227 239 255
227 239 255
227 239 255
227 239 255
227 239 255
227 239 255
227 239 255
227 239 255
227 239 255
227 239 255
227 239 255
227 239 255
227 239 255
227 239 255
227 239 255
227 239 255
227 239 255
227 239 255
227 239 255
227 239 255
227 239 255
227 239 255
227 239 255
227 239 255
227 239 255
227 239 255
227 239 255
227 239 255
227 239 255
227 239 255
227 239 255
227 239 255
227 239 255
227 239 255
227 239 255
226 239 255
226 239 255
226 238 255
226 238 255
226 238 255
226 238 255
226 238 255
226 238 255
226 238 255
226 238 255
226 238 255
226 238 255
226 238 255
226 238 255
226 238 255
226 238 255
226 238 255
226 238 255
226 238 255
226 238 255
226 238 255
226 238 255
226 238 255
226 238 255
226 238 255
226 238 255
226 238 255
226 238 255
226 238 255
226 238 255
226 238 255
226 238 255
226 238 255
226 238 255
226 238 255
226 238 255
226 238 255
226 238 255
226 238 255
226 238 255
226 238 255
226 238 255
226 238 255
226 238 255
226 238 255
226 238 255
226 238 255
226 238 255
226 238 255
226 238 255
226 238 255
226 238 255
226 238 255
225 238 255
225 238 255
225 238 255
225 238 255
225 238 255
225 238 255
225 238 255
225 238 255
225 238 255
225 238 255
225 238 255
225 238 255
225 238 255
225 238 255
225 238 255
225 238 255
225 238 255
225 238 255
225 238 255
225 238 255
225 238 255
225 238 255
225 238 255
225 238 255
225 238 255
225 238 255
225 238 255
225 238 255
225 238 255
225 238 255
225 238 255
225 238 255
225 238 255
225 238 255
225 238 255
225 238 255
225 238 255
225 238 255
225 238 255
225 238 255
225 238 255
225 238 255
225 238 255
225 238 255
225 238 255
225 238 255
225 238 255
225 238 255
225 238 255
225 238 255
225 238 255
225 238 255
225 238 255
225 238 255
225 238 255
225 238 255
225 238 255
225 238 255
225 238 255
225 238 255
225 238 255
225 238 255
225 238 255
225 238 255
225 238 255
225 238 255
225 238 255
225 238 255
225 238 255
225 238 255
225 238 255
225 238 255
225 238 255
225 238 255
225 238 255
225 238 255
225 238 255
225 238 255
225 238 255
225 238 255
225 238 255
225 238 255
225 238 255
225 238 255
225 238 255
225 238 255
225 238 255
225 238 255
225 238 255
225 238 255
225 238 255
225 238 255
225 238 255
225 238 255
225 238 255
225 238 255
225 238 255
225 238 255
225 238 255
226 238 255
226 238 255
226 238 255
226 238 255
226 238 255
226 238 255
226 238 255
226 238 255
226 238 255
226 238 255
226 238 255
226 238 255
226 238 255
226 238 255
226 238 255
226 238 255
226 238 255
226 238 255
226 238 255
226 238 255
226 238 255
226 238 255
226 238 255
226 238 255
226 238 255
226 238 255
226 238 255
226 238 255
226 238 255
226 238 255
226 238 255
226 238 255
226 238 255
226 238 255
226 238 255
226 238 255
226 238 255
226 238 255
226 238 255
226 238 255
226 238 255
226 238 255
226 238 255
226 238 255
226 238 255
226 238 255
226 238 255
226 238 255
226 238 255
226 238 255
226 239 255
226 239 255
227 239 255
227 239 255
227 239 255
227 239 255
227 239 255
227 239 255
227 239 255
227 239 255
227 239 255
227 239 255
227 239 255
227 239 255
227 239 255
227 239 255
227 239 255
227 239 255
227 239 255
227 239 255
227 239 255
227 239 255
227 239 255
227 239 255
227 239 255
227 239 255
227 239 255
227 239 255
227 239 255
227 239 255
227 239 255
227 239 255
227 239 255
227 239 255
227 239 255
227 239 255
227 239 255
227 239 255
227 239 255
227 239 255
227 239 255
227 239 255
227 239 255
227 239 255
227 239 255
227 239 255
227 239 255
227 239 255
227 239 255
227 239 255
227 239 255
228 239 255
228 239 255
228 239 255
228 239 255
228 239 255
228 239 255
228 239 255
228 239 255
228 239 255
228 239 255
228 239 255
228 239 255
228 239 255
228 239 255
228 239 255
228 239 255
228 239 255
228 239 255
228 239 255
228 239 255
228 239 255
228 239 255
228 239 255
228 239 255
228 239 255
228 239 255
228 239 255
228 239 255
228 239 255
228 239 255
228 239 255
228 239 255
228 239 255
228 239 255
228 239 255
228 239 255
228 239 255
228 239 255
228 239 255
228 239 255
228 239 255
228 239 255
228 239 255
228 239 255
228 239 255
228 239 255
228 239 255
228 239 255
228 239 255
228 239 255
228 239 255
228 239 255
228 239 255
228 239 255
228 239 255
228 239 255
228 239 255
228 239 255
228 239 255
228 239 255
228 239 255
228 239 255
228 239 255
228 239 255
228 239 255
228 239 255
228 239 255
228 239 255
228 239 255
228 239 255
228 239 255
228 239 255
228 239 255
228 239 255
228 239 255
228 239 255
228 239 255
228 239 255
228 239 255
228 239 255
228 239 255
228 239 255
228 239 255
228 239 255
228 239 255
228 239 255
228 239 255
228 239 255
228 239 255
228 239 255
228 239 255
228 239 255
228 239 255
228 239 255
228 239 255
228 239 255
228 239 255
228 239 255
228 239 255
228 239 255
228 239 255
228 239 255
228 239 255
228 239 255
228 239 255
228 239 255
228 239 255
228 239 255
227 239 255
227 239 255
227 239 255
227 239 255
227 239 255
227 239 255
227 239 255
227 239 255
227 239 255
227 239 255
227 239 255
227 239 255
227 239 255
227 239 255
227 239 255
227 239 255
227 239 255
227 239 255
227 239 255
227 239 255
227 239 255
227 239 255
227 239 255
227 239 255
227 239 255
227 239 255
227 239 255
227 239 255
227 239 255
227 239 255
227 239 255
227 239 255
227 239 255
227 239 255
227 239 255
227 239 255
227 239 255
227 239 255
227 239 255
227 239 255
227 239 255
227 239 255
227 239 255
227 239 255
227 239 255
227 239 255
227 239 255
227 239 255
227 239 255
226 239 255
226 238 255
226 238 255
226 238 255
226 238 255
226 238 255
226 238 255
226 238 255
226 238 255
226 238 255
226 238 255
226 238 255
226 238 255
226 238 255
226 238 255
226 238 255
226 238 255
226 238 255
226 238 255
226 238 255
226 238 255
226 238 255
226 238 255
226 238 255
226 238 255
226 238 255
226 238 255
226 238 255
226 238 255
226 238 255
226 238 255
226 238 255
226 238 255
226 238 255
226 238 255
226 238 255
226 238 255
226 238 255
226 238 255
226 238 255
226 238 255
226 238 255
226 238 255
226 238 255
226 238 255
226 238 255
226 238 255
226 238 255
226 238 255
226 238 255
226 238 255
226 238 255
225 238 255
225 238 255
225 238 255
225 238 255
225 238 255
225 238 255
225 238 255
225 238 255
225 238 255
225 238 255
225 238 255
225 238 255
225 238 255
225 238 255
225 238 255
225 238 255
225 238 255
225 238 255
225 238 255
225 238 255
225 238 255
225 238 255
225 238 255
225 238 255
225 238 255
225 238 255
225 238 255
225 238 255
225 238 255
225 238 255
225 238 255
225 238 255
225 238 255
225 238 255
225 238 255
225 238 255
225 238 255
225 238 255
225 238 255
225 238 255
225 238 255
225 238 255
225 238 255
225 238 255
225 238 255
225 238 255
225 238 255
225 238 255
225 238 255
225 238 255
225 238 255
225 238 255
225 238 255
225 238 255
225 238 255
225 238 255
225 238 255
225 238 255
225 238 255
225 238 255
225 238 255
225 238 255
225 238 255
225 238 255
225 238 255
225 238 255
225 238 255
225 238 255
225 238 255
225 238 255
225 238 255
225 238 255
225 238 255
225 238 255
225 238 255
225 238 255
225 238 255
225 238 255
225 238 255
225 238 255
226 238 255
226 238 255
226 238 255
226 238 255
226 238 255
226 238 255
226 238 255
226 238 255
226 238 255
226 238 255
226 238 255
226 238 255
226 238 255
226 238 255
226 238 255
226 238 255
226 238 255
226 238 255
226 238 255
226 238 255
226 238 255
226 238 255
226 238 255
226 238 255
226 238 255
226 238 255
226 238 255
226 238 255
226 238 255
226 238 255
226 238 255
226 238 255
226 238 255
226 238 255
226 238 255
226 238 255
226 238 255
226 238 255
226 238 255
226 238 255
226 238 255
226 238 255
226 238 255
226 238 255
226 238 255
226 238 255
226 238 255
226 238 255
226 238 255
226 238 255
226 238 255
226 239 255
226 239 255
227 239 255
227 239 255
227 239 255
227 239 255
227 239 255
227 239 255
227 239 255
227 239 255
227 239 255
227 239 255
227 239 255
227 239 255
227 239 255
227 239 255
227 239 255
227 239 255
227 239 255
227 239 255
227 239 255
227 239 255
227 239 255
227 239 255
227 239 255
227 239 255
227 239 255
227 239 255
227 239 255
227 239 255
227 239 255
227 239 255
227 239 255
227 239 255
227 239 255
227 239 255
227 239 255
227 239 255
227 239 255
227 239 255
227 239 255
227 239 255
227 239 255
227 239 255
227 239 255
227 239 255
227 239 255
227 239 255
227 239 255
228 239 255
228 239 255
228 239 255
228 239 255
228 239 255
228 239 255
228 239 255
228 239 255
228 239 255
228 239 255
228 239 255
228 239 255
228 239 255
228 239 255
228 239 255
228 239 255
228 239 255
228 239 255
228 239 255
228 239 255
228 239 255
228 239 255
228 239 255
228 239 255
228 239 255
228 239 255
228 239 255
228 239 255
228 239 255
228 239 255
228 239 255
228 239 255
228 239 255
228 239 255
228 239 255
228 239 255
228 239 255
227 239 253
224 236 245
225 237 246
221 234 237
220 233 231
221 233 234
215 229 218
209 224 198
211 226 204
209 224 201
207 223 194
204 220 184
205 221 188
206 222 193
198 216 165
201 218 173
197 215 163
195 214 157
192 211 137
193 212 142
194 213 144
194 213 147
189 209 125
192 211 137
189 209 130
191 210 133
188 208 122
188 208 120
188 208 117
189 209 125
190 209 125
191 210 133
189 209 128
190 209 125
194 213 147
191 211 140
192 212 147
191 210 133
192 211 144
198 216 161
199 216 165
197 214 155
205 221 186
201 218 169
210 225 203
206 222 191
214 228 215
213 228 212
215 229 218
211 226 206
213 227 212
219 232 230
222 235 240
224 236 244
225 237 248
228 239 255
228 239 255
228 239 255
228 239 255
228 239 255
228 239 255
228 239 255
228 239 255
228 239 255
228 239 255
228 239 255
228 239 255
228 239 255
228 239 255
228 239 255
228 239 255
228 239 255
228 239 255
228 239 255
228 239 255
228 239 255
228 239 255
228 239 255
228 239 255
228 239 255
228 239 255
228 239 255
228 239 255
228 239 255
228 239 255
228 239 255
228 239 255
228 239 255
228 239 255
228 239 255
228 239 255
228 239 255
228 239 255
228 239 255
228 239 255
227 239 255
227 239 255
227 239 255
227 239 255
227 239 255
227 239 255
227 239 255
227 239 255
227 239 255
227 239 255
227 239 255
227 239 255
227 239 255
227 239 255
227 239 255
227 239 255
227 239 255
227 239 255
227 239 255
227 239 255
227 239 255
227 239 255
227 239 255
227 239 255
227 239 255
227 239 255
227 239 255
227 239 255
227 239 255
227 239 255
227 239 255
227 239 255
227 239 255
227 239 255
227 239 255
227 239 255
227 239 255
227 239 255
227 239 255
227 239 255
227 239 255
227 239 255
227 239 255
227 239 255
227 239 255
226 239 255
226 238 255
226 238 255
226 238 255
226 238 255
226 238 255
226 238 255
226 238 255
226 238 255
226 238 255
226 238 255
226 238 255
226 238 255
226 238 255
226 238 255
226 238 255
226 238 255
226 238 255
226 238 255
226 238 255
226 238 255
226 238 255
226 238 255
226 238 255
226 238 255
226 238 255
226 238 255
226 238 255
226 238 255
226 238 255
226 238 255
226 238 255
226 238 255
226 238 255
226 238 255
226 238 255
226 238 255
226 238 255
226 238 255
226 238 255
226 238 255
226 238 255
226 238 255
226 238 255
226 238 255
226 238 255
226 238 255
226 238 255
226 238 255
226 238 255
226 238 255
226 238 255
225 238 255
225 238 255
225 238 255
225 238 255
225 238 255
225 238 255
225 238 255
225 238 255
225 238 255
225 238 255
225 238 255
225 238 255
225 238 255
225 238 255
225 238 255
225 238 255
225 238 255
225 238 255
225 238 255
225 238 255
225 238 255
225 238 255
225 238 255
225 238 255
225 238 255
225 238 255
225 238 255
225 238 255
225 238 255
225 238 255
225 238 255
225 238 255
225 238 255
225 238 255
225 238 255
225 238 255
225 238 255
225 238 255
225 238 255
225 238 255
225 238 255
225 238 255
225 238 255
225 238 255
225 238 255
225 238 255
225 238 255
225 238 255
225 238 255
225 238 255
225 238 255
225 238 255
225 238 255
225 238 255
225 238 255
225 238 255
225 238 255
225 238 255
225 238 255
225 238 255
225 238 255
225 238 255
226 238 255
226 238 255
226 238 255
226 238 255
226 238 255
226 238 255
226 238 255
226 238 255
226 238 255
226 238 255
226 238 255
226 238 255
226 238 255
226 238 255
226 238 255
226 238 255
226 238 255
226 238 255
226 238 255
226 238 255
226 238 255
226 238 255
226 238 255
226 238 255
226 238 255
226 238 255
226 238 255
226 238 255
226 238 255
226 238 255
226 238 255
226 238 255
226 238 255
226 238 255
226 238 255
226 238 255
226 238 255
226 238 255
226 238 255
226 238 255
226 238 255
226 238 255
226 238 255
226 238 255
226 238 255
226 238 255
226 238 255
226 238 255
226 238 255
226 238 255
226 238 255
226 238 255
226 239 255
227 239 255
227 239 255
227 239 255
227 239 255
227 239 255
227 239 255
227 239 255
227 239 255
227 239 255
227 239 255
227 239 255
227 239 255
227 239 255
227 239 255
227 239 255
227 239 255
227 239 255
227 239 255
227 239 255
227 239 255
227 239 255
227 239 255
227 239 255
227 239 255
227 239 255
227 239 255
227 239 255
227 239 255
227 239 255
227 239 255
227 239 255
227 239 255
227 239 255
227 239 255
227 239 255
227 239 255
227 239 255
227 239 255
227 239 255
227 239 255
227 239 255
227 239 255
227 239 255
227 239 255
227 239 255
228 239 255
228 239 255
228 239 255
228 239 255
228 239 255
228 239 255
228 239 255
228 239 255
228 239 255
228 239 255
228 239 255
228 239 255
228 239 255
228 239 255
228 239 255
228 239 255
228 239 255
228 239 255
228 239 255
228 239 255
228 239 255
228 239 255
228 239 255
228 239 255
228 239 255
228 239 255
228 239 255
228 239 255
228 239 255
228 239 255
228 239 255
228 239 255
228 239 255
228 239 255
226 237 248
224 236 244
221 234 236
216 230 220
210 225 204
205 221 186
207 223 193
202 219 177
194 213 144
192 211 137
193 212 144
183 204 99
182 203 76
177 200 57
177 200 44
175 198 0
176 199 0
175 198 0
174 198 0
175 198 0
176 199 0
174 198 0
173 197 0
173 197 0
175 198 0
175 198 0
175 198 0
175 198 0
175 198 0
175 198 0
175 198 0
174 198 0
175 198 0
174 197 0
176 199 0
174 197 0
172 197 0
174 197 0
173 197 0
175 198 0
175 198 0
174 198 0
175 198 0
175 198 0
175 198 0
175 198 0
174 197 0
174 198 0
175 198 0
175 198 0
175 198 0
175 198 0
174 198 0
174 198 0
174 198 0
176 198 0
174 198 0
174 198 0
173 197 0
173 197 0
175 198 0
175 198 0
175 198 0
174 198 0
176 199 0
174 198 0
174 197 0
175 198 0
174 198 0
177 199 25
179 201 72
182 203 84
182 204 92
194 212 142
193 212 147
198 215 159
198 216 165
207 223 196
209 224 201
212 226 207
214 228 217
222 235 238
220 233 234
226 238 249
228 239 254
228 239 255
228 239 255
228 239 255
228 239 255
228 239 255
228 239 255
228 239 255
228 239 255
228 239 255
228 239 255
228 239 255
228 239 255
228 239 255
228 239 255
228 239 255
228 239 255
228 239 255
228 239 255
228 239 255
228 239 255
228 239 255
228 239 255
228 239 255
228 239 255
228 239 255
228 239 255
228 239 255
228 239 255
228 239 255
228 239 255
228 239 255
228 239 255
228 239 255
227 239 255
227 239 255
227 239 255
227 239 255
227 239 255
227 239 255
227 239 255
227 239 255
227 239 255
227 239 255
227 239 255
227 239 255
227 239 255
227 239 255
227 239 255
227 239 255
227 239 255
227 239 255
227 239 255
227 239 255
227 239 255
227 239 255
227 239 255
227 239 255
227 239 255
227 239 255
227 239 255
227 239 255
227 239 255
227 239 255
227 239 255
227 239 255
227 239 255
227 239 255
227 239 255
227 239 255
227 239 255
227 239 255
227 239 255
227 239 255
227 239 255
227 239 255
227 239 255
227 239 255
226 239 255
226 239 255
226 238 255
226 238 255
226 238 255
226 238 255
226 238 255
226 238 255
226 238 255
226 238 255
226 238 255
226 238 255
226 238 255
226 238 255
226 238 255
226 238 255
226 238 255
226 238 255
226 238 255
226 238 255
226 238 255
226 238 255
226 238 255
226 238 255
226 238 255
226 238 255
226 238 255
226 238 255
226 238 255
226 238 255
226 238 255
226 238 255
226 238 255
226 238 255
226 238 255
226 238 255
226 238 255
226 238 255
226 238 255
226 238 255
226 238 255
226 238 255
226 238 255
226 238 255
226 238 255
226 238 255
226 238 255
226 238 255
226 238 255
226 238 255
226 238 255
226 238 255
226 238 255
225 238 255
225 238 255
225 238 255
225 238 255
225 238 255
225 238 255
225 238 255
225 238 255
225 238 255
225 238 255
225 238 255
225 238 255
225 238 255
225 238 255
225 238 255
225 238 255
225 238 255
225 238 255
225 238 255
225 238 255
225 238 255
225 238 255
225 238 255
225 238 255
225 238 255
225 238 255
225 238 255
225 238 255
225 238 255
225 238 255
225 238 255
225 238 255
225 238 255
225 238 255
225 238 255
225 238 255
225 238 255
225 238 255
225 238 255
225 238 255
225 238 255
225 238 255
225 238 255
225 238 255
225 238 255
226 238 255
226 238 255
226 238 255
226 238 255
226 238 255
226 238 255
226 238 255
226 238 255
226 238 255
226 238 255
226 238 255
226 238 255
226 238 255
226 238 255
226 238 255
226 238 255
226 238 255
226 238 255
226 238 255
226 238 255
226 238 255
226 238 255
226 238 255
226 238 255
226 238 255
226 238 255
226 238 255
226 238 255
226 238 255
226 238 255
226 238 255
226 238 255
226 238 255
226 238 255
226 238 255
226 238 255
226 238 255
226 238 255
226 238 255
226 238 255
226 238 255
226 238 255
226 238 255
226 238 255
226 238 255
226 238 255
226 238 255
226 238 255
226 238 255
226 238 255
226 238 255
226 238 255
226 239 255
227 239 255
227 239 255
227 239 255
227 239 255
227 239 255
227 239 255
227 239 255
227 239 255
227 239 255
227 239 255
227 239 255
227 239 255
227 239 255
227 239 255
227 239 255
227 239 255
227 239 255
227 239 255
227 239 255
227 239 255
227 239 255
227 239 255
227 239 255
227 239 255
227 239 255
227 239 255
227 239 255
227 239 255
227 239 255
227 239 255
227 239 255
227 239 255
227 239 255
227 239 255
227 239 255
227 239 255
227 239 255
227 239 255
227 239 255
227 239 255
227 239 255
227 239 255
227 239 255
227 239 255
228 239 255
228 239 255
228 239 255
228 239 255
228 239 255
228 239 255
228 239 255
228 239 255
228 239 255
228 239 255
228 239 255
228 239 255
228 239 255
228 239 255
228 239 255
228 239 255
228 239 255
228 239 255
228 239 255
228 239 255
228 239 255
228 239 255
228 239 255
228 239 255
228 239 255
228 239 255
228 239 255
228 239 255
228 239 255
228 239 255
228 239 255
228 240 255
227 238 252
219 232 230
216 230 223
211 226 206
209 224 199
200 217 171
198 216 163
189 209 122
188 208 117
178 201 72
174 198 44
173 197 0
174 198 0
174 198 0
175 198 0
174 197 0
174 198 0
176 199 0
175 198 0
175 198 0
176 199 0
176 199 0
176 199 0
175 198 0
174 197 0
173 197 0
176 199 0
174 198 0
175 198 0
175 198 0
174 198 0
174 197 0
174 197 0
175 198 0
175 198 0
175 198 0
174 198 0
176 198 0
174 198 0
174 198 0
174 197 0
174 198 0
174 198 0
173 197 0
174 198 0
173 197 0
176 198 0
174 198 0
176 199 0
174 197 0
174 198 0
175 198 0
173 197 0
176 198 0
175 198 0
175 198 0
175 198 0
176 198 0
175 198 0
173 197 0
176 198 0
173 197 0
175 198 0
174 198 0
175 198 0
175 198 0
176 199 0
176 198 0
176 199 0
175 198 0
174 197 0
175 198 0
174 197 0
176 199 0
175 198 0
175 198 0
174 198 0
173 197 0
174 198 0
176 198 0
173 197 0
176 199 0
174 197 0
175 198 0
175 198 0
175 198 0
176 198 0
174 198 0
173 197 0
173 197 0
173 197 0
175 198 0
174 198 0
175 198 0
175 198 0
176 199 44
183 204 88
183 205 102
188 208 120
196 214 155
204 220 181
203 220 181
217 230 223
214 228 215
217 231 223
227 238 252
228 240 255
228 239 255
228 239 255
228 239 255
228 239 255
228 239 255
228 239 255
228 239 255
228 239 255
228 239 255
228 239 255
228 239 255
228 239 255
228 239 255
228 239 255
228 239 255
228 239 255
228 239 255
228 239 255
228 239 255
228 239 255
228 239 255
228 239 255
228 239 255
228 239 255
228 239 255
228 239 255
228 239 255
228 239 255
228 239 255
228 239 255
228 239 255
227 239 255
227 239 255
227 239 255
227 239 255
227 239 255
227 239 255
227 239 255
227 239 255
227 239 255
227 239 255
227 239 255
227 239 255
227 239 255
227 239 255
227 239 255
227 239 255
227 239 255
227 239 255
227 239 255
227 239 255
227 239 255
227 239 255
227 239 255
227 239 255
227 239 255
227 239 255
227 239 255
227 239 255
227 239 255
227 239 255
227 239 255
227 239 255
227 239 255
227 239 255
227 239 255
227 239 255
227 239 255
227 239 255
227 239 255
227 239 255
227 239 255
227 239 255
227 239 255
226 239 255
226 239 255
226 239 255
226 238 255
226 238 255
226 238 255
226 238 255
226 238 255
226 238 255
226 238 255
226 238 255
226 238 255
226 238 255
226 238 255
226 238 255
226 238 255
226 238 255
226 238 255
226 238 255
226 238 255
226 238 255
226 238 255
226 238 255
226 238 255
226 238 255
226 238 255
226 238 255
226 238 255
226 238 255
226 238 255
226 238 255
226 238 255
226 238 255
226 238 255
226 238 255
226 238 255
226 238 255
226 238 255
226 238 255
226 238 255
226 238 255
226 238 255
226 238 255
226 238 255
226 238 255
226 238 255
226 238 255
226 238 255
226 238 255
226 238 255
226 238 255
226 238 255
226 238 255
226 238 255
225 238 255
225 238 255
225 238 255
225 238 255
225 238 255
225 238 255
225 238 255
225 238 255
225 238 255
225 238 255
225 238 255
225 238 255
225 238 255
225 238 255
225 238 255
225 238 255
225 238 255
225 238 255
225 238 255
225 238 255
225 238 255
225 238 255
225 238 255
225 238 255
225 238 255
225 238 255
225 238 255
226 238 255
226 238 255
226 238 255
226 238 255
226 238 255
226 238 255
226 238 255
226 238 255
226 238 255
226 238 255
226 238 255
226 238 255
226 238 255
226 238 255
226 238 255
226 238 255
226 238 255
226 238 255
226 238 255
226 238 255
226 238 255
226 238 255
226 238 255
226 238 255
226 238 255
226 238 255
226 238 255
226 238 255
226 238 255
226 238 255
226 238 255
226 238 255
226 238 255
226 238 255
226 238 255
226 238 255
226 238 255
226 238 255
226 238 255
226 238 255
226 238 255
226 238 255
226 238 255
226 238 255
226 238 255
226 238 255
226 238 255
226 238 255
226 238 255
226 238 255
226 238 255
226 238 255
226 239 255
226 239 255
227 239 255
227 239 255
227 239 255
227 239 255
227 239 255
227 239 255
227 239 255
227 239 255
227 239 255
227 239 255
227 239 255
227 239 255
227 239 255
227 239 255
227 239 255
227 239 255
227 239 255
227 239 255
227 239 255
227 239 255
227 239 255
227 239 255
227 239 255
227 239 255
227 239 255
227 239 255
227 239 255
227 239 255
227 239 255
227 239 255
227 239 255
227 239 255
227 239 255
227 239 255
227 239 255
227 239 255
227 239 255
227 239 255
227 239 255
227 239 255
227 239 255
227 239 255
227 239 255
228 239 255
228 239 255
228 239 255
228 239 255
228 239 255
228 239 255
228 239 255
228 239 255
228 239 255
228 239 255
228 239 255
228 239 255
228 239 255
228 239 255
228 239 255
228 239 255
228 239 255
228 239 255
228 239 255
228 239 255
228 239 255
228 239 255
228 239 255
228 239 255
228 239 255
228 239 255
228 239 255
228 239 255
228 239 255
228 239 255
228 240 255
228 240 255
222 234 237
218 231 226
214 228 212
211 226 207
199 216 161
193 212 142
188 208 117
183 205 102
177 200 57
176 199 0
174 198 0
173 197 0
176 199 0
176 199 0
175 198 0
174 198 0
174 198 0
174 198 0
174 198 0
175 198 0
175 198 0
176 199 0
174 197 0
174 197 0
175 198 0
174 198 0
175 198 0
175 198 0
175 198 0
177 199 0
176 199 0
174 197 0
175 198 0
174 198 0
174 198 0
175 198 0
175 198 0
174 198 0
174 198 0
174 197 0
174 197 0
175 198 0
173 197 0
174 198 0
174 197 0
175 198 0
176 199 0
173 197 0
174 198 0
176 198 0
173 197 0
174 198 0
176 199 0
175 198 0
175 198 0
175 198 0
174 198 0
175 198 0
175 198 0
174 198 0
174 198 0
174 197 0
175 198 0
174 198 0
173 197 0
175 198 0
176 199 0
176 198 0
175 198 0
175 198 0
173 197 0
173 197 0
174 197 0
175 198 0
173 197 0
173 197 0
175 198 0
174 198 0
174 198 0
173 197 0
174 198 0
173 197 0
174 198 0
175 198 0
176 199 0
173 197 0
175 198 0
175 198 0
175 198 0
175 198 0
175 198 0
175 198 0
176 199 0
176 198 0
174 198 0
174 198 0
174 198 0
173 197 0
174 198 0
174 198 0
174 198 0
174 198 0
174 198 0
173 197 0
173 197 0
173 197 0
173 197 0
173 197 0
174 197 0
176 199 0
174 198 0
174 197 0
175 198 0
175 198 0
174 198 0
176 199 51
183 204 99
192 211 137
196 214 153
202 219 179
210 225 201
210 225 204
222 234 238
224 236 245
228 240 255
228 240 255
228 240 255
228 239 255
228 239 255
228 239 255
228 239 255
228 239 255
228 239 255
228 239 255
228 239 255
228 239 255
228 239 255
228 239 255
228 239 255
228 239 255
228 239 255
228 239 255
228 239 255
228 239 255
228 239 255
228 239 255
228 239 255
228 239 255
228 239 255
228 239 255
228 239 255
228 239 255
228 239 255
228 239 255
228 239 255
228 239 255
227 239 255
227 239 255
227 239 255
227 239 255
227 239 255
227 239 255
227 239 255
227 239 255
227 239 255
227 239 255
227 239 255
227 239 255
227 239 255
227 239 255
227 239 255
227 239 255
227 239 255
227 239 255
227 239 255
227 239 255
227 239 255
227 239 255
227 239 255
227 239 255
227 239 255
227 239 255
227 239 255
227 239 255
227 239 255
227 239 255
227 239 255
227 239 255
227 239 255
227 239 255
227 239 255
227 239 255
227 239 255
227 239 255
227 239 255
227 239 255
227 239 255
227 239 255
227 239 255
226 239 255
226 239 255
226 238 255
226 238 255
226 238 255
226 238 255
226 238 255
226 238 255
226 238 255
226 238 255
226 238 255
226 238 255
226 238 255
226 238 255
226 238 255
226 238 255
226 238 255
226 238 255
226 238 255
226 238 255
226 238 255
226 238 255
226 238 255
226 238 255
226 238 255
226 238 255
226 238 255
226 238 255
226 238 255
226 238 255
226 238 255
226 238 255
226 238 255
226 238 255
226 238 255
226 238 255
226 238 255
226 238 255
226 238 255
226 238 255
226 238 255
226 238 255
226 238 255
226 238 255
226 238 255
226 238 255
226 238 255
226 238 255
226 238 255
226 238 255
226 238 255
226 238 255
226 238 255
226 238 255
225 238 255
225 238 255
225 238 255
225 238 255
225 238 255
225 238 255
225 238 255
225 238 255
225 238 255
226 238 255
226 238 255
226 238 255
226 238 255
226 238 255
226 238 255
226 238 255
226 238 255
226 238 255
226 238 255
226 238 255
226 238 255
226 238 255
226 238 255
226 238 255
226 238 255
226 238 255
226 238 255
226 238 255
226 238 255
226 238 255
226 238 255
226 238 255
226 238 255
226 238 255
226 238 255
226 238 255
226 238 255
226 238 255
226 238 255
226 238 255
226 238 255
226 238 255
226 238 255
226 238 255
226 238 255
226 238 255
226 238 255
226 238 255
226 238 255
226 238 255
226 238 255
226 238 255
226 238 255
226 238 255
226 238 255
226 238 255
226 238 255
226 238 255
226 238 255
226 238 255
226 238 255
226 238 255
226 239 255
226 239 255
226 239 255
227 239 255
227 239 255
227 239 255
227 239 255
227 239 255
227 239 255
227 239 255
227 239 255
227 239 255
227 239 255
227 239 255
227 239 255
227 239 255
227 239 255
227 239 255
227 239 255
227 239 255
227 239 255
227 239 255
227 239 255
227 239 255
227 239 255
227 239 255
227 239 255
227 239 255
227 239 255
227 239 255
227 239 255
227 239 255
227 239 255
227 239 255
227 239 255
227 239 255
227 239 255
227 239 255
227 239 255
227 239 255
227 239 255
227 239 255
227 239 255
227 239 255
227 239 255
227 239 255
228 239 255
228 239 255
228 239 255
228 239 255
228 239 255
228 239 255
228 239 255
228 239 255
228 239 255
228 239 255
228 239 255
228 239 255
228 239 255
228 239 255
228 239 255
228 239 255
228 239 255
228 239 255
228 239 255
228 239 255
228 239 255
228 239 255
228 239 255
228 239 255
228 239 255
228 239 255
228 239 255
228 240 255
228 240 255
228 240 255
227 239 253
220 233 230
216 230 223
206 222 189
205 221 184
200 217 167
190 209 130
182 203 84
176 199 25
176 199 0
175 198 0
175 198 0
174 198 0
174 198 0
175 198 0
174 198 0
173 197 0
174 198 0
175 198 0
176 199 0
175 198 0
175 198 0
176 198 0
173 197 0
176 199 0
174 198 0
176 199 0
176 198 0
174 198 0
175 198 0
175 198 0
173 197 0
172 197 0
175 198 0
177 199 0
175 198 0
175 198 0
175 198 0
174 198 0
175 198 0
175 198 0
174 197 0
175 198 0
176 198 0
176 199 0
175 198 0
175 198 0
174 198 0
175 198 0
173 197 0
174 198 0
175 198 0
174 198 0
175 198 0
173 197 0
174 198 0
175 198 0
174 198 0
175 198 0
174 198 0
174 198 0
175 198 0
175 198 0
173 197 0
173 197 0
175 198 0
174 198 0
173 197 0
174 198 0
174 197 0
174 198 0
175 198 0
174 198 0
176 199 0
177 199 0
172 197 0
175 198 0
174 198 0
176 199 0
176 199 0
174 197 0
174 197 0
174 198 0
176 198 0
175 198 0
174 197 0
176 199 0
174 198 0
175 198 0
174 198 0
174 198 0
175 198 0
172 197 0
174 198 0
174 197 0
175 198 0
174 198 0
174 198 0
174 198 0
174 198 0
174 197 0
174 198 0
173 197 0
175 198 0
174 197 0
174 198 0
174 198 0
176 199 0
173 197 0
175 198 0
176 199 0
177 199 0
173 197 0
173 197 0
174 198 0
174 198 0
175 198 0
174 197 0
173 197 0
175 198 0
174 198 0
174 198 0
175 198 0
174 198 0
175 198 0
176 198 0
175 198 0
175 198 0
174 198 0
175 198 0
174 197 0
175 198 0
176 198 0
177 199 44
185 205 102
189 208 120
196 214 155
204 221 184
209 224 199
216 230 223
224 236 242
227 238 250
228 240 255
228 240 255
228 240 255
228 239 255
228 239 255
228 239 255
228 239 255
228 239 255
228 239 255
228 239 255
228 239 255
228 239 255
228 239 255
228 239 255
228 239 255
228 239 255
228 239 255
228 239 255
228 239 255
228 239 255
228 239 255
228 239 255
228 239 255
228 239 255
228 239 255
228 239 255
228 239 255
228 239 255
228 239 255
228 239 255
227 239 255
227 239 255
227 239 255
227 239 255
227 239 255
227 239 255
227 239 255
227 239 255
227 239 255
227 239 255
227 239 255
227 239 255
227 239 255
227 239 255
227 239 255
227 239 255
227 239 255
227 239 255
227 239 255
227 239 255
227 239 255
227 239 255
227 239 255
227 239 255
227 239 255
227 239 255
227 239 255
227 239 255
227 239 255
227 239 255
227 239 255
227 239 255
227 239 255
227 239 255
227 239 255
227 239 255
227 239 255
227 239 255
227 239 255
227 239 255
227 239 255
227 239 255
227 239 255
227 239 255
226 239 255
226 238 255
226 238 255
226 238 255
226 238 255
226 238 255
226 238 255
226 238 255
226 238 255
226 238 255
226 238 255
226 238 255
226 238 255
226 238 255
226 238 255
226 238 255
226 238 255
226 238 255
226 238 255
226 238 255
226 238 255
226 238 255
226 238 255
226 238 255
226 238 255
226 238 255
226 238 255
226 238 255
226 238 255
226 238 255
226 238 255
226 238 255
226 238 255
226 238 255
226 238 255
226 238 255
226 238 255
226 238 255
226 238 255
226 238 255
226 238 255
226 238 255
226 238 255
226 238 255
226 238 255
226 238 255
226 238 255
226 238 255
226 238 255
226 238 255
226 238 255
226 238 255
226 238 255
226 238 255
225 238 255
226 238 255
226 238 255
226 238 255
226 238 255
226 238 255
226 238 255
226 238 255
226 238 255
226 238 255
226 238 255
226 238 255
226 238 255
226 238 255
226 238 255
226 238 255
226 238 255
226 238 255
226 238 255
226 238 255
226 238 255
226 238 255
226 238 255
226 238 255
226 238 255
226 238 255
226 238 255
226 238 255
226 238 255
226 238 255
226 238 255
226 238 255
226 238 255
226 238 255
226 238 255
226 238 255
226 238 255
226 238 255
226 238 255
226 238 255
226 238 255
226 238 255
226 238 255
226 238 255
226 238 255
226 238 255
226 238 255
226 239 255
226 239 255
227 239 255
227 239 255
227 239 255
227 239 255
227 239 255
227 239 255
227 239 255
227 239 255
227 239 255
227 239 255
227 239 255
227 239 255
227 239 255
227 239 255
227 239 255
227 239 255
227 239 255
227 239 255
227 239 255
227 239 255
227 239 255
227 239 255
227 239 255
227 239 255
227 239 255
227 239 255
227 239 255
227 239 255
227 239 255
227 239 255
227 239 255
227 239 255
227 239 255
227 239 255
227 239 255
227 239 255
227 239 255
227 239 255
227 239 255
227 239 255
227 239 255
227 239 255
227 239 255
228 239 255
228 239 255
228 239 255
228 239 255
228 239 255
228 239 255
228 239 255
228 239 255
228 239 255
228 239 255
228 239 255
228 239 255
228 239 255
228 239 255
228 239 255
228 239 255
228 239 255
228 239 255
228 239 255
228 239 255
228 239 255
228 239 255
228 239 255
228 239 255
228 239 255
228 239 255
228 239 255
228 240 255
228 240 255
228 240 255
228 240 255
224 236 242
221 233 234
216 229 220
205 221 188
198 216 163
190 209 128
181 203 95
175 198 25
175 198 0
173 197 0
175 198 0
176 199 0
175 198 0
174 198 0
174 198 0
174 197 0
174 198 0
174 197 0
174 198 0
175 198 0
175 198 0
175 198 0
176 199 0
176 198 0
174 198 0
174 198 0
172 197 0
174 198 0
173 197 0
175 198 0
174 197 0
174 198 0
174 198 0
175 198 0
176 199 0
174 198 0
173 197 0
174 198 0
174 198 0
173 197 0
173 197 0
175 198 0
174 198 0
175 198 0
175 198 0
174 198 0
173 197 0
175 198 0
175 198 0
175 198 0
175 198 0
174 198 0
176 198 0
175 198 0
175 198 0
173 197 0
173 197 0
176 198 0
173 197 0
175 198 0
175 198 0
174 198 0
175 198 0
174 198 0
174 198 0
174 198 0
174 198 0
174 198 0
175 198 0
175 198 0
176 199 0
176 199 0
174 198 0
174 197 0
175 198 0
174 198 0
174 198 0
175 198 0
174 198 0
174 198 0
175 198 0
174 197 0
174 198 0
172 197 0
175 198 0
175 198 0
176 198 0
174 197 0
175 198 0
174 198 0
175 198 0
174 197 0
177 199 0
175 198 0
174 197 0
173 197 0
174 198 0
175 198 0
174 198 0
174 198 0
176 199 0
176 199 0
172 196 0
174 197 0
175 198 0
173 197 0
174 198 0
174 198 0
174 198 0
175 198 0
173 197 0
175 198 0
175 198 0
175 198 0
176 199 0
174 197 0
175 198 0
175 198 0
175 198 0
174 197 0
174 197 0
172 197 0
175 198 0
174 198 0
173 197 0
175 198 0
175 198 0
175 198 0
176 199 0
174 198 0
174 198 0
176 199 0
176 199 0
175 198 0
175 198 0
175 198 0
174 197 0
173 197 0
174 198 0
175 198 0
174 198 0
174 197 0
175 198 0
175 198 0
176 199 0
174 198 0
174 198 0
176 199 0
174 198 0
181 203 84
190 209 125
194 212 147
203 220 184
212 226 207
217 230 221
224 236 244
228 240 255
228 240 255
228 240 255
228 240 255
228 239 255
228 239 255
228 239 255
228 239 255
228 239 255
228 239 255
228 239 255
228 239 255
228 239 255
228 239 255
228 239 255
228 239 255
228 239 255
228 239 255
228 239 255
228 239 255
228 239 255
228 239 255
228 239 255
228 239 255
228 239 255
228 239 255
228 239 255
228 239 255
228 239 255
228 239 255
228 239 255
227 239 255
227 239 255
227 239 255
227 239 255
227 239 255
227 239 255
227 239 255
227 239 255
227 239 255
227 239 255
227 239 255
227 239 255
227 239 255
227 239 255
227 239 255
227 239 255
227 239 255
227 239 255
227 239 255
227 239 255
227 239 255
227 239 255
227 239 255
227 239 255
227 239 255
227 239 255
227 239 255
227 239 255
227 239 255
227 239 255
227 239 255
227 239 255
227 239 255
227 239 255
227 239 255
227 239 255
227 239 255
227 239 255
227 239 255
227 239 255
227 239 255
227 239 255
227 239 255
226 239 255
226 239 255
226 238 255
226 238 255
226 238 255
226 238 255
226 238 255
226 238 255
226 238 255
226 238 255
226 238 255
226 238 255
226 238 255
226 238 255
226 238 255
226 238 255
226 238 255
226 238 255
226 238 255
226 238 255
226 238 255
226 238 255
226 238 255
226 238 255
226 238 255
226 238 255
226 238 255
226 238 255
226 238 255
226 238 255
226 238 255
226 238 255
226 238 255
226 238 255
226 238 255
226 238 255
226 238 255
226 238 255
226 238 255
226 238 255
226 238 255
226 238 255
226 238 255
226 238 255
226 238 255
226 238 255
226 238 255
226 238 255
226 238 255
226 238 255
226 238 255
226 238 255
226 238 255
226 238 255
226 238 255
226 238 255
226 238 255
226 238 255
226 238 255
226 238 255
226 238 255
226 238 255
226 238 255
226 238 255
226 238 255
226 238 255
226 238 255
226 238 255
226 238 255
226 238 255
226 238 255
226 238 255
226 238 255
226 238 255
226 238 255
226 238 255
226 238 255
226 238 255
226 238 255
226 238 255
226 238 255
226 238 255
226 238 255
226 238 255
226 238 255
226 238 255
226 238 255
226 239 255
227 239 255
227 239 255
227 239 255
227 239 255
227 239 255
227 239 255
227 239 255
227 239 255
227 239 255
227 239 255
227 239 255
227 239 255
227 239 255
227 239 255
227 239 255
227 239 255
227 239 255
227 239 255
227 239 255
227 239 255
227 239 255
227 239 255
227 239 255
227 239 255
227 239 255
227 239 255
227 239 255
227 239 255
227 239 255
227 239 255
227 239 255
227 239 255
227 239 255
227 239 255
227 239 255
227 239 255
227 239 255
227 239 255
227 239 255
227 239 255
227 239 255
227 239 255
227 239 255
228 239 255
228 239 255
228 239 255
228 239 255
228 239 255
228 239 255
228 239 255
228 239 255
228 239 255
228 239 255
228 239 255
228 239 255
228 239 255
228 239 255
228 239 255
228 239 255
228 239 255
228 239 255
228 239 255
228 239 255
228 239 255
228 239 255
228 239 255
228 239 255
228 239 255
228 239 255
228 239 255
228 240 255
228 240 255
228 240 255
228 240 255
228 240 255
223 235 241
215 229 217
212 227 211
205 221 188
193 212 144
189 209 125
177 200 62
174 198 0
174 198 0
174 198 0
175 198 0
175 198 0
175 198 0
175 198 0
175 198 0
175 198 0
175 198 0
174 197 0
175 198 0
172 197 0
176 199 0
173 197 0
174 198 0
173 197 0
175 198 0
174 198 0
175 198 0
174 198 0
176 199 0
175 198 0
175 198 0
174 198 0
174 198 0
175 198 0
175 198 0
175 198 0
175 198 0
174 198 0
176 199 0
175 198 0
175 198 0
175 198 0
174 198 0
174 198 0
175 198 0
174 198 0
176 199 0
175 198 0
175 198 0
175 198 0
175 198 0
175 198 0
173 197 0
175 198 0
174 198 0
175 198 0
174 198 0
175 198 0
174 198 0
176 199 0
174 198 0
173 197 0
175 198 0
174 197 0
174 198 0
172 197 0
175 198 0
175 198 0
174 198 0
175 198 0
174 198 0
173 197 0
174 198 0
174 198 0
174 198 0
175 198 0
173 197 0
174 197 0
174 197 0
174 198 0
174 198 0
175 198 0
175 198 0
174 198 0
173 197 0
174 198 0
174 197 0
175 198 0
175 198 0
174 197 0
174 198 0
174 198 0
176 199 0
173 197 0
174 198 0
175 198 0
173 197 0
175 198 0
176 199 0
175 198 0
174 198 0
174 198 0
175 198 0
175 198 0
173 197 0
175 198 0
175 198 0
175 198 0
173 197 0
174 198 0
175 198 0
175 198 0
175 198 0
175 198 0
176 199 0
173 197 0
176 199 0
174 198 0
174 197 0
175 198 0
176 199 0
174 197 0
175 198 0
174 198 0
175 198 0
175 198 0
174 197 0
174 197 0
174 198 0
175 198 0
174 198 0
176 199 0
174 197 0
173 197 0
175 198 0
176 198 0
174 197 0
174 198 0
175 198 0
174 197 0
174 198 0
175 198 0
174 198 0
174 198 0
175 198 0
173 197 0
176 199 0
173 197 0
173 197 0
175 198 0
175 198 0
176 198 0
174 198 0
174 197 0
175 198 0
175 198 0
175 198 0
174 197 0
175 198 0
176 199 0
177 199 0
174 198 0
175 198 0
177 200 51
185 206 105
197 215 157
200 217 171
213 227 209
215 229 220
222 235 238
228 240 255
228 240 255
228 240 255
228 240 255
228 240 255
228 239 255
228 239 255
228 239 255
228 239 255
228 239 255
228 239 255
228 239 255
228 239 255
228 239 255
228 239 255
228 239 255
228 239 255
228 239 255
228 239 255
228 239 255
228 239 255
228 239 255
228 239 255
228 239 255
228 239 255
228 239 255
228 239 255
228 239 255
228 239 255
228 239 255
228 239 255
227 239 255
227 239 255
227 239 255
227 239 255
227 239 255
227 239 255
227 239 255
227 239 255
227 239 255
227 239 255
227 239 255
227 239 255
227 239 255
227 239 255
227 239 255
227 239 255
227 239 255
227 239 255
227 239 255
227 239 255
227 239 255
227 239 255
227 239 255
227 239 255
227 239 255
227 239 255
227 239 255
227 239 255
227 239 255
227 239 255
227 239 255
227 239 255
227 239 255
227 239 255
227 239 255
227 239 255
227 239 255
227 239 255
227 239 255
227 239 255
227 239 255
227 239 255
227 239 255
226 239 255
226 239 255
226 238 255
226 238 255
226 238 255
226 238 255
226 238 255
226 238 255
226 238 255
226 238 255
226 238 255
226 238 255
226 238 255
226 238 255
226 238 255
226 238 255
226 238 255
226 238 255
226 238 255
226 238 255
226 238 255
226 238 255
226 238 255
226 238 255
226 238 255
226 238 255
226 238 255
226 238 255
226 238 255
226 238 255
226 238 255
226 238 255
226 238 255
226 238 255
226 238 255
226 238 255
226 238 255
226 238 255
226 238 255
226 238 255
226 238 255
226 238 255
226 238 255
226 238 255
226 238 255
226 238 255
226 238 255
226 238 255
226 238 255
226 238 255
226 238 255
226 238 255
226 238 255
226 238 255
226 238 255
226 238 255
226 238 255
226 238 255
226 238 255
226 238 255
226 238 255
226 238 255
226 238 255
226 238 255
226 238 255
226 238 255
226 238 255
226 238 255
226 238 255
226 238 255
226 238 255
226 238 255
226 239 255
226 239 255
227 239 255
227 239 255
227 239 255
227 239 255
227 239 255
227 239 255
227 239 255
227 239 255
227 239 255
227 239 255
227 239 255
227 239 255
227 239 255
227 239 255
227 239 255
227 239 255
227 239 255
227 239 255
227 239 255
227 239 255
227 239 255
227 239 255
227 239 255
227 239 255
227 239 255
227 239 255
227 239 255
227 239 255
227 239 255
227 239 255
227 239 255
227 239 255
227 239 255
227 239 255
227 239 255
227 239 255
227 239 255
227 239 255
227 239 255
227 239 255
227 239 255
227 239 255
227 239 255
227 239 255
228 239 255
228 239 255
228 239 255
228 239 255
228 239 255
228 239 255
228 239 255
228 239 255
228 239 255
228 239 255
228 239 255
228 239 255
228 239 255
228 239 255
228 239 255
228 239 255
228 239 255
228 239 255
228 239 255
228 239 255
228 239 255
228 239 255
228 239 255
228 239 255
228 239 255
228 239 255
228 240 255
228 240 255
228 240 255
228 240 255
228 240 255
226 238 249
223 235 240
213 227 209
201 218 171
193 211 137
191 210 135
178 201 67
174 198 0
176 198 0
175 198 0
176 199 0
174 198 0
174 198 0
175 198 0
175 198 0
173 197 0
176 198 0
174 197 0
175 198 0
176 199 0
176 199 0
174 198 0
174 198 0
172 197 0
176 199 0
175 198 0
174 198 0
174 198 0
174 198 0
175 198 0
174 198 0
176 198 0
176 199 0
176 198 0
175 198 0
173 197 0
175 198 0
175 198 0
174 198 0
176 199 0
173 197 0
174 197 0
174 198 0
174 197 0
174 198 0
174 198 0
174 198 0
175 198 0
174 198 0
174 197 0
173 197 0
175 198 0
174 198 0
175 198 0
175 198 0
175 198 0
174 198 0
175 198 0
175 198 0
175 198 0
176 199 0
174 198 0
173 197 0
174 198 0
173 197 0
174 198 0
173 197 0
174 198 0
175 198 0
175 198 0
174 198 0
175 198 0
173 197 0
174 198 0
175 198 0
175 198 0
174 197 0
173 197 0
174 197 0
175 198 0
175 198 0
173 197 0
174 198 0
174 198 0
175 198 0
176 198 0
175 198 0
173 197 0
175 198 0
175 198 0
175 198 0
174 198 0
174 198 0
174 198 0
175 198 0
174 197 0
175 198 0
175 198 0
175 198 0
176 199 0
174 197 0
175 198 0
174 198 0
175 198 0
175 198 0
174 198 0
175 198 0
175 198 0
174 197 0
175 198 0
175 198 0
174 198 0
174 198 0
174 198 0
175 198 0
175 198 0
175 198 0
174 198 0
174 198 0
174 198 0
174 197 0
174 198 0
174 197 0
176 198 0
174 198 0
176 199 0
174 198 0
174 198 0
173 197 0
175 198 0
174 198 0
175 198 0
176 198 0
174 198 0
174 198 0
173 197 0
175 198 0
174 198 0
175 198 0
175 198 0
173 197 0
176 199 0
175 198 0
176 199 0
174 197 0
176 198 0
173 197 0
173 197 0
176 199 0
174 197 0
174 197 0
174 197 0
173 197 0
174 198 0
174 198 0
176 199 0
175 198 0
175 198 0
176 199 0
175 198 0
173 197 0
175 198 0
176 199 0
175 198 0
176 198 0
175 198 0
174 198 0
174 198 0
175 198 0
176 199 0
173 197 0
175 198 0
174 197 0
173 197 0
175 198 0
175 198 0
174 198 0
179 201 72
186 207 114
195 214 151
204 220 182
208 224 198
219 232 230
228 239 253
228 240 255
228 240 255
228 240 255
228 240 255
228 240 255
228 239 255
228 239 255
228 239 255
228 239 255
228 239 255
228 239 255
228 239 255
228 239 255
228 239 255
228 239 255
228 239 255
228 239 255
228 239 255
228 239 255
228 239 255
228 239 255
228 239 255
228 239 255
228 239 255
228 239 255
228 239 255
228 239 255
228 239 255
228 239 255
228 239 255
228 239 255
227 239 255
227 239 255
227 239 255
227 239 255
227 239 255
227 239 255
227 239 255
227 239 255
227 239 255
227 239 255
227 239 255
227 239 255
227 239 255
227 239 255
227 239 255
227 239 255
227 239 255
227 239 255
227 239 255
227 239 255
227 239 255
227 239 255
227 239 255
227 239 255
227 239 255
227 239 255
227 239 255
227 239 255
227 239 255
227 239 255
227 239 255
227 239 255
227 239 255
227 239 255
227 239 255
227 239 255
227 239 255
227 239 255
227 239 255
227 239 255
227 239 255
227 239 255
227 239 255
227 239 255
226 239 255
226 239 255
226 238 255
226 238 255
226 238 255
226 238 255
226 238 255
226 238 255
226 238 255
226 238 255
226 238 255
226 238 255
226 238 255
226 238 255
226 238 255
226 238 255
226 238 255
226 238 255
226 238 255
226 238 255
226 238 255
226 238 255
226 238 255
226 238 255
226 238 255
226 238 255
226 238 255
226 238 255
226 238 255
226 238 255
226 238 255
226 238 255
226 238 255
226 238 255
226 238 255
226 238 255
226 238 255
226 238 255
226 238 255
226 238 255
226 238 255
226 238 255
226 238 255
226 238 255
226 238 255
226 238 255
226 238 255
226 238 255
226 238 255
226 238 255
226 238 255
226 238 255
226 238 255
226 238 255
226 238 255
226 238 255
226 238 255
226 239 255
226 239 255
227 239 255
227 239 255
227 239 255
227 239 255
227 239 255
227 239 255
227 239 255
227 239 255
227 239 255
227 239 255
227 239 255
227 239 255
227 239 255
227 239 255
227 239 255
227 239 255
227 239 255
227 239 255
227 239 255
227 239 255
227 239 255
227 239 255
227 239 255
227 239 255
227 239 255
227 239 255
227 239 255
227 239 255
227 239 255
227 239 255
227 239 255
227 239 255
227 239 255
227 239 255
227 239 255
227 239 255
227 239 255
227 239 255
227 239 255
227 239 255
227 239 255
227 239 255
227 239 255
228 239 255
228 239 255
228 239 255
228 239 255
228 239 255
228 239 255
228 239 255
228 239 255
228 239 255
228 239 255
228 239 255
228 239 255
228 239 255
228 239 255
228 239 255
228 239 255
228 239 255
228 239 255
228 239 255
228 239 255
228 239 255
228 239 255
228 239 255
228 239 255
228 239 255
228 239 255
228 239 255
228 240 255
228 240 255
228 240 255
228 240 255
228 240 255
228 240 255
224 236 244
214 228 215
209 224 199
201 218 173
191 210 130
182 203 80
176 199 36
175 198 0
176 199 0
175 198 0
175 198 0
174 198 0
176 199 0
175 198 0
174 198 0
175 198 0
175 198 0
174 198 0
175 198 0
175 198 0
175 198 0
176 199 0
174 198 0
175 198 0
175 198 0
176 198 0
175 198 0
175 198 0
175 198 0
174 197 0
174 197 0
175 198 0
174 198 0
173 197 0
173 197 0
176 199 0
173 197 0
175 198 0
173 197 0
174 198 0
174 198 0
175 198 0
173 197 0
174 198 0
174 198 0
174 198 0
174 198 0
173 197 0
174 198 0
174 198 0
174 198 0
174 198 0
175 198 0
174 197 0
175 198 0
175 198 0
174 198 0
175 198 0
175 198 0
175 198 0
176 199 0
175 198 0
174 198 0
176 199 0
176 199 0
174 198 0
173 197 0
175 198 0
174 198 0
175 198 0
175 198 0
174 198 0
175 198 0
174 198 0
173 197 0
177 199 0
173 197 0
176 199 0
174 198 0
174 197 0
175 198 0
174 198 0
175 198 0
174 197 0
176 198 0
173 197 0
174 197 0
175 198 0
173 197 0
176 199 0
174 197 0
174 197 0
174 197 0
174 198 0
174 198 0
174 198 0
176 198 0
175 198 0
173 197 0
174 197 0
174 198 0
175 198 0
175 198 0
174 198 0
174 197 0
175 198 0
173 197 0
174 198 0
174 198 0
174 198 0
174 198 0
174 197 0
174 198 0
175 198 0
174 197 0
173 197 0
175 198 0
173 197 0
173 197 0
175 198 0
175 198 0
173 197 0
173 197 0
174 197 0
174 198 0
174 198 0
175 198 0
173 197 0
173 197 0
172 197 0
175 198 0
173 197 0
175 198 0
175 198 0
174 197 0
176 199 0
174 197 0
173 197 0
173 197 0
174 198 0
174 198 0
173 197 0
173 197 0
174 198 0
175 198 0
173 197 0
173 197 0
177 199 0
174 198 0
176 198 0
174 198 0
176 198 0
174 197 0
176 199 0
173 197 0
175 198 0
174 198 0
174 198 0
174 198 0
175 198 0
177 199 0
176 198 0
176 198 0
173 197 0
173 197 0
174 198 0
176 198 0
175 198 0
174 198 0
175 198 0
174 198 0
175 198 0
175 198 0
174 197 0
175 198 0
175 198 0
175 198 0
175 198 0
175 198 0
176 198 0
175 198 0
176 199 0
175 198 0
174 198 0
176 199 0
174 198 0
175 198 0
173 197 0
174 198 0
175 198 25
183 204 92
191 211 140
201 218 175
213 228 212
215 229 218
226 238 250
228 240 255
228 240 255
228 240 255
228 240 255
228 240 255
228 240 255
228 240 255
228 239 255
228 239 255
228 239 255
228 239 255
228 239 255
228 239 255
228 239 255
228 239 255
228 239 255
228 239 255
228 239 255
228 239 255
228 239 255
228 239 255
228 239 255
228 239 255
228 239 255
228 239 255
228 239 255
228 239 255
228 239 255
228 239 255
228 239 255
228 239 255
228 239 255
228 239 255
227 239 255
227 239 255
227 239 255
227 239 255
227 239 255
227 239 255
227 239 255
227 239 255
227 239 255
227 239 255
227 239 255
227 239 255
227 239 255
227 239 255
227 239 255
227 239 255
227 239 255
227 239 255
227 239 255
227 239 255
227 239 255
227 239 255
227 239 255
227 239 255
227 239 255
227 239 255
227 239 255
227 239 255
227 239 255
227 239 255
227 239 255
227 239 255
227 239 255
227 239 255
227 239 255
227 239 255
227 239 255
227 239 255
227 239 255
227 239 255
227 239 255
227 239 255
227 239 255
226 239 255
226 239 255
226 238 255
226 238 255
226 238 255
226 238 255
226 238 255
226 238 255
226 238 255
226 238 255
226 238 255
226 238 255
226 238 255
226 238 255
226 238 255
226 238 255
226 238 255
226 238 255
226 238 255
226 238 255
226 238 255
226 238 255
226 238 255
226 238 255
226 238 255
226 238 255
226 238 255
226 238 255
226 238 255
226 238 255
226 238 255
226 238 255
226 238 255
226 238 255
226 238 255
226 238 255
226 238 255
226 238 255
226 238 255
226 238 255
226 238 255
226 238 255
226 238 255
226 239 255
226 239 255
227 239 255
227 239 255
227 239 255
227 239 255
227 239 255
227 239 255
227 239 255
227 239 255
227 239 255
227 239 255
227 239 255
227 239 255
227 239 255
227 239 255
227 239 255
227 239 255
227 239 255
227 239 255
227 239 255
227 239 255
227 239 255
227 239 255
227 239 255
227 239 255
227 239 255
227 239 255
227 239 255
227 239 255
227 239 255
227 239 255
227 239 255
227 239 255
227 239 255
227 239 255
227 239 255
227 239 255
227 239 255
227 239 255
227 239 255
227 239 255
227 239 255
227 239 255
227 239 255
227 239 255
228 239 255
228 239 255
228 239 255
228 239 255
228 239 255
228 239 255
228 239 255
228 239 255
228 239 255
228 239 255
228 239 255
228 239 255
228 239 255
228 239 255
228 239 255
228 239 255
228 239 255
228 239 255
228 239 255
228 239 255
228 239 255
228 239 255
228 239 255
228 239 255
228 239 255
228 239 255
228 240 255
228 240 255
228 240 255
228 240 255
228 240 255
228 240 255
228 240 255
225 237 246
216 229 218
208 223 196
197 215 159
192 211 140
178 201 62
175 198 0
174 197 0
175 198 0
174 197 0
175 198 0
175 198 0
175 198 0
175 198 0
173 197 0
173 197 0
175 198 0
175 198 0
176 198 0
174 197 0
174 198 0
175 198 0
174 198 0
174 198 0
174 197 0
174 198 0
175 198 0
177 199 0
174 197 0
175 198 0
176 198 0
175 198 0
173 197 0
174 198 0
174 197 0
174 198 0
174 197 0
174 198 0
174 198 0
175 198 0
174 198 0
173 197 0
176 198 0
175 198 0
175 198 0
176 199 0
175 198 0
175 198 0
176 199 0
175 198 0
175 198 0
174 198 0
176 199 0
174 197 0
174 198 0
176 199 0
177 199 0
175 198 0
175 198 0
176 198 0
174 198 0
174 198 0
174 198 0
173 197 0
173 197 0
174 197 0
173 197 0
174 198 0
173 197 0
176 198 0
174 197 0
174 197 0
174 197 0
175 198 0
175 198 0
174 198 0
175 198 0
175 198 0
176 198 0
173 197 0
176 198 0
174 198 0
175 198 0
175 198 0
175 198 0
175 198 0
177 199 0
174 197 0
175 198 0
175 198 0
175 198 0
176 199 0
175 198 0
173 197 0
173 197 0
175 198 0
173 197 0
175 198 0
176 198 0
175 198 0
174 197 0
174 198 0
173 197 0
174 198 0
174 198 0
175 198 0
176 198 0
174 198 0
177 199 0
176 198 0
173 197 0
175 198 0
175 198 0
173 197 0
175 198 0
173 197 0
177 199 0
174 197 0
175 198 0
174 197 0
175 198 0
176 199 0
173 197 0
173 197 0
172 197 0
173 197 0
174 198 0
175 198 0
175 198 0
175 198 0
176 199 0
175 198 0
174 197 0
174 197 0
174 198 0
175 198 0
173 197 0
175 198 0
173 197 0
175 198 0
173 197 0
173 197 0
174 198 0
175 198 0
176 199 0
175 198 0
174 198 0
174 198 0
175 198 0
174 198 0
174 198 0
176 199 0
174 198 0
175 198 0
176 199 0
175 198 0
173 197 0
174 198 0
173 197 0
173 197 0
174 197 0
175 198 0
174 198 0
176 199 0
176 199 0
175 198 0
174 197 0
175 198 0
175 198 0
176 198 0
173 197 0
175 198 0
175 198 0
176 198 0
173 197 0
175 198 0
175 198 0
175 198 0
174 198 0
174 198 0
173 197 0
175 198 0
176 199 0
175 198 0
175 198 0
174 198 0
173 197 0
175 198 0
175 198 0
172 197 0
173 197 0
175 198 0
175 198 0
176 199 0
174 198 0
174 197 0
175 198 0
174 197 0
174 197 0
174 198 0
175 198 0
173 197 0
180 201 67
189 209 122
201 218 167
212 226 207
214 228 214
225 237 246
228 240 255
228 240 255
228 240 255
228 240 255
228 240 255
228 240 255
228 240 255
228 239 255
228 239 255
228 239 255
228 239 255
228 239 255
228 239 255
228 239 255
228 239 255
228 239 255
228 239 255
228 239 255
228 239 255
228 239 255
228 239 255
228 239 255
228 239 255
228 239 255
228 239 255
228 239 255
228 239 255
228 239 255
228 239 255
228 239 255
228 239 255
228 239 255
228 239 255
227 239 255
227 239 255
227 239 255
227 239 255
227 239 255
227 239 255
227 239 255
227 239 255
227 239 255
227 239 255
227 239 255
227 239 255
227 239 255
227 239 255
227 239 255
227 239 255
227 239 255
227 239 255
227 239 255
227 239 255
227 239 255
227 239 255
227 239 255
227 239 255
227 239 255
227 239 255
227 239 255
227 239 255
227 239 255
227 239 255
227 239 255
227 239 255
227 239 255
227 239 255
227 239 255
227 239 255
227 239 255
227 239 255
227 239 255
227 239 255
227 239 255
227 239 255
227 239 255
227 239 255
226 239 255
226 239 255
226 238 255
226 238 255
226 238 255
226 238 255
226 238 255
226 238 255
226 238 255
226 238 255
226 238 255
226 238 255
226 238 255
226 238 255
226 238 255
226 238 255
226 238 255
226 238 255
226 238 255
226 238 255
226 238 255
226 238 255
226 238 255
226 238 255
226 238 255
226 238 255
226 238 255
226 238 255
226 238 255
226 239 255
226 239 255
227 239 255
227 239 255
227 239 255
227 239 255
227 239 255
227 239 255
227 239 255
227 239 255
227 239 255
227 239 255
227 239 255
227 239 255
227 239 255
227 239 255
227 239 255
227 239 255
227 239 255
227 239 255
227 239 255
227 239 255
227 239 255
227 239 255
227 239 255
227 239 255
227 239 255
227 239 255
227 239 255
227 239 255
227 239 255
227 239 255
227 239 255
227 239 255
227 239 255
227 239 255
227 239 255
227 239 255
227 239 255
227 239 255
227 239 255
227 239 255
227 239 255
227 239 255
227 239 255
227 239 255
228 239 255
228 239 255
228 239 255
228 239 255
228 239 255
228 239 255
228 239 255
228 239 255
228 239 255
228 239 255
228 239 255
228 239 255
228 239 255
228 239 255
228 239 255
228 239 255
228 239 255
228 239 255
228 239 255
228 239 255
228 239 255
228 239 255
228 239 255
228 239 255
228 239 255
228 239 255
228 239 255
228 240 255
228 240 255
228 240 255
228 240 255
228 240 255
228 240 255
228 240 255
224 236 242
217 230 223
210 225 203
196 214 153
185 206 108
179 201 57
175 198 0
174 198 0
174 198 0
176 199 0
176 198 0
175 198 0
173 197 0
174 197 0
175 198 0
175 198 0
174 198 0
176 199 0
175 198 0
174 198 0
174 198 0
174 198 0
174 197 0
174 198 0
174 198 0
174 198 0
174 198 0
175 198 0
176 199 0
174 198 0
176 198 0
174 198 0
174 198 0
174 198 0
174 198 0
175 198 0
175 198 0
175 198 0
174 198 0
176 198 0
175 198 0
175 198 0
175 198 0
174 198 0
174 198 0
174 198 0
174 198 0
173 197 0
176 198 0
175 198 0
173 197 0
176 198 0
175 198 0
175 198 0
176 199 0
173 197 0
174 198 0
173 197 0
174 197 0
174 198 0
174 198 0
175 198 0
174 198 0
175 198 0
174 197 0
174 198 0
174 198 0
175 198 0
174 197 0
175 198 0
174 198 0
174 197 0
173 197 0
172 197 0
175 198 0
173 197 0
175 198 0
172 197 0
172 197 0
175 198 0
176 199 0
174 198 0
175 198 0
173 197 0
175 198 0
175 198 0
176 199 0
173 197 0
174 198 0
174 197 0
175 198 0
174 198 0
173 197 0
174 198 0
175 198 0
174 198 0
174 198 0
176 199 0
174 198 0
174 198 0
174 198 0
175 198 0
176 199 0
173 197 0
175 198 0
174 198 0
175 198 0
173 197 0
174 198 0
175 198 0
175 198 0
174 198 0
175 198 0
174 197 0
175 198 0
174 198 0
175 198 0
174 198 0
175 198 0
177 199 0
175 198 0
175 198 0
174 198 0
175 198 0
174 198 0
175 198 0
174 198 0
175 198 0
175 198 0
175 198 0
173 197 0
175 198 0
175 198 0
172 197 0
173 197 0
176 199 0
175 198 0
175 198 0
175 198 0
174 197 0
176 199 0
174 197 0
176 199 0
174 198 0
173 197 0
175 198 0
175 198 0
177 199 0
175 198 0
175 198 0
175 198 0
174 198 0
175 198 0
175 198 0
175 198 0
175 198 0
174 198 0
175 198 0
176 199 0
176 199 0
174 198 0
174 198 0
174 197 0
175 198 0
175 198 0
174 197 0
174 198 0
174 198 0
173 197 0
176 199 0
176 199 0
174 197 0
174 198 0
175 198 0
176 198 0
175 198 0
173 197 0
174 198 0
174 198 0
175 198 0
174 198 0
173 197 0
175 198 0
173 197 0
174 198 0
174 198 0
175 198 0
175 198 0
174 198 0
176 198 0
174 198 0
174 198 0
174 198 0
174 198 0
175 198 0
173 197 0
176 198 0
174 198 0
175 198 0
174 198 0
174 198 0
176 199 0
175 198 0
176 198 0
175 198 0
176 199 0
177 199 0
174 197 0
174 198 0
173 197 0
175 198 0
176 199 0
175 198 0
174 198 0
181 202 80
191 210 137
198 215 161
209 224 198
214 229 217
227 239 252
228 240 255
228 240 255
228 240 255
228 240 255
228 240 255
228 240 255
228 240 255
228 240 255
228 239 255
228 239 255
228 239 255
228 239 255
228 239 255
228 239 255
228 239 255
228 239 255
228 239 255
228 239 255
228 239 255
228 239 255
228 239 255
228 239 255
228 239 255
228 239 255
228 239 255
228 239 255
228 239 255
228 239 255
228 239 255
228 239 255
228 239 255
228 239 255
228 239 255
228 239 255
227 239 255
227 239 255
227 239 255
227 239 255
227 239 255
227 239 255
227 239 255
227 239 255
227 239 255
227 239 255
227 239 255
227 239 255
227 239 255
227 239 255
227 239 255
227 239 255
227 239 255
227 239 255
227 239 255
227 239 255
227 239 255
227 239 255
227 239 255
227 239 255
227 239 255
227 239 255
227 239 255
227 239 255
227 239 255
227 239 255
227 239 255
227 239 255
227 239 255
227 239 255
227 239 255
227 239 255
227 239 255
227 239 255
227 239 255
227 239 255
227 239 255
227 239 255
227 239 255
227 239 255
226 239 255
226 239 255
226 238 255
226 238 255
226 238 255
226 238 255
226 238 255
226 238 255
226 238 255
226 238 255
226 238 255
226 238 255
226 238 255
226 238 255
226 238 255
226 239 255
226 239 255
227 239 255
227 239 255
227 239 255
227 239 255
227 239 255
227 239 255
227 239 255
227 239 255
227 239 255
227 239 255
227 239 255
227 239 255
227 239 255
227 239 255
227 239 255
227 239 255
227 239 255
227 239 255
227 239 255
227 239 255
227 239 255
227 239 255
227 239 255
227 239 255
227 239 255
227 239 255
227 239 255
227 239 255
227 239 255
227 239 255
227 239 255
227 239 255
227 239 255
227 239 255
227 239 255
227 239 255
227 239 255
227 239 255
227 239 255
227 239 255
227 239 255
227 239 255
227 239 255
227 239 255
227 239 255
228 239 255
228 239 255
228 239 255
228 239 255
228 239 255
228 239 255
228 239 255
228 239 255
228 239 255
228 239 255
228 239 255
228 239 255
228 239 255
228 239 255
228 239 255
228 239 255
228 239 255
228 239 255
228 239 255
228 239 255
228 239 255
228 239 255
228 239 255
228 239 255
228 239 255
228 239 255
228 240 255
228 240 255
228 240 255
228 240 255
228 240 255
228 240 255
228 240 255
228 240 255
228 240 255
223 235 240
216 230 220
200 217 169
189 209 130
184 205 102
175 198 0
174 198 0
176 198 0
175 198 0
175 198 0
175 198 0
175 198 0
174 198 0
175 198 0
174 197 0
174 197 0
175 198 0
175 198 0
174 198 0
176 199 0
175 198 0
174 197 0
175 198 0
175 198 0
176 198 0
173 197 0
174 197 0
176 199 0
174 198 0
174 197 0
175 198 0
174 198 0
176 199 0
175 198 0
176 198 0
173 197 0
175 198 0
174 198 0
175 198 0
176 199 0
173 197 0
176 199 0
175 198 0
175 198 0
174 197 0
176 198 0
174 198 0
174 197 0
176 199 0
175 198 0
176 199 0
174 198 0
173 197 0
174 198 0
174 198 0
175 198 0
173 197 0
174 198 0
173 197 0
175 198 0
176 199 0
175 198 0
175 198 0
174 198 0
172 197 0
175 198 0
173 197 0
174 198 0
175 198 0
175 198 0
175 198 0
175 198 0
173 197 0
175 198 0
175 198 0
174 198 0
173 197 0
175 198 0
174 197 0
174 197 0
174 198 0
175 198 0
174 198 0
175 198 0
176 198 0
175 198 0
175 198 0
174 197 0
175 198 0
172 197 0
175 198 0
174 198 0
175 198 0
174 198 0
173 197 0
175 198 0
174 198 0
175 198 0
173 197 0
175 198 0
175 198 0
174 197 0
174 198 0
174 197 0
173 197 0
174 198 0
174 198 0
173 197 0
174 197 0
175 198 0
174 198 0
175 198 0
174 197 0
175 198 0
175 198 0
174 198 0
173 197 0
173 197 0
173 197 0
174 198 0
174 198 0
174 198 0
174 198 0
175 198 0
174 198 0
175 198 0
176 199 0
174 198 0
175 198 0
174 198 0
173 197 0
172 197 0
173 197 0
175 198 0
174 198 0
173 197 0
175 198 0
174 197 0
175 198 0
174 198 0
175 198 0
175 198 0
175 198 0
174 197 0
174 197 0
175 198 0
173 197 0
174 198 0
175 198 0
175 198 0
173 197 0
174 198 0
174 197 0
174 197 0
174 198 0
175 198 0
174 198 0
175 198 0
174 198 0
174 198 0
174 198 0
175 198 0
174 198 0
173 197 0
175 198 0
174 198 0
174 198 0
174 198 0
174 197 0
174 198 0
174 198 0
176 199 0
174 198 0
175 198 0
173 197 0
175 198 0
174 198 0
174 198 0
174 198 0
174 198 0
173 197 0
174 198 0
175 198 0
175 198 0
174 198 0
174 198 0
175 198 0
174 198 0
176 199 0
174 198 0
174 198 0
175 198 0
175 198 0
176 198 0
174 198 0
176 198 0
176 198 0
174 198 0
175 198 0
174 198 0
175 198 0
175 198 0
174 197 0
176 199 0
174 198 0
175 198 0
176 199 0
173 197 0
175 198 0
175 198 0
175 198 0
174 198 0
175 198 0
174 198 0
174 198 0
175 198 0
175 198 0
176 199 0
174 197 0
176 198 0
176 199 0
174 198 0
177 199 0
175 198 0
176 199 0
184 204 92
196 214 151
202 219 179
214 228 214
219 232 228
227 238 250
228 240 255
228 240 255
228 240 255
228 240 255
228 240 255
228 240 255
228 240 255
228 240 255
228 239 255
228 239 255
228 239 255
228 239 255
228 239 255
228 239 255
228 239 255
228 239 255
228 239 255
228 239 255
228 239 255
228 239 255
228 239 255
228 239 255
228 239 255
228 239 255
228 239 255
228 239 255
228 239 255
228 239 255
228 239 255
228 239 255
228 239 255
228 239 255
228 239 255
228 239 255
227 239 255
227 239 255
227 239 255
227 239 255
227 239 255
227 239 255
227 239 255
227 239 255
227 239 255
227 239 255
227 239 255
227 239 255
227 239 255
227 239 255
227 239 255
227 239 255
227 239 255
227 239 255
227 239 255
227 239 255
227 239 255
227 239 255
227 239 255
227 239 255
227 239 255
227 239 255
227 239 255
227 239 255
227 239 255
227 239 255
227 239 255
227 239 255
227 239 255
227 239 255
227 239 255
227 239 255
227 239 255
227 239 255
227 239 255
227 239 255
227 239 255
227 239 255
227 239 255
227 239 255
226 239 255
226 239 255
226 239 255
226 238 255
226 238 255
226 238 255
227 239 255
227 239 255
227 239 255
227 239 255
227 239 255
227 239 255
227 239 255
227 239 255
227 239 255
227 239 255
227 239 255
227 239 255
227 239 255
227 239 255
227 239 255
227 239 255
227 239 255
227 239 255
227 239 255
227 239 255
227 239 255
227 239 255
227 239 255
227 239 255
227 239 255
227 239 255
227 239 255
227 239 255
227 239 255
227 239 255
227 239 255
227 239 255
227 239 255
227 239 255
227 239 255
227 239 255
227 239 255
227 239 255
227 239 255
227 239 255
227 239 255
227 239 255
227 239 255
227 239 255
228 239 255
228 239 255
228 239 255
228 239 255
228 239 255
228 239 255
228 239 255
228 239 255
228 239 255
228 239 255
228 239 255
228 239 255
228 239 255
228 239 255
228 239 255
228 239 255
228 239 255
228 239 255
228 239 255
228 239 255
228 239 255
228 239 255
228 239 255
228 239 255
228 239 255
228 239 255
228 240 255
228 240 255
228 240 255
228 240 255
228 240 255
228 240 255
228 240 255
228 240 255
228 240 255
224 236 245
215 229 217
210 225 201
199 216 165
188 208 122
174 198 25
173 197 0
174 198 0
175 198 0
176 199 0
174 198 0
175 198 0
175 198 0
175 198 0
175 198 0
174 198 0
175 198 0
175 198 0
175 198 0
174 197 0
176 199 0
176 198 0
174 198 0
175 198 0
174 197 0
174 197 0
175 198 0
176 198 0
175 198 0
176 198 0
175 198 0
175 198 0
175 198 0
174 198 0
175 198 0
174 198 0
176 198 0
175 198 0
175 198 0
174 197 0
174 198 0
174 197 0
174 197 0
174 197 0
175 198 0
176 199 0
174 197 0
176 199 0
175 198 0
176 199 0
176 199 0
174 198 0
175 198 0
174 197 0
175 198 0
174 198 0
174 197 0
175 198 0
175 198 0
173 197 0
173 197 0
174 197 0
175 198 0
174 198 0
175 198 0
175 198 0
174 197 0
175 198 0
175 198 0
175 198 0
176 198 0
175 198 0
175 198 0
175 198 0
174 198 0
174 198 0
175 198 0
174 198 0
175 198 0
176 199 0
175 198 0
173 197 0
174 197 0
176 198 0
175 198 0
176 199 0
174 198 0
175 198 0
174 198 0
174 198 0
174 198 0
174 198 0
173 197 0
175 198 0
176 199 0
176 199 0
174 198 0
174 198 0
174 198 0
176 199 0
174 198 0
173 197 0
175 198 0
174 198 0
175 198 0
174 197 0
174 198 0
175 198 0
174 198 0
174 198 0
174 197 0
175 198 0
173 197 0
173 197 0
174 198 0
174 198 0
175 198 0
173 196 0
174 198 0
173 197 0
174 198 0
175 198 0
174 198 0
173 197 0
175 198 0
175 198 0
175 198 0
175 198 0
174 197 0
175 198 0
174 197 0
176 199 0
174 198 0
173 197 0
173 197 0
175 198 0
173 197 0
174 197 0
173 197 0
173 197 0
174 198 0
176 199 0
175 198 0
173 197 0
173 197 0
175 198 0
173 197 0
174 198 0
173 197 0
173 197 0
174 198 0
173 197 0
174 198 0
174 197 0
174 198 0
174 198 0
175 198 0
175 198 0
174 197 0
174 198 0
174 198 0
173 197 0
175 198 0
175 198 0
174 198 0
175 198 0
174 198 0
174 197 0
175 198 0
174 198 0
175 198 0
175 198 0
175 198 0
175 198 0
173 197 0
175 198 0
175 198 0
173 197 0
173 197 0
174 198 0
176 199 0
174 198 0
175 198 0
175 198 0
176 199 0
174 197 0
174 198 0
174 198 0
174 197 0
173 197 0
174 197 0
174 197 0
173 197 0
175 198 0
175 198 0
174 198 0
175 198 0
175 198 0
174 197 0
176 199 0
174 198 0
174 198 0
174 198 0
173 197 0
176 198 0
176 198 0
174 197 0
176 198 0
175 198 0
174 197 0
174 198 0
174 198 0
173 197 0
174 197 0
175 198 0
177 199 0
176 198 0
176 198 0
174 198 0
173 197 0
173 197 0
175 198 0
174 198 0
174 198 0
175 198 0
176 199 0
174 198 0
176 198 0
176 199 0
176 199 0
176 199 0
173 197 0
174 198 0
174 198 0
176 199 0
175 198 0
178 200 51
184 205 95
191 211 140
209 224 203
216 230 221
222 234 238
228 240 255
228 240 255
228 240 255
228 240 255
228 240 255
228 240 255
228 240 255
228 240 255
228 240 255
228 239 255
228 239 255
228 239 255
228 239 255
228 239 255
228 239 255
228 239 255
228 239 255
228 239 255
228 239 255
228 239 255
228 239 255
228 239 255
228 239 255
228 239 255
228 239 255
228 239 255
228 239 255
228 239 255
228 239 255
228 239 255
228 239 255
228 239 255
228 239 255
228 239 255
228 239 255
228 239 255
227 239 255
227 239 255
227 239 255
227 239 255
227 239 255
227 239 255
227 239 255
227 239 255
227 239 255
227 239 255
227 239 255
227 239 255
227 239 255
227 239 255
227 239 255
227 239 255
227 239 255
227 239 255
227 239 255
227 239 255
227 239 255
227 239 255
227 239 255
227 239 255
227 239 255
227 239 255
227 239 255
227 239 255
227 239 255
227 239 255
227 239 255
227 239 255
227 239 255
227 239 255
227 239 255
227 239 255
227 239 255
227 239 255
227 239 255
227 239 255
227 239 255
227 239 255
227 239 255
227 239 255
227 239 255
227 239 255
227 239 255
227 239 255
227 239 255
227 239 255
227 239 255
227 239 255
227 239 255
227 239 255
227 239 255
227 239 255
227 239 255
227 239 255
227 239 255
227 239 255
227 239 255
227 239 255
227 239 255
227 239 255
227 239 255
227 239 255
227 239 255
227 239 255
227 239 255
227 239 255
227 239 255
227 239 255
227 239 255
227 239 255
227 239 255
227 239 255
227 239 255
227 239 255
227 239 255
227 239 255
228 239 255
228 239 255
228 239 255
228 239 255
228 239 255
228 239 255
228 239 255
228 239 255
228 239 255
228 239 255
228 239 255
228 239 255
228 239 255
228 239 255
228 239 255
228 239 255
228 239 255
228 239 255
228 239 255
228 239 255
228 239 255
228 239 255
228 239 255
228 239 255
228 239 255
228 239 255
228 239 255
228 240 255
228 240 255
228 240 255
228 240 255
228 240 255
228 240 255
228 240 255
228 240 255
228 240 255
227 239 253
223 235 240
214 228 215
203 220 179
192 211 140
184 205 102
174 198 0
174 198 0
174 197 0
175 198 0
175 198 0
174 198 0
177 199 0
174 198 0
173 197 0
176 199 0
176 198 0
175 198 0
175 198 0
174 198 0
175 198 0
173 197 0
173 197 0
174 197 0
174 198 0
175 198 0
175 198 0
174 198 0
175 198 0
175 198 0
174 198 0
175 198 0
174 198 0
174 198 0
175 198 0
176 198 0
174 197 0
174 198 0
173 197 0
174 198 0
173 197 0
174 198 0
174 197 0
175 198 0
174 198 0
175 198 0
174 198 0
175 198 0
175 198 0
175 198 0
175 198 0
174 197 0
176 199 0
174 198 0
174 198 0
175 198 0
175 198 0
174 198 0
176 199 0
174 198 0
175 198 0
175 198 0
174 198 0
176 199 0
176 198 0
174 198 0
174 198 0
172 197 0
175 198 0
175 198 0
174 198 0
175 198 0
174 197 0
174 197 0
173 197 0
173 197 0
175 198 0
175 198 0
174 198 0
175 198 0
173 197 0
174 197 0
173 197 0
175 198 0
174 198 0
174 197 0
174 198 0
174 198 0
173 197 0
175 198 0
174 198 0
174 198 0
175 198 0
175 198 0
175 198 0
175 198 0
174 198 0
173 197 0
175 198 0
175 198 0
173 197 0
175 198 0
175 198 0
174 198 0
173 197 0
174 198 0
174 198 0
175 198 0
173 196 0
174 198 0
174 198 0
175 198 0
173 197 0
176 198 0
174 197 0
173 197 0
176 198 0
174 198 0
175 198 0
175 198 0
174 198 0
174 197 0
174 198 0
174 198 0
174 197 0
173 197 0
174 198 0
175 198 0
176 198 0
173 197 0
175 198 0
174 197 0
173 197 0
173 197 0
174 197 0
175 198 0
174 198 0
175 198 0
175 198 0
173 197 0
173 197 0
174 198 0
175 198 0
174 198 0
175 198 0
173 197 0
172 197 0
175 198 0
174 197 0
175 198 0
175 198 0
174 198 0
176 198 0
176 199 0
175 198 0
172 197 0
174 198 0
175 198 0
175 198 0
175 198 0
173 197 0
177 199 0
174 197 0
176 199 0
174 197 0
175 198 0
175 198 0
175 198 0
175 198 0
173 197 0
172 196 0
174 197 0
175 198 0
175 198 0
174 198 0
172 197 0
173 197 0
175 198 0
173 197 0
174 198 0
175 198 0
176 199 0
174 198 0
173 197 0
177 199 0
175 198 0
174 198 0
175 198 0
176 199 0
175 198 0
174 198 0
173 197 0
175 198 0
174 198 0
174 198 0
175 198 0
174 198 0
175 198 0
174 198 0
176 199 0
174 198 0
175 198 0
173 197 0
174 197 0
174 198 0
175 198 0
176 199 0
175 198 0
174 197 0
176 199 0
174 197 0
174 198 0
175 198 0
173 197 0
174 198 0
174 198 0
173 197 0
173 197 0
175 198 0
174 198 0
176 199 0
176 198 0
175 198 0
175 198 0
175 198 0
174 198 0
175 198 0
177 199 0
174 198 0
173 197 0
175 198 0
176 199 0
176 199 0
175 198 0
174 198 0
174 198 0
175 198 0
177 199 0
174 197 0
174 197 0
175 198 0
173 197 0
176 199 0
173 197 0
176 199 0
174 198 0
175 198 0
177 199 0
184 205 99
194 212 142
204 220 182
212 227 207
221 234 234
228 240 255
228 240 255
228 240 255
228 240 255
228 240 255
228 240 255
228 240 255
228 240 255
228 240 255
228 240 255
228 239 255
228 239 255
228 239 255
228 239 255
228 239 255
228 239 255
228 239 255
228 239 255
228 239 255
228 239 255
228 239 255
228 239 255
228 239 255
228 239 255
228 239 255
228 239 255
228 239 255
228 239 255
228 239 255
228 239 255
228 239 255
228 239 255
228 239 255
228 239 255
228 239 255
228 239 255
227 239 255
227 239 255
227 239 255
227 239 255
227 239 255
227 239 255
227 239 255
227 239 255
227 239 255
227 239 255
227 239 255
227 239 255
227 239 255
227 239 255
227 239 255
227 239 255
227 239 255
227 239 255
227 239 255
227 239 255
227 239 255
227 239 255
227 239 255
227 239 255
227 239 255
227 239 255
227 239 255
227 239 255
227 239 255
227 239 255
227 239 255
227 239 255
227 239 255
227 239 255
227 239 255
227 239 255
227 239 255
227 239 255
227 239 255
227 239 255
227 239 255
227 239 255
227 239 255
227 239 255
227 239 255
227 239 255
227 239 255
227 239 255
227 239 255
227 239 255
227 239 255
227 239 255
227 239 255
227 239 255
227 239 255
227 239 255
227 239 255
227 239 255
227 239 255
227 239 255
227 239 255
227 239 255
227 239 255
227 239 255
227 239 255
227 239 255
227 239 255
227 239 255
227 239 255
228 239 255
228 239 255
228 239 255
228 239 255
228 239 255
228 239 255
228 239 255
228 239 255
228 239 255
228 239 255
228 239 255
228 239 255
228 239 255
228 239 255
228 239 255
228 239 255
228 239 255
228 239 255
228 239 255
228 239 255
228 239 255
228 239 255
228 239 255
228 239 255
228 239 255
228 239 255
228 239 255
228 240 255
228 240 255
228 240 255
228 240 255
228 240 255
228 240 255
228 240 255
228 240 255
228 240 255
228 240 255
229 240 255
220 232 230
205 221 184
203 219 179
189 209 128
176 199 36
174 198 0
175 198 0
174 198 0
175 198 0
175 198 0
175 198 0
173 197 0
176 199 0
176 198 0
174 198 0
175 198 0
175 198 0
175 198 0
175 198 0
174 198 0
176 199 0
175 198 0
173 197 0
174 197 0
173 197 0
175 198 0
174 197 0
175 198 0
174 198 0
175 198 0
175 198 0
176 199 0
175 198 0
174 198 0
174 198 0
174 198 0
173 197 0
174 198 0
174 198 0
175 198 0
174 198 0
174 198 0
176 198 0
175 198 0
174 198 0
176 199 0
175 198 0
176 199 0
174 198 0
173 197 0
174 198 0
172 197 0
175 198 0
174 198 0
174 198 0
176 198 0
173 197 0
175 198 0
174 197 0
173 197 0
173 197 0
174 198 0
174 198 0
176 199 0
174 197 0
176 199 0
173 197 0
175 198 0
176 199 0
174 197 0
175 198 0
174 197 0
173 197 0
175 198 0
174 198 0
174 198 0
174 198 0
173 197 0
176 199 0
174 198 0
174 197 0
175 198 0
174 198 0
172 197 0
176 199 0
174 198 0
176 198 0
175 198 0
174 198 0
173 197 0
175 198 0
174 198 0
176 198 0
175 198 0
173 197 0
175 198 0
175 198 0
174 197 0
174 197 0
175 198 0
175 198 0
175 198 0
174 198 0
175 198 0
176 198 0
174 197 0
175 198 0
175 198 0
175 198 0
176 199 0
174 198 0
174 197 0
173 197 0
175 198 0
174 197 0
174 197 0
176 198 0
174 197 0
175 198 0
173 197 0
173 197 0
174 197 0
173 197 0
175 198 0
175 198 0
175 198 0
176 198 0
174 198 0
174 198 0
174 198 0
175 198 0
175 198 0
175 198 0
174 198 0
174 198 0
174 198 0
175 198 0
175 198 0
176 198 0
176 198 0
174 198 0
173 197 0
175 198 0
174 198 0
173 197 0
174 197 0
175 198 0
176 198 0
174 197 0
175 198 0
174 198 0
174 197 0
174 197 0
174 198 0
174 198 0
176 199 0
176 199 0
175 198 0
174 197 0
174 197 0
174 197 0
174 197 0
175 198 0
174 197 0
173 197 0
176 198 0
173 197 0
175 198 0
174 197 0
174 197 0
175 198 0
173 197 0
175 198 0
175 198 0
173 197 0
173 197 0
174 198 0
174 198 0
175 198 0
174 198 0
174 198 0
174 198 0
175 198 0
175 198 0
174 197 0
173 197 0
175 198 0
175 198 0
175 198 0
174 198 0
175 198 0
174 198 0
176 199 0
175 198 0
175 198 0
175 198 0
174 198 0
176 199 0
174 198 0
174 198 0
175 198 0
174 198 0
176 198 0
175 198 0
174 198 0
173 197 0
173 197 0
175 198 0
175 198 0
175 198 0
174 198 0
175 198 0
175 198 0
174 197 0
174 198 0
175 198 0
174 197 0
174 197 0
174 198 0
175 198 0
174 198 0
175 198 0
174 198 0
173 197 0
175 198 0
174 198 0
174 197 0
174 198 0
175 198 0
174 197 0
174 198 0
176 199 0
174 198 0
175 198 0
174 198 0
173 197 0
174 198 0
175 198 0
176 199 0
175 198 0
176 199 0
175 198 0
174 197 0
174 198 0
174 198 0
175 198 0
176 199 0
173 197 0
173 197 0
175 198 0
175 198 0
176 198 0
174 198 0
174 197 0
176 198 0
173 197 0
176 198 0
177 200 67
193 212 147
198 215 159
210 225 199
220 233 231
227 239 252
228 240 255
228 240 255
228 240 255
228 240 255
228 240 255
228 240 255
228 240 255
228 240 255
228 240 255
228 240 255
228 239 255
228 239 255
228 239 255
228 239 255
228 239 255
228 239 255
228 239 255
228 239 255
228 239 255
228 239 255
228 239 255
228 239 255
228 239 255
228 239 255
228 239 255
228 239 255
228 239 255
228 239 255
228 239 255
228 239 255
228 239 255
228 239 255
228 239 255
228 239 255
228 239 255
228 239 255
227 239 255
227 239 255
227 239 255
227 239 255
227 239 255
227 239 255
227 239 255
227 239 255
227 239 255
227 239 255
227 239 255
227 239 255
227 239 255
227 239 255
227 239 255
227 239 255
227 239 255
227 239 255
227 239 255
227 239 255
227 239 255
227 239 255
227 239 255
227 239 255
227 239 255
227 239 255
227 239 255
227 239 255
227 239 255
227 239 255
227 239 255
227 239 255
227 239 255
227 239 255
227 239 255
227 239 255
227 239 255
227 239 255
227 239 255
227 239 255
227 239 255
227 239 255
227 239 255
227 239 255
227 239 255
227 239 255
227 239 255
227 239 255
227 239 255
227 239 255
227 239 255
227 239 255
227 239 255
227 239 255
227 239 255
227 239 255
227 239 255
227 239 255
228 239 255
228 239 255
228 239 255
228 239 255
228 239 255
228 239 255
228 239 255
228 239 255
228 239 255
228 239 255
228 239 255
228 239 255
228 239 255
228 239 255
228 239 255
228 239 255
228 239 255
228 239 255
228 239 255
228 239 255
228 239 255
228 239 255
228 239 255
228 239 255
228 239 255
228 239 255
228 240 255
228 240 255
228 240 255
228 240 255
228 240 255
228 240 255
228 240 255
228 240 255
228 240 255
228 240 255
229 240 255
228 239 253
218 231 226
212 227 209
199 216 163
188 208 120
174 198 25
174 198 0
177 199 0
173 197 0
176 199 0
174 198 0
175 198 0
175 198 0
174 198 0
175 198 0
174 198 0
174 197 0
175 198 0
174 198 0
174 198 0
174 198 0
174 198 0
174 198 0
175 198 0
175 198 0
174 198 0
175 198 0
173 197 0
175 198 0
174 197 0
175 198 0
175 198 0
175 198 0
176 199 0
175 198 0
177 199 0
174 198 0
173 197 0
174 198 0
174 198 0
176 199 0
173 197 0
174 198 0
175 198 0
175 198 0
173 197 0
174 198 0
174 197 0
176 199 0
174 197 0
174 198 0
174 198 0
174 198 0
174 197 0
175 198 0
175 198 0
175 198 0
174 198 0
174 198 0
174 198 0
175 198 0
175 198 0
175 198 0
175 198 0
176 198 0
173 197 0
175 198 0
175 198 0
174 198 0
173 197 0
175 198 0
174 198 0
174 198 0
174 198 0
175 198 0
174 198 0
176 198 0
175 198 0
175 198 0
174 197 0
174 198 0
175 198 0
173 196 0
175 198 0
174 198 0
174 198 0
173 197 0
175 198 0
175 198 0
174 197 0
174 198 0
174 198 0
173 197 0
176 198 0
174 198 0
176 198 0
175 198 0
173 197 0
174 198 0
173 197 0
175 198 0
174 197 0
174 197 0
174 197 0
174 197 0
174 198 0
175 198 0
175 198 0
174 198 0
172 196 0
173 197 0
174 198 0
175 198 0
174 198 0
173 197 0
176 199 0
174 198 0
175 198 0
173 197 0
174 197 0
172 196 0
174 197 0
173 197 0
175 198 0
174 198 0
174 197 0
174 198 0
174 198 0
173 197 0
174 198 0
176 198 0
174 197 0
174 197 0
175 198 0
174 198 0
173 197 0
173 197 0
173 197 0
173 197 0
171 196 0
175 198 0
174 197 0
175 198 0
173 197 0
173 197 0
174 197 0
174 198 0
174 197 0
173 197 0
174 197 0
175 198 0
174 198 0
175 198 0
175 198 0
173 197 0
176 198 0
176 199 0
175 198 0
173 197 0
172 196 0
173 197 0
175 198 0
174 198 0
175 198 0
174 197 0
174 198 0
175 198 0
174 198 0
173 197 0
175 198 0
174 198 0
175 198 0
175 198 0
174 198 0
175 198 0
175 198 0
174 197 0
175 198 0
174 198 0
175 198 0
174 198 0
174 198 0
173 197 0
174 197 0
175 198 0
176 199 0
174 198 0
176 199 0
176 199 0
176 199 0
174 198 0
174 197 0
175 198 0
174 198 0
175 198 0
175 198 0
175 198 0
174 198 0
176 199 0
174 198 0
174 198 0
174 198 0
175 198 0
175 198 0
176 198 0
176 198 0
176 199 0
174 198 0
175 198 0
174 198 0
174 197 0
174 198 0
175 198 0
173 197 0
175 198 0
176 199 0
172 197 0
174 198 0
175 198 0
173 197 0
174 197 0
173 197 0
173 197 0
174 197 0
173 197 0
176 198 0
175 198 0
176 199 0
174 198 0
174 198 0
174 198 0
175 198 0
173 197 0
176 199 0
176 199 0
174 198 0
174 198 0
175 198 0
176 199 0
175 198 0
174 197 0
175 198 0
175 198 0
174 198 0
174 197 0
175 198 0
174 197 0
175 198 0
175 198 0
174 198 0
174 198 0
175 198 0
176 198 0
172 197 0
175 198 0
176 199 0
174 198 0
175 198 0
174 197 0
175 198 0
175 198 0
174 198 0
176 199 0
174 198 0
175 198 0
175 198 0
175 198 0
175 198 0
178 200 51
191 210 133
201 218 175
209 224 194
220 233 231
228 239 254
229 240 255
228 240 255
228 240 255
228 240 255
228 240 255
228 240 255
228 240 255
228 240 255
228 240 255
228 240 255
228 239 255
228 239 255
228 239 255
228 239 255
228 239 255
228 239 255
228 239 255
228 239 255
228 239 255
228 239 255
228 239 255
228 239 255
228 239 255
228 239 255
228 239 255
228 239 255
228 239 255
228 239 255
228 239 255
228 239 255
228 239 255
228 239 255
228 239 255
228 239 255
228 239 255
228 239 255
228 239 255
227 239 255
227 239 255
227 239 255
227 239 255
227 239 255
227 239 255
227 239 255
227 239 255
227 239 255
227 239 255
227 239 255
227 239 255
227 239 255
227 239 255
227 239 255
227 239 255
227 239 255
227 239 255
227 239 255
227 239 255
227 239 255
227 239 255
227 239 255
227 239 255
227 239 255
227 239 255
227 239 255
227 239 255
227 239 255
227 239 255
227 239 255
227 239 255
227 239 255
227 239 255
227 239 255
227 239 255
227 239 255
227 239 255
227 239 255
227 239 255
227 239 255
227 239 255
227 239 255
227 239 255
227 239 255
227 239 255
228 239 255
228 239 255
228 239 255
228 239 255
228 239 255
228 239 255
228 239 255
228 239 255
228 239 255
228 239 255
228 239 255
228 239 255
228 239 255
228 239 255
228 239 255
228 239 255
228 239 255
228 239 255
228 239 255
228 239 255
228 239 255
228 239 255
228 239 255
228 239 255
228 239 255
228 239 255
228 239 255
228 240 255
228 240 255
228 240 255
228 240 255
228 240 255
228 240 255
228 240 255
228 240 255
228 240 255
228 240 255
229 240 255
227 239 252
219 232 230
207 223 193
195 213 149
189 209 125
176 199 25
175 198 0
175 198 0
175 198 0
174 198 0
173 197 0
175 198 0
174 198 0
175 198 0
175 198 0
175 198 0
175 198 0
175 198 0
174 197 0
176 199 0
177 199 0
174 197 0
173 197 0
176 199 0
174 198 0
174 198 0
174 198 0
176 199 0
176 198 0
175 198 0
174 198 0
173 197 0
174 198 0
175 198 0
175 198 0
175 198 0
174 197 0
174 198 0
175 198 0
175 198 0
174 198 0
173 197 0
177 199 0
175 198 0
173 197 0
174 198 0
174 198 0
174 198 0
174 198 0
174 198 0
174 198 0
174 198 0
173 197 0
175 198 0
175 198 0
174 198 0
174 198 0
175 198 0
174 198 0
174 198 0
174 198 0
175 198 0
176 198 0
174 198 0
173 197 0
174 198 0
177 199 0
174 198 0
174 198 0
175 198 0
175 198 0
174 198 0
174 197 0
174 198 0
174 198 0
174 197 0
174 198 0
177 199 0
174 198 0
174 197 0
175 198 0
175 198 0
175 198 0
173 197 0
173 197 0
174 198 0
174 198 0
173 197 0
175 198 0
175 198 0
173 197 0
174 198 0
173 197 0
174 197 0
174 198 0
176 198 0
175 198 0
174 197 0
174 198 0
174 197 0
174 197 0
174 198 0
174 197 0
174 197 0
174 198 0
175 198 0
175 198 0
175 198 0
174 198 0
175 198 0
174 198 0
174 198 0
175 198 0
175 198 0
175 198 0
174 197 0
176 198 0
174 198 0
175 198 0
175 198 0
175 198 0
175 197 0
174 198 0
176 199 0
175 198 0
174 198 0
175 198 0
174 198 0
174 197 0
175 198 0
175 198 0
175 198 0
176 198 0
174 197 0
173 197 0
175 198 0
174 198 0
173 197 0
175 198 0
174 198 0
175 198 0
173 197 0
175 198 0
173 197 0
173 197 0
174 197 0
175 198 0
174 198 0
174 198 0
173 197 0
173 197 0
175 198 0
175 198 0
174 198 0
174 198 0
174 198 0
175 198 0
174 197 0
174 198 0
175 198 0
173 197 0
176 199 0
175 198 0
175 198 0
175 198 0
174 198 0
175 198 0
174 198 0
175 198 0
174 198 0
173 197 0
175 198 0
174 197 0
176 199 0
174 198 0
173 197 0
172 196 0
176 199 0
175 198 0
174 198 0
175 198 0
174 197 0
175 198 0
175 198 0
175 198 0
173 197 0
176 199 0
173 197 0
173 197 0
173 197 0
175 198 0
174 197 0
176 199 0
175 198 0
175 198 0
173 197 0
173 197 0
174 198 0
174 198 0
175 198 0
175 198 0
174 198 0
174 198 0
174 198 0
176 199 0
175 198 0
174 197 0
173 197 0
176 199 0
174 197 0
175 198 0
174 198 0
175 198 0
172 197 0
174 198 0
174 197 0
175 198 0
176 199 0
175 198 0
175 198 0
174 197 0
175 198 0
174 197 0
175 198 0
174 198 0
174 197 0
174 198 0
175 198 0
174 198 0
174 198 0
174 198 0
174 197 0
175 198 0
175 198 0
175 198 0
175 198 0
175 198 0
175 198 0
174 198 0
175 198 0
175 198 0
174 197 0
175 198 0
174 198 0
174 198 0
172 197 0
175 198 0
174 198 0
174 197 0
174 197 0
173 197 0
174 197 0
174 198 0
173 197 0
176 199 0
173 197 0
175 198 0
173 197 0
175 198 0
173 197 0
174 197 0
175 198 0
176 198 0
174 197 0
173 197 0
175 198 0
173 197 0
175 198 0
175 198 0
174 198 0
175 198 0
176 198 0
175 198 0
174 197 0
173 197 0
174 197 0
173 197 0
176 199 0
178 200 51
187 207 105
196 214 153
210 225 203
217 231 226
227 238 250
229 240 255
228 240 255
228 240 255
228 240 255
228 240 255
228 240 255
228 240 255
228 240 255
228 240 255
228 240 255
228 240 255
228 239 255
228 239 255
228 239 255
228 239 255
228 239 255
228 239 255
228 239 255
228 239 255
228 239 255
228 239 255
228 239 255
228 239 255
228 239 255
228 239 255
228 239 255
228 239 255
228 239 255
228 239 255
228 239 255
228 239 255
228 239 255
228 239 255
228 239 255
228 239 255
228 239 255
228 239 255
228 239 255
227 239 255
227 239 255
227 239 255
227 239 255
227 239 255
227 239 255
227 239 255
227 239 255
227 239 255
227 239 255
227 239 255
227 239 255
227 239 255
227 239 255
227 239 255
227 239 255
227 239 255
227 239 255
227 239 255
227 239 255
227 239 255
227 239 255
227 239 255
227 239 255
227 239 255
227 239 255
227 239 255
227 239 255
227 239 255
227 239 255
227 239 255
227 239 255
227 239 255
227 239 255
228 239 255
228 239 255
228 239 255
228 239 255
228 239 255
228 239 255
228 239 255
228 239 255
228 239 255
228 239 255
228 239 255
228 239 255
228 239 255
228 239 255
228 239 255
228 239 255
228 239 255
228 239 255
228 239 255
228 239 255
228 239 255
228 239 255
228 239 255
228 239 255
228 239 255
228 239 255
228 239 255
228 240 255
228 240 255
228 240 255
228 240 255
228 240 255
228 240 255
228 240 255
228 240 255
228 240 255
228 240 255
229 240 255
229 240 255
228 239 254
222 234 234
207 223 194
202 219 173
185 206 111
177 199 25
175 198 0
176 199 0
174 198 0
175 198 0
175 198 0
176 199 0
175 198 0
175 198 0
175 198 0
175 198 0
175 198 0
175 198 0
175 198 0
175 198 0
175 198 0
176 199 0
174 198 0
173 197 0
175 198 0
174 198 0
176 199 0
174 198 0
175 198 0
175 198 0
174 198 0
176 199 0
175 198 0
175 198 0
176 198 0
175 198 0
175 198 0
173 197 0
175 198 0
173 197 0
176 198 0
178 200 0
173 197 0
174 198 0
175 198 0
175 198 0
174 197 0
174 198 0
173 197 0
176 199 0
173 197 0
174 198 0
173 197 0
176 198 0
175 198 0
174 198 0
174 197 0
174 197 0
175 198 0
174 198 0
175 198 0
173 197 0
174 198 0
174 197 0
173 197 0
174 198 0
175 198 0
175 198 0
174 198 0
174 197 0
176 199 0
174 197 0
175 198 0
176 199 0
174 198 0
175 198 0
175 198 0
174 198 0
176 199 0
175 198 0
175 198 0
175 198 0
173 197 0
175 198 0
174 198 0
173 197 0
174 198 0
174 197 0
175 198 0
174 198 0
175 198 0
174 198 0
175 198 0
174 198 0
173 197 0
174 198 0
174 198 0
174 198 0
176 198 0
175 198 0
174 197 0
174 198 0
174 198 0
176 198 0
174 198 0
174 198 0
174 198 0
173 197 0
175 198 0
174 198 0
172 197 0
175 198 0
177 199 0
176 199 0
176 198 0
175 198 0
175 198 0
174 197 0
173 197 0
175 198 0
174 197 0
174 197 0
175 198 0
174 198 0
175 198 0
174 198 0
174 198 0
174 198 0
176 199 0
174 198 0
174 197 0
175 198 0
174 198 0
175 198 0
175 198 0
173 197 0
175 198 0
176 198 0
172 196 0
174 198 0
173 197 0
175 198 0
174 198 0
171 196 0
174 198 0
173 197 0
174 197 0
175 198 0
173 197 0
173 197 0
173 197 0
175 198 0
175 198 0
175 198 0
175 198 0
172 196 0
175 198 0
174 197 0
174 197 0
174 198 0
175 198 0
176 199 0
173 197 0
176 199 0
174 198 0
174 197 0
176 199 0
173 197 0
174 198 0
176 199 0
174 198 0
174 198 0
175 198 0
175 198 0
176 199 0
175 198 0
173 197 0
173 197 0
173 197 0
174 198 0
174 198 0
174 197 0
174 198 0
175 198 0
175 197 0
174 198 0
174 198 0
175 198 0
174 197 0
174 197 0
174 198 0
173 197 0
174 197 0
174 198 0
174 198 0
174 198 0
173 197 0
174 198 0
175 198 0
174 198 0
175 198 0
174 197 0
175 198 0
174 197 0
176 199 0
175 198 0
174 197 0
176 199 0
176 198 0
173 197 0
174 198 0
174 198 0
176 199 0
174 197 0
175 198 0
174 197 0
175 198 0
177 199 0
174 198 0
173 197 0
175 198 0
174 197 0
174 197 0
176 199 0
175 198 0
174 198 0
173 197 0
174 198 0
176 198 0
175 198 0
175 198 0
174 198 0
174 198 0
174 198 0
174 197 0
174 198 0
175 198 0
176 199 0
174 198 0
174 198 0
175 198 0
174 197 0
175 198 0
174 197 0
174 198 0
175 198 0
176 199 0
173 197 0
175 198 0
175 198 0
176 199 0
174 198 0
175 198 0
175 198 0
174 197 0
175 198 0
175 198 0
175 198 0
173 197 0
174 198 0
175 198 0
176 199 0
173 197 0
174 198 0
175 198 0
175 198 0
174 198 0
174 198 0
173 197 0
175 198 0
174 198 0
174 198 0
175 198 0
173 197 0
174 198 0
174 197 0
173 197 0
175 198 0
175 198 0
175 198 0
176 198 0
175 198 0
174 198 0
176 199 0
175 198 0
175 198 0
174 197 0
175 198 0
178 200 44
185 206 114
202 218 175
212 226 206
224 236 242
229 240 255
229 240 255
229 240 255
228 240 255
228 240 255
228 240 255
228 240 255
228 240 255
228 240 255
228 240 255
228 240 255
228 240 255
228 240 255
228 239 255
228 239 255
228 239 255
228 239 255
228 239 255
228 239 255
228 239 255
228 239 255
228 239 255
228 239 255
228 239 255
228 239 255
228 239 255
228 239 255
228 239 255
228 239 255
228 239 255
228 239 255
228 239 255
228 239 255
228 239 255
228 239 255
228 239 255
228 239 255
228 239 255
228 239 255
228 239 255
227 239 255
227 239 255
227 239 255
227 239 255
227 239 255
227 239 255
227 239 255
227 239 255
227 239 255
227 239 255
227 239 255
227 239 255
227 239 255
227 239 255
227 239 255
227 239 255
227 239 255
227 239 255
227 239 255
227 239 255
227 239 255
227 239 255
228 239 255
228 239 255
228 239 255
228 239 255
228 239 255
228 239 255
228 239 255
228 239 255
228 239 255
228 239 255
228 239 255
228 239 255
228 239 255
228 239 255
228 239 255
228 239 255
228 239 255
228 239 255
228 239 255
228 239 255
228 239 255
228 239 255
228 239 255
228 239 255
228 239 255
228 239 255
228 239 255
228 239 255
228 240 255
228 240 255
228 240 255
228 240 255
228 240 255
228 240 255
228 240 255
228 240 255
228 240 255
228 240 255
229 240 255
229 240 255
229 240 255
222 235 238
210 225 199
202 219 175
192 211 135
179 201 62
176 199 0
175 198 0
174 197 0
174 198 0
175 198 0
176 199 0
175 198 0
173 197 0
173 197 0
176 199 0
174 198 0
175 198 0
176 198 0
174 198 0
174 198 0
175 198 0
175 198 0
174 197 0
175 198 0
175 198 0
175 198 0
173 197 0
176 198 0
173 197 0
173 197 0
174 198 0
175 198 0
174 197 0
174 198 0
173 197 0
174 198 0
174 198 0
176 199 0
175 198 0
174 198 0
175 198 0
175 198 0
174 198 0
175 198 0
174 198 0
175 198 0
174 197 0
174 198 0
174 198 0
174 198 0
173 197 0
175 198 0
173 197 0
174 198 0
176 199 0
174 198 0
175 198 0
173 197 0
173 197 0
173 197 0
175 198 0
174 198 0
174 198 0
175 198 0
175 198 0
174 198 0
176 199 0
175 198 0
175 198 0
175 198 0
173 197 0
174 198 0
175 198 0
175 198 0
172 196 0
175 198 0
174 198 0
174 198 0
175 198 0
175 198 0
176 199 0
175 198 0
175 198 0
176 199 0
174 198 0
175 198 0
173 197 0
174 198 0
173 197 0
175 198 0
176 199 0
175 198 0
174 198 0
174 198 0
174 197 0
176 199 0
175 198 0
175 198 0
173 196 0
175 198 0
174 197 0
175 198 0
175 198 0
177 199 0
174 197 0
173 197 0
175 198 0
174 198 0
175 198 0
174 198 0
174 198 0
176 198 0
174 198 0
174 197 0
174 197 0
174 198 0
175 198 0
174 198 0
173 197 0
175 198 0
174 198 0
173 197 0
175 198 0
175 198 0
174 197 0
173 197 0
175 198 0
174 197 0
174 198 0
174 198 0
172 197 0
174 197 0
172 197 0
174 198 0
174 197 0
174 197 0
174 198 0
174 197 0
174 198 0
174 198 0
176 199 0
175 198 0
174 197 0
172 197 0
174 198 0
174 198 0
176 198 0
174 198 0
173 196 0
173 197 0
176 199 0
174 198 0
174 198 0
173 197 0
174 197 0
174 198 0
174 197 0
174 197 0
175 198 0
173 197 0
175 198 0
173 197 0
175 198 0
173 197 0
174 198 0
175 198 0
175 198 0
175 198 0
176 199 0
175 198 0
175 198 0
173 197 0
173 197 0
174 197 0
174 198 0
176 199 0
175 198 0
172 197 0
175 198 0
174 198 0
176 199 0
173 197 0
175 198 0
174 197 0
176 199 0
176 198 0
173 197 0
175 198 0
175 198 0
175 198 0
174 197 0
174 198 0
174 197 0
175 198 0
176 198 0
173 197 0
175 198 0
175 198 0
175 198 0
174 198 0
173 197 0
175 198 0
177 199 0
173 197 0
174 198 0
174 198 0
173 197 0
174 198 0
176 198 0
175 198 0
175 198 0
174 198 0
177 199 0
174 198 0
174 198 0
176 198 0
174 198 0
174 198 0
173 197 0
173 197 0
173 197 0
175 198 0
175 198 0
175 198 0
174 197 0
173 197 0
175 198 0
174 198 0
174 198 0
175 198 0
173 197 0
173 197 0
174 198 0
173 197 0
176 199 0
175 198 0
176 198 0
175 198 0
174 198 0
174 198 0
173 197 0
174 198 0
176 198 0
173 197 0
176 199 0
174 198 0
175 198 0
175 198 0
173 197 0
175 198 0
175 198 0
173 197 0
174 197 0
173 197 0
176 199 0
174 198 0
173 197 0
173 197 0
175 198 0
174 198 0
177 199 0
174 198 0
173 197 0
176 199 0
175 198 0
173 197 0
175 198 0
175 198 0
174 198 0
177 199 0
175 198 0
173 197 0
176 199 0
176 199 0
175 198 0
175 198 0
174 197 0
173 197 0
176 198 0
176 198 0
176 199 0
175 198 0
174 198 0
174 197 0
176 199 0
175 198 0
176 198 0
174 197 0
175 198 0
176 199 0
173 197 0
175 198 0
176 198 0
174 198 0
175 198 0
176 198 0
174 197 0
176 199 51
190 209 125
200 217 169
213 227 211
222 234 237
229 240 255
229 240 255
229 240 255
228 240 255
228 240 255
228 240 255
228 240 255
228 240 255
228 240 255
228 240 255
228 240 255
228 240 255
228 240 255
228 239 255
228 239 255
228 239 255
228 239 255
228 239 255
228 239 255
228 239 255
228 239 255
228 239 255
228 239 255
228 239 255
228 239 255
228 239 255
228 239 255
228 239 255
228 239 255
228 239 255
228 239 255
228 239 255
228 239 255
228 239 255
228 239 255
228 239 255
228 239 255
228 239 255
228 239 255
228 239 255
228 239 255
227 239 255
227 239 255
227 239 255
227 239 255
227 239 255
227 239 255
227 239 255
227 239 255
227 239 255
227 239 255
228 239 255
228 239 255
228 239 255
228 239 255
228 239 255
228 239 255
228 239 255
228 239 255
228 239 255
228 239 255
228 239 255
228 239 255
228 239 255
228 239 255
228 239 255
228 239 255
228 239 255
228 239 255
228 239 255
228 239 255
228 239 255
228 239 255
228 239 255
228 239 255
228 239 255
228 239 255
228 239 255
228 239 255
228 239 255
228 240 255
228 240 255
228 240 255
228 240 255
228 240 255
228 240 255
228 240 255
228 240 255
228 240 255
228 240 255
229 240 255
229 240 255
229 240 255
224 236 244
217 231 224
204 220 181
193 212 144
181 202 76
174 197 0
174 197 0
175 198 0
176 198 0
175 198 0
176 199 0
175 198 0
175 198 0
175 198 0
173 197 0
174 197 0
174 198 0
175 198 0
176 199 0
175 198 0
174 197 0
175 198 0
175 198 0
173 197 0
175 198 0
175 198 0
174 197 0
176 199 0
172 197 0
174 198 0
176 199 0
174 197 0
173 197 0
174 198 0
174 197 0
175 198 0
176 199 0
175 198 0
176 199 0
176 199 0
175 198 0
174 198 0
173 197 0
174 198 0
174 198 0
175 198 0
175 198 0
173 197 0
174 198 0
175 198 0
175 198 0
171 196 0
174 198 0
175 198 0
174 198 0
176 199 0
175 198 0
176 199 0
173 197 0
175 198 0
174 198 0
174 198 0
173 197 0
175 198 0
174 197 0
175 198 0
173 197 0
175 198 0
173 197 0
174 198 0
174 198 0
176 199 0
173 197 0
175 198 0
173 197 0
176 199 0
174 198 0
174 198 0
175 198 0
174 198 0
174 198 0
173 197 0
175 198 0
176 199 0
174 198 0
174 198 0
174 198 0
173 197 0
174 198 0
174 198 0
175 198 0
175 198 0
176 199 0
176 199 0
174 198 0
174 197 0
174 198 0
174 198 0
174 198 0
174 198 0
173 197 0
173 197 0
173 197 0
174 198 0
175 198 0
174 197 0
174 198 0
174 198 0
173 197 0
176 198 0
175 198 0
173 197 0
174 197 0
173 197 0
175 198 0
174 197 0
174 197 0
174 197 0
175 198 0
174 198 0
174 197 0
175 198 0
176 199 0
174 198 0
175 198 0
174 198 0
174 198 0
174 197 0
175 198 0
175 198 0
175 198 0
175 198 0
175 198 0
174 197 0
176 199 0
175 198 0
173 197 0
174 197 0
174 198 0
174 198 0
175 198 0
175 198 0
174 198 0
174 198 0
173 197 0
174 197 0
175 198 0
174 197 0
175 198 0
176 198 0
175 198 0
174 198 0
174 198 0
174 198 0
173 197 0
174 198 0
174 198 0
175 198 0
174 198 0
175 198 0
173 197 0
174 197 0
174 198 0
175 198 0
176 198 0
174 198 0
174 198 0
175 198 0
176 199 0
173 197 0
173 197 0
174 198 0
175 198 0
175 198 0
175 198 0
175 198 0
174 198 0
174 197 0
177 199 0
174 198 0
174 198 0
175 198 0
174 197 0
174 197 0
175 198 0
174 197 0
174 197 0
174 197 0
174 198 0
175 198 0
174 198 0
174 198 0
173 197 0
173 197 0
173 197 0
173 197 0
174 197 0
175 198 0
175 198 0
174 198 0
175 198 0
175 198 0
174 198 0
174 197 0
175 198 0
176 198 0
174 198 0
174 198 0
175 198 0
174 197 0
174 198 0
174 197 0
175 198 0
175 197 0
173 197 0
175 198 0
174 197 0
173 197 0
175 198 0
176 199 0
174 198 0
175 198 0
175 198 0
174 198 0
175 198 0
174 198 0
176 199 0
174 197 0
176 199 0
175 198 0
174 198 0
175 198 0
175 198 0
175 198 0
174 197 0
173 197 0
175 198 0
174 197 0
173 197 0
176 199 0
175 198 0
175 198 0
175 198 0
176 199 0
174 198 0
175 198 0
175 198 0
173 197 0
174 198 0
176 199 0
175 198 0
176 199 0
175 198 0
175 198 0
175 198 0
175 198 0
176 199 0
175 198 0
175 198 0
174 198 0
172 197 0
175 198 0
174 198 0
174 198 0
176 199 0
174 198 0
175 198 0
175 198 0
173 197 0
175 198 0
175 198 0
174 197 0
174 198 0
174 198 0
178 199 0
171 196 0
176 199 0
175 198 0
174 198 0
174 198 0
175 198 0
174 198 0
175 198 0
177 199 0
175 198 0
175 198 0
174 198 0
174 198 0
175 198 0
173 197 0
176 199 0
174 198 0
175 198 0
176 199 0
173 197 0
173 197 0
176 199 0
176 199 0
175 198 0
174 197 0
174 198 0
175 198 0
175 198 0
175 198 0
175 198 0
176 199 0
175 198 0
180 202 72
189 209 122
203 220 181
214 228 217
223 235 240
229 240 255
229 240 255
229 240 255
229 240 255
228 240 255
228 240 255
228 240 255
228 240 255
228 240 255
228 240 255
228 240 255
228 240 255
228 240 255
228 240 255
228 239 255
228 239 255
228 239 255
228 239 255
228 239 255
228 239 255
228 239 255
228 239 255
228 239 255
228 239 255
228 239 255
228 239 255
228 239 255
228 239 255
228 239 255
228 239 255
228 239 255
228 239 255
228 239 255
228 239 255
228 239 255
228 239 255
228 239 255
228 239 255
228 239 255
228 239 255
228 239 255
227 239 255
227 239 255
227 239 255
228 239 255
228 239 255
228 239 255
228 239 255
228 239 255
228 239 255
228 239 255
228 239 255
228 239 255
228 239 255
228 239 255
228 239 255
228 239 255
228 239 255
228 239 255
228 239 255
228 239 255
228 239 255
228 239 255
228 239 255
228 239 255
228 239 255
228 239 255
228 239 255
228 239 255
228 240 255
228 240 255
228 240 255
228 240 255
228 240 255
228 240 255
228 240 255
228 240 255
228 240 255
228 240 255
229 240 255
229 240 255
229 240 255
229 240 255
227 238 250
218 232 227
205 221 184
195 214 151
180 202 76
174 198 0
173 197 0
175 198 0
174 198 0
174 197 0
175 198 0
176 199 0
177 199 0
175 198 0
175 198 0
174 198 0
175 198 0
174 198 0
174 198 0
175 198 0
174 198 0
174 198 0
176 199 0
177 199 0
175 198 0
175 198 0
175 198 0
175 198 0
174 198 0
174 198 0
174 198 0
175 198 0
175 198 0
174 198 0
175 198 0
175 198 0
175 198 0
175 198 0
175 198 0
174 198 0
174 198 0
175 198 0
173 197 0
175 198 0
175 198 0
175 198 0
176 199 0
173 197 0
175 198 0
173 197 0
174 198 0
174 197 0
174 198 0
174 198 0
176 198 0
174 198 0
174 198 0
175 198 0
175 198 0
175 198 0
176 199 0
176 199 0
176 199 0
177 199 0
174 198 0
175 198 0
173 197 0
174 198 0
173 197 0
173 197 0
174 198 0
175 198 0
174 198 0
173 197 0
174 198 0
174 198 0
174 198 0
174 197 0
175 198 0
177 199 0
175 198 0
175 198 0
174 198 0
174 198 0
175 198 0
175 198 0
174 198 0
172 197 0
175 198 0
173 197 0
172 197 0
174 198 0
174 198 0
174 198 0
172 197 0
174 198 0
175 198 0
175 198 0
174 198 0
175 198 0
175 198 0
174 198 0
176 199 0
174 197 0
175 198 0
174 197 0
175 198 0
174 198 0
175 198 0
173 197 0
173 197 0
173 197 0
174 198 0
174 198 0
174 198 0
175 198 0
174 197 0
174 197 0
174 198 0
174 198 0
175 198 0
174 198 0
175 198 0
173 197 0
174 198 0
175 198 0
173 196 0
174 197 0
174 198 0
175 198 0
176 198 0
174 197 0
174 197 0
175 198 0
175 198 0
174 198 0
172 197 0
174 198 0
176 198 0
174 198 0
175 197 0
174 197 0
175 198 0
174 197 0
175 198 0
174 197 0
176 198 0
173 197 0
176 199 0
174 197 0
175 198 0
175 198 0
175 198 0
174 197 0
176 198 0
172 196 0
174 198 0
175 198 0
174 197 0
174 198 0
174 197 0
175 198 0
175 198 0
172 197 0
174 198 0
174 198 0
173 197 0
174 198 0
175 198 0
175 198 0
174 198 0
174 197 0
174 197 0
176 199 0
174 197 0
174 198 0
174 198 0
174 198 0
175 198 0
174 197 0
175 198 0
176 199 0
173 197 0
173 197 0
175 198 0
174 198 0
175 198 0
175 198 0
173 197 0
175 198 0
174 198 0
174 198 0
174 197 0
175 198 0
173 197 0
176 199 0
174 197 0
174 197 0
174 198 0
175 198 0
174 198 0
174 198 0
175 198 0
174 198 0
176 199 0
175 198 0
175 198 0
172 196 0
175 198 0
174 198 0
173 197 0
175 198 0
176 199 0
175 198 0
175 198 0
173 197 0
174 198 0
176 199 0
174 198 0
175 198 0
176 199 0
174 198 0
174 198 0
174 197 0
174 198 0
174 198 0
173 197 0
175 198 0
174 197 0
174 198 0
173 197 0
174 198 0
174 198 0
174 197 0
173 197 0
175 198 0
176 199 0
175 198 0
174 197 0
176 199 0
174 197 0
175 198 0
174 197 0
175 198 0
174 198 0
174 198 0
174 198 0
175 198 0
174 198 0
174 197 0
173 197 0
174 198 0
175 198 0
174 198 0
175 198 0
176 198 0
175 198 0
175 198 0
174 198 0
176 198 0
176 199 0
176 199 0
175 198 0
175 198 0
174 198 0
175 198 0
175 198 0
174 197 0
174 198 0
175 198 0
176 199 0
174 198 0
174 198 0
175 198 0
174 198 0
174 198 0
175 198 0
174 197 0
174 198 0
176 199 0
175 198 0
174 198 0
174 198 0
174 198 0
174 197 0
174 198 0
175 198 0
174 198 0
175 198 0
173 197 0
175 198 0
175 198 0
172 197 0
174 198 0
177 199 0
173 197 0
175 198 0
175 198 0
175 198 0
176 199 0
174 198 0
175 198 0
176 199 0
176 199 0
175 198 0
175 198 0
173 197 0
175 198 0
174 198 0
174 198 0
176 199 0
175 198 0
177 199 0
174 197 0
175 198 0
174 198 0
175 198 0
189 208 117
197 215 157
204 221 184
215 229 217
227 239 252
229 240 255
229 240 255
229 240 255
229 240 255
228 240 255
228 240 255
228 240 255
228 240 255
228 240 255
228 240 255
228 240 255
228 240 255
228 240 255
228 240 255
228 239 255
228 239 255
228 239 255
228 239 255
228 239 255
228 239 255
228 239 255
228 239 255
228 239 255
228 239 255
228 239 255
228 239 255
228 239 255
228 239 255
228 239 255
228 239 255
228 239 255
228 239 255
228 239 255
228 239 255
228 239 255
228 239 255
228 239 255
228 239 255
228 239 255
228 239 255
228 239 255
228 239 255
228 239 255
228 239 255
228 239 255
228 239 255
228 239 255
228 239 255
228 239 255
228 239 255
228 239 255
228 239 255
228 239 255
228 239 255
228 239 255
228 239 255
228 239 255
228 239 255
228 239 255
228 240 255
228 240 255
228 240 255
228 240 255
228 240 255
228 240 255
228 240 255
228 240 255
228 240 255
228 240 255
229 240 255
229 240 255
229 240 255
229 240 255
228 239 254
220 233 233
209 224 198
198 216 159
190 209 125
177 199 25
173 197 0
172 197 0
174 198 0
173 197 0
173 197 0
176 199 0
174 197 0
175 198 0
173 197 0
173 197 0
175 198 0
177 199 0
175 198 0
174 198 0
174 198 0
174 198 0
175 198 0
174 197 0
173 197 0
174 198 0
174 198 0
173 197 0
174 198 0
175 198 0
174 197 0
176 199 0
174 197 0
174 198 0
173 197 0
174 198 0
175 198 0
175 198 0
174 198 0
173 197 0
175 198 0
174 198 0
175 198 0
175 198 0
175 198 0
176 199 0
175 198 0
173 197 0
175 198 0
175 198 0
175 198 0
173 197 0
176 198 0
175 198 0
174 198 0
173 197 0
175 198 0
174 197 0
175 198 0
174 198 0
175 198 0
174 198 0
176 199 0
176 198 0
176 198 0
176 198 0
174 198 0
174 197 0
172 197 0
176 198 0
173 197 0
175 198 0
173 197 0
174 198 0
175 198 0
174 197 0
174 198 0
175 198 0
174 198 0
175 198 0
174 198 0
175 198 0
176 199 0
174 198 0
175 198 0
174 197 0
175 198 0
174 198 0
173 197 0
174 197 0
174 198 0
174 198 0
175 198 0
175 198 0
173 197 0
174 197 0
176 199 0
174 197 0
174 198 0
175 198 0
174 198 0
173 197 0
174 198 0
174 197 0
175 198 0
174 197 0
175 198 0
173 197 0
175 198 0
175 198 0
174 197 0
173 197 0
175 198 0
174 198 0
174 197 0
174 198 0
175 198 0
174 198 0
173 197 0
175 198 0
173 197 0
174 197 0
174 197 0
175 198 0
174 197 0
174 198 0
173 197 0
174 198 0
174 197 0
175 198 0
175 198 0
174 198 0
175 198 0
174 198 0
174 197 0
175 198 0
175 198 0
173 197 0
174 198 0
173 197 0
175 198 0
174 198 0
175 198 0
173 196 0
175 198 0
175 198 0
175 198 0
173 197 0
175 198 0
174 197 0
175 198 0
173 197 0
174 198 0
175 198 0
174 198 0
175 198 0
175 198 0
174 198 0
173 197 0
173 197 0
175 198 0
174 197 0
174 198 0
176 199 0
174 198 0
175 198 0
174 197 0
174 198 0
176 199 0
173 197 0
174 198 0
176 198 0
173 197 0
174 198 0
173 197 0
175 198 0
173 197 0
175 198 0
174 197 0
174 198 0
173 197 0
174 198 0
173 197 0
175 198 0
174 198 0
176 198 0
173 197 0
172 196 0
175 198 0
174 197 0
174 197 0
174 197 0
175 198 0
176 198 0
175 198 0
172 197 0
174 197 0
175 198 0
175 198 0
172 197 0
174 198 0
173 197 0
175 198 0
175 198 0
174 198 0
173 197 0
174 197 0
173 197 0
173 197 0
174 197 0
175 198 0
174 198 0
173 197 0
174 197 0
176 198 0
172 196 0
175 198 0
175 198 0
172 197 0
172 196 0
175 198 0
174 198 0
173 197 0
174 198 0
174 197 0
175 198 0
175 198 0
174 198 0
176 199 0
175 198 0
175 198 0
173 197 0
174 198 0
175 198 0
175 198 0
173 197 0
174 198 0
174 198 0
175 198 0
174 198 0
174 198 0
174 198 0
174 197 0
175 198 0
175 198 0
173 197 0
173 197 0
175 198 0
174 198 0
175 198 0
174 198 0
172 197 0
175 198 0
173 197 0
176 198 0
174 198 0
174 197 0
176 199 0
175 198 0
174 197 0
173 197 0
175 198 0
173 197 0
175 198 0
175 198 0
174 197 0
175 198 0
175 198 0
174 197 0
177 199 0
174 198 0
174 197 0
176 199 0
177 199 0
176 198 0
175 198 0
174 197 0
175 198 0
175 198 0
176 199 0
175 198 0
174 197 0
174 198 0
174 198 0
175 198 0
173 197 0
175 198 0
174 198 0
174 198 0
175 198 0
174 197 0
176 198 0
173 197 0
174 197 0
175 198 0
175 198 0
175 198 0
175 198 0
174 197 0
174 197 0
176 199 0
175 198 0
174 198 0
175 198 0
176 198 0
174 197 0
176 199 0
175 198 0
175 198 0
176 198 0
174 197 0
174 197 0
174 198 0
176 199 0
175 198 0
175 198 0
175 198 0
176 199 0
173 197 0
175 198 0
174 198 0
173 197 0
174 197 0
176 199 0
175 198 0
174 198 0
175 198 36
184 205 102
202 219 175
211 226 204
219 232 230
229 240 255
229 240 255
229 240 255
229 240 255
228 240 255
228 240 255
228 240 255
228 240 255
228 240 255
228 240 255
228 240 255
228 240 255
228 240 255
228 240 255
228 240 255
228 239 255
228 239 255
228 239 255
228 239 255
228 239 255
228 239 255
228 239 255
228 239 255
228 239 255
228 239 255
228 239 255
228 239 255
228 239 255
228 239 255
228 239 255
228 239 255
228 239 255
228 239 255
228 239 255
228 239 255
228 239 255
228 239 255
228 239 255
228 239 255
228 239 255
228 239 255
228 239 255
228 239 255
228 239 255
228 239 255
228 239 255
228 239 255
228 239 255
228 239 255
228 239 255
228 240 255
228 240 255
228 240 255
228 240 255
228 240 255
228 240 255
228 240 255
228 240 255
228 240 255
228 240 255
228 240 255
229 240 255
229 240 255
229 240 255
229 240 255
227 239 252
216 230 220
201 218 173
191 210 135
179 201 67
175 198 0
175 198 0
174 198 0
174 198 0
175 198 0
175 198 0
174 197 0
174 197 0
174 198 0
174 197 0
175 198 0
174 198 0
175 198 0
174 198 0
176 198 0
174 197 0
175 198 0
175 198 0
175 198 0
174 198 0
174 198 0
173 197 0
175 198 0
175 198 0
174 198 0
174 198 0
174 198 0
175 198 0
175 198 0
175 198 0
174 197 0
174 198 0
174 198 0
174 198 0
175 198 0
173 197 0
174 197 0
174 198 0
174 198 0
174 197 0
174 198 0
175 198 0
174 198 0
175 198 0
176 199 0
174 197 0
174 198 0
175 198 0
173 197 0
175 198 0
175 198 0
173 197 0
173 197 0
174 197 0
174 198 0
174 198 0
175 198 0
175 198 0
174 198 0
174 198 0
174 198 0
174 198 0
174 197 0
174 198 0
174 198 0
174 198 0
175 198 0
173 197 0
176 199 0
175 198 0
176 199 0
174 197 0
175 198 0
173 197 0
173 197 0
174 198 0
175 198 0
174 197 0
173 197 0
174 197 0
174 197 0
175 198 0
177 199 0
174 197 0
175 198 0
175 198 0
174 197 0
174 197 0
174 198 0
175 198 0
174 198 0
176 198 0
174 197 0
175 198 0
175 198 0
175 198 0
172 196 0
173 197 0
174 197 0
175 198 0
175 198 0
175 198 0
175 198 0
174 197 0
174 198 0
173 197 0
177 199 0
175 198 0
176 199 0
175 198 0
175 198 0
175 198 0
174 197 0
174 198 0
174 198 0
173 196 0
173 197 0
174 197 0
175 198 0
176 199 0
173 197 0
175 198 0
176 199 0
173 197 0
174 198 0
173 197 0
174 197 0
175 198 0
174 197 0
174 197 0
172 196 0
173 197 0
174 198 0
174 198 0
173 197 0
175 198 0
174 197 0
175 198 0
175 198 0
175 198 0
176 198 0
175 198 0
174 198 0
175 198 0
175 198 0
175 198 0
174 197 0
174 198 0
174 198 0
173 197 0
175 198 0
173 197 0
175 198 0
176 198 0
175 198 0
175 198 0
173 197 0
172 196 0
175 198 0
174 198 0
173 197 0
174 197 0
173 196 0
175 198 0
174 198 0
174 197 0
174 198 0
174 197 0
173 197 0
174 197 0
172 196 0
173 197 0
173 197 0
174 198 0
174 197 0
173 197 0
176 199 0
173 197 0
174 197 0
173 197 0
174 197 0
174 197 0
176 199 0
174 198 0
174 198 0
176 199 0
173 197 0
174 197 0
174 198 0
175 198 0
175 198 0
175 198 0
174 198 0
174 197 0
176 199 0
174 198 0
175 198 0
175 198 0
175 198 0
174 198 0
173 197 0
174 198 0
174 198 0
173 197 0
173 197 0
175 198 0
175 198 0
174 197 0
174 198 0
174 198 0
176 199 0
173 197 0
175 198 0
174 197 0
174 198 0
177 199 0
175 198 0
173 197 0
173 197 0
175 198 0
173 197 0
173 197 0
175 198 0
174 198 0
174 198 0
174 197 0
175 198 0
174 197 0
174 198 0
175 198 0
175 198 0
174 198 0
173 197 0
175 198 0
175 198 0
174 198 0
176 198 0
174 197 0
175 198 0
174 198 0
174 198 0
174 197 0
176 198 0
175 198 0
175 198 0
175 198 0
175 198 0
174 197 0
175 198 0
174 198 0
174 198 0
175 198 0
175 198 0
172 197 0
174 198 0
174 197 0
173 197 0
174 198 0
174 198 0
174 197 0
175 198 0
174 198 0
174 198 0
175 198 0
175 198 0
174 198 0
173 197 0
176 199 0
175 198 0
174 198 0
174 197 0
174 197 0
175 198 0
174 198 0
173 197 0
173 197 0
174 198 0
175 198 0
175 198 0
173 197 0
174 198 0
174 198 0
175 198 0
175 198 0
173 197 0
174 198 0
174 198 0
174 197 0
175 198 0
175 198 0
176 198 0
174 198 0
173 197 0
175 198 0
175 198 0
174 198 0
174 197 0
175 198 0
174 198 0
175 198 0
174 197 0
173 197 0
174 198 0
176 199 0
174 198 0
173 197 0
174 198 0
175 198 0
176 198 0
174 197 0
175 198 0
176 198 0
173 197 0
174 198 0
175 198 0
175 198 0
173 197 0
174 197 0
174 198 0
174 197 0
174 198 0
175 198 0
176 199 0
175 198 0
176 199 0
174 198 0
174 198 0
173 197 0
173 197 0
174 197 0
179 202 76
198 215 157
205 221 184
215 229 218
223 235 240
229 240 255
229 240 255
229 240 255
229 240 255
229 240 255
228 240 255
228 240 255
228 240 255
228 240 255
228 240 255
228 240 255
228 240 255
228 240 255
228 240 255
228 240 255
228 240 255
228 239 255
228 239 255
228 239 255
228 239 255
228 239 255
228 239 255
228 239 255
228 239 255
228 239 255
228 239 255
228 239 255
228 239 255
228 239 255
228 239 255
228 239 255
228 239 255
228 239 255
228 239 255
228 239 255
228 239 255
228 239 255
228 239 255
228 239 255
228 239 255
228 240 255
228 240 255
228 240 255
228 240 255
228 240 255
228 240 255
228 240 255
228 240 255
228 240 255
228 240 255
229 240 255
229 240 255
229 240 255
229 240 255
229 240 255
229 240 255
220 233 234
211 226 203
201 218 173
182 204 88
175 198 0
174 198 0
174 197 0
176 199 0
175 198 0
174 198 0
177 199 0
174 198 0
175 198 0
174 198 0
174 197 0
174 197 0
176 199 0
175 198 0
175 198 0
174 198 0
174 198 0
175 198 0
173 197 0
175 198 0
175 198 0
175 198 0
174 198 0
175 198 0
174 197 0
175 198 0
175 198 0
174 197 0
175 198 0
174 197 0
175 198 0
174 197 0
175 198 0
173 197 0
173 197 0
174 198 0
177 199 0
175 198 0
174 198 0
176 199 0
173 197 0
175 198 0
177 199 0
174 198 0
176 198 0
173 197 0
176 198 0
176 198 0
174 198 0
174 198 0
174 198 0
176 198 0
173 197 0
175 198 0
176 198 0
175 198 0
174 198 0
175 198 0
173 197 0
175 198 0
173 197 0
174 198 0
175 198 0
175 198 0
174 198 0
175 198 0
174 198 0
175 198 0
174 198 0
175 198 0
176 199 0
174 197 0
174 198 0
172 197 0
176 199 0
176 199 0
175 198 0
173 197 0
173 197 0
174 198 0
174 198 0
176 199 0
174 197 0
174 198 0
175 198 0
174 198 0
174 198 0
174 198 0
176 198 0
175 198 0
174 198 0
174 197 0
173 197 0
174 197 0
173 197 0
174 198 0
174 198 0
174 197 0
174 197 0
175 198 0
175 198 0
173 197 0
174 198 0
175 198 0
176 199 0
175 198 0
175 198 0
174 197 0
175 198 0
173 197 0
174 198 0
175 198 0
175 198 0
173 197 0
175 198 0
172 196 0
173 197 0
174 198 0
173 196 0
174 197 0
174 198 0
175 198 0
175 198 0
174 198 0
175 198 0
175 198 0
175 198 0
175 198 0
173 197 0
175 198 0
174 198 0
175 198 0
174 198 0
174 198 0
176 198 0
173 197 0
174 197 0
175 198 0
175 198 0
173 197 0
175 198 0
175 198 0
172 197 0
174 197 0
173 197 0
173 197 0
173 197 0
173 197 0
174 198 0
173 197 0
174 198 0
174 197 0
174 198 0
176 198 0
173 197 0
175 198 0
173 197 0
174 198 0
174 197 0
174 197 0
173 197 0
173 197 0
174 197 0
177 199 0
174 198 0
174 197 0
173 197 0
173 197 0
173 197 0
174 198 0
175 198 0
175 198 0
175 198 0
174 197 0
173 197 0
174 197 0
175 198 0
173 197 0
176 198 0
173 197 0
173 197 0
173 197 0
172 196 0
175 198 0
174 197 0
175 198 0
173 196 0
177 199 0
174 198 0
174 198 0
174 198 0
173 197 0
173 197 0
174 198 0
173 197 0
174 198 0
174 197 0
175 198 0
174 198 0
175 198 0
175 198 0
174 198 0
173 197 0
172 197 0
176 198 0
174 198 0
174 198 0
175 198 0
174 198 0
173 197 0
174 198 0
175 198 0
174 197 0
173 197 0
173 197 0
175 198 0
175 198 0
174 198 0
174 197 0
175 198 0
175 198 0
175 198 0
177 199 0
174 197 0
174 198 0
175 198 0
174 198 0
174 198 0
174 198 0
176 198 0
172 196 0
173 197 0
175 198 0
175 198 0
173 197 0
175 198 0
173 197 0
175 198 0
174 197 0
173 197 0
175 198 0
175 198 0
175 198 0
175 198 0
174 198 0
174 198 0
175 198 0
174 197 0
175 198 0
174 198 0
174 198 0
175 198 0
174 197 0
173 197 0
175 198 0
174 198 0
175 198 0
173 197 0
174 198 0
174 198 0
174 198 0
173 197 0
175 198 0
174 198 0
175 198 0
175 198 0
174 198 0
174 198 0
175 198 0
174 198 0
175 198 0
177 199 0
174 197 0
174 197 0
175 198 0
174 198 0
175 198 0
175 198 0
174 198 0
174 198 0
173 197 0
173 197 0
175 198 0
174 198 0
174 198 0
174 198 0
175 198 0
174 198 0
173 197 0
174 198 0
174 198 0
174 198 0
176 199 0
174 198 0
174 198 0
174 198 0
174 198 0
175 198 0
176 199 0
175 198 0
177 199 0
175 198 0
174 198 0
174 198 0
174 198 0
175 198 0
176 199 0
174 197 0
174 197 0
175 198 0
175 198 0
174 198 0
174 198 0
174 198 0
174 198 0
174 197 0
176 198 0
174 198 0
174 197 0
176 199 0
174 198 0
173 197 0
174 198 0
174 198 0
177 199 0
175 198 0
175 198 0
174 198 0
175 198 0
174 198 0
173 197 0
176 199 0
175 198 0
175 198 0
174 198 0
175 198 0
176 199 0
174 198 0
175 198 0
175 198 25
183 204 88
198 215 155
206 222 189
220 233 230
228 239 254
229 240 255
229 240 255
229 240 255
229 240 255
229 240 255
228 240 255
228 240 255
228 240 255
228 240 255
228 240 255
228 240 255
228 240 255
228 240 255
228 240 255
228 240 255
228 239 255
228 239 255
228 239 255
228 239 255
228 239 255
228 239 255
228 239 255
228 239 255
228 239 255
228 239 255
228 239 255
228 239 255
228 239 255
228 239 255
228 239 255
228 240 255
228 240 255
228 240 255
228 240 255
228 240 255
228 240 255
228 240 255
228 240 255
228 240 255
228 240 255
229 240 255
229 240 255
229 240 255
229 240 255
229 240 255
229 240 255
225 237 246
214 228 215
205 221 184
190 210 128
182 203 80
177 199 0
174 198 0
176 199 0
174 198 0
175 198 0
174 198 0
177 199 0
175 198 0
173 197 0
175 198 0
174 197 0
174 197 0
175 198 0
173 197 0
174 197 0
175 198 0
175 198 0
176 199 0
173 197 0
174 198 0
175 198 0
175 198 0
174 198 0
174 198 0
174 198 0
174 198 0
174 197 0
174 198 0
175 198 0
176 198 0
176 199 0
175 198 0
174 198 0
175 198 0
174 197 0
176 199 0
174 198 0
175 198 0
173 197 0
175 198 0
175 198 0
175 198 0
174 198 0
174 197 0
175 198 0
174 198 0
174 198 0
174 198 0
174 197 0
175 198 0
174 198 0
175 198 0
175 198 0
175 198 0
175 198 0
174 198 0
174 198 0
176 199 0
174 198 0
174 197 0
175 198 0
174 198 0
174 197 0
174 198 0
174 198 0
174 198 0
175 198 0
174 198 0
174 198 0
174 198 0
173 197 0
175 198 0
175 198 0
173 197 0
175 198 0
175 198 0
176 198 0
172 196 0
175 198 0
173 197 0
175 198 0
173 197 0
176 199 0
173 197 0
173 197 0
174 198 0
174 198 0
175 198 0
174 197 0
173 197 0
175 198 0
175 198 0
176 198 0
176 198 0
176 199 0
174 198 0
173 197 0
173 197 0
175 198 0
176 199 0
176 198 0
174 197 0
174 198 0
174 198 0
176 199 0
175 198 0
175 198 0
173 197 0
175 198 0
175 198 0
175 198 0
175 198 0
174 198 0
175 198 0
176 198 0
176 198 0
175 198 0
176 199 0
175 198 0
175 198 0
175 198 0
174 198 0
174 197 0
174 198 0
175 198 0
173 197 0
175 198 0
174 197 0
175 198 0
174 197 0
175 198 0
172 196 0
174 198 0
174 197 0
174 198 0
175 198 0
174 197 0
174 198 0
176 198 0
175 198 0
174 198 0
174 197 0
175 198 0
173 197 0
173 196 0
172 196 0
175 198 0
175 198 0
175 198 0
173 196 0
175 198 0
176 198 0
175 198 0
173 197 0
175 198 0
176 198 0
173 196 0
174 198 0
173 197 0
173 197 0
173 196 0
173 196 0
173 197 0
176 199 0
171 196 0
171 195 0
175 198 0
174 198 0
174 197 0
175 198 0
176 198 0
175 198 0
173 197 0
171 195 0
174 198 0
175 198 0
175 198 0
174 197 0
173 197 0
173 196 0
174 198 0
175 198 0
175 198 0
173 197 0
175 198 0
173 196 0
175 198 0
173 197 0
175 198 0
176 198 0
174 197 0
176 198 0
173 196 0
175 196 16
173 192 19
174 193 11
173 197 0
175 198 0
176 198 0
172 196 0
175 198 0
173 197 0
174 198 0
175 198 0
175 198 0
175 198 0
175 198 0
174 198 0
173 197 0
174 197 0
174 197 0
174 198 0
175 197 0
175 198 0
174 198 0
175 198 0
174 197 0
173 197 0
173 197 0
175 198 0
175 198 0
176 199 0
175 198 0
175 198 0
174 198 0
175 198 0
173 197 0
174 197 0
174 197 0
172 197 0
174 198 0
175 198 0
175 198 0
176 199 0
174 198 0
175 198 0
174 197 0
176 199 0
174 198 0
175 198 0
176 198 0
173 197 0
173 197 0
175 198 0
173 197 0
174 197 0
175 198 0
175 198 0
175 198 0
174 198 0
175 198 0
175 198 0
174 198 0
173 197 0
175 198 0
174 197 0
174 198 0
174 197 0
174 198 0
174 198 0
174 197 0
176 199 0
174 198 0
174 197 0
173 197 0
173 197 0
174 198 0
176 199 0
176 199 0
174 198 0
174 198 0
174 198 0
174 197 0
174 198 0
176 198 0
174 198 0
174 198 0
174 198 0
175 198 0
175 198 0
176 199 0
175 198 0
175 198 0
174 198 0
173 197 0
174 198 0
175 198 0
176 198 0
174 198 0
174 198 0
175 198 0
174 198 0
174 198 0
174 198 0
175 198 0
175 198 0
174 198 0
173 197 0
176 199 0
175 198 0
174 198 0
176 199 0
175 198 0
174 198 0
174 197 0
174 197 0
174 198 0
173 197 0
173 197 0
175 198 0
174 197 0
175 198 0
174 198 0
175 198 0
175 198 0
176 199 0
175 198 0
174 198 0
175 198 0
174 197 0
175 198 0
174 198 0
174 197 0
174 198 0
175 198 0
176 199 0
174 197 0
175 198 0
175 198 0
176 199 0
174 198 0
175 198 0
175 198 0
173 197 0
175 198 0
174 197 0
175 198 0
175 198 0
175 198 0
174 198 0
175 198 0
176 198 0
173 197 0
175 198 0
175 198 0
174 198 0
175 198 0
174 197 0
178 201 67
191 210 137
195 213 147
211 226 206
226 238 249
229 240 255
229 240 255
229 240 255
229 240 255
229 240 255
229 240 255
228 240 255
228 240 255
228 240 255
228 240 255
228 240 255
228 240 255
228 240 255
228 240 255
228 240 255
228 240 255
228 239 255
228 239 255
228 239 255
228 239 255
228 239 255
228 240 255
228 240 255
228 240 255
228 240 255
228 240 255
228 240 255
228 240 255
228 240 255
228 240 255
228 240 255
229 240 255
229 240 255
229 240 255
229 240 255
229 240 255
229 240 255
229 240 255
223 235 241
211 225 204
192 211 140
188 208 114
174 198 25
176 199 0
173 197 0
174 197 0
175 198 0
174 197 0
175 198 0
174 198 0
175 198 0
175 198 0
174 198 0
174 198 0
174 198 0
176 198 0
174 198 0
174 198 0
177 199 0
175 198 0
173 197 0
173 197 0
174 198 0
175 198 0
175 198 0
173 197 0
174 197 0
174 198 0
176 199 0
175 198 0
175 198 0
175 198 0
175 198 0
175 198 0
174 198 0
174 198 0
175 198 0
174 197 0
176 198 0
174 198 0
173 197 0
174 198 0
172 196 0
175 198 0
175 198 0
175 198 0
173 197 0
175 198 0
174 197 0
175 198 0
174 198 0
175 198 0
173 197 0
174 197 0
175 198 0
175 198 0
175 198 0
174 197 0
173 197 0
172 197 0
175 198 0
174 197 0
174 198 0
174 198 0
174 198 0
173 197 0
173 197 0
175 198 0
173 197 0
174 198 0
175 198 0
174 197 0
173 197 0
174 198 0
175 198 0
176 198 0
175 198 0
175 198 0
173 197 0
175 198 0
175 198 0
175 198 0
174 198 0
174 198 0
174 198 0
174 197 0
174 198 0
174 197 0
174 197 0
174 198 0
173 197 0
175 198 0
175 198 0
174 197 0
174 197 0
174 198 0
175 198 0
173 197 0
174 198 0
175 198 0
174 197 0
172 197 0
175 198 0
173 197 0
172 196 0
173 197 0
175 198 0
175 198 0
175 198 0
174 197 0
176 198 0
175 198 0
174 198 0
175 197 0
175 198 0
175 198 0
175 198 0
174 197 0
173 197 0
174 198 0
175 198 0
174 197 0
173 197 0
173 197 0
174 197 0
175 198 0
175 198 0
174 197 0
173 196 0
174 197 0
175 198 0
175 198 0
174 198 0
172 196 0
174 198 0
174 198 0
174 198 0
173 197 0
175 198 0
173 197 0
174 198 0
175 198 0
175 198 0
175 198 0
173 197 0
174 198 0
175 198 0
174 198 0
174 197 0
174 198 0
175 198 0
173 197 0
174 198 0
174 197 0
173 197 0
173 197 0
172 196 0
174 198 0
175 198 0
175 198 0
174 197 0
177 199 0
175 198 0
173 196 0
173 197 0
173 196 0
175 198 0
172 196 0
172 197 0
173 197 0
175 198 0
174 197 0
174 197 0
173 196 0
174 197 0
173 196 0
172 196 0
174 197 0
174 197 0
173 197 0
174 197 0
176 199 0
174 198 0
172 196 0
173 197 0
174 197 0
172 196 0
173 197 0
174 197 0
172 196 0
173 197 0
175 198 0
174 198 0
174 197 0
174 197 0
174 196 0
176 191 45
185 183 85
189 182 97
192 180 112
192 180 114
192 179 114
191 179 113
191 179 107
185 183 88
180 186 67
175 194 30
173 197 0
175 198 0
174 198 0
174 198 0
174 197 0
173 197 0
176 199 0
174 198 0
175 198 0
174 198 0
175 198 0
174 198 0
174 198 0
175 198 0
174 198 0
173 197 0
174 197 0
174 197 0
174 198 0
173 197 0
176 199 0
175 198 0
173 197 0
174 198 0
174 198 0
175 198 0
175 198 0
174 198 0
174 197 0
174 198 0
175 198 0
175 198 0
174 198 0
176 198 0
174 197 0
175 198 0
174 197 0
175 198 0
174 197 0
172 197 0
174 197 0
174 197 0
176 199 0
175 198 0
175 198 0
174 198 0
175 198 0
173 197 0
175 198 0
176 199 0
175 198 0
176 199 0
176 198 0
173 197 0
174 197 0
175 198 0
176 199 0
174 198 0
174 198 0
173 197 0
173 197 0
173 197 0
173 197 0
175 198 0
174 198 0
173 197 0
174 197 0
174 198 0
173 197 0
173 197 0
175 198 0
174 198 0
174 198 0
172 197 0
174 197 0
174 198 0
176 198 0
175 198 0
173 197 0
175 198 0
174 198 0
174 198 0
175 198 0
175 198 0
175 198 0
174 197 0
175 198 0
175 198 0
174 198 0
174 198 0
174 198 0
174 198 0
174 198 0
173 197 0
174 197 0
175 198 0
174 198 0
174 198 0
176 199 0
174 197 0
174 198 0
176 199 0
173 197 0
174 198 0
174 198 0
174 198 0
175 198 0
174 197 0
175 198 0
176 198 0
173 197 0
175 198 0
172 197 0
173 197 0
175 198 0
175 198 0
176 198 0
174 198 0
175 198 0
174 198 0
175 198 0
174 198 0
175 198 0
175 198 0
176 199 0
175 198 0
175 198 0
175 198 0
176 199 0
174 198 0
176 198 0
175 198 0
174 198 0
176 198 0
174 198 0
175 198 0
174 198 0
175 198 0
174 198 0
175 198 0
174 198 0
176 199 0
172 197 0
175 198 0
175 198 0
174 198 0
175 198 0
175 198 0
175 198 0
175 198 0
173 197 0
175 198 0
174 198 0
188 208 111
200 218 171
204 220 184
220 233 231
228 239 254
229 240 255
229 240 255
229 240 255
229 240 255
229 240 255
229 240 255
228 240 255
228 240 255
228 240 255
228 240 255
228 240 255
228 240 255
228 240 255
228 240 255
228 240 255
228 240 255
228 240 255
228 240 255
228 240 255
228 240 255
228 240 255
228 240 255
229 240 255
229 240 255
229 240 255
229 240 255
229 240 255
229 240 255
227 239 252
214 228 215
205 221 184
193 211 137
180 201 62
174 198 0
175 198 0
175 198 0
173 197 0
175 198 0
173 197 0
173 197 0
174 198 0
175 198 0
175 198 0
176 198 0
175 198 0
176 199 0
174 197 0
175 198 0
175 198 0
174 198 0
174 198 0
174 197 0
175 198 0
174 198 0
175 198 0
172 197 0
173 197 0
174 197 0
174 198 0
175 198 0
175 198 0
175 198 0
175 198 0
175 198 0
175 198 0
174 198 0
175 198 0
175 198 0
174 197 0
173 197 0
173 197 0
174 198 0
175 198 0
173 197 0
177 199 0
173 197 0
172 197 0
175 198 0
172 197 0
174 198 0
175 198 0
174 198 0
175 198 0
174 198 0
175 198 0
177 199 0
175 198 0
175 198 0
173 197 0
175 198 0
175 198 0
175 198 0
174 198 0
173 197 0
175 198 0
175 198 0
174 198 0
173 197 0
173 197 0
174 198 0
174 198 0
175 198 0
175 198 0
174 198 0
174 198 0
175 198 0
174 198 0
174 198 0
174 198 0
175 198 0
175 198 0
174 198 0
174 198 0
174 198 0
174 198 0
173 197 0
174 198 0
175 198 0
174 198 0
174 198 0
174 198 0
174 198 0
174 198 0
173 197 0
174 198 0
175 198 0
175 198 0
175 198 0
175 198 0
174 198 0
175 198 0
175 198 0
175 198 0
174 197 0
174 198 0
174 198 0
174 198 0
175 198 0
174 198 0
174 198 0
175 198 0
175 198 0
175 198 0
176 198 0
174 197 0
174 198 0
174 197 0
175 198 0
174 198 0
173 197 0
173 197 0
175 198 0
174 197 0
174 198 0
175 198 0
175 198 0
175 198 0
175 198 0
175 198 0
175 198 0
174 197 0
172 196 0
174 198 0
174 197 0
175 198 0
175 198 0
175 198 0
174 197 0
173 197 0
174 198 0
174 197 0
175 198 0
174 198 0
173 197 0
175 198 0
174 198 0
173 197 0
175 198 0
174 197 0
176 198 0
175 198 0
175 198 0
175 198 0
173 197 0
174 198 0
174 198 0
176 198 0
174 197 0
175 198 0
175 198 0
173 197 0
175 198 0
174 198 0
173 197 0
175 198 0
173 197 0
173 196 0
173 196 0
175 198 0
176 199 0
173 197 0
174 197 0
175 198 0
175 198 0
171 194 0
175 198 0
172 196 0
175 198 0
175 198 0
172 196 0
174 198 0
175 197 0
174 198 0
172 195 0
173 196 0
173 197 0
175 198 0
175 197 0
173 197 0
173 197 0
172 196 0
174 197 0
173 197 0
175 197 0
175 198 0
174 197 0
173 197 0
173 197 0
172 193 0
180 189 59
189 179 99
191 179 114
186 177 114
183 175 114
182 175 114
180 174 114
180 174 114
181 174 114
182 175 114
185 176 114
188 178 114
192 179 112
182 182 80
176 193 41
173 197 0
175 197 0
174 197 0
173 197 0
175 198 0
175 197 0
175 198 0
174 198 0
173 197 0
173 197 0
175 198 0
175 198 0
174 197 0
176 199 0
174 198 0
175 198 0
175 197 0
175 198 0
174 197 0
174 197 0
173 197 0
174 198 0
175 198 0
175 198 0
176 198 0
176 198 0
174 197 0
174 197 0
173 197 0
174 197 0
175 198 0
174 198 0
175 198 0
173 197 0
174 198 0
175 198 0
174 198 0
172 197 0
175 198 0
173 197 0
174 198 0
176 199 0
175 198 0
176 198 0
172 197 0
174 197 0
176 198 0
173 197 0
174 197 0
175 198 0
175 198 0
175 198 0
175 198 0
175 198 0
173 197 0
174 198 0
174 197 0
174 198 0
173 197 0
175 198 0
175 198 0
174 198 0
174 198 0
173 197 0
173 197 0
173 197 0
174 198 0
177 199 0
175 198 0
175 198 0
175 198 0
175 198 0
174 197 0
175 198 0
175 198 0
175 198 0
174 198 0
175 198 0
172 197 0
174 198 0
175 198 0
174 198 0
173 197 0
175 198 0
175 198 0
175 198 0
174 198 0
175 198 0
175 198 0
174 198 0
175 198 0
176 198 0
173 197 0
176 199 0
175 198 0
174 198 0
175 198 0
175 198 0
174 198 0
174 198 0
175 198 0
173 197 0
174 198 0
175 198 0
174 198 0
174 197 0
174 198 0
173 197 0
175 198 0
175 198 0
174 197 0
174 198 0
175 198 0
174 198 0
174 198 0
175 198 0
175 198 0
174 198 0
173 197 0
174 198 0
175 198 0
175 198 0
175 198 0
174 197 0
173 197 0
175 198 0
175 198 0
175 198 0
175 198 0
174 197 0
176 199 0
175 198 0
173 197 0
173 197 0
177 199 0
174 197 0
174 198 0
176 198 0
176 198 0
175 198 0
174 198 0
176 199 0
176 199 0
176 198 0
173 197 0
175 198 0
175 198 0
175 198 0
175 198 0
174 198 0
174 198 0
174 198 0
176 199 0
176 199 0
172 197 0
183 204 88
193 212 137
204 220 182
220 233 231
226 238 249
229 240 255
229 240 255
229 240 255
229 240 255
229 240 255
229 240 255
228 240 255
228 240 255
228 240 255
228 240 255
228 240 255
228 240 255
228 240 255
229 240 255
229 240 255
229 240 255
229 240 255
229 240 255
229 240 255
229 240 255
222 235 240
217 231 224
201 218 173
187 207 111
176 199 36
175 198 0
174 198 0
175 198 0
174 197 0
173 197 0
174 198 0
175 198 0
174 198 0
174 197 0
174 198 0
175 198 0
175 198 0
174 198 0
175 198 0
174 198 0
174 197 0
174 198 0
175 198 0
173 197 0
173 197 0
175 198 0
172 197 0
175 198 0
174 198 0
175 198 0
173 197 0
174 197 0
173 197 0
175 198 0
174 198 0
176 199 0
174 198 0
173 197 0
175 198 0
174 198 0
175 198 0
174 197 0
176 199 0
175 198 0
174 198 0
173 197 0
176 198 0
175 198 0
174 198 0
175 198 0
174 198 0
174 197 0
175 198 0
175 198 0
173 197 0
175 198 0
173 197 0
173 197 0
176 199 0
174 198 0
175 198 0
175 198 0
173 197 0
174 198 0
175 198 0
174 198 0
174 198 0
174 198 0
175 198 0
175 198 0
173 197 0
174 198 0
175 198 0
174 198 0
175 198 0
174 198 0
177 199 0
174 198 0
175 198 0
175 198 0
174 197 0
175 198 0
175 198 0
176 198 0
174 198 0
176 198 0
173 197 0
174 197 0
173 197 0
174 198 0
175 198 0
175 198 0
173 197 0
176 198 0
175 198 0
174 197 0
176 199 0
175 198 0
175 198 0
173 197 0
174 197 0
174 198 0
174 198 0
177 199 0
174 198 0
174 198 0
174 197 0
174 198 0
175 198 0
174 198 0
174 197 0
174 197 0
175 198 0
173 197 0
174 198 0
174 197 0
174 198 0
174 197 0
173 197 0
173 197 0
173 197 0
174 198 0
174 198 0
174 198 0
174 197 0
174 198 0
176 198 0
175 198 0
173 197 0
174 198 0
174 197 0
174 198 0
175 198 0
176 198 0
175 198 0
175 198 0
175 198 0
174 197 0
173 197 0
173 197 0
175 198 0
175 198 0
173 197 0
173 197 0
175 198 0
173 197 0
172 197 0
174 197 0
175 198 0
174 198 0
172 196 0
173 197 0
177 199 0
175 198 0
176 198 0
174 197 0
176 198 0
174 198 0
173 197 0
175 198 0
174 197 0
175 198 0
174 197 0
174 197 0
174 197 0
175 198 0
173 197 0
174 197 0
175 198 0
173 197 0
174 198 0
173 196 0
173 197 0
172 196 0
174 197 0
175 198 0
173 197 0
176 199 0
174 197 0
173 196 0
175 197 0
173 197 0
174 197 0
171 195 0
173 197 0
174 197 0
171 195 0
175 198 0
172 196 0
175 198 0
173 197 0
175 198 0
175 198 0
173 197 0
174 197 0
174 198 0
174 197 0
174 197 0
174 198 0
173 197 0
173 196 0
174 198 0
172 195 0
172 190 32
188 179 97
192 179 114
185 176 114
182 175 114
178 173 114
175 172 114
173 171 114
172 170 114
172 170 114
173 170 114
174 171 114
176 172 114
179 174 114
183 175 114
188 178 114
191 179 108
179 185 65
175 197 0
174 197 0
175 198 0
174 197 0
174 198 0
174 198 0
175 198 0
174 197 0
174 197 0
175 198 0
174 198 0
174 197 0
173 197 0
175 198 0
173 197 0
175 198 0
173 197 0
173 196 0
173 197 0
173 197 0
175 198 0
176 198 0
175 198 0
175 198 0
175 198 0
174 198 0
174 197 0
175 198 0
174 197 0
175 198 0
174 198 0
174 197 0
175 198 0
175 198 0
175 198 0
173 197 0
174 198 0
173 197 0
174 198 0
174 197 0
174 198 0
173 197 0
175 198 0
174 198 0
175 198 0
174 198 0
175 198 0
174 198 0
174 198 0
176 199 0
175 198 0
174 198 0
174 197 0
174 197 0
174 198 0
175 198 0
173 197 0
174 198 0
173 197 0
175 198 0
173 197 0
175 198 0
174 197 0
174 198 0
175 198 0
174 197 0
175 198 0
174 198 0
175 198 0
175 198 0
174 197 0
175 198 0
174 198 0
175 198 0
175 198 0
174 197 0
175 198 0
175 198 0
174 198 0
175 198 0
176 198 0
174 198 0
175 198 0
173 197 0
173 197 0
174 198 0
174 198 0
174 197 0
174 198 0
176 199 0
174 198 0
173 197 0
174 198 0
174 198 0
175 198 0
174 198 0
176 199 0
174 198 0
173 197 0
174 198 0
174 197 0
177 199 0
174 198 0
175 198 0
175 198 0
175 198 0
174 198 0
175 198 0
173 197 0
174 198 0
175 198 0
173 197 0
175 198 0
174 198 0
175 198 0
174 197 0
176 199 0
174 198 0
174 197 0
176 199 0
176 198 0
174 198 0
175 198 0
173 197 0
176 198 0
176 198 0
175 198 0
175 198 0
174 197 0
176 199 0
174 198 0
175 198 0
175 198 0
174 198 0
174 198 0
176 199 0
174 198 0
174 198 0
176 199 0
175 198 0
175 198 0
174 198 0
174 198 0
174 198 0
175 198 0
175 198 0
175 198 0
174 197 0
176 199 0
175 198 0
175 198 0
175 198 0
176 199 0
175 198 0
176 198 0
175 198 0
174 198 0
175 198 0
176 199 36
189 209 125
197 215 159
215 229 217
224 236 244
229 240 255
229 240 255
229 240 255
229 240 255
229 240 255
229 240 255
229 240 255
228 240 255
229 240 255
229 240 255
229 240 255
228 239 253
220 233 230
211 225 201
198 215 159
181 203 84
176 198 0
175 198 0
175 198 0
176 198 0
174 198 0
174 197 0
174 198 0
174 198 0
174 198 0
175 198 0
174 197 0
174 198 0
176 198 0
173 197 0
175 198 0
174 197 0
175 198 0
174 197 0
174 198 0
174 198 0
175 198 0
175 198 0
174 198 0
174 197 0
174 197 0
175 198 0
174 198 0
175 198 0
174 197 0
173 197 0
174 198 0
175 198 0
174 198 0
174 198 0
174 198 0
174 198 0
174 198 0
174 198 0
175 198 0
174 198 0
174 198 0
175 198 0
173 197 0
174 198 0
176 199 0
176 198 0
175 198 0
175 198 0
174 198 0
174 197 0
174 198 0
176 199 0
174 198 0
174 198 0
175 198 0
175 198 0
174 198 0
175 198 0
176 199 0
174 197 0
174 198 0
175 198 0
176 198 0
175 198 0
173 197 0
174 198 0
175 198 0
175 198 0
173 197 0
174 198 0
174 198 0
173 197 0
174 198 0
174 197 0
173 197 0
175 198 0
172 197 0
173 197 0
174 198 0
174 198 0
175 198 0
174 198 0
175 198 0
175 198 0
175 198 0
174 197 0
174 198 0
175 198 0
175 198 0
174 198 0
175 198 0
173 197 0
174 198 0
176 199 0
175 198 0
174 197 0
175 198 0
175 198 0
175 198 0
174 197 0
173 197 0
173 197 0
176 198 0
175 198 0
175 198 0
175 198 0
175 198 0
173 197 0
178 200 0
174 198 0
175 198 0
176 199 0
174 198 0
174 198 0
174 197 0
175 198 0
176 199 0
175 198 0
174 197 0
175 198 0
177 199 0
173 197 0
175 198 0
174 197 0
177 199 0
175 198 0
174 197 0
176 199 0
175 198 0
175 198 0
175 198 0
174 197 0
174 198 0
175 198 0
174 198 0
176 199 0
173 197 0
176 199 0
172 196 0
175 198 0
174 198 0
173 197 0
174 197 0
174 198 0
174 198 0
173 197 0
173 196 0
175 198 0
173 197 0
175 198 0
176 198 0
174 198 0
175 198 0
173 197 0
174 197 0
174 197 0
175 198 0
172 195 0
173 197 0
171 194 0
173 197 0
174 197 0
173 197 0
172 196 0
175 197 0
173 197 0
172 196 0
174 198 0
174 198 0
175 198 0
174 198 0
175 198 0
174 197 0
176 198 0
175 198 0
173 196 0
175 198 0
173 197 0
175 198 0
173 196 0
174 197 0
172 195 0
173 197 0
174 198 0
172 196 0
175 198 0
175 198 0
172 195 0
171 195 0
175 198 0
175 197 0
176 198 0
173 196 0
173 197 0
173 197 0
172 196 0
173 197 0
174 197 0
175 198 0
173 196 0
175 197 0
173 196 0
175 188 42
192 179 108
190 178 114
184 176 114
179 174 114
176 172 114
172 170 114
170 169 114
169 169 114
168 168 114
167 168 114
168 168 114
169 169 114
171 169 114
173 171 114
176 172 114
181 174 114
186 177 114
193 180 114
181 181 72
175 197 0
175 198 0
174 197 0
175 198 0
175 198 0
174 198 0
174 197 0
174 197 0
175 198 0
175 198 0
175 198 0
174 197 0
174 198 0
176 198 0
174 197 0
173 197 0
174 198 0
173 197 0
175 198 0
173 197 0
175 198 0
174 197 0
174 197 0
175 198 0
174 198 0
176 199 0
175 198 0
173 197 0
175 198 0
174 198 0
175 198 0
174 198 0
175 198 0
175 198 0
174 197 0
174 197 0
174 198 0
172 197 0
173 197 0
174 198 0
176 199 0
175 198 0
175 198 0
174 198 0
175 198 0
175 198 0
173 197 0
175 198 0
174 198 0
174 198 0
175 198 0
174 198 0
174 198 0
173 197 0
173 197 0
177 199 0
174 198 0
174 197 0
174 198 0
173 197 0
174 198 0
176 199 0
174 198 0
175 198 0
176 199 0
175 198 0
174 198 0
174 198 0
172 197 0
175 198 0
173 197 0
175 198 0
176 198 0
175 198 0
173 197 0
174 198 0
174 197 0
175 198 0
174 197 0
174 197 0
175 198 0
173 197 0
174 198 0
174 197 0
175 198 0
173 197 0
174 198 0
175 198 0
175 198 0
175 198 0
175 198 0
174 198 0
172 197 0
175 198 0
173 197 0
173 197 0
174 198 0
174 198 0
174 198 0
175 198 0
176 199 0
174 198 0
173 197 0
175 198 0
174 198 0
175 198 0
175 198 0
175 198 0
175 198 0
175 198 0
173 197 0
174 198 0
176 198 0
175 198 0
174 198 0
175 198 0
175 198 0
174 198 0
174 198 0
174 198 0
175 198 0
174 198 0
174 198 0
173 197 0
175 198 0
176 198 0
177 199 0
174 197 0
174 198 0
173 197 0
175 198 0
173 197 0
175 198 0
176 199 0
175 198 0
175 198 0
174 198 0
174 198 0
175 198 0
175 198 0
175 198 0
175 198 0
176 198 0
174 198 0
174 198 0
176 199 0
175 198 0
175 198 0
174 198 0
172 197 0
174 197 0
174 198 0
174 197 0
174 198 0
174 198 0
174 198 0
175 198 0
174 198 0
175 198 0
175 198 0
175 198 0
175 198 0
179 201 67
194 212 144
213 227 209
219 232 228
228 239 254
229 240 255
229 240 255
229 240 255
214 228 214
204 220 182
194 213 147
178 201 76
175 198 0
175 198 0
176 199 0
173 197 0
173 197 0
174 198 0
175 198 0
174 197 0
174 198 0
175 198 0
176 198 0
174 198 0
175 198 0
173 197 0
174 198 0
173 197 0
175 198 0
174 198 0
176 199 0
174 197 0
175 198 0
175 198 0
173 197 0
175 198 0
174 198 0
175 198 0
176 199 0
174 198 0
175 198 0
175 198 0
173 197 0
174 198 0
175 198 0
174 198 0
174 197 0
174 198 0
175 198 0
175 198 0
174 197 0
175 198 0
175 198 0
174 198 0
173 197 0
175 198 0
175 198 0
173 197 0
172 197 0
177 199 0
174 197 0
174 198 0
176 199 0
173 197 0
174 198 0
175 198 0
175 198 0
174 198 0
174 198 0
175 198 0
174 198 0
176 199 0
174 198 0
175 198 0
173 197 0
174 197 0
174 198 0
174 197 0
175 198 0
175 198 0
175 198 0
174 197 0
175 198 0
175 198 0
173 197 0
174 198 0
174 197 0
175 198 0
175 198 0
174 197 0
174 198 0
175 198 0
175 198 0
175 198 0
174 197 0
175 198 0
174 198 0
175 198 0
176 199 0
176 198 0
174 197 0
173 197 0
174 198 0
175 198 0
174 198 0
173 197 0
174 198 0
174 197 0
174 197 0
176 199 0
175 198 0
175 198 0
174 198 0
174 197 0
176 199 0
174 198 0
174 197 0
174 197 0
176 199 0
175 198 0
174 198 0
174 197 0
174 198 0
175 198 0
175 198 0
175 198 0
174 197 0
176 198 0
175 198 0
175 198 0
174 197 0
173 197 0
174 197 0
175 198 0
173 197 0
175 198 0
174 198 0
176 199 0
174 198 0
175 198 0
175 198 0
176 199 0
174 198 0
174 198 0
174 198 0
175 198 0
174 198 0
173 196 0
174 198 0
174 198 0
174 198 0
175 198 0
176 199 0
175 198 0
175 198 0
175 198 0
175 198 0
175 198 0
174 198 0
174 197 0
172 196 0
172 196 0
174 198 0
173 197 0
174 197 0
174 197 0
174 197 0
173 196 0
176 199 0
174 198 0
175 198 0
176 199 0
173 196 0
176 198 0
174 198 0
174 198 0
174 198 0
174 198 0
173 197 0
174 197 0
175 198 0
174 198 0
176 198 0
172 197 0
174 197 0
175 198 0
175 198 0
170 194 0
174 197 0
173 197 0
174 197 0
172 196 0
174 197 0
172 196 0
175 198 0
175 198 0
174 197 0
173 196 0
173 197 0
173 196 0
173 197 0
173 197 0
173 197 0
174 198 0
174 198 0
175 197 0
174 197 0
173 197 0
173 197 0
175 198 0
174 198 0
173 197 0
173 197 0
176 198 0
174 198 0
171 194 0
174 197 0
172 184 36
191 178 106
190 179 114
184 176 114
179 173 114
175 172 114
172 170 114
169 169 114
167 168 114
165 167 114
164 167 114
164 167 114
164 167 114
165 167 114
167 168 114
169 169 114
172 170 114
176 172 114
180 174 114
186 177 114
193 180 114
177 178 65
176 199 0
173 197 0
174 197 0
173 197 0
172 196 0
175 198 0
173 196 0
174 197 0
175 198 0
175 198 0
173 197 0
174 197 0
175 198 0
174 198 0
174 197 0
174 197 0
173 197 0
174 197 0
174 198 0
173 197 0
174 198 0
173 197 0
173 197 0
173 197 0
174 197 0
175 198 0
174 197 0
175 198 0
176 199 0
175 198 0
175 198 0
174 198 0
175 198 0
175 198 0
174 197 0
175 198 0
174 197 0
175 198 0
176 199 0
175 198 0
173 197 0
175 198 0
174 198 0
175 198 0
173 197 0
174 198 0
176 198 0
173 197 0
175 198 0
175 198 0
175 198 0
174 198 0
174 198 0
173 197 0
173 197 0
174 197 0
173 197 0
174 198 0
175 198 0
174 198 0
174 198 0
176 198 0
174 198 0
175 198 0
174 198 0
174 198 0
174 198 0
175 198 0
175 198 0
174 198 0
174 198 0
174 198 0
174 198 0
174 197 0
175 198 0
175 198 0
174 198 0
174 198 0
176 199 0
172 197 0
175 198 0
173 197 0
173 197 0
174 197 0
176 198 0
175 198 0
173 197 0
174 198 0
174 198 0
176 199 0
175 198 0
175 198 0
176 198 0
172 197 0
174 198 0
174 198 0
173 197 0
174 197 0
175 198 0
175 198 0
172 197 0
173 197 0
174 198 0
173 197 0
175 198 0
174 198 0
174 198 0
175 198 0
172 197 0
173 197 0
176 199 0
174 198 0
174 197 0
175 198 0
173 197 0
174 198 0
173 197 0
174 198 0
173 197 0
175 198 0
175 198 0
174 198 0
176 199 0
174 198 0
173 197 0
174 197 0
172 196 0
174 198 0
175 198 0
174 198 0
175 198 0
174 197 0
175 198 0
174 198 0
175 198 0
173 197 0
174 197 0
174 197 0
174 198 0
174 198 0
176 199 0
176 199 0
174 198 0
175 198 0
174 197 0
175 198 0
176 199 0
176 199 0
175 198 0
176 199 0
174 198 0
175 198 0
175 198 0
173 197 0
174 198 0
174 198 0
175 198 0
176 198 0
174 198 0
175 198 0
174 198 0
176 198 0
174 198 0
175 198 0
174 197 0
179 202 72
195 213 151
204 221 184
214 228 215
174 198 0
175 198 0
174 198 0
175 198 0
175 198 0
177 199 0
175 198 0
176 198 0
176 199 0
177 199 0
173 197 0
176 199 0
175 198 0
174 198 0
174 197 0
175 198 0
175 198 0
175 198 0
172 197 0
174 198 0
175 198 0
175 198 0
175 198 0
174 198 0
173 197 0
175 198 0
175 198 0
175 198 0
175 198 0
174 198 0
173 197 0
174 198 0
175 198 0
175 198 0
173 197 0
174 197 0
173 197 0
174 198 0
174 198 0
173 197 0
174 198 0
175 198 0
175 198 0
175 198 0
175 198 0
175 198 0
174 198 0
175 198 0
173 197 0
174 197 0
175 198 0
174 198 0
174 197 0
175 198 0
176 198 0
174 198 0
173 197 0
174 197 0
176 199 0
175 198 0
175 198 0
173 197 0
175 198 0
175 198 0
175 198 0
173 197 0
176 199 0
173 197 0
175 198 0
175 198 0
173 197 0
175 198 0
174 198 0
173 197 0
174 198 0
175 198 0
172 197 0
175 198 0
173 197 0
174 198 0
175 198 0
176 199 0
173 197 0
175 198 0
174 198 0
174 198 0
174 198 0
174 198 0
173 197 0
173 197 0
175 198 0
175 198 0
176 198 0
176 199 0
174 198 0
174 198 0
175 198 0
176 198 0
175 198 0
175 198 0
174 198 0
175 198 0
173 197 0
174 198 0
172 196 0
176 199 0
175 198 0
175 198 0
175 198 0
175 198 0
175 198 0
174 198 0
175 198 0
173 197 0
176 199 0
174 197 0
174 197 0
174 197 0
174 197 0
173 197 0
175 198 0
176 199 0
174 197 0
174 197 0
175 198 0
174 198 0
175 198 0
175 198 0
173 197 0
175 198 0
175 198 0
176 199 0
172 197 0
175 198 0
176 198 0
174 198 0
175 198 0
175 198 0
175 198 0
175 198 0
175 198 0
173 197 0
174 198 0
174 197 0
174 198 0
173 197 0
175 198 0
174 197 0
175 198 0
174 197 0
174 197 0
174 198 0
172 196 0
175 198 0
173 197 0
172 196 0
175 198 0
173 196 0
172 196 0
173 197 0
174 197 0
174 198 0
174 198 0
174 197 0
174 198 0
173 197 0
175 198 0
173 197 0
174 198 0
175 198 0
175 198 0
173 197 0
172 196 0
173 197 0
173 197 0
173 197 0
175 198 0
175 198 0
173 197 0
174 197 0
172 196 0
174 197 0
173 196 0
175 197 0
174 197 0
174 197 0
175 198 0
173 197 0
173 196 0
174 198 0
173 196 0
173 197 0
173 196 0
173 196 0
174 197 0
174 197 0
174 197 0
173 197 0
174 196 0
174 197 0
175 198 0
173 197 0
173 196 0
174 197 0
173 196 0
172 196 0
173 196 0
173 196 0
167 183 0
189 177 99
192 180 114
186 177 114
181 174 114
176 172 114
172 170 114
169 169 114
167 168 114
165 167 114
163 166 114
162 166 114
162 166 114
162 166 114
163 166 114
165 167 114
167 168 114
169 169 114
173 171 114
177 172 114
182 175 114
188 177 114
194 181 113
175 181 53
172 196 0
173 197 0
172 196 0
173 197 0
174 197 0
175 198 0
175 198 0
172 197 0
175 198 0
177 199 0
173 197 0
173 197 0
174 197 0
174 198 0
174 197 0
174 198 0
174 197 0
175 198 0
174 197 0
174 198 0
175 198 0
174 198 0
173 197 0
172 197 0
175 198 0
176 198 0
175 198 0
176 199 0
174 197 0
175 198 0
176 198 0
173 197 0
174 197 0
174 198 0
173 197 0
175 198 0
174 197 0
174 198 0
175 198 0
175 198 0
175 198 0
175 198 0
174 197 0
175 198 0
175 198 0
173 197 0
175 198 0
174 197 0
173 196 0
174 197 0
173 197 0
173 197 0
174 198 0
174 197 0
175 198 0
174 197 0
175 198 0
175 198 0
175 198 0
175 198 0
174 198 0
174 198 0
174 197 0
174 198 0
177 199 0
175 198 0
173 197 0
173 197 0
174 198 0
173 197 0
175 198 0
175 198 0
174 198 0
174 198 0
175 198 0
174 198 0
173 197 0
174 198 0
174 198 0
174 197 0
174 197 0
174 197 0
175 198 0
175 198 0
176 198 0
174 198 0
175 198 0
173 197 0
176 199 0
175 198 0
176 199 0
174 198 0
175 198 0
173 197 0
173 197 0
175 198 0
175 198 0
176 199 0
175 198 0
176 198 0
176 198 0
174 197 0
174 198 0
175 198 0
176 198 0
173 197 0
174 197 0
176 198 0
175 198 0
174 198 0
173 197 0
176 198 0
176 198 0
174 198 0
174 198 0
176 198 0
175 198 0
173 197 0
174 198 0
174 197 0
175 198 0
175 198 0
176 199 0
173 197 0
174 198 0
176 199 0
175 198 0
175 198 0
175 198 0
175 198 0
175 198 0
175 198 0
174 198 0
175 198 0
174 197 0
173 197 0
176 199 0
175 198 0
175 198 0
174 197 0
174 198 0
175 198 0
175 198 0
173 197 0
175 198 0
175 198 0
175 198 0
175 198 0
176 199 0
173 197 0
173 197 0
175 198 0
175 198 0
176 198 0
176 199 0
174 198 0
175 198 0
174 197 0
175 198 0
175 198 0
174 197 0
174 198 0
175 198 0
176 199 0
175 198 0
176 199 0
173 197 0
175 198 0
175 198 0
173 197 0
174 198 0
174 198 0
174 197 0
175 198 0
175 198 0
175 198 0
174 198 0
176 199 0
174 198 0
176 199 0
176 198 0
174 198 0
175 198 0
174 198 0
175 198 0
175 198 0
175 198 0
176 199 0
176 199 0
176 199 0
175 198 0
176 199 0
173 197 0
174 197 0
175 198 0
174 198 0
172 197 0
176 199 0
174 198 0
174 198 0
175 198 0
174 198 0
174 198 0
174 198 0
174 198 0
175 198 0
174 198 0
176 199 0
174 197 0
175 198 0
174 197 0
174 198 0
175 198 0
175 198 0
174 198 0
174 198 0
175 198 0
175 198 0
173 197 0
175 198 0
176 199 0
174 198 0
175 198 0
174 198 0
174 198 0
175 198 0
174 198 0
173 197 0
173 197 0
176 199 0
175 198 0
174 198 0
174 198 0
174 197 0
174 198 0
174 198 0
176 199 0
173 197 0
175 198 0
173 197 0
176 199 0
174 197 0
175 198 0
173 197 0
174 197 0
176 198 0
173 197 0
173 197 0
176 198 0
176 198 0
174 198 0
174 198 0
174 198 0
175 198 0
172 197 0
175 198 0
174 198 0
176 199 0
175 198 0
174 198 0
176 199 0
175 198 0
175 198 0
175 198 0
174 198 0
175 198 0
174 198 0
174 198 0
175 198 0
174 198 0
174 198 0
175 198 0
173 196 0
174 198 0
174 198 0
173 197 0
175 198 0
174 198 0
174 198 0
175 198 0
174 198 0
173 197 0
175 198 0
175 198 0
176 198 0
175 198 0
175 198 0
175 198 0
175 198 0
175 198 0
175 198 0
175 198 0
174 198 0
174 197 0
175 198 0
174 198 0
174 197 0
173 197 0
173 197 0
175 198 0
173 197 0
175 198 0
174 198 0
173 197 0
174 197 0
175 198 0
172 196 0
174 197 0
175 198 0
174 197 0
176 199 0
174 197 0
173 197 0
174 198 0
173 197 0
173 197 0
173 197 0
174 198 0
176 199 0
175 198 0
174 198 0
174 197 0
173 197 0
174 198 0
175 198 0
174 198 0
172 196 0
175 198 0
173 197 0
174 197 0
174 197 0
172 196 0
174 197 0
175 198 0
173 197 0
175 198 0
175 198 0
173 197 0
174 198 0
174 197 0
173 197 0
174 198 0
173 196 0
173 197 0
172 195 0
175 198 0
173 196 0
175 198 0
175 198 0
173 196 0
174 197 0
172 196 0
172 196 0
173 197 0
174 197 0
173 196 0
172 196 0
171 195 0
172 195 0
174 197 0
172 195 0
173 196 0
171 194 0
174 197 0
174 197 0
173 196 0
173 197 0
173 196 0
174 197 0
174 196 0
171 195 0
169 193 0
172 195 0
174 197 0
172 196 0
172 194 0
179 172 78
195 181 114
189 178 114
183 175 114
179 173 114
175 171 114
171 170 114
168 168 114
166 167 114
164 167 114
163 166 114
162 166 114
161 165 114
162 166 114
162 166 114
164 166 114
166 167 114
168 168 114
171 170 114
175 172 114
179 174 114
184 176 114
191 179 114
191 177 102
168 188 0
173 197 0
174 197 0
175 198 0
175 198 0
175 198 0
174 197 0
172 196 0
175 198 0
172 196 0
173 197 0
173 197 0
174 197 0
174 198 0
174 198 0
176 198 0
173 197 0
175 197 0
174 197 0
174 197 0
173 197 0
174 198 0
175 198 0
173 197 0
175 198 0
173 197 0
174 198 0
174 198 0
175 198 0
175 198 0
174 198 0
174 197 0
175 198 0
175 198 0
176 199 0
174 198 0
174 198 0
173 197 0
175 198 0
176 198 0
175 198 0
175 198 0
175 198 0
175 198 0
174 197 0
175 198 0
175 198 0
176 198 0
173 197 0
174 198 0
175 198 0
174 198 0
173 197 0
174 198 0
175 198 0
174 198 0
174 197 0
175 198 0
175 198 0
174 198 0
174 198 0
173 197 0
174 198 0
174 198 0
175 198 0
174 198 0
176 198 0
175 198 0
177 199 0
174 198 0
173 197 0
176 198 0
175 198 0
177 199 0
175 198 0
174 198 0
173 197 0
175 198 0
175 198 0
175 198 0
175 198 0
175 198 0
174 198 0
175 198 0
174 198 0
173 197 0
174 198 0
174 197 0
173 197 0
173 197 0
174 198 0
175 198 0
175 198 0
174 198 0
175 198 0
176 198 0
175 198 0
174 198 0
174 197 0
176 199 0
176 198 0
173 197 0
174 198 0
175 198 0
175 198 0
175 198 0
174 198 0
175 198 0
174 198 0
175 198 0
175 198 0
175 198 0
173 197 0
175 198 0
175 198 0
174 197 0
174 198 0
175 198 0
175 198 0
176 198 0
174 198 0
175 198 0
175 198 0
174 198 0
175 198 0
175 198 0
175 198 0
174 197 0
174 198 0
175 198 0
174 197 0
175 198 0
175 198 0
174 198 0
176 199 0
174 198 0
174 198 0
174 198 0
175 198 0
173 197 0
174 197 0
176 198 0
175 198 0
175 198 0
175 198 0
175 198 0
174 197 0
175 198 0
174 198 0
176 199 0
173 197 0
174 198 0
174 197 0
175 198 0
174 197 0
174 197 0
174 198 0
174 198 0
173 197 0
174 198 0
175 198 0
176 199 0
174 198 0
175 198 0
175 198 0
174 198 0
176 199 0
175 198 0
175 198 0
175 198 0
175 198 0
174 197 0
175 198 0
173 197 0
175 198 0
173 197 0
174 198 0
175 198 0
175 198 0
174 198 0
174 198 0
175 198 0
174 198 0
176 199 0
177 199 0
174 198 0
175 198 0
174 197 0
174 198 0
175 198 0
176 199 0
173 197 0
175 198 0
174 198 0
173 197 0
175 198 0
173 197 0
175 198 0
174 197 0
174 198 0
174 198 0
175 198 0
173 197 0
174 197 0
173 197 0
173 197 0
175 198 0
174 198 0
177 199 0
174 198 0
174 198 0
175 198 0
175 198 0
174 198 0
174 198 0
175 198 0
175 198 0
176 199 0
172 196 0
174 198 0
175 198 0
174 197 0
175 198 0
174 198 0
174 197 0
174 198 0
174 198 0
174 198 0
175 198 0
175 198 0
175 198 0
174 198 0
175 198 0
174 197 0
173 197 0
174 197 0
174 198 0
176 199 0
174 198 0
174 198 0
174 198 0
174 198 0
174 197 0
174 198 0
174 198 0
174 197 0
175 198 0
174 198 0
174 198 0
175 198 0
175 198 0
176 199 0
175 198 0
177 199 0
174 198 0
174 198 0
173 197 0
174 197 0
174 198 0
174 198 0
174 198 0
176 198 0
174 198 0
174 198 0
175 198 0
174 198 0
173 197 0
175 198 0
174 198 0
176 199 0
175 198 0
174 198 0
174 197 0
173 197 0
174 198 0
175 198 0
173 197 0
175 198 0
174 197 0
175 198 0
172 196 0
176 198 0
175 198 0
174 198 0
174 198 0
175 198 0
174 197 0
174 197 0
174 198 0
175 198 0
174 197 0
174 198 0
174 197 0
173 197 0
174 198 0
175 198 0
174 198 0
174 197 0
175 198 0
175 198 0
174 197 0
174 198 0
174 198 0
176 199 0
173 197 0
174 198 0
173 197 0
173 197 0
175 198 0
175 198 0
174 198 0
173 197 0
175 198 0
174 198 0
172 197 0
174 197 0
174 198 0
175 198 0
176 199 0
173 197 0
173 197 0
174 198 0
175 198 0
174 197 0
174 197 0
173 196 0
173 197 0
176 199 0
173 197 0
173 197 0
173 197 0
175 198 0
173 196 0
173 196 0
175 198 0
173 197 0
173 197 0
173 196 0
173 197 0
176 198 0
175 198 0
175 198 0
175 198 0
171 194 0
175 198 0
175 198 0
174 197 0
174 197 0
171 195 0
172 196 0
174 198 0
175 198 0
174 198 0
174 197 0
173 197 0
173 196 0
173 195 0
174 198 0
173 197 0
172 195 0
174 196 0
174 196 0
172 196 0
174 196 0
172 195 0
172 195 0
173 196 0
174 196 0
173 195 0
173 196 0
172 196 0
173 196 0
175 198 0
174 196 0
172 195 0
163 175 0
192 178 103
193 180 114
187 177 114
182 175 114
178 173 114
174 171 114
171 170 114
168 168 114
166 167 114
164 167 114
163 166 114
162 166 114
162 166 114
162 166 114
163 166 114
164 167 114
166 167 114
168 168 114
171 170 114
174 171 114
178 173 114
183 175 114
188 178 114
195 181 114
173 175 57
175 197 0
174 198 0
174 197 0
173 197 0
174 197 0
175 198 0
175 198 0
173 197 0
175 198 0
174 198 0
173 196 0
173 197 0
174 198 0
175 198 0
174 197 0
176 198 0
174 197 0
174 197 0
174 198 0
173 197 0
174 197 0
173 197 0
174 198 0
173 197 0
174 197 0
174 197 0
176 199 0
176 198 0
175 198 0
175 198 0
174 197 0
175 198 0
175 198 0
174 197 0
173 196 0
176 199 0
175 198 0
173 197 0
174 197 0
174 198 0
175 198 0
173 197 0
174 197 0
176 199 0
174 198 0
173 197 0
174 197 0
173 197 0
174 198 0
174 197 0
175 198 0
174 198 0
175 198 0
173 197 0
174 197 0
174 198 0
175 198 0
174 198 0
174 198 0
174 197 0
175 198 0
175 198 0
174 198 0
173 197 0
174 198 0
174 198 0
174 198 0
173 197 0
174 198 0
173 197 0
174 197 0
176 199 0
174 198 0
175 198 0
176 199 0
174 197 0
175 198 0
173 197 0
174 198 0
174 198 0
176 198 0
174 197 0
175 198 0
176 198 0
173 197 0
174 197 0
175 198 0
174 197 0
176 199 0
175 198 0
174 198 0
172 197 0
175 198 0
175 198 0
175 198 0
173 197 0
174 197 0
173 197 0
175 198 0
173 197 0
174 198 0
175 198 0
175 198 0
174 198 0
174 197 0
174 198 0
174 198 0
175 198 0
174 197 0
175 198 0
174 198 0
174 198 0
175 198 0
175 198 0
175 198 0
174 197 0
174 197 0
174 198 0
175 198 0
175 198 0
175 198 0
174 198 0
174 198 0
175 198 0
176 198 0
175 198 0
176 199 0
174 198 0
174 198 0
173 197 0
174 198 0
174 198 0
176 199 0
175 198 0
176 198 0
175 198 0
174 198 0
174 198 0
173 197 0
175 198 0
174 198 0
175 198 0
172 197 0
175 198 0
174 198 0
175 198 0
176 199 0
175 198 0
174 197 0
174 197 0
174 198 0
175 198 0
174 198 0
176 198 0
177 199 0
175 198 0
174 198 0
175 198 0
173 197 0
175 198 0
173 197 0
176 199 0
175 198 0
174 198 0
175 198 0
175 198 0
175 198 0
173 197 0
173 197 0
176 198 0
175 198 0
176 199 0
176 199 0
176 198 0
174 198 0
174 198 0
175 198 0
173 197 0
174 197 0
175 198 0
173 197 0
174 197 0
175 198 0
175 198 0
173 197 0
176 198 0
174 198 0
175 198 0
175 198 0
174 198 0
173 197 0
175 198 0
174 198 0
175 198 0
173 197 0
176 199 0
175 198 0
175 198 0
176 199 0
175 198 0
174 198 0
173 197 0
174 198 0
175 198 0
173 197 0
174 198 0
175 198 0
174 198 0
174 198 0
174 198 0
174 197 0
173 197 0
175 198 0
174 198 0
175 198 0
175 198 0
174 197 0
173 197 0
172 197 0
175 198 0
174 198 0
174 197 0
174 198 0
175 198 0
175 198 0
176 199 0
176 199 0
175 198 0
173 197 0
173 197 0
172 197 0
175 198 0
174 198 0
174 198 0
173 197 0
174 198 0
173 197 0
176 199 0
175 198 0
174 197 0
175 198 0
175 198 0
176 198 0
174 198 0
174 198 0
175 198 0
175 198 0
175 198 0
175 198 0
174 198 0
175 198 0
174 198 0
173 197 0
174 197 0
175 198 0
175 198 0
174 198 0
175 198 0
176 198 0
175 198 0
176 199 0
176 198 0
173 197 0
173 197 0
175 198 0
175 198 0
175 198 0
175 198 0
174 198 0
175 198 0
173 197 0
174 198 0
176 199 0
175 198 0
173 197 0
175 198 0
174 197 0
176 199 0
173 197 0
174 198 0
175 198 0
176 198 0
175 198 0
175 198 0
174 198 0
172 196 0
173 197 0
175 198 0
175 198 0
175 198 0
172 196 0
174 198 0
174 198 0
174 197 0
173 197 0
175 198 0
173 197 0
174 197 0
175 198 0
174 197 0
174 197 0
173 197 0
174 197 0
173 197 0
174 198 0
174 198 0
170 195 0
174 198 0
174 198 0
174 197 0
173 197 0
175 198 0
174 197 0
176 198 0
173 197 0
174 197 0
174 197 0
175 198 0
173 197 0
173 197 0
175 198 0
174 197 0
172 197 0
175 198 0
174 198 0
174 198 0
175 198 0
174 197 0
174 198 0
174 197 0
176 199 0
174 197 0
173 197 0
174 198 0
174 198 0
174 197 0
172 196 0
177 199 0
174 198 0
173 196 0
173 195 0
177 199 0
174 198 0
171 196 0
174 198 0
173 197 0
174 198 0
173 197 0
170 194 0
172 196 0
176 198 0
172 196 0
173 196 0
173 196 0
174 197 0
171 195 0
174 197 0
174 197 0
171 195 0
172 195 0
172 195 0
173 197 0
173 195 0
172 196 0
171 195 0
172 196 0
173 197 0
170 194 0
173 196 0
173 196 0
175 197 0
172 195 0
173 197 0
173 195 0
165 160 47
198 182 114
192 179 114
187 177 114
182 175 114
179 173 114
175 171 114
172 170 114
169 169 114
167 168 114
165 167 114
164 167 114
163 166 114
163 166 114
163 166 114
164 167 114
165 167 114
167 168 114
169 169 114
171 170 114
175 171 114
178 173 114
182 175 114
187 177 114
193 180 114
186 174 95
170 188 0
175 198 0
175 196 0
174 197 0
173 196 0
174 196 0
175 198 0
172 196 0
174 197 0
174 197 0
173 197 0
173 197 0
174 197 0
175 198 0
175 198 0
175 198 0
174 197 0
174 197 0
176 199 0
175 198 0
175 198 0
174 198 0
173 197 0
175 198 0
176 198 0
175 198 0
175 198 0
174 197 0
173 197 0
174 197 0
175 198 0
174 198 0
175 198 0
173 197 0
175 198 0
175 198 0
175 198 0
176 198 0
175 198 0
176 198 0
173 197 0
175 198 0
173 197 0
175 198 0
173 197 0
176 198 0
175 198 0
174 197 0
175 198 0
176 199 0
175 198 0
173 197 0
175 198 0
173 197 0
174 197 0
174 198 0
173 197 0
174 197 0
174 198 0
175 198 0
176 198 0
174 198 0
174 198 0
175 198 0
174 198 0
175 198 0
174 197 0
174 197 0
172 197 0
176 198 0
175 198 0
176 198 0
173 197 0
174 198 0
175 198 0
175 198 0
174 198 0
174 198 0
173 197 0
174 198 0
173 197 0
175 198 0
174 197 0
173 197 0
174 198 0
175 198 0
173 197 0
175 198 0
174 197 0
173 197 0
175 198 0
175 198 0
176 199 0
175 198 0
173 197 0
174 198 0
174 198 0
174 197 0
175 198 0
177 199 0
174 197 0
174 198 0
173 197 0
176 199 0
173 197 0
173 197 0
175 198 0
175 198 0
174 198 0
175 198 0
172 197 0
174 198 0
174 198 0
175 198 0
175 198 0
175 198 0
175 198 0
174 197 0
175 198 0
174 198 0
175 198 0
176 199 0
175 198 0
175 198 0
173 197 0
175 198 0
175 198 0
174 197 0
174 197 0
176 199 0
173 197 0
175 198 0
174 198 0
175 198 0
175 198 0
175 198 0
175 198 0
175 198 0
174 198 0
174 197 0
174 198 0
175 198 0
177 199 0
174 197 0
175 198 0
174 198 0
176 199 0
175 198 0
175 198 0
176 199 0
175 198 0
173 197 0
175 198 0
175 198 0
174 198 0
174 198 0
175 198 0
176 199 0
173 197 0
175 198 0
172 197 0
174 198 0
175 198 0
174 198 0
175 198 0
174 198 0
174 198 0
173 197 0
174 198 0
174 198 0
174 197 0
174 198 0
175 198 0
174 198 0
175 198 0
175 198 0
177 199 0
175 198 0
175 198 0
175 198 0
174 198 0
173 197 0
176 198 0
174 198 0
175 198 0
175 198 0
174 198 0
174 198 0
174 198 0
175 198 0
174 198 0
175 198 0
173 197 0
174 197 0
174 198 0
175 198 0
175 198 0
175 198 0
174 198 0
173 197 0
173 197 0
175 198 0
175 198 0
175 198 0
175 198 0
174 198 0
173 197 0
175 198 0
174 198 0
175 198 0
175 198 0
174 198 0
173 197 0
174 198 0
174 198 0
174 198 0
174 198 0
174 197 0
175 198 0
173 197 0
174 198 0
174 198 0
174 197 0
174 198 0
175 198 0
173 197 0
174 198 0
175 198 0
176 198 0
175 198 0
176 198 0
175 198 0
174 198 0
174 198 0
175 198 0
174 198 0
174 198 0
174 198 0
175 198 0
175 198 0
175 198 0
174 198 0
172 197 0
175 198 0
174 198 0
175 198 0
174 198 0
175 198 0
175 198 0
173 197 0
173 197 0
175 198 0
174 197 0
175 198 0
174 198 0
174 198 0
174 198 0
173 197 0
174 198 0
174 198 0
176 199 0
174 197 0
175 198 0
174 197 0
174 198 0
174 198 0
174 197 0
173 197 0
173 197 0
174 197 0
174 198 0
174 198 0
176 199 0
174 198 0
175 198 0
175 198 0
175 198 0
175 198 0
174 197 0
175 198 0
175 198 0
173 197 0
176 199 0
174 198 0
173 197 0
174 198 0
175 198 0
174 198 0
174 198 0
175 198 0
174 197 0
175 198 0
174 198 0
175 198 0
173 197 0
175 198 0
174 198 0
173 197 0
173 197 0
172 196 0
174 198 0
174 197 0
173 197 0
174 198 0
174 197 0
174 197 0
174 197 0
173 197 0
174 197 0
175 198 0
176 198 0
174 197 0
175 198 0
173 197 0
174 198 0
173 197 0
174 197 0
173 197 0
172 196 0
173 197 0
174 198 0
174 198 0
174 197 0
175 198 0
173 197 0
176 198 0
174 198 0
174 197 0
173 197 0
174 198 0
174 198 0
176 198 0
175 198 0
174 198 0
173 196 0
173 197 0
172 196 0
173 197 0
172 196 0
175 198 0
173 196 0
174 198 0
174 197 0
173 197 0
173 196 0
174 197 0
175 198 0
174 197 0
169 193 0
174 197 0
173 196 0
173 196 0
173 196 0
172 195 0
171 195 0
173 196 0
170 193 0
175 197 0
173 196 0
174 197 0
174 197 0
169 192 40
153 177 90
122 148 137
106 135 152
97 125 159
80 113 171
82 114 169
94 124 162
101 130 157
119 146 138
145 170 102
174 196 18
165 180 0
172 163 63
197 182 114
192 179 114
187 177 114
183 175 114
179 174 114
176 172 114
173 171 114
171 170 114
169 169 114
167 168 114
166 167 114
165 167 114
165 167 114
165 167 114
166 167 114
167 168 114
168 168 114
170 169 114
172 170 114
175 172 114
179 173 114
183 175 114
187 177 114
193 180 114
195 180 108
163 173 0
172 195 0
175 197 0
174 198 0
174 197 0
173 197 0
175 198 0
172 197 0
174 197 0
175 197 0
174 198 0
173 197 0
175 198 0
176 198 0
175 198 0
175 198 0
174 198 0
175 198 0
176 198 0
173 197 0
175 198 0
174 197 0
175 198 0
174 198 0
173 197 0
174 198 0
175 198 0
175 198 0
174 198 0
176 198 0
174 198 0
174 197 0
174 198 0
174 197 0
174 198 0
174 198 0
174 197 0
174 198 0
176 199 0
174 197 0
174 198 0
175 198 0
174 198 0
175 198 0
175 198 0
174 198 0
174 197 0
175 198 0
173 197 0
174 197 0
173 197 0
175 198 0
174 198 0
174 198 0
175 198 0
175 198 0
173 197 0
174 197 0
174 198 0
173 197 0
173 197 0
174 198 0
174 198 0
173 197 0
175 198 0
175 198 0
175 198 0
176 199 0
174 197 0
174 197 0
175 198 0
175 198 0
174 197 0
174 198 0
173 197 0
175 198 0
174 198 0
175 198 0
174 198 0
175 198 0
175 198 0
175 198 0
175 198 0
174 198 0
175 198 0
175 198 0
175 198 0
174 197 0
174 198 0
175 198 0
174 197 0
174 198 0
174 198 0
175 198 0
172 196 0
175 198 0
174 198 0
174 197 0
175 198 0
175 198 0
175 198 0
172 196 0
173 197 0
173 197 0
175 198 0
173 197 0
175 198 0
174 198 0
175 198 0
174 197 0
175 198 0
173 197 0
174 198 0
175 198 0
173 197 0
175 198 0
175 198 0
174 198 0
177 199 0
173 197 0
176 199 0
175 198 0
175 198 0
175 198 0
174 198 0
173 197 0
176 199 0
173 197 0
175 198 0
174 198 0
173 197 0
175 198 0
175 198 0
172 197 0
173 197 0
174 198 0
174 197 0
175 198 0
175 198 0
174 198 0
174 198 0
175 198 0
176 198 0
174 198 0
175 198 0
175 198 0
175 198 0
176 199 0
175 198 0
175 198 0
173 197 0
174 198 0
176 199 0
175 198 0
175 198 0
175 198 0
174 198 0
174 197 0
175 198 0
174 198 0
173 197 0
174 198 0
173 197 0
177 199 0
173 197 0
174 198 0
175 198 0
176 199 0
176 199 0
174 198 0
176 199 0
175 198 0
175 198 0
175 198 0
174 197 0
175 198 0
174 198 0
175 198 0
175 198 0
174 198 0
176 198 0
175 198 0
176 199 0
175 198 0
175 198 0
175 198 0
175 198 0
175 198 0
172 197 0
176 198 0
174 198 0
174 198 0
174 198 0
174 198 0
173 197 0
174 198 0
175 198 0
173 197 0
176 199 0
174 198 0
174 198 0
173 197 0
173 197 0
172 197 0
176 198 0
175 198 0
176 198 0
175 198 0
174 198 0
175 198 0
174 198 0
174 197 0
175 198 0
174 198 0
174 197 0
176 198 0
173 197 0
175 198 0
174 198 0
174 198 0
173 197 0
176 199 0
176 198 0
175 198 0
173 197 0
175 198 0
176 199 0
176 198 0
175 198 0
175 198 0
174 197 0
175 198 0
174 197 0
174 197 0
173 197 0
176 198 0
175 198 0
175 198 0
174 198 0
174 198 0
175 198 0
174 198 0
175 198 0
175 198 0
174 197 0
175 198 0
175 198 0
175 198 0
175 198 0
173 197 0
174 198 0
173 197 0
174 197 0
174 198 0
173 197 0
175 198 0
175 198 0
174 198 0
175 198 0
175 198 0
176 199 0
175 198 0
173 197 0
174 198 0
176 199 0
175 198 0
173 197 0
173 197 0
174 198 0
174 198 0
175 198 0
176 199 0
175 198 0
177 199 0
173 197 0
174 198 0
174 198 0
176 198 0
174 198 0
176 199 0
173 197 0
173 197 0
175 198 0
173 197 0
173 197 0
174 198 0
174 197 0
174 198 0
173 197 0
175 198 0
175 198 0
175 198 0
174 198 0
174 197 0
174 197 0
173 197 0
175 198 0
174 197 0
175 198 0
174 197 0
173 197 0
173 197 0
174 198 0
172 196 0
175 198 0
174 198 0
175 198 0
175 198 0
175 198 0
172 196 0
173 197 0
174 198 0
174 197 0
173 197 0
175 198 0
172 196 0
173 197 0
174 197 0
174 198 0
174 197 0
175 198 0
174 197 0
175 198 0
173 197 0
173 197 0
174 197 0
175 198 0
175 198 0
172 196 0
175 198 0
175 198 0
173 196 0
174 198 0
174 198 0
173 196 0
173 196 0
171 195 0
174 197 0
175 198 0
175 197 0
173 197 0
172 196 0
174 197 0
174 197 0
172 196 0
175 198 0
173 197 0
171 195 0
174 197 0
173 196 0
172 195 0
172 195 0
172 195 0
172 195 0
171 195 0
173 196 0
173 196 0
171 195 0
172 195 0
166 189 57
129 153 128
77 110 172
61 98 180
62 99 181
62 99 181
62 99 181
61 99 181
61 99 181
61 99 181
61 98 181
61 98 180
62 99 179
68 103 177
116 131 134
158 154 94
197 182 114
192 180 114
188 178 114
184 176 114
181 174 114
178 173 114
176 172 114
173 171 114
171 170 114
170 169 114
169 169 114
168 168 114
168 168 114
168 168 114
168 168 114
169 169 114
171 169 114
172 170 114
174 171 114
177 173 114
180 174 114
184 176 114
188 178 114
193 180 114
199 183 114
161 160 28
174 197 0
172 196 0
174 197 0
172 194 0
174 196 0
173 196 0
173 197 0
175 197 0
175 198 0
173 196 0
176 198 0
175 198 0
174 197 0
173 196 0
174 198 0
175 198 0
174 197 0
174 197 0
175 198 0
175 198 0
175 197 0
175 198 0
174 197 0
174 198 0
172 196 0
174 198 0
174 198 0
176 198 0
174 197 0
174 198 0
175 197 0
175 198 0
174 197 0
174 197 0
175 198 0
176 198 0
173 197 0
176 198 0
173 197 0
175 198 0
176 199 0
174 198 0
173 197 0
175 198 0
174 197 0
174 197 0
175 198 0
175 198 0
173 197 0
174 198 0
174 197 0
176 199 0
173 197 0
174 198 0
175 198 0
175 198 0
174 197 0
173 197 0
175 198 0
174 198 0
174 198 0
176 199 0
175 198 0
175 198 0
174 197 0
173 197 0
174 198 0
174 197 0
174 197 0
174 197 0
174 198 0
173 197 0
174 198 0
174 198 0
174 198 0
175 198 0
174 198 0
173 197 0
175 198 0
175 198 0
173 197 0
173 197 0
174 198 0
173 197 0
174 197 0
174 198 0
173 197 0
174 197 0
174 198 0
173 197 0
175 198 0
176 199 0
175 198 0
176 199 0
175 198 0
174 197 0
176 199 0
173 197 0
174 197 0
174 198 0
174 197 0
174 198 0
174 197 0
173 197 0
175 198 0
176 199 0
176 198 0
174 198 0
174 198 0
175 198 0
175 198 0
175 198 0
175 198 0
173 197 0
175 198 0
175 198 0
174 198 0
176 199 0
175 198 0
175 198 0
176 199 0
173 197 0
174 198 0
174 198 0
174 197 0
175 198 0
175 198 0
175 198 0
177 199 0
175 198 0
174 198 0
175 198 0
175 198 0
176 199 0
175 198 0
174 198 0
175 198 0
176 199 0
173 197 0
174 198 0
176 199 0
175 198 0
174 198 0
174 198 0
175 198 0
174 198 0
174 198 0
175 198 0
175 198 0
176 199 0
174 198 0
176 198 0
175 198 0
175 198 0
174 198 0
174 197 0
175 198 0
173 197 0
173 197 0
175 198 0
175 198 0
174 197 0
174 198 0
175 198 0
175 198 0
175 198 0
174 198 0
174 197 0
175 198 0
175 198 0
174 198 0
176 199 0
175 198 0
172 197 0
174 198 0
175 198 0
174 198 0
175 198 0
175 198 0
175 198 0
174 197 0
174 198 0
175 198 0
175 198 0
175 198 0
174 198 0
175 198 0
174 198 0
173 197 0
174 198 0
174 198 0
175 198 0
175 198 0
174 198 0
174 198 0
176 198 0
175 198 0
174 198 0
173 197 0
175 198 0
175 198 0
174 197 0
176 199 0
172 197 0
176 199 0
174 198 0
175 198 0
176 198 0
175 198 0
175 198 0
174 197 0
173 197 0
174 198 0
174 198 0
174 198 0
174 198 0
174 198 0
175 198 0
175 198 0
174 198 0
174 198 0
174 198 0
175 198 0
175 198 0
176 198 0
175 198 0
175 198 0
174 197 0
175 198 0
175 198 0
175 198 0
174 198 0
174 197 0
175 198 0
175 198 0
175 198 0
176 198 0
174 198 0
173 197 0
175 198 0
174 198 0
174 198 0
174 198 0
175 198 0
174 198 0
174 198 0
171 195 0
175 198 0
174 198 0
173 196 0
173 197 0
174 197 0
174 198 0
174 197 0
173 197 0
175 198 0
175 198 0
174 197 0
174 197 0
176 198 0
174 197 0
175 198 0
175 198 0
173 197 0
176 198 0
173 197 0
175 198 0
174 197 0
175 198 0
175 198 0
175 198 0
175 198 0
175 198 0
175 198 0
176 199 0
175 198 0
175 198 0
173 197 0
174 198 0
173 197 0
175 198 0
175 198 0
175 198 0
175 198 0
175 198 0
174 197 0
173 197 0
175 198 0
174 197 0
174 198 0
177 199 0
174 197 0
175 198 0
174 198 0
174 197 0
173 197 0
175 198 0
174 197 0
173 197 0
174 197 0
175 198 0
175 198 0
174 197 0
175 198 0
175 198 0
174 197 0
175 198 0
172 196 0
175 198 0
174 198 0
174 198 0
175 198 0
174 198 0
175 198 0
175 198 0
176 199 0
174 197 0
176 199 0
175 198 0
173 196 0
173 197 0
172 196 0
175 198 0
174 197 0
175 198 0
174 198 0
174 198 0
173 196 0
174 197 0
174 198 0
171 195 0
176 198 0
173 197 0
174 197 0
173 197 0
171 194 0
173 196 0
173 197 0
172 195 0
173 196 0
174 197 0
174 198 0
174 197 0
173 196 0
174 197 0
174 197 0
173 197 0
170 194 0
173 196 0
173 197 0
173 197 0
171 194 0
172 195 0
173 196 0
175 197 0
171 195 0
170 193 18
121 148 131
66 102 176
62 99 178
62 99 181
62 99 180
61 98 181
62 99 181
61 99 181
62 99 181
61 99 181
61 98 181
61 99 181
62 99 181
62 99 181
61 99 180
62 99 181
65 99 174
146 145 141
190 178 117
190 179 114
187 177 114
183 175 114
181 174 114
178 173 114
176 172 114
174 171 114
173 170 114
172 170 114
171 170 114
171 170 114
171 170 114
171 170 114
172 170 114
173 171 114
175 171 114
177 172 114
180 174 114
182 175 114
186 176 114
190 178 114
194 180 114
199 183 114
158 155 22
171 194 0
174 197 0
173 196 0
174 197 0
173 196 0
174 197 0
173 197 0
173 196 0
174 197 0
174 197 0
175 198 0
175 198 0
175 198 0
174 197 0
173 196 0
175 197 0
173 195 0
174 198 0
174 197 0
174 197 0
175 197 0
174 198 0
174 197 0
174 197 0
173 197 0
177 199 0
175 198 0
175 198 0
173 197 0
175 198 0
174 198 0
174 198 0
174 198 0
175 198 0
174 198 0
174 198 0
174 198 0
174 198 0
173 197 0
175 198 0
174 197 0
174 197 0
174 197 0
174 198 0
173 197 0
173 197 0
175 198 0
173 197 0
174 198 0
175 198 0
175 198 0
173 197 0
176 199 0
175 198 0
174 198 0
174 197 0
175 198 0
175 198 0
174 197 0
174 197 0
175 198 0
175 198 0
174 197 0
175 198 0
173 197 0
174 198 0
174 197 0
175 198 0
175 198 0
174 198 0
174 197 0
175 198 0
175 198 0
175 198 0
174 198 0
174 198 0
175 198 0
175 198 0
175 198 0
174 198 0
174 198 0
175 198 0
175 198 0
174 197 0
174 198 0
174 197 0
175 198 0
173 197 0
175 198 0
175 198 0
175 198 0
174 198 0
175 198 0
175 198 0
174 198 0
175 198 0
173 197 0
175 198 0
175 198 0
174 198 0
174 197 0
174 197 0
173 197 0
176 199 0
172 197 0
175 198 0
174 198 0
173 197 0
174 197 0
175 198 0
174 197 0
174 198 0
173 197 0
175 198 0
174 197 0
174 198 0
174 198 0
175 198 0
174 198 0
174 198 0
174 198 0
175 198 0
175 198 0
175 198 0
175 198 0
175 198 0
176 198 0
173 197 0
174 197 0
174 198 0
173 197 0
175 198 0
175 198 0
175 198 0
175 198 0
175 198 0
174 197 0
174 198 0
174 198 0
175 198 0
175 198 0
175 198 0
175 198 0
174 198 0
175 198 0
174 198 0
173 197 0
175 198 0
175 198 0
174 198 0
175 198 0
174 198 0
174 198 0
175 198 0
174 198 0
174 198 0
175 198 0
174 198 0
176 198 0
176 198 0
174 197 0
173 197 0
174 198 0
176 198 0
176 199 0
177 199 0
176 198 0
174 198 0
176 198 0
175 198 0
174 197 0
174 198 0
174 197 0
175 198 0
174 198 0
175 198 0
173 197 0
176 198 0
174 197 0
175 198 0
174 198 0
175 198 0
173 197 0
174 198 0
176 198 0
173 197 0
176 198 0
173 197 0
175 198 0
175 198 0
176 199 0
176 199 0
174 198 0
176 199 0
174 197 0
174 198 0
175 198 0
173 197 0
174 197 0
173 197 0
176 199 0
175 198 0
174 198 0
174 197 0
175 198 0
173 197 0
173 197 0
176 198 0
174 198 0
174 198 0
175 198 0
175 198 0
175 198 0
176 199 0
174 198 0
174 198 0
174 198 0
175 198 0
174 198 0
174 198 0
175 198 0
173 197 0
173 197 0
175 198 0
175 198 0
174 198 0
175 198 0
174 198 0
175 198 0
175 198 0
176 199 0
174 198 0
175 198 0
177 199 0
175 198 0
174 198 0
175 198 0
175 198 0
175 198 0
173 197 0
175 198 0
175 198 0
175 198 0
174 198 0
173 197 0
174 198 0
174 198 0
174 198 0
173 197 0
176 199 0
176 199 0
174 198 0
175 198 0
175 198 0
173 197 0
175 198 0
173 197 0
175 198 0
173 197 0
172 196 0
174 198 0
175 198 0
173 197 0
175 198 0
174 197 0
176 199 0
176 199 0
175 198 0
175 198 0
173 197 0
174 198 0
174 198 0
174 198 0
175 198 0
173 197 0
175 198 0
175 198 0
174 198 0
176 198 0
175 198 0
175 198 0
175 198 0
175 198 0
173 197 0
174 197 0
175 198 0
174 198 0
173 197 0
173 197 0
174 198 0
174 198 0
174 198 0
173 196 0
173 197 0
173 196 0
173 197 0
175 198 0
174 198 0
174 198 0
171 196 0
174 198 0
176 199 0
174 197 0
173 197 0
174 198 0
172 196 0
174 197 0
175 198 0
173 197 0
174 197 0
174 197 0
173 197 0
174 198 0
175 198 0
175 198 0
175 198 0
173 197 0
176 198 0
174 197 0
173 197 0
175 198 0
175 198 0
173 197 0
174 197 0
174 198 0
175 198 0
174 198 0
173 196 0
174 197 0
172 195 0
173 197 0
174 196 0
174 198 0
174 197 0
172 195 0
174 198 0
171 195 0
175 198 0
175 198 0
174 197 0
174 198 0
172 195 0
172 195 0
172 195 0
172 196 0
173 196 0
175 198 0
172 196 0
172 195 0
173 197 0
173 196 0
173 196 0
173 195 0
174 196 0
169 193 0
160 183 72
93 123 159
62 99 176
61 98 180
62 99 179
62 99 181
61 99 179
61 99 181
62 99 181
62 99 181
61 99 181
62 99 181
62 99 181
61 99 181
61 98 181
62 99 180
62 99 181
62 99 180
62 99 179
61 98 176
107 122 160
178 168 119
143 139 95
118 120 89
118 120 90
145 144 101
178 173 113
178 173 114
176 172 114
175 172 114
175 171 114
174 171 114
174 171 114
175 171 114
176 172 114
177 172 114
178 173 114
180 174 114
182 175 114
185 176 114
188 178 114
191 179 114
195 181 114
194 179 106
156 153 0
170 189 0
173 195 0
174 196 0
173 196 0
174 197 0
175 198 0
173 197 0
172 197 0
174 196 0
174 197 0
174 198 0
173 196 0
174 197 0
175 197 0
176 198 0
173 197 0
175 198 0
174 196 0
173 197 0
175 198 0
175 198 0
175 198 0
173 196 0
175 198 0
174 198 0
174 196 0
175 198 0
175 198 0
173 197 0
174 197 0
175 198 0
174 198 0
173 197 0
173 197 0
173 197 0
175 198 0
174 197 0
177 199 0
174 198 0
174 198 0
173 197 0
175 198 0
174 197 0
174 197 0
174 198 0
175 198 0
173 197 0
175 198 0
175 198 0
174 197 0
174 197 0
174 198 0
174 197 0
173 197 0
173 197 0
175 198 0
174 198 0
172 197 0
174 197 0
175 198 0
174 197 0
174 198 0
173 197 0
175 198 0
173 197 0
175 198 0
175 198 0
175 198 0
175 198 0
175 198 0
175 198 0
175 198 0
174 198 0
173 197 0
175 198 0
173 196 0
175 198 0
173 197 0
175 198 0
175 198 0
175 198 0
174 198 0
175 198 0
174 198 0
174 197 0
174 198 0
175 198 0
174 198 0
176 199 0
174 198 0
175 198 0
174 198 0
174 198 0
175 198 0
176 198 0
174 198 0
174 198 0
174 198 0
175 198 0
174 197 0
175 198 0
175 198 0
175 198 0
174 198 0
175 198 0
174 198 0
174 198 0
175 198 0
175 198 0
174 198 0
174 198 0
176 199 0
175 198 0
175 198 0
175 198 0
175 198 0
175 198 0
174 198 0
174 198 0
175 198 0
174 198 0
176 199 0
175 198 0
175 198 0
175 198 0
175 198 0
174 198 0
176 199 0
174 198 0
173 197 0
174 198 0
175 198 0
176 199 0
174 198 0
173 197 0
174 197 0
175 198 0
175 198 0
174 197 0
175 198 0
176 199 0
174 198 0
177 199 0
173 197 0
175 198 0
175 198 0
173 197 0
175 198 0
174 198 0
175 198 0
174 198 0
172 197 0
175 198 0
174 198 0
174 198 0
173 197 0
174 197 0
176 199 0
173 197 0
175 198 0
176 198 0
174 198 0
174 198 0
177 199 0
175 198 0
177 199 0
173 197 0
173 197 0
175 198 0
175 198 0
175 198 0
174 198 0
175 198 0
175 198 0
173 197 0
174 198 0
175 198 0
175 198 0
173 197 0
175 198 0
177 199 0
174 198 0
175 198 0
174 198 0
176 199 0
176 198 0
174 197 0
174 198 0
175 198 0
175 198 0
174 198 0
175 198 0
176 199 0
173 197 0
173 197 0
176 198 0
175 198 0
174 197 0
175 198 0
175 198 0
174 198 0
175 198 0
175 198 0
174 198 0
174 198 0
175 198 0
174 198 0
174 198 0
175 198 0
174 198 0
174 198 0
175 198 0
175 198 0
175 198 0
175 198 0
173 197 0
175 198 0
177 199 0
175 198 0
174 198 0
175 198 0
174 198 0
175 198 0
174 197 0
176 199 0
175 198 0
173 197 0
174 198 0
174 198 0
175 198 0
174 197 0
175 198 0
174 198 0
174 198 0
174 198 0
174 198 0
174 198 0
174 198 0
174 198 0
175 198 0
176 199 0
174 198 0
175 198 0
174 198 0
175 198 0
175 198 0
174 198 0
174 198 0
174 197 0
176 199 0
175 198 0
174 198 0
174 197 0
174 198 0
175 198 0
176 199 0
174 198 0
173 197 0
175 198 0
175 198 0
176 199 0
175 198 0
175 198 0
173 197 0
175 198 0
172 197 0
172 196 0
174 198 0
175 198 0
174 198 0
174 197 0
175 198 0
174 198 0
174 198 0
173 196 0
173 197 0
174 198 0
173 197 0
173 197 0
175 198 0
174 198 0
174 198 0
175 198 0
174 198 0
175 198 0
173 196 0
174 197 0
173 197 0
174 198 0
175 198 0
174 197 0
173 197 0
174 198 0
175 198 0
173 196 0
174 198 0
176 198 0
173 197 0
175 198 0
175 198 0
173 197 0
175 198 0
173 197 0
172 196 0
174 197 0
174 198 0
174 197 0
174 198 0
173 197 0
174 198 0
176 199 0
172 196 0
174 198 0
174 197 0
174 197 0
174 197 0
174 197 0
174 197 0
173 196 0
175 198 0
172 196 0
172 196 0
173 196 0
175 198 0
172 196 0
174 197 0
170 194 0
173 197 0
173 196 0
175 198 0
174 197 0
176 198 0
174 197 0
174 197 0
172 195 0
174 197 0
173 197 0
172 195 0
174 197 0
174 197 0
173 195 0
174 198 0
172 195 0
175 198 0
174 196 0
171 196 0
173 195 0
174 197 0
173 197 0
168 192 0
171 194 0
172 195 0
172 196 0
170 193 0
156 179 76
70 105 173
62 99 175
62 99 178
62 99 178
62 99 181
61 99 181
62 99 181
61 99 181
62 99 180
62 99 181
62 99 181
61 98 180
62 99 181
61 99 180
62 99 180
62 99 181
62 99 180
62 99 179
62 99 180
61 98 178
62 99 179
61 95 162
52 75 100
50 67 63
51 69 67
53 71 70
91 100 83
174 168 111
180 174 114
179 174 114
179 173 114
178 173 114
178 173 114
179 173 114
179 173 114
180 174 114
182 175 114
184 176 114
185 176 114
188 178 114
191 179 114
194 180 114
197 182 114
186 173 91
156 153 0
171 188 0
175 196 0
172 196 0
174 197 0
173 195 0
175 197 0
172 195 0
174 196 0
173 196 0
173 196 0
174 197 0
173 197 0
174 197 0
174 197 0
174 198 0
172 196 0
175 197 0
174 198 0
174 197 0
175 197 0
174 197 0
175 197 0
174 197 0
175 198 0
175 198 0
175 198 0
174 197 0
175 198 0
175 198 0
174 197 0
174 198 0
174 198 0
175 198 0
174 197 0
177 199 0
175 198 0
176 198 0
174 197 0
174 197 0
174 197 0
174 198 0
173 197 0
175 198 0
174 197 0
173 197 0
174 198 0
174 198 0
174 198 0
173 197 0
174 198 0
173 197 0
176 198 0
174 197 0
174 198 0
174 198 0
174 198 0
175 198 0
173 197 0
174 197 0
176 198 0
174 197 0
174 198 0
173 197 0
176 199 0
175 198 0
174 198 0
173 197 0
174 197 0
173 197 0
175 198 0
174 198 0
176 199 0
174 198 0
174 197 0
174 197 0
174 197 0
175 198 0
174 197 0
176 198 0
175 198 0
174 198 0
175 198 0
173 197 0
175 198 0
174 198 0
177 199 0
175 198 0
173 197 0
174 197 0
173 197 0
176 199 0
173 197 0
174 197 0
175 198 0
175 198 0
175 198 0
174 197 0
174 198 0
176 199 0
177 199 0
176 198 0
175 198 0
175 198 0
174 198 0
174 198 0
175 198 0
174 198 0
174 198 0
176 198 0
174 197 0
174 198 0
175 198 0
176 199 0
175 198 0
175 198 0
174 198 0
176 198 0
176 199 0
173 197 0
174 198 0
175 198 0
176 199 0
173 197 0
175 198 0
176 198 0
175 198 0
174 197 0
176 199 0
174 197 0
173 197 0
176 198 0
175 198 0
174 197 0
175 198 0
175 198 0
175 198 0
175 198 0
175 198 0
174 198 0
173 197 0
173 197 0
174 198 0
175 198 0
174 198 0
174 198 0
175 198 0
175 198 0
174 198 0
173 197 0
174 198 0
176 199 0
175 198 0
174 198 0
175 198 0
175 198 0
174 198 0
175 198 0
175 198 0
173 197 0
174 198 0
174 198 0
174 197 0
177 199 0
177 199 0
175 198 0
174 197 0
173 197 0
174 198 0
174 198 0
175 198 0
174 197 0
174 197 0
174 198 0
175 198 0
175 198 0
174 198 0
175 198 0
174 198 0
175 198 0
175 198 0
175 198 0
174 198 0
174 198 0
174 198 0
175 198 0
176 199 0
174 198 0
175 198 0
175 198 0
176 199 0
174 197 0
172 197 0
175 198 0
175 198 0
174 198 0
174 198 0
173 197 0
174 198 0
175 198 0
174 198 0
174 198 0
173 197 0
175 198 0
176 199 0
174 198 0
173 197 0
174 197 0
175 198 0
176 199 0
174 198 0
173 197 0
175 198 0
176 199 0
174 198 0
175 198 0
176 198 0
175 198 0
174 198 0
175 198 0
174 198 0
175 198 0
176 198 0
175 198 0
175 198 0
174 197 0
175 198 0
173 197 0
174 198 0
174 198 0
174 198 0
174 198 0
176 198 0
175 198 0
173 197 0
174 198 0
176 198 0
176 198 0
175 198 0
175 198 0
175 198 0
175 198 0
173 197 0
174 198 0
175 198 0
173 197 0
174 198 0
173 197 0
174 198 0
174 198 0
174 198 0
175 198 0
175 198 0
175 198 0
175 198 0
174 198 0
173 197 0
173 197 0
174 198 0
175 198 0
176 198 0
176 199 0
173 197 0
175 198 0
174 198 0
173 197 0
175 198 0
173 197 0
175 198 0
175 198 0
175 198 0
174 198 0
174 198 0
173 197 0
173 197 0
176 199 0
174 197 0
175 198 0
174 197 0
174 198 0
175 198 0
174 198 0
173 197 0
174 197 0
173 197 0
175 198 0
174 198 0
175 198 0
175 198 0
174 197 0
174 197 0
175 198 0
175 198 0
175 198 0
173 197 0
172 196 0
173 197 0
173 196 0
174 198 0
173 197 0
174 198 0
174 197 0
174 197 0
175 198 0
174 198 0
176 198 0
174 198 0
173 197 0
173 197 0
174 197 0
173 197 0
174 198 0
172 197 0
173 197 0
175 198 0
173 197 0
174 197 0
174 197 0
175 198 0
172 196 0
173 196 0
172 196 0
175 198 0
172 196 0
173 197 0
174 197 0
174 197 0
172 195 0
174 198 0
172 195 0
173 196 0
174 197 0
173 196 0
174 197 0
174 197 0
173 196 0
173 196 0
173 196 0
173 195 0
174 197 0
172 195 0
170 194 0
173 196 0
173 196 0
171 194 0
173 196 0
171 195 0
168 192 0
173 195 0
170 194 0
174 197 0
173 196 0
171 192 0
173 196 0
150 174 84
64 100 168
62 99 176
62 99 177
61 99 180
61 99 179
62 99 177
62 99 181
62 99 181
62 99 180
62 99 181
61 99 181
61 99 179
62 99 180
61 99 180
62 99 181
62 99 181
61 99 181
62 99 180
62 99 178
62 99 176
62 99 180
62 99 175
62 99 172
60 95 162
51 73 98
49 66 64
52 68 62
51 70 66
91 99 82
179 171 112
183 175 114
183 175 114
183 175 114
182 175 114
183 175 114
183 175 114
184 176 114
186 176 114
187 177 114
189 178 114
191 179 114
194 180 114
197 182 114
197 181 110
162 157 39
155 153 0
171 191 0
171 194 0
174 196 0
174 196 0
172 194 0
172 196 0
172 195 0
174 197 0
175 196 0
174 197 0
172 195 0
175 197 0
174 197 0
174 196 0
174 197 0
175 198 0
174 197 0
173 195 0
175 198 0
175 198 0
175 197 0
174 197 0
174 198 0
174 197 0
174 197 0
175 198 0
173 197 0
174 197 0
175 198 0
173 197 0
176 198 0
173 197 0
174 197 0
174 197 0
173 197 0
174 197 0
175 198 0
176 199 0
174 197 0
175 198 0
175 198 0
173 197 0
175 198 0
173 197 0
175 198 0
174 198 0
175 198 0
173 197 0
174 198 0
173 197 0
175 198 0
174 198 0
175 198 0
174 198 0
174 198 0
174 198 0
175 198 0
174 197 0
176 198 0
174 198 0
174 197 0
172 197 0
173 197 0
175 198 0
175 198 0
175 198 0
174 198 0
174 198 0
175 198 0
174 198 0
174 197 0
174 198 0
173 197 0
175 198 0
172 196 0
173 197 0
173 197 0
173 197 0
175 198 0
174 197 0
175 198 0
177 199 0
174 198 0
175 198 0
173 197 0
175 198 0
176 198 0
174 197 0
174 198 0
175 198 0
174 198 0
175 198 0
174 198 0
176 199 0
173 197 0
173 197 0
173 197 0
174 197 0
176 198 0
174 198 0
174 198 0
175 198 0
174 197 0
176 198 0
176 198 0
174 198 0
175 198 0
175 198 0
175 198 0
175 198 0
173 197 0
175 198 0
175 198 0
173 197 0
174 198 0
175 198 0
174 197 0
173 197 0
174 198 0
174 198 0
174 198 0
174 198 0
175 198 0
173 197 0
176 198 0
175 198 0
174 198 0
174 198 0
174 198 0
173 197 0
175 198 0
174 198 0
174 197 0
174 198 0
175 198 0
174 198 0
172 197 0
175 198 0
173 197 0
175 198 0
174 197 0
174 197 0
175 198 0
175 198 0
175 198 0
174 198 0
174 198 0
176 199 0
176 199 0
176 198 0
176 198 0
174 197 0
175 198 0
173 197 0
175 198 0
175 198 0
174 198 0
174 198 0
174 198 0
175 198 0
175 198 0
175 198 0
174 198 0
173 197 0
175 198 0
175 198 0
173 197 0
173 197 0
174 198 0
173 197 0
175 198 0
175 198 0
174 198 0
176 198 0
175 198 0
176 199 0
174 198 0
175 198 0
174 198 0
176 198 0
174 198 0
175 198 0
174 198 0
174 197 0
174 197 0
173 197 0
175 198 0
175 198 0
174 198 0
176 198 0
175 198 0
177 199 0
174 198 0
174 198 0
175 198 0
175 198 0
174 198 0
173 197 0
174 197 0
174 198 0
175 198 0
174 197 0
173 197 0
177 199 0
175 198 0
175 198 0
174 197 0
175 198 0
174 197 0
175 198 0
174 198 0
174 198 0
173 197 0
174 198 0
175 198 0
174 198 0
175 198 0
174 197 0
175 198 0
175 198 0
174 197 0
174 198 0
173 197 0
174 197 0
173 197 0
175 198 0
174 198 0
174 198 0
175 198 0
174 198 0
175 198 0
174 197 0
175 198 0
174 198 0
175 198 0
174 198 0
174 198 0
174 198 0
173 197 0
174 198 0
172 197 0
172 197 0
173 197 0
174 197 0
174 198 0
174 198 0
174 197 0
176 198 0
174 198 0
174 197 0
177 199 0
172 197 0
175 198 0
174 197 0
174 197 0
173 197 0
176 198 0
173 197 0
175 198 0
174 197 0
176 199 0
174 198 0
174 197 0
174 197 0
174 198 0
176 199 0
175 198 0
175 198 0
174 198 0
175 198 0
175 198 0
175 198 0
174 198 0
174 198 0
174 197 0
174 197 0
175 198 0
175 198 0
175 198 0
173 197 0
173 197 0
173 196 0
175 198 0
174 197 0
174 198 0
174 198 0
173 197 0
173 197 0
175 198 0
175 198 0
173 197 0
175 198 0
173 197 0
174 197 0
175 198 0
174 197 0
173 197 0
175 198 0
173 196 0
175 198 0
174 197 0
175 198 0
173 197 0
173 197 0
175 198 0
174 197 0
171 195 0
174 198 0
174 198 0
175 198 0
173 197 0
176 199 0
174 198 0
173 197 0
175 198 0
173 197 0
172 196 0
175 198 0
175 197 0
173 197 0
174 197 0
172 196 0
174 197 0
171 195 0
174 197 0
171 195 0
175 197 0
173 196 0
174 198 0
174 197 0
174 197 0
173 197 0
173 195 0
172 196 0
171 195 0
173 197 0
171 195 0
169 194 0
172 196 0
172 196 0
171 194 0
173 197 0
170 193 0
170 193 0
172 196 0
172 196 0
170 193 0
172 194 0
173 196 0
170 193 0
171 195 0
171 194 0
160 183 60
78 111 161
63 99 172
62 99 177
62 99 176
62 99 180
62 99 179
62 99 181
61 99 181
62 99 178
61 98 177
61 99 181
62 99 181
62 99 181
61 98 180
61 98 179
63 100 180
63 100 180
62 99 180
62 99 177
62 99 177
61 98 175
61 99 179
62 99 177
62 99 176
62 98 174
60 94 160
49 66 68
50 66 58
52 70 64
54 73 70
127 127 90
188 177 114
187 177 114
187 177 114
187 177 114
187 177 114
188 177 114
188 178 114
190 178 114
191 179 114
193 180 114
195 181 114
197 182 114
197 182 110
170 163 62
156 153 0
156 153 0
173 194 0
173 195 0
173 195 0
173 196 0
173 195 0
173 196 0
172 195 0
174 196 0
174 197 0
173 197 0
174 196 0
173 197 0
173 197 0
173 196 0
174 197 0
174 197 0
174 196 0
173 197 0
173 196 0
175 197 0
174 197 0
174 197 0
173 196 0
173 196 0
174 197 0
175 198 0
174 198 0
174 197 0
172 197 0
173 197 0
174 196 0
174 196 0
174 197 0
172 197 0
171 196 0
173 197 0
175 198 0
173 197 0
174 197 0
175 198 0
173 197 0
175 198 0
174 198 0
174 197 0
176 199 0
175 198 0
174 198 0
174 197 0
175 198 0
174 198 0
172 197 0
175 198 0
172 197 0
175 198 0
175 198 0
175 198 0
174 198 0
173 197 0
174 198 0
173 197 0
175 198 0
173 197 0
174 197 0
175 198 0
175 198 0
175 198 0
174 197 0
175 198 0
174 197 0
173 197 0
174 198 0
174 197 0
173 197 0
175 198 0
173 197 0
174 198 0
174 198 0
175 198 0
174 198 0
177 199 0
174 197 0
175 198 0
175 198 0
175 198 0
175 198 0
174 198 0
174 198 0
174 197 0
174 197 0
175 198 0
172 196 0
175 198 0
175 198 0
175 198 0
175 198 0
174 198 0
175 198 0
175 198 0
174 197 0
175 198 0
175 198 0
176 198 0
175 198 0
175 198 0
174 198 0
174 197 0
173 197 0
174 198 0
174 198 0
174 198 0
173 197 0
175 198 0
175 198 0
175 198 0
173 197 0
174 197 0
175 198 0
173 197 0
174 198 0
175 198 0
175 198 0
174 197 0
175 198 0
173 197 0
175 198 0
173 197 0
175 198 0
174 198 0
175 198 0
175 198 0
175 198 0
176 199 0
174 197 0
174 198 0
175 198 0
175 198 0
174 198 0
174 197 0
173 197 0
173 197 0
172 196 0
174 197 0
175 198 0
174 198 0
174 197 0
175 198 0
176 199 0
176 199 0
173 197 0
173 197 0
174 198 0
176 198 0
175 198 0
175 198 0
174 198 0
173 197 0
176 199 0
175 198 0
174 197 0
177 199 0
173 197 0
175 198 0
174 198 0
174 197 0
175 198 0
173 197 0
173 197 0
174 198 0
174 198 0
175 198 0
174 198 0
176 198 0
174 197 0
175 198 0
174 197 0
176 199 0
174 198 0
174 197 0
175 198 0
175 198 0
175 198 0
174 198 0
176 199 0
174 197 0
174 197 0
173 197 0
175 198 0
174 198 0
174 198 0
176 199 0
175 198 0
175 198 0
173 197 0
175 198 0
174 198 0
174 198 0
175 198 0
174 198 0
174 198 0
174 198 0
174 198 0
175 198 0
174 198 0
174 198 0
175 198 0
175 198 0
174 198 0
175 198 0
173 197 0
174 198 0
175 198 0
175 198 0
174 197 0
174 198 0
174 197 0
174 198 0
174 198 0
174 198 0
176 199 0
174 198 0
176 198 0
173 197 0
174 198 0
175 198 0
172 197 0
174 198 0
174 197 0
173 197 0
174 197 0
174 198 0
175 198 0
177 199 0
173 197 0
175 198 0
175 198 0
174 197 0
174 198 0
175 198 0
175 198 0
173 197 0
173 197 0
175 198 0
174 198 0
174 198 0
174 198 0
175 198 0
173 197 0
174 197 0
174 198 0
175 198 0
174 197 0
173 197 0
175 198 0
173 197 0
173 197 0
175 198 0
175 198 0
175 198 0
174 198 0
173 197 0
174 198 0
173 197 0
175 198 0
174 197 0
175 198 0
175 198 0
174 198 0
174 197 0
175 198 0
174 198 0
175 198 0
173 197 0
175 198 0
175 198 0
175 198 0
176 198 0
172 195 0
174 198 0
175 198 0
174 197 0
174 197 0
173 197 0
174 198 0
174 198 0
173 197 0
173 197 0
175 198 0
175 198 0
174 197 0
173 197 0
174 198 0
174 197 0
175 198 0
175 198 0
174 197 0
174 197 0
174 198 0
175 198 0
175 198 0
175 198 0
174 198 0
175 198 0
174 198 0
175 198 0
173 197 0
173 197 0
172 195 0
176 199 0
173 196 0
175 198 0
174 197 0
175 198 0
175 198 0
174 197 0
176 198 0
175 198 0
172 196 0
175 198 0
174 197 0
173 196 0
174 198 0
173 196 0
173 197 0
173 197 0
172 195 0
173 196 0
174 197 0
172 196 0
173 197 0
172 196 0
174 197 0
172 195 0
172 196 0
172 196 0
174 197 0
171 194 0
173 196 0
170 194 0
173 197 0
172 195 0
171 195 0
171 195 0
171 194 0
174 196 0
172 195 0
171 195 0
172 195 0
172 196 0
171 195 0
171 194 0
170 194 0
171 195 0
88 119 157
62 99 170
62 99 175
62 99 176
62 99 178
62 99 171
62 99 178
62 99 179
62 99 180
62 99 179
63 100 179
62 99 179
62 99 180
62 99 179
61 98 177
62 99 180
62 99 178
63 99 180
61 98 176
61 99 178
62 99 179
63 99 178
61 99 180
62 99 174
62 99 172
62 99 174
62 99 173
57 86 142
47 63 60
49 65 57
54 72 67
60 77 70
179 169 108
192 179 114
191 179 114
191 179 114
191 179 114
192 180 114
193 180 114
194 180 114
195 181 114
196 182 114
199 183 114
194 179 104
167 160 52
155 153 0
156 153 0
156 156 0
174 196 0
173 192 0
172 196 0
174 197 0
174 195 0
173 195 0
174 196 0
173 195 0
173 195 0
174 196 0
175 198 0
173 196 0
173 196 0
175 198 0
174 197 0
172 196 0
174 195 0
174 198 0
175 198 0
172 196 0
174 196 0
173 197 0
174 197 0
172 196 0
174 197 0
174 198 0
174 197 0
174 197 0
176 199 0
173 197 0
174 197 0
174 197 0
173 196 0
177 199 0
176 199 0
174 197 0
173 197 0
174 198 0
175 198 0
175 198 0
173 197 0
174 197 0
174 197 0
174 198 0
174 197 0
174 198 0
175 198 0
174 198 0
173 196 0
175 198 0
175 198 0
174 197 0
175 198 0
173 197 0
176 198 0
174 198 0
173 197 0
174 198 0
175 198 0
175 198 0
173 197 0
172 197 0
174 197 0
173 197 0
173 197 0
174 197 0
174 198 0
175 198 0
175 198 0
175 198 0
173 197 0
176 198 0
174 197 0
171 196 0
174 198 0
174 197 0
175 198 0
174 198 0
173 197 0
174 197 0
174 198 0
174 198 0
174 198 0
173 197 0
174 198 0
174 198 0
174 198 0
175 198 0
174 197 0
174 198 0
175 198 0
174 197 0
175 198 0
176 198 0
174 198 0
174 198 0
174 197 0
173 197 0
175 198 0
176 198 0
173 197 0
174 197 0
175 198 0
175 198 0
174 198 0
174 198 0
175 198 0
174 198 0
174 197 0
175 198 0
175 198 0
175 198 0
175 198 0
174 198 0
173 197 0
175 198 0
174 198 0
174 198 0
173 197 0
174 197 0
173 197 0
175 198 0
175 198 0
177 199 0
174 197 0
175 198 0
176 198 0
174 198 0
175 198 0
175 198 0
173 197 0
175 198 0
175 198 0
174 198 0
173 197 0
176 199 0
175 198 0
175 198 0
176 199 0
173 197 0
174 198 0
175 198 0
173 197 0
173 197 0
175 198 0
175 198 0
175 198 0
172 197 0
175 198 0
175 198 0
176 199 0
174 198 0
174 198 0
175 198 0
174 198 0
175 198 0
173 197 0
175 198 0
173 197 0
175 198 0
174 198 0
176 198 0
173 197 0
174 198 0
174 198 0
174 198 0
174 197 0
175 198 0
176 199 0
176 199 0
175 198 0
174 198 0
174 198 0
174 197 0
173 197 0
174 198 0
178 199 0
174 198 0
176 199 0
175 198 0
174 198 0
174 198 0
175 198 0
176 199 0
174 198 0
175 198 0
176 198 0
173 197 0
174 198 0
174 197 0
174 197 0
174 198 0
174 197 0
175 198 0
175 198 0
173 197 0
175 198 0
175 198 0
175 198 0
174 198 0
176 199 0
175 198 0
174 198 0
175 198 0
175 198 0
175 198 0
175 198 0
173 197 0
175 198 0
173 197 0
174 197 0
175 198 0
174 197 0
173 197 0
175 198 0
173 197 0
174 197 0
175 198 0
174 197 0
175 198 0
176 198 0
177 199 0
174 198 0
174 198 0
175 198 0
174 197 0
174 198 0
175 198 0
174 197 0
176 199 0
173 197 0
174 198 0
175 198 0
175 198 0
176 198 0
174 197 0
172 196 0
175 198 0
174 198 0
173 197 0
175 198 0
175 198 0
173 197 0
176 198 0
175 198 0
177 199 0
175 198 0
175 198 0
175 198 0
173 197 0
173 197 0
176 198 0
174 198 0
175 198 0
175 198 0
174 198 0
175 198 0
174 198 0
174 198 0
175 198 0
173 197 0
173 197 0
174 197 0
174 198 0
174 197 0
174 197 0
174 198 0
175 198 0
174 197 0
174 198 0
174 198 0
174 197 0
174 197 0
174 197 0
171 195 0
177 199 0
175 198 0
174 197 0
173 196 0
176 198 0
173 197 0
176 199 0
174 198 0
173 197 0
175 198 0
172 196 0
173 196 0
175 198 0
175 198 0
175 198 0
175 198 0
174 198 0
176 199 0
174 198 0
174 197 0
173 197 0
174 198 0
175 198 0
172 196 0
174 198 0
175 198 0
173 197 0
175 198 0
172 196 0
174 197 0
174 197 0
176 198 0
175 198 0
176 198 0
174 197 0
175 198 0
173 197 0
174 198 0
175 198 0
172 195 0
172 196 0
174 197 0
175 198 0
171 195 0
175 197 0
174 197 0
174 197 0
175 197 0
172 195 0
172 195 0
172 195 0
172 195 0
173 197 0
172 196 0
172 196 0
173 197 0
175 198 0
172 195 0
174 197 0
172 195 0
172 196 0
172 196 0
171 195 0
172 196 0
170 194 0
171 194 0
172 196 0
171 194 0
174 197 0
171 195 0
169 192 0
171 194 0
172 195 0
169 191 0
169 192 0
167 190 0
148 172 90
63 99 171
63 100 174
63 99 176
62 99 176
62 99 175
62 99 179
61 99 179
62 99 177
62 99 179
63 99 178
62 99 178
61 98 177
63 100 179
62 99 180
62 99 175
62 99 178
62 99 179
62 99 178
62 99 179
62 99 177
62 99 179
62 99 178
62 99 176
62 99 176
62 99 177
62 99 171
62 99 171
61 97 167
51 75 103
47 62 53
52 70 61
53 71 64
171 161 103
196 182 114
196 181 114
196 181 114
196 181 114
196 182 114
197 182 114
198 182 114
199 183 114
194 179 104
177 167 74
158 154 22
157 154 0
155 152 0
156 152 0
159 163 0
174 195 0
172 194 0
172 194 0
170 192 0
174 196 0
173 195 0
173 196 0
172 195 0
174 196 0
172 195 0
172 194 0
175 197 0
172 194 0
172 196 0
175 197 0
174 196 0
174 196 0
174 197 0
174 197 0
173 197 0
174 198 0
173 197 0
173 197 0
173 196 0
173 196 0
174 196 0
173 197 0
176 199 0
173 197 0
174 197 0
175 197 0
174 197 0
173 197 0
175 198 0
173 197 0
174 198 0
175 198 0
173 197 0
174 198 0
175 198 0
173 197 0
174 197 0
172 196 0
176 198 0
175 198 0
174 198 0
175 198 0
176 198 0
174 198 0
173 197 0
174 197 0
176 198 0
175 198 0
174 197 0
173 197 0
175 198 0
174 198 0
175 198 0
173 197 0
176 198 0
173 197 0
174 198 0
174 197 0
174 197 0
174 198 0
175 198 0
175 198 0
174 198 0
174 198 0
174 198 0
175 198 0
175 198 0
173 197 0
174 198 0
175 198 0
175 198 0
174 197 0
174 198 0
173 197 0
173 197 0
174 198 0
176 198 0
173 197 0
175 198 0
174 198 0
174 198 0
174 198 0
173 197 0
174 198 0
175 198 0
175 198 0
173 197 0
174 197 0
175 198 0
174 198 0
175 198 0
175 198 0
175 198 0
172 197 0
174 198 0
174 198 0
175 198 0
175 198 0
176 199 0
174 198 0
174 197 0
175 198 0
174 198 0
176 198 0
174 198 0
174 198 0
174 198 0
173 197 0
175 198 0
174 198 0
176 199 0
174 198 0
174 198 0
173 197 0
176 199 0
175 198 0
174 198 0
174 198 0
174 198 0
175 198 0
176 199 0
174 197 0
173 197 0
174 197 0
175 198 0
174 198 0
174 198 0
174 197 0
175 198 0
176 198 0
174 197 0
175 198 0
174 198 0
175 198 0
175 198 0
175 198 0
175 198 0
176 199 0
175 198 0
175 198 0
174 198 0
175 198 0
173 197 0
176 199 0
174 198 0
176 199 0
175 198 0
173 197 0
174 197 0
175 198 0
174 197 0
173 197 0
175 198 0
176 198 0
175 198 0
175 198 0
175 198 0
174 198 0
175 198 0
175 198 0
175 198 0
175 198 0
173 197 0
174 198 0
174 198 0
175 198 0
174 198 0
175 198 0
174 198 0
174 198 0
174 198 0
173 197 0
174 198 0
174 198 0
174 197 0
174 197 0
176 198 0
172 197 0
174 198 0
174 198 0
175 198 0
175 198 0
176 198 0
176 199 0
174 198 0
174 198 0
173 197 0
174 198 0
176 198 0
174 198 0
173 197 0
174 198 0
175 198 0
175 198 0
176 199 0
174 198 0
174 197 0
174 198 0
175 198 0
174 197 0
174 198 0
174 198 0
174 198 0
174 198 0
175 198 0
176 199 0
174 198 0
173 197 0
175 198 0
173 197 0
173 197 0
176 199 0
175 198 0
175 198 0
175 198 0
174 198 0
174 198 0
174 198 0
175 198 0
173 197 0
174 197 0
174 198 0
177 199 0
174 197 0
175 198 0
174 198 0
175 198 0
175 198 0
171 196 0
174 198 0
172 197 0
173 197 0
173 197 0
175 198 0
173 197 0
174 198 0
173 197 0
173 197 0
175 198 0
174 198 0
173 197 0
175 198 0
175 198 0
174 198 0
175 198 0
176 198 0
173 197 0
174 198 0
175 198 0
173 197 0
173 197 0
175 198 0
173 197 0
174 198 0
174 198 0
173 197 0
175 198 0
175 198 0
174 197 0
173 197 0
175 198 0
174 198 0
174 197 0
172 196 0
173 197 0
173 197 0
173 196 0
175 198 0
174 198 0
176 199 0
175 198 0
174 198 0
174 198 0
175 198 0
174 197 0
173 197 0
174 197 0
174 197 0
173 197 0
174 198 0
175 198 0
175 198 0
175 198 0
175 198 0
175 198 0
174 197 0
172 196 0
175 198 0
175 198 0
175 198 0
173 197 0
174 197 0
172 196 0
175 198 0
174 198 0
174 198 0
174 197 0
174 198 0
172 196 0
174 198 0
173 197 0
176 199 0
174 198 0
173 196 0
175 198 0
174 197 0
173 197 0
173 197 0
175 198 0
173 197 0
174 197 0
174 198 0
173 196 0
174 197 0
173 197 0
173 196 0
173 196 0
173 196 0
172 196 0
171 195 0
173 196 0
170 194 0
171 195 0
173 197 0
172 196 0
175 198 0
175 198 0
174 197 0
173 195 0
173 196 0
171 194 0
170 194 0
172 196 0
171 195 0
170 193 0
168 191 0
170 193 0
171 194 0
168 192 0
172 195 0
170 193 0
170 193 0
172 196 0
173 196 0
171 194 0
171 194 0
89 119 149
61 97 161
62 98 174
62 99 171
62 99 174
62 99 178
62 99 179
63 99 176
62 99 177
62 99 178
62 99 174
62 99 174
62 99 176
62 99 177
62 98 175
61 99 177
62 99 178
62 99 175
62 99 176
61 98 173
62 99 175
62 99 178
62 99 176
62 99 174
62 99 176
62 99 175
62 99 168
62 98 170
62 97 167
61 94 158
48 63 52
48 64 53
52 68 55
139 136 64
185 173 90
185 173 90
189 176 98
188 175 97
184 172 90
181 170 83
172 164 64
160 156 30
155 153 0
157 153 0
154 151 0
156 153 0
155 152 0
155 151 0
168 183 0
170 191 0
172 194 0
173 195 0
172 195 0
173 195 0
173 195 0
173 194 0
172 193 0
173 195 0
173 196 0
173 197 0
173 196 0
174 196 0
171 193 0
173 197 0
171 195 0
173 197 0
171 195 0
174 197 0
173 197 0
174 197 0
173 196 0
175 198 0
172 195 0
172 196 0
174 197 0
173 197 0
174 196 0
173 196 0
172 196 0
175 198 0
172 196 0
174 198 0
174 197 0
173 196 0
174 197 0
175 197 0
173 197 0
174 197 0
173 197 0
174 197 0
173 197 0
174 197 0
173 197 0
173 197 0
174 198 0
174 197 0
173 197 0
174 197 0
174 196 0
173 197 0
176 198 0
175 197 0
174 198 0
175 198 0
175 198 0
174 198 0
174 198 0
174 197 0
173 197 0
173 197 0
175 198 0
174 198 0
172 197 0
175 198 0
176 198 0
174 197 0
174 198 0
174 198 0
176 199 0
174 198 0
174 198 0
175 198 0
174 198 0
174 197 0
175 198 0
175 198 0
175 198 0
174 197 0
174 198 0
176 198 0
172 196 0
175 198 0
173 197 0
176 198 0
174 197 0
176 198 0
175 198 0
175 198 0
173 197 0
174 197 0
175 198 0
175 198 0
173 197 0
175 198 0
175 198 0
176 199 0
176 198 0
174 197 0
175 198 0
174 198 0
173 197 0
175 198 0
173 197 0
172 197 0
174 198 0
175 198 0
175 198 0
174 197 0
174 198 0
175 198 0
174 198 0
174 198 0
175 198 0
174 198 0
175 198 0
175 198 0
175 198 0
174 197 0
175 198 0
173 197 0
175 198 0
175 198 0
175 198 0
174 198 0
174 197 0
174 197 0
174 197 0
174 198 0
174 198 0
175 198 0
174 198 0
174 198 0
173 197 0
174 198 0
174 198 0
174 198 0
174 198 0
176 198 0
174 198 0
175 198 0
175 198 0
176 198 0
174 198 0
176 199 0
174 197 0
175 198 0
175 198 0
175 198 0
176 199 0
173 197 0
175 198 0
175 198 0
174 198 0
175 198 0
174 198 0
175 198 0
176 199 0
174 198 0
175 198 0
174 198 0
174 198 0
174 197 0
173 197 0
173 197 0
174 198 0
174 198 0
175 198 0
174 198 0
176 198 0
174 198 0
174 198 0
175 198 0
175 198 0
174 198 0
173 197 0
175 198 0
174 198 0
176 198 0
174 198 0
175 198 0
174 198 0
175 198 0
175 198 0
175 198 0
174 197 0
174 197 0
175 198 0
174 198 0
175 198 0
174 198 0
174 197 0
173 197 0
173 197 0
175 198 0
175 198 0
173 197 0
175 198 0
175 198 0
174 198 0
174 198 0
175 198 0
174 198 0
174 198 0
174 198 0
174 198 0
174 197 0
173 197 0
174 197 0
174 198 0
174 198 0
175 198 0
176 199 0
173 197 0
176 199 0
174 198 0
175 198 0
174 198 0
174 198 0
175 198 0
174 198 0
175 198 0
175 198 0
174 197 0
174 197 0
175 198 0
175 198 0
175 198 0
174 198 0
174 198 0
174 198 0
173 197 0
175 198 0
175 198 0
174 198 0
174 198 0
172 197 0
175 198 0
175 198 0
173 197 0
174 198 0
176 199 0
176 199 0
174 198 0
175 198 0
175 198 0
175 198 0
173 197 0
174 197 0
174 198 0
174 198 0
175 198 0
174 198 0
175 198 0
175 198 0
173 197 0
175 198 0
174 198 0
174 198 0
175 198 0
174 198 0
173 197 0
175 198 0
174 197 0
173 197 0
174 198 0
173 197 0
176 199 0
174 197 0
175 198 0
175 198 0
174 198 0
174 198 0
175 198 0
175 198 0
174 197 0
174 197 0
174 197 0
176 199 0
175 198 0
174 198 0
172 196 0
174 197 0
173 197 0
176 199 0
173 197 0
174 197 0
174 198 0
174 198 0
175 198 0
175 198 0
174 197 0
173 197 0
175 198 0
174 197 0
175 198 0
174 197 0
174 198 0
173 197 0
174 198 0
173 197 0
174 198 0
174 197 0
173 197 0
174 197 0
175 198 0
173 197 0
175 198 0
173 197 0
175 198 0
172 196 0
174 197 0
173 196 0
175 198 0
173 197 0
175 197 0
174 197 0
173 196 0
172 195 0
174 197 0
175 198 0
174 197 0
174 198 0
171 195 0
172 196 0
172 196 0
174 198 0
174 197 0
173 196 0
169 193 0
174 197 0
171 194 0
173 196 0
172 194 0
172 196 0
172 195 0
173 195 0
172 196 0
172 196 0
174 197 0
171 195 0
171 194 0
171 195 0
171 193 0
169 193 0
171 194 0
169 192 0
171 194 0
168 192 0
171 193 0
138 162 92
62 98 164
62 98 166
62 98 169
61 98 171
62 99 172
62 99 176
61 98 175
62 99 179
62 99 179
62 99 175
62 99 178
62 99 177
62 99 175
62 99 174
62 99 178
62 98 174
62 99 174
62 99 175
62 99 174
62 99 171
63 99 173
63 99 173
62 98 171
62 99 172
61 98 173
62 98 168
62 98 174
62 98 167
61 97 162
61 97 159
51 73 99
47 62 47
52 68 53
127 129 38
154 152 0
156 153 0
155 152 0
156 153 0
154 152 0
156 153 0
153 151 0
153 150 0
157 154 0
155 152 0
155 152 0
154 151 0
154 150 0
157 153 0
171 190 0
172 191 0
169 190 0
172 194 0
173 195 0
173 193 0
173 195 0
171 194 0
173 195 0
172 194 0
174 197 0
173 195 0
173 196 0
173 196 0
172 195 0
173 196 0
172 196 0
174 196 0
172 194 0
173 196 0
173 196 0
173 196 0
173 197 0
173 196 0
173 196 0
173 196 0
174 197 0
173 197 0
173 197 0
175 198 0
173 197 0
174 197 0
173 196 0
174 197 0
173 196 0
172 196 0
173 197 0
173 196 0
173 197 0
175 198 0
174 197 0
172 196 0
173 197 0
172 196 0
174 197 0
173 197 0
175 198 0
173 196 0
174 198 0
174 197 0
175 198 0
174 198 0
175 198 0
174 197 0
173 196 0
175 198 0
174 198 0
173 197 0
174 198 0
175 198 0
176 198 0
175 198 0
175 198 0
173 197 0
173 197 0
173 197 0
174 197 0
175 198 0
174 197 0
174 197 0
173 197 0
173 197 0
174 197 0
175 198 0
175 198 0
176 199 0
173 197 0
175 198 0
173 197 0
174 197 0
175 198 0
174 198 0
173 197 0
174 198 0
176 198 0
175 198 0
174 197 0
174 198 0
174 197 0
174 197 0
174 198 0
175 198 0
173 197 0
174 197 0
175 198 0
173 197 0
174 198 0
175 198 0
172 197 0
174 197 0
175 198 0
175 198 0
174 197 0
173 197 0
175 198 0
174 198 0
174 198 0
175 198 0
174 198 0
174 198 0
174 197 0
173 197 0
173 197 0
175 198 0
175 198 0
174 197 0
173 197 0
174 197 0
175 198 0
174 198 0
175 198 0
175 198 0
175 198 0
175 198 0
174 198 0
175 198 0
175 198 0
175 198 0
174 197 0
175 198 0
173 197 0
174 198 0
175 198 0
174 197 0
175 198 0
174 198 0
173 197 0
175 198 0
174 197 0
173 197 0
175 198 0
174 198 0
175 198 0
175 198 0
174 198 0
172 196 0
175 198 0
175 198 0
174 198 0
175 198 0
177 199 0
175 198 0
173 197 0
175 198 0
176 199 0
173 197 0
174 197 0
175 198 0
174 198 0
176 199 0
173 197 0
175 198 0
174 198 0
173 197 0
177 199 0
175 198 0
175 198 0
174 198 0
174 197 0
174 197 0
174 197 0
175 198 0
173 197 0
174 198 0
174 198 0
173 197 0
174 197 0
175 198 0
174 198 0
176 198 0
176 199 0
175 198 0
173 197 0
174 197 0
174 198 0
175 198 0
176 199 0
174 198 0
175 198 0
176 198 0
173 197 0
174 198 0
174 198 0
174 197 0
176 198 0
173 197 0
174 198 0
175 198 0
175 198 0
174 198 0
174 198 0
175 198 0
174 198 0
174 198 0
174 197 0
175 198 0
175 198 0
175 198 0
174 198 0
175 198 0
175 198 0
174 197 0
174 197 0
174 197 0
174 198 0
173 197 0
175 198 0
174 198 0
174 197 0
174 198 0
175 198 0
173 197 0
175 198 0
173 197 0
175 198 0
174 197 0
173 197 0
174 197 0
174 198 0
175 198 0
175 198 0
173 197 0
174 198 0
174 198 0
175 198 0
175 198 0
174 198 0
175 198 0
175 198 0
176 199 0
174 198 0
176 198 0
175 198 0
173 197 0
174 197 0
175 198 0
176 198 0
175 198 0
174 198 0
174 198 0
174 198 0
174 198 0
174 197 0
174 198 0
174 198 0
173 197 0
175 198 0
175 198 0
174 198 0
175 198 0
175 198 0
174 198 0
174 197 0
175 198 0
175 198 0
173 197 0
174 198 0
173 196 0
176 199 0
174 198 0
175 198 0
173 196 0
174 197 0
172 197 0
174 197 0
175 198 0
175 198 0
175 198 0
173 197 0
173 196 0
174 198 0
174 198 0
174 197 0
175 198 0
172 196 0
175 198 0
174 198 0
174 197 0
172 196 0
173 197 0
176 198 0
173 197 0
175 198 0
175 198 0
173 197 0
171 196 0
174 198 0
174 197 0
173 197 0
172 195 0
175 198 0
173 197 0
174 197 0
174 197 0
173 197 0
174 198 0
174 197 0
173 197 0
174 198 0
174 197 0
174 198 0
174 197 0
174 197 0
174 198 0
172 196 0
173 196 0
175 198 0
173 197 0
171 195 0
173 196 0
172 196 0
173 196 0
173 196 0
172 195 0
172 195 0
173 196 0
175 198 0
175 198 0
172 196 0
173 196 0
174 197 0
174 197 0
171 195 0
173 196 0
171 195 0
175 198 0
173 195 0
172 195 0
172 196 0
173 196 0
171 195 0
171 195 0
169 192 0
170 193 0
169 192 0
172 195 0
170 192 0
169 193 0
170 194 0
170 193 0
172 194 0
113 139 122
62 98 166
62 98 165
62 98 169
62 98 172
62 99 170
62 99 179
62 99 172
63 100 177
62 99 176
63 100 180
61 98 172
62 99 176
62 99 181
62 99 176
62 99 170
62 99 177
62 99 177
62 99 173
62 99 175
62 98 171
62 99 175
62 98 166
62 98 172
62 99 169
62 98 167
62 98 170
62 99 172
61 98 166
63 99 165
62 98 161
55 84 118
48 63 43
52 68 49
142 140 18
152 150 0
151 149 0
150 149 0
149 147 0
153 150 0
154 152 0
156 153 0
152 149 0
154 151 0
156 152 0
154 150 0
151 148 0
150 147 0
165 174 0
172 193 0
171 191 0
172 194 0
171 191 0
172 193 0
170 191 0
171 192 0
172 195 0
174 197 0
172 193 0
173 196 0
173 196 0
172 195 0
173 195 0
174 196 0
174 196 0
171 194 0
174 196 0
173 196 0
174 197 0
173 197 0
175 197 0
177 198 0
174 198 0
173 197 0
172 195 0
174 197 0
174 197 0
174 197 0
175 198 0
174 197 0
175 198 0
174 197 0
175 197 0
174 197 0
174 197 0
175 198 0
173 197 0
174 198 0
174 197 0
173 197 0
175 198 0
175 198 0
175 198 0
174 197 0
174 197 0
174 197 0
175 198 0
174 198 0
173 197 0
176 199 0
173 197 0
175 198 0
176 198 0
174 198 0
174 198 0
175 198 0
173 197 0
174 198 0
175 198 0
174 198 0
176 198 0
176 198 0
175 198 0
175 198 0
174 198 0
173 197 0
173 197 0
175 198 0
174 197 0
174 197 0
174 198 0
174 197 0
175 198 0
174 198 0
176 199 0
174 198 0
176 199 0
174 198 0
175 198 0
175 198 0
173 197 0
174 197 0
173 197 0
175 198 0
174 197 0
172 196 0
175 198 0
174 197 0
175 198 0
176 198 0
174 198 0
174 198 0
174 197 0
176 198 0
175 198 0
175 198 0
174 198 0
175 198 0
175 198 0
175 198 0
174 197 0
175 198 0
174 197 0
173 197 0
174 198 0
174 198 0
174 198 0
175 198 0
174 198 0
175 198 0
174 197 0
174 198 0
176 198 0
173 197 0
174 198 0
175 198 0
174 198 0
174 197 0
174 198 0
174 198 0
174 198 0
174 197 0
174 198 0
173 197 0
174 198 0
175 198 0
174 198 0
175 198 0
174 198 0
172 197 0
175 198 0
175 198 0
174 198 0
175 198 0
174 197 0
174 197 0
174 197 0
173 197 0
176 199 0
174 198 0
175 198 0
174 198 0
174 197 0
174 198 0
175 198 0
175 198 0
174 198 0
174 198 0
175 198 0
174 197 0
175 198 0
175 198 0
173 197 0
173 197 0
174 198 0
174 198 0
176 198 0
175 198 0
175 198 0
175 198 0
174 198 0
175 198 0
173 197 0
175 198 0
174 198 0
175 198 0
173 197 0
176 198 0
176 199 0
174 198 0
174 197 0
173 197 0
174 197 0
174 198 0
175 198 0
175 198 0
176 199 0
175 198 0
174 198 0
174 198 0
174 198 0
174 197 0
174 198 0
174 198 0
176 199 0
175 198 0
176 199 0
174 197 0
174 198 0
175 198 0
174 197 0
174 198 0
175 198 0
173 197 0
174 197 0
175 198 0
172 197 0
176 198 0
174 198 0
178 200 0
172 196 0
174 197 0
175 198 0
174 197 0
175 198 0
175 198 0
175 198 0
174 197 0
176 198 0
173 197 0
175 198 0
176 199 0
175 198 0
174 198 0
174 198 0
174 198 0
173 197 0
173 197 0
174 198 0
175 198 0
174 198 0
174 198 0
174 198 0
175 198 0
174 198 0
175 198 0
174 198 0
175 198 0
174 198 0
175 198 0
175 198 0
175 198 0
175 198 0
173 196 0
174 198 0
173 197 0
175 198 0
173 197 0
177 199 0
174 197 0
174 198 0
172 196 0
173 197 0
175 198 0
173 197 0
172 196 0
174 197 0
174 198 0
174 198 0
175 198 0
176 199 0
174 198 0
174 197 0
175 198 0
175 198 0
175 198 0
175 198 0
175 198 0
174 198 0
174 198 0
174 198 0
174 198 0
175 198 0
173 197 0
174 198 0
175 198 0
174 197 0
174 198 0
174 198 0
174 198 0
175 198 0
174 197 0
174 197 0
175 198 0
174 197 0
175 198 0
176 198 0
175 198 0
175 198 0
174 198 0
174 198 0
174 198 0
174 197 0
172 196 0
174 197 0
174 198 0
174 197 0
176 199 0
173 196 0
176 198 0
175 198 0
175 198 0
175 198 0
175 198 0
173 197 0
172 196 0
172 196 0
174 198 0
174 198 0
172 196 0
175 198 0
173 197 0
174 197 0
174 197 0
175 198 0
175 198 0
174 197 0
175 198 0
174 197 0
174 197 0
175 198 0
174 198 0
175 197 0
172 196 0
172 196 0
175 198 0
173 197 0
173 197 0
173 196 0
173 196 0
175 198 0
173 196 0
171 194 0
173 196 0
168 192 0
173 197 0
174 197 0
172 196 0
175 198 0
172 196 0
175 197 0
175 198 0
172 196 0
170 194 0
172 195 0
171 194 0
174 197 0
174 196 0
173 196 0
173 197 0
170 194 0
170 194 0
170 194 0
170 193 0
171 194 0
168 191 0
170 192 0
169 192 0
169 192 0
167 191 0
82 113 151
61 97 166
62 99 170
61 98 167
61 98 162
63 99 175
62 99 175
62 99 175
62 99 172
62 99 175
63 99 173
62 99 176
62 99 175
62 99 176
62 99 173
61 98 175
62 99 174
62 99 176
63 99 174
61 98 171
62 99 170
62 99 171
62 98 169
63 99 171
62 99 172
62 98 162
62 98 165
62 99 171
62 98 167
62 99 169
62 97 163
61 95 154
46 60 39
103 107 29
142 141 0
140 139 0
147 144 0
151 148 0
151 148 0
153 150 0
152 148 0
153 151 0
150 146 0
154 150 0
152 149 0
152 149 0
151 146 0
154 155 0
171 188 0
173 192 0
171 188 0
172 193 0
172 191 0
170 189 0
169 188 0
172 194 0
172 193 0
173 194 0
172 195 0
173 195 0
170 193 0
174 196 0
173 195 0
172 193 0
175 196 0
174 197 0
175 196 0
173 196 0
173 196 0
174 197 0
172 196 0
174 196 0
172 195 0
174 197 0
173 197 0
174 198 0
173 196 0
173 197 0
172 196 0
174 196 0
173 197 0
174 197 0
174 197 0
173 197 0
175 198 0
175 198 0
174 198 0
176 199 0
174 198 0
173 197 0
172 196 0
174 197 0
176 198 0
175 197 0
173 197 0
174 197 0
174 198 0
175 198 0
173 197 0
174 197 0
173 197 0
175 198 0
174 197 0
173 197 0
174 197 0
175 198 0
174 198 0
174 198 0
175 198 0
174 198 0
175 198 0
175 198 0
173 197 0
174 198 0
174 198 0
173 197 0
175 198 0
174 197 0
175 198 0
174 197 0
173 197 0
175 198 0
175 198 0
174 197 0
174 197 0
177 199 0
175 198 0
174 198 0
176 198 0
174 197 0
175 198 0
175 198 0
175 198 0
173 197 0
174 198 0
174 197 0
173 197 0
173 197 0
175 198 0
175 198 0
174 198 0
174 197 0
174 198 0
175 198 0
174 197 0
174 197 0
175 198 0
175 198 0
174 198 0
175 198 0
175 198 0
174 197 0
173 197 0
175 198 0
173 197 0
173 197 0
172 197 0
174 198 0
175 198 0
175 198 0
174 197 0
175 198 0
175 198 0
176 199 0
175 198 0
174 198 0
174 198 0
173 197 0
174 197 0
173 197 0
174 198 0
174 198 0
176 199 0
175 198 0
176 198 0
175 198 0
175 198 0
175 198 0
174 198 0
174 198 0
174 198 0
175 198 0
175 198 0
175 198 0
174 198 0
175 198 0
173 197 0
174 197 0
175 198 0
174 198 0
174 197 0
175 198 0
174 198 0
175 198 0
176 199 0
174 198 0
176 199 0
174 197 0
175 198 0
174 198 0
176 199 0
174 198 0
176 199 0
176 199 0
175 198 0
173 197 0
174 198 0
175 198 0
174 197 0
174 198 0
173 197 0
175 198 0
173 197 0
174 198 0
177 199 0
174 198 0
174 197 0
174 197 0
173 197 0
175 198 0
175 198 0
175 198 0
176 199 0
175 198 0
176 199 0
175 198 0
173 197 0
174 198 0
175 198 0
177 199 0
175 198 0
175 198 0
175 198 0
176 199 0
175 198 0
175 198 0
174 197 0
175 198 0
173 197 0
176 199 0
174 198 0
174 197 0
175 198 0
175 198 0
175 198 0
174 198 0
175 198 0
175 198 0
173 197 0
175 198 0
174 197 0
174 198 0
174 197 0
173 197 0
175 198 0
175 198 0
175 198 0
173 197 0
175 198 0
172 197 0
175 198 0
175 198 0
174 198 0
174 198 0
172 197 0
175 198 0
176 199 0
174 198 0
173 197 0
173 197 0
175 198 0
174 198 0
174 198 0
173 197 0
174 197 0
174 198 0
175 198 0
174 198 0
175 198 0
175 198 0
174 198 0
175 198 0
175 198 0
175 198 0
175 198 0
174 198 0
175 198 0
174 198 0
173 197 0
174 198 0
175 198 0
175 198 0
174 198 0
174 198 0
176 198 0
173 197 0
173 197 0
175 198 0
173 197 0
174 198 0
174 198 0
174 198 0
173 197 0
174 198 0
174 198 0
174 198 0
174 198 0
174 197 0
172 196 0
174 198 0
173 196 0
176 198 0
174 198 0
176 198 0
173 197 0
174 198 0
174 197 0
174 197 0
175 198 0
174 197 0
175 198 0
172 196 0
176 198 0
174 198 0
175 198 0
174 197 0
175 198 0
173 197 0
174 198 0
174 197 0
175 198 0
175 198 0
175 198 0
174 198 0
176 198 0
174 198 0
173 197 0
172 196 0
175 198 0
174 197 0
174 198 0
173 196 0
174 197 0
174 198 0
173 197 0
173 197 0
174 197 0
173 197 0
173 197 0
175 198 0
176 199 0
174 197 0
175 198 0
175 198 0
174 197 0
174 197 0
174 198 0
172 196 0
173 196 0
172 196 0
173 197 0
174 197 0
173 196 0
175 198 0
171 194 0
174 197 0
173 196 0
173 197 0
169 193 0
173 196 0
173 196 0
173 196 0
174 198 0
174 196 0
171 195 0
172 196 0
172 195 0
171 195 0
173 196 0
171 195 0
174 197 0
172 196 0
172 195 0
174 197 44
180 202 88
181 203 99
179 201 92
180 202 99
181 203 95
178 201 88
180 201 88
175 197 72
173 196 25
170 193 0
169 192 0
169 193 0
167 190 0
164 187 0
164 185 0
159 182 60
61 97 154
62 98 164
61 97 161
61 98 167
62 99 166
62 98 168
62 99 171
62 99 171
63 99 176
62 99 170
62 99 175
62 99 174
63 99 173
62 99 173
62 99 175
62 99 169
62 99 172
63 99 172
63 99 175
62 98 170
62 99 169
62 99 173
62 99 170
62 98 167
61 98 171
61 98 163
62 98 164
62 98 166
62 98 164
61 97 159
62 98 156
61 96 155
94 98 50
130 127 0
130 129 0
143 140 0
137 135 0
147 144 0
150 147 0
144 142 0
148 144 0
147 143 0
153 149 0
145 143 0
150 146 0
151 145 0
152 148 0
164 176 0
168 186 0
168 184 0
170 190 0
171 192 0
172 193 0
169 189 0
170 191 0
173 194 0
171 193 0
170 192 0
170 191 0
172 193 0
172 194 0
172 194 0
172 193 0
174 197 0
173 196 0
172 195 0
172 195 0
174 196 0
173 195 0
174 197 0
173 196 0
175 198 0
173 196 0
171 196 0
174 198 0
172 195 0
172 197 0
174 197 0
174 197 0
173 195 0
174 197 0
173 197 0
175 197 0
173 197 0
173 197 0
174 197 0
173 196 0
173 197 0
174 197 0
174 197 0
175 198 0
173 197 0
175 198 0
174 198 0
175 197 0
174 197 0
175 198 0
176 198 0
175 198 0
175 198 0
175 198 0
175 198 0
175 198 0
175 198 0
173 197 0
174 198 0
175 198 0
176 198 0
173 197 0
174 197 0
175 198 0
175 198 0
175 198 0
173 197 0
175 198 0
174 198 0
173 196 0
173 197 0
176 198 0
174 197 0
174 197 0
172 196 0
174 198 0
172 196 0
174 198 0
177 199 0
174 198 0
174 198 0
175 198 0
174 197 0
174 198 0
175 198 0
175 198 0
175 198 0
174 197 0
176 199 0
174 198 0
173 197 0
174 197 0
174 197 0
175 198 0
173 197 0
173 197 0
176 198 0
174 198 0
175 198 0
175 198 0
175 198 0
175 198 0
173 197 0
173 197 0
172 196 0
176 198 0
174 198 0
176 199 0
174 198 0
174 198 0
175 198 0
174 197 0
174 197 0
175 198 0
175 198 0
175 198 0
174 198 0
175 198 0
176 199 0
175 198 0
175 198 0
175 198 0
175 198 0
176 198 0
176 199 0
174 198 0
175 198 0
174 198 0
174 198 0
174 197 0
175 198 0
174 198 0
173 197 0
174 198 0
175 198 0
174 198 0
176 198 0
173 197 0
175 198 0
174 197 0
176 198 0
174 197 0
173 197 0
175 198 0
173 197 0
175 198 0
175 198 0
174 198 0
175 198 0
174 198 0
175 198 0
174 198 0
174 197 0
174 198 0
176 199 0
174 198 0
175 198 0
174 197 0
174 197 0
174 197 0
174 198 0
175 198 0
175 198 0
174 197 0
174 198 0
174 198 0
173 197 0
175 198 0
175 198 0
173 197 0
175 198 0
175 198 0
175 198 0
175 198 0
176 199 0
174 198 0
174 197 0
175 198 0
175 198 0
175 198 0
175 198 0
174 198 0
175 198 0
173 197 0
174 198 0
175 198 0
174 197 0
176 198 0
176 199 0
173 197 0
173 197 0
175 198 0
174 198 0
176 198 0
174 198 0
175 198 0
174 197 0
174 198 0
174 197 0
175 198 0
174 197 0
175 198 0
175 198 0
175 198 0
174 198 0
172 197 0
176 198 0
174 197 0
175 198 0
173 197 0
175 198 0
174 198 0
173 197 0
174 198 0
174 197 0
174 198 0
173 197 0
174 197 0
175 198 0
174 197 0
174 198 0
174 198 0
175 198 0
174 197 0
173 197 0
175 198 0
174 198 0
173 197 0
175 198 0
175 198 0
175 198 0
174 198 0
175 198 0
176 199 0
174 198 0
174 198 0
173 197 0
174 198 0
174 198 0
175 198 0
175 198 0
175 198 0
174 198 0
176 199 0
175 198 0
174 197 0
172 197 0
175 198 0
175 198 0
175 198 0
176 199 0
175 198 0
174 197 0
174 198 0
175 198 0
175 198 0
174 197 0
174 198 0
175 198 0
174 197 0
175 198 0
174 198 0
174 198 0
176 199 0
174 197 0
172 197 0
174 198 0
174 198 0
174 198 0
174 198 0
174 197 0
175 198 0
174 198 0
175 198 0
174 198 0
175 198 0
175 198 0
175 198 0
175 198 0
175 198 0
172 196 0
173 197 0
175 198 0
173 197 0
175 198 0
174 198 0
173 197 0
174 197 0
176 198 0
174 197 0
173 197 0
174 197 0
175 198 0
173 197 0
174 198 0
174 197 0
173 197 0
173 197 0
171 195 0
173 197 0
174 197 0
173 197 0
176 198 0
173 197 0
175 198 0
174 197 0
173 197 0
174 198 0
173 197 0
174 197 0
172 196 0
173 196 0
175 198 0
173 197 0
173 196 0
173 197 0
172 196 0
175 198 0
172 196 0
173 196 0
171 195 0
174 197 0
174 198 0
173 197 0
173 196 0
172 195 0
174 197 0
173 197 0
173 196 0
175 198 0
174 197 0
173 197 0
172 195 0
174 197 51
178 201 76
177 199 76
186 207 125
184 205 114
182 204 102
190 210 144
192 211 151
193 212 149
191 210 137
181 202 105
180 203 102
181 202 111
183 205 120
177 199 80
172 194 57
166 189 0
168 191 0
164 187 0
139 163 90
61 97 156
61 97 156
61 97 161
61 97 163
61 98 165
62 98 171
62 99 172
61 98 168
62 99 172
62 98 169
62 99 173
62 99 172
61 98 170
62 99 170
62 99 175
62 98 172
62 99 173
62 98 170
62 98 169
62 98 169
62 99 169
62 98 163
62 98 168
62 98 167
63 99 171
61 98 163
63 99 170
62 98 163
62 98 161
62 97 157
62 97 160
62 98 164
100 104 78
115 111 0
120 118 0
141 137 0
137 133 0
142 138 0
140 138 0
145 141 0
148 145 0
148 143 0
148 144 0
149 143 0
148 144 0
150 145 0
162 170 0
163 178 0
166 182 0
168 187 0
169 189 0
172 191 0
172 190 0
172 191 0
171 192 0
173 193 0
172 194 0
172 193 0
173 195 0
172 193 0
173 194 0
175 197 0
172 195 0
173 195 0
172 194 0
172 195 0
175 197 0
172 195 0
173 196 0
173 195 0
175 198 0
175 198 0
173 197 0
171 194 0
172 195 0
173 197 0
173 197 0
175 197 0
174 197 0
172 195 0
175 198 0
174 198 0
174 196 0
173 197 0
174 198 0
173 197 0
174 197 0
174 198 0
176 198 0
176 198 0
175 198 0
174 197 0
173 197 0
175 197 0
176 198 0
174 198 0
175 198 0
175 198 0
174 198 0
173 197 0
174 197 0
175 198 0
174 197 0
174 197 0
176 199 0
172 196 0
175 198 0
174 198 0
175 198 0
173 197 0
176 199 0
173 197 0
176 199 0
174 198 0
175 198 0
173 197 0
172 196 0
176 198 0
174 197 0
174 198 0
174 198 0
176 199 0
175 198 0
174 198 0
174 198 0
175 198 0
174 198 0
175 198 0
174 197 0
175 198 0
176 199 0
174 197 0
174 197 0
173 197 0
173 197 0
174 198 0
173 197 0
177 199 0
174 198 0
174 198 0
176 199 0
174 198 0
176 199 0
174 197 0
174 198 0
176 198 0
173 197 0
173 197 0
175 198 0
174 198 0
175 198 0
174 198 0
174 198 0
173 197 0
175 198 0
175 198 0
174 197 0
175 198 0
173 197 0
174 197 0
174 197 0
174 198 0
176 198 0
174 198 0
173 197 0
175 198 0
174 198 0
173 197 0
174 197 0
174 198 0
173 197 0
174 197 0
175 198 0
174 198 0
173 197 0
175 198 0
173 197 0
175 198 0
176 198 0
175 198 0
175 198 0
173 197 0
175 198 0
176 199 0
175 198 0
175 198 0
175 198 0
174 197 0
174 198 0
175 198 0
174 197 0
174 198 0
174 198 0
175 198 0
173 197 0
175 198 0
175 198 0
175 198 0
175 198 0
174 198 0
174 198 0
173 197 0
174 197 0
175 198 0
176 198 0
175 198 0
176 198 0
174 197 0
173 197 0
176 199 0
173 197 0
174 198 0
176 199 0
176 199 0
176 199 0
174 198 0
173 197 0
174 198 0
175 198 0
176 199 0
176 199 0
175 198 0
174 197 0
174 198 0
173 197 0
175 198 0
175 198 0
175 198 0
173 197 0
175 198 0
174 198 0
176 199 0
175 198 0
172 197 0
174 198 0
175 198 0
174 198 0
175 198 0
175 198 0
174 198 0
175 198 0
175 198 0
173 197 0
174 197 0
173 197 0
175 198 0
175 198 0
174 198 0
173 197 0
174 198 0
174 198 0
176 199 0
176 198 0
175 198 0
175 198 0
174 198 0
175 198 0
174 197 0
175 198 0
175 198 0
173 197 0
175 198 0
174 198 0
174 198 0
176 199 0
174 198 0
176 199 0
175 198 0
174 197 0
175 198 0
174 197 0
174 198 0
175 198 0
175 197 0
175 198 0
175 198 0
174 198 0
174 198 0
175 198 0
176 199 0
174 198 0
174 197 0
174 198 0
175 198 0
175 198 0
174 198 0
175 198 0
176 199 0
175 198 0
173 197 0
173 197 0
175 198 0
175 198 0
175 198 0
175 198 0
175 198 0
174 197 0
173 197 0
174 198 0
177 199 0
175 198 0
174 198 0
172 197 0
174 198 0
174 198 0
175 198 0
173 197 0
173 197 0
172 197 0
175 198 0
175 198 0
175 198 0
175 198 0
175 198 0
174 198 0
174 198 0
174 198 0
173 197 0
173 197 0
173 197 0
173 197 0
175 198 0
174 198 0
174 198 0
173 197 0
175 198 0
174 198 0
173 197 0
174 197 0
174 198 0
173 196 0
175 198 0
176 198 0
176 198 0
174 198 0
175 198 0
175 198 0
172 196 0
174 198 0
174 197 0
174 197 0
175 198 0
173 197 0
175 198 0
174 197 0
174 197 0
174 198 0
172 196 0
173 196 0
173 197 0
175 198 0
173 195 0
174 197 0
173 197 0
173 196 0
173 196 0
173 197 0
173 197 0
173 197 0
173 197 0
172 196 0
174 197 0
177 199 0
172 196 0
174 197 0
173 196 0
173 196 0
174 197 0
172 196 0
173 197 0
172 196 0
174 197 0
175 198 0
172 195 0
172 195 0
171 194 0
170 194 0
174 197 0
173 196 57
180 201 92
180 202 102
179 202 99
191 211 147
207 223 207
216 231 237
218 234 253
217 233 249
215 231 246
216 233 252
217 233 252
219 234 254
214 230 237
206 223 207
195 214 161
183 204 114
178 200 92
180 201 99
168 189 60
153 177 54
135 158 87
62 97 153
61 97 162
61 98 168
60 97 165
62 98 168
62 98 167
62 99 169
62 98 165
63 99 171
62 98 166
61 98 167
62 98 170
63 99 170
63 99 170
61 98 169
62 98 167
63 99 171
62 98 165
62 98 168
62 98 160
62 98 168
62 98 163
62 98 167
62 98 164
62 99 170
62 98 164
63 99 167
61 97 155
62 98 153
63 98 159
61 97 153
61 96 154
98 106 95
115 110 0
122 120 0
129 125 0
123 120 0
140 136 0
141 138 0
138 134 0
145 139 0
139 133 0
146 141 0
148 139 0
147 138 0
157 161 0
168 182 0
165 179 0
169 186 0
167 183 0
171 190 0
168 187 0
171 190 0
173 194 0
170 190 0
172 193 0
170 190 0
172 194 0
171 192 0
172 193 0
169 191 0
169 193 0
171 194 0
171 192 0
171 192 0
172 194 0
172 194 0
173 195 0
173 197 0
173 196 0
172 196 0
172 195 0
173 195 0
172 196 0
173 196 0
176 198 0
173 196 0
174 197 0
174 197 0
173 197 0
173 196 0
174 197 0
175 197 0
174 197 0
173 197 0
174 197 0
172 195 0
172 195 0
173 196 0
174 197 0
174 197 0
173 197 0
174 197 0
172 196 0
174 197 0
176 198 0
174 197 0
174 198 0
175 198 0
174 198 0
176 199 0
173 196 0
175 198 0
175 197 0
173 197 0
174 197 0
176 199 0
172 196 0
174 198 0
173 197 0
174 198 0
175 198 0
174 198 0
173 197 0
175 198 0
173 196 0
174 197 0
175 198 0
176 199 0
174 197 0
174 198 0
174 198 0
175 198 0
175 198 0
176 198 0
174 197 0
174 198 0
175 198 0
173 197 0
175 198 0
173 197 0
176 199 0
177 199 0
175 198 0
174 198 0
173 197 0
174 197 0
173 197 0
174 197 0
175 198 0
174 198 0
174 198 0
174 198 0
174 198 0
174 197 0
174 197 0
175 198 0
176 199 0
174 197 0
173 197 0
174 197 0
175 198 0
174 198 0
175 198 0
174 197 0
174 198 0
174 198 0
175 198 0
175 198 0
176 199 0
174 197 0
174 197 0
174 197 0
174 197 0
175 198 0
174 198 0
174 197 0
174 198 0
175 198 0
175 198 0
178 200 0
175 198 0
176 199 0
174 197 0
174 198 0
175 198 0
174 198 0
172 196 0
174 198 0
174 198 0
175 198 0
174 197 0
173 197 0
173 197 0
173 197 0
175 198 0
174 197 0
174 198 0
176 198 0
174 198 0
175 198 0
175 198 0
175 198 0
176 199 0
173 197 0
174 198 0
176 199 0
175 198 0
174 197 0
174 198 0
176 198 0
175 198 0
173 197 0
174 198 0
174 197 0
174 197 0
177 199 0
175 198 0
173 197 0
174 198 0
174 198 0
175 198 0
175 198 0
175 198 0
174 198 0
175 198 0
175 198 0
176 199 0
174 198 0
175 198 0
175 198 0
175 198 0
175 198 0
174 198 0
174 198 0
175 198 0
174 198 0
174 198 0
175 198 0
174 198 0
173 197 0
173 197 0
176 199 0
174 198 0
175 198 0
175 198 0
174 198 0
175 198 0
175 198 0
176 199 0
176 199 0
175 198 0
175 198 0
172 197 0
175 198 0
173 197 0
174 197 0
176 199 0
175 198 0
174 198 0
174 197 0
174 198 0
175 198 0
175 198 0
174 198 0
174 197 0
174 198 0
174 198 0
174 198 0
173 197 0
174 197 0
176 199 0
173 197 0
174 197 0
174 198 0
175 198 0
175 198 0
174 198 0
174 198 0
173 197 0
175 198 0
175 198 0
174 198 0
173 197 0
175 198 0
173 197 0
173 197 0
175 198 0
173 197 0
176 199 0
174 197 0
174 198 0
175 198 0
174 198 0
175 198 0
175 198 0
173 197 0
174 197 0
173 197 0
174 198 0
174 197 0
176 199 0
173 197 0
172 196 0
173 197 0
175 198 0
174 198 0
175 198 0
175 198 0
174 197 0
173 197 0
175 198 0
174 198 0
173 197 0
176 198 0
174 198 0
175 198 0
174 197 0
177 199 0
175 198 0
174 197 0
176 199 0
175 198 0
173 197 0
174 197 0
174 198 0
176 198 0
174 197 0
175 198 0
175 198 0
173 197 0
175 198 0
174 197 0
173 197 0
173 197 0
175 198 0
174 197 0
174 198 0
173 197 0
173 197 0
175 198 0
174 197 0
174 198 0
174 198 0
175 198 0
174 197 0
173 197 0
173 197 0
175 198 0
174 198 0
174 197 0
174 198 0
175 198 0
174 198 0
172 196 0
174 198 0
175 198 0
175 198 0
172 196 0
174 197 0
174 197 0
175 198 0
173 197 0
175 198 0
175 198 0
175 198 0
172 195 0
173 196 0
171 195 0
174 198 0
175 198 0
173 197 0
172 196 0
174 197 0
172 195 0
171 195 0
172 195 0
171 195 0
174 197 0
173 196 0
172 195 0
173 196 0
174 197 0
172 196 0
171 193 0
172 195 0
171 194 25
178 199 92
181 202 105
187 208 130
202 220 191
214 230 236
216 232 248
214 231 249
213 231 253
211 230 254
211 229 250
210 228 244
208 227 246
209 228 246
212 230 253
212 230 250
214 231 253
217 232 249
217 232 246
203 220 194
180 202 80
152 174 120
126 151 110
116 141 111
73 106 148
60 96 155
60 95 149
61 97 169
62 98 165
62 98 173
62 98 166
62 98 163
61 97 161
63 100 174
62 99 173
62 98 168
63 99 171
62 98 171
62 98 171
63 99 170
62 98 168
63 99 172
62 98 164
62 98 164
62 98 164
61 97 156
62 98 164
62 98 163
62 98 165
62 99 166
62 98 160
62 98 160
61 97 157
63 98 160
62 97 150
61 96 146
99 106 91
120 113 0
126 120 0
122 117 0
133 128 0
134 127 0
137 129 0
138 132 0
141 134 0
142 134 0
146 139 0
154 148 0
160 169 0
162 171 0
168 184 0
163 178 0
169 185 0
166 184 0
169 186 0
169 188 0
169 188 0
171 190 0
171 192 0
170 192 0
172 190 0
169 191 0
170 193 0
174 195 0
172 194 0
171 192 0
173 195 0
172 194 0
172 194 0
172 194 0
174 195 0
174 197 0
172 195 0
173 195 0
176 198 0
174 197 0
175 198 0
173 196 0
172 196 0
174 196 0
174 196 0
173 196 0
175 197 0
173 196 0
174 198 0
173 196 0
175 198 0
174 197 0
174 196 0
174 197 0
176 198 0
175 197 0
175 198 0
174 198 0
174 197 0
174 197 0
174 198 0
174 198 0
172 196 0
171 196 0
172 196 0
174 197 0
175 198 0
175 198 0
174 197 0
173 196 0
175 198 0
173 197 0
173 197 0
175 198 0
173 196 0
174 197 0
176 198 0
174 198 0
174 198 0
174 198 0
173 197 0
174 198 0
174 197 0
174 198 0
174 198 0
173 197 0
175 198 0
175 198 0
174 197 0
174 197 0
173 196 0
176 199 0
174 197 0
174 198 0
174 197 0
173 197 0
173 197 0
174 197 0
174 198 0
175 198 0
174 198 0
175 198 0
175 198 0
175 198 0
175 198 0
174 198 0
175 198 0
173 197 0
175 198 0
174 197 0
174 198 0
173 197 0
174 198 0
175 198 0
172 197 0
173 197 0
175 198 0
173 197 0
173 197 0
173 197 0
175 198 0
172 197 0
173 197 0
175 198 0
174 198 0
173 197 0
173 197 0
173 197 0
174 198 0
175 198 0
176 198 0
174 198 0
175 198 0
175 198 0
174 197 0
175 198 0
173 197 0
174 197 0
174 197 0
175 198 0
174 198 0
174 197 0
175 198 0
175 198 0
175 198 0
174 198 0
175 198 0
175 198 0
174 197 0
174 198 0
176 198 0
174 197 0
174 198 0
174 198 0
177 199 0
175 198 0
176 199 0
173 197 0
174 198 0
176 199 0
174 198 0
175 198 0
174 197 0
175 198 0
175 198 0
174 198 0
174 198 0
173 197 0
175 198 0
175 198 0
174 198 0
175 198 0
174 197 0
174 198 0
175 198 0
173 197 0
175 198 0
174 198 0
173 197 0
175 198 0
174 197 0
174 197 0
175 198 0
176 198 0
174 197 0
173 197 0
176 199 0
174 197 0
175 198 0
173 197 0
175 198 0
176 199 0
175 198 0
175 198 0
174 197 0
175 198 0
174 198 0
176 199 0
175 198 0
173 197 0
175 198 0
175 198 0
175 198 0
174 198 0
175 198 0
172 197 0
174 198 0
174 198 0
174 198 0
174 198 0
175 198 0
175 198 0
174 198 0
173 197 0
175 198 0
173 197 0
175 198 0
174 198 0
175 198 0
174 198 0
174 198 0
174 197 0
173 197 0
173 197 0
175 198 0
173 197 0
175 198 0
174 198 0
176 199 0
174 198 0
175 198 0
176 198 0
175 198 0
174 198 0
173 197 0
176 199 0
175 198 0
175 198 0
176 199 0
173 197 0
175 198 0
177 199 0
176 199 0
175 198 0
176 198 0
174 197 0
174 198 0
174 198 0
173 197 0
174 197 0
175 198 0
174 197 0
176 198 0
175 198 0
176 199 0
174 197 0
175 198 0
174 197 0
174 198 0
173 197 0
173 197 0
175 198 0
175 198 0
174 198 0
173 197 0
175 198 0
175 198 0
174 198 0
174 198 0
175 198 0
172 197 0
175 198 0
173 197 0
175 198 0
173 197 0
175 198 0
174 198 0
175 198 0
173 197 0
173 197 0
177 199 0
173 197 0
175 198 0
174 197 0
173 197 0
175 198 0
175 198 0
174 197 0
175 198 0
174 198 0
175 198 0
173 197 0
173 197 0
173 197 0
172 196 0
175 197 0
175 198 0
175 198 0
174 198 0
176 198 0
173 197 0
174 197 0
174 197 0
174 197 0
175 198 0
174 198 0
172 196 0
173 197 0
173 197 0
173 197 0
175 198 0
174 197 0
174 197 0
173 197 0
175 198 0
173 197 0
174 197 0
173 196 0
174 197 0
172 196 0
173 197 0
176 198 0
173 197 0
173 196 0
173 196 0
173 196 0
174 197 0
173 197 0
173 197 0
173 196 0
173 196 0
173 196 0
174 197 0
172 195 0
174 197 0
172 196 0
171 195 0
172 194 0
173 197 0
173 196 0
173 197 0
173 197 0
170 195 0
172 195 44
183 204 105
181 203 92
198 216 175
219 234 249
217 233 254
213 231 253
211 229 252
208 227 240
205 224 227
200 219 199
199 218 191
188 208 142
189 209 163
196 215 171
197 216 175
199 217 191
204 222 220
210 228 242
213 230 248
216 232 249
211 226 242
79 111 164
76 108 163
72 106 148
84 114 138
71 104 145
60 96 154
61 97 164
61 97 166
61 97 168
62 98 162
62 98 169
62 98 169
61 97 160
62 98 165
62 98 165
62 98 166
61 98 168
62 98 161
62 98 167
62 98 168
62 98 167
61 98 166
63 99 170
62 98 163
61 97 161
63 99 165
62 99 166
62 98 162
62 98 162
62 98 159
62 98 158
61 96 151
62 98 157
61 97 151
61 96 150
103 104 80
112 107 0
123 114 0
134 125 0
131 122 0
129 122 0
136 129 0
139 130 0
137 127 0
145 136 0
152 151 0
158 165 0
166 179 0
160 170 0
166 179 0
169 181 0
167 181 0
169 187 0
166 182 0
169 186 0
163 179 0
169 190 0
173 194 0
172 193 0
170 188 0
171 193 0
173 194 0
171 193 0
173 194 0
171 193 0
172 195 0
173 195 0
172 195 0
173 196 0
173 195 0
172 193 0
172 195 0
172 195 0
174 198 0
172 195 0
173 196 0
172 195 0
173 195 0
172 195 0
172 195 0
173 196 0
175 198 0
173 197 0
174 197 0
171 194 0
174 197 0
174 197 0
173 196 0
174 198 0
174 197 0
173 196 0
173 196 0
174 198 0
174 197 0
175 198 0
174 197 0
176 198 0
174 198 0
173 196 0
174 197 0
174 197 0
173 197 0
174 197 0
175 198 0
172 196 0
174 197 0
174 197 0
174 198 0
174 198 0
174 198 0
174 198 0
174 198 0
173 197 0
175 198 0
174 197 0
173 197 0
173 197 0
175 198 0
174 197 0
175 198 0
174 197 0
175 198 0
172 196 0
172 197 0
174 197 0
174 197 0
173 197 0
174 197 0
174 197 0
174 198 0
175 198 0
176 199 0
175 198 0
174 198 0
175 198 0
176 199 0
176 198 0
173 197 0
175 198 0
175 198 0
174 198 0
174 197 0
174 198 0
173 197 0
175 198 0
175 198 0
175 198 0
174 198 0
173 197 0
174 198 0
175 198 0
174 198 0
174 197 0
175 198 0
176 198 0
175 198 0
175 198 0
175 198 0
174 198 0
174 198 0
175 198 0
175 198 0
176 198 0
173 197 0
174 198 0
174 197 0
172 197 0
175 198 0
175 198 0
174 198 0
175 198 0
173 197 0
175 198 0
175 198 0
175 198 0
174 197 0
174 198 0
174 198 0
175 198 0
173 197 0
174 198 0
175 198 0
174 198 0
173 197 0
173 197 0
174 198 0
175 198 0
174 198 0
175 198 0
174 198 0
174 198 0
176 198 0
174 198 0
174 198 0
173 197 0
175 198 0
174 198 0
174 198 0
176 198 0
177 199 0
174 197 0
176 199 0
175 198 0
173 197 0
176 199 0
174 198 0
174 198 0
176 198 0
175 198 0
173 197 0
174 198 0
175 198 0
174 198 0
175 198 0
175 198 0
176 199 0
174 198 0
174 198 0
175 198 0
173 197 0
174 197 0
174 198 0
173 197 0
175 198 0
176 199 0
175 198 0
174 198 0
176 198 0
175 198 0
173 197 0
174 198 0
175 198 0
174 198 0
175 198 0
174 198 0
176 199 0
172 197 0
173 197 0
174 198 0
175 198 0
174 198 0
174 197 0
175 198 0
174 198 0
176 198 0
174 198 0
175 198 0
174 198 0
174 197 0
173 197 0
174 198 0
175 198 0
175 198 0
174 198 0
176 199 0
174 198 0
174 198 0
173 197 0
174 197 0
175 198 0
174 198 0
174 198 0
174 198 0
174 198 0
176 198 0
175 198 0
175 198 0
176 198 0
175 197 0
173 197 0
175 198 0
173 197 0
175 198 0
174 198 0
175 198 0
175 198 0
175 198 0
174 197 0
173 197 0
174 197 0
173 196 0
174 198 0
174 198 0
175 198 0
174 198 0
175 198 0
175 198 0
174 197 0
174 197 0
176 199 0
176 199 0
173 197 0
176 198 0
176 199 0
176 198 0
176 199 0
173 197 0
175 198 0
173 197 0
175 198 0
175 198 0
176 198 0
174 198 0
174 198 0
173 197 0
174 198 0
175 198 0
175 198 0
173 197 0
175 198 0
175 198 0
174 198 0
175 198 0
176 199 0
176 198 0
173 197 0
174 198 0
174 198 0
174 197 0
173 196 0
174 197 0
174 198 0
174 198 0
173 197 0
174 198 0
174 198 0
174 197 0
175 198 0
173 197 0
174 198 0
176 199 0
176 199 0
174 197 0
173 197 0
174 198 0
174 198 0
175 198 0
173 197 0
175 198 0
174 198 0
175 198 0
171 195 0
175 198 0
172 196 0
175 198 0
175 198 0
175 198 0
174 197 0
174 197 0
174 197 0
173 197 0
176 199 0
174 197 0
175 198 0
174 197 0
172 196 0
172 197 0
174 196 0
173 197 0
172 196 0
174 197 0
172 196 0
174 197 0
173 197 0
174 198 0
175 198 0
173 197 0
173 197 0
172 196 0
173 197 0
174 197 0
172 196 0
173 196 0
174 198 0
172 196 0
173 196 0
174 197 0
177 199 57
182 204 105
182 203 95
212 227 221
217 233 249
213 231 250
209 228 245
203 222 220
196 215 175
185 207 144
177 200 84
175 199 72
173 197 62
172 196 72
173 196 51
175 198 76
173 197 76
177 201 95
176 198 80
177 200 88
187 208 147
201 220 208
206 223 244
98 125 187
87 117 176
64 100 164
65 100 154
72 105 151
64 99 153
59 94 151
60 96 161
61 97 166
61 97 161
61 97 159
62 98 164
62 98 158
62 98 162
63 99 169
61 98 165
62 98 162
62 98 163
63 99 163
62 98 164
62 98 163
62 98 165
62 98 160
62 98 163
61 97 161
62 98 156
62 98 162
62 97 159
61 97 158
62 98 163
62 97 154
61 96 150
62 97 149
61 96 145
60 94 138
93 91 67
107 96 0
110 98 0
114 102 0
122 109 0
127 115 0
122 110 0
128 118 0
140 139 0
152 154 0
157 165 0
155 164 0
155 164 0
160 172 0
167 181 0
162 175 0
165 180 0
167 185 0
166 180 0
165 180 0
168 187 0
173 193 0
169 190 0
169 188 0
166 187 0
173 194 0
173 193 0
169 190 0
170 191 0
173 196 0
173 194 0
171 193 0
172 194 0
173 195 0
174 196 0
175 198 0
171 193 0
172 195 0
174 197 0
174 196 0
174 196 0
174 197 0
173 197 0
172 195 0
175 197 0
174 197 0
175 198 0
174 197 0
173 196 0
172 195 0
173 196 0
174 197 0
173 197 0
172 194 0
175 197 0
175 198 0
172 196 0
174 197 0
173 197 0
172 195 0
175 198 0
176 199 0
173 197 0
172 195 0
174 197 0
174 197 0
174 197 0
174 198 0
172 196 0
174 197 0
174 198 0
174 197 0
173 197 0
174 198 0
174 197 0
175 198 0
175 198 0
175 198 0
175 198 0
175 198 0
174 197 0
173 196 0
174 197 0
174 197 0
173 197 0
174 197 0
174 198 0
174 198 0
174 197 0
174 197 0
174 197 0
175 198 0
174 198 0
174 198 0
174 198 0
173 196 0
174 197 0
173 197 0
173 197 0
174 197 0
173 197 0
174 197 0
174 198 0
174 198 0
174 198 0
174 197 0
173 197 0
175 198 0
175 198 0
174 197 0
176 199 0
175 198 0
172 197 0
173 197 0
174 198 0
175 198 0
174 198 0
174 197 0
174 197 0
174 197 0
173 197 0
174 198 0
174 197 0
175 198 0
174 198 0
175 198 0
173 197 0
173 197 0
175 198 0
174 198 0
174 198 0
174 198 0
174 198 0
174 197 0
172 196 0
174 198 0
173 197 0
174 198 0
175 198 0
174 198 0
174 197 0
174 198 0
174 198 0
174 198 0
174 197 0
174 198 0
176 199 0
175 198 0
175 198 0
173 197 0
172 197 0
173 197 0
173 197 0
174 198 0
175 198 0
173 197 0
175 198 0
175 198 0
175 198 0
173 197 0
174 198 0
176 199 0
175 198 0
175 198 0
173 197 0
173 197 0
175 198 0
176 198 0
174 197 0
176 199 0
174 198 0
175 198 0
175 198 0
174 198 0
175 198 0
177 199 0
174 198 0
175 198 0
175 198 0
174 198 0
174 197 0
175 198 0
175 198 0
174 198 0
176 198 0
173 197 0
174 198 0
176 198 0
176 199 0
176 199 0
175 198 0
174 197 0
174 198 0
175 198 0
174 197 0
175 198 0
174 197 0
176 198 0
175 198 0
175 198 0
174 198 0
174 197 0
173 197 0
175 198 0
174 198 0
172 197 0
174 198 0
174 198 0
174 198 0
174 198 0
174 198 0
174 197 0
172 197 0
175 198 0
172 197 0
175 198 0
174 197 0
174 198 0
174 198 0
175 198 0
174 197 0
176 199 0
173 197 0
174 198 0
176 199 0
174 198 0
176 199 0
175 198 0
175 198 0
175 198 0
173 197 0
175 198 0
174 197 0
173 197 0
174 197 0
174 198 0
175 198 0
175 198 0
174 198 0
174 198 0
176 199 0
175 198 0
175 198 0
175 198 0
173 197 0
175 198 0
174 197 0
175 198 0
175 198 0
175 198 0
175 198 0
175 198 0
172 197 0
173 197 0
175 198 0
174 197 0
174 198 0
174 198 0
174 198 0
174 197 0
174 197 0
175 198 0
174 198 0
176 198 0
175 198 0
176 199 0
174 197 0
174 197 0
173 197 0
175 198 0
176 199 0
172 196 0
174 198 0
174 197 0
173 197 0
175 198 0
174 197 0
174 198 0
174 197 0
173 196 0
174 198 0
176 199 0
172 197 0
175 198 0
175 198 0
175 198 0
173 197 0
176 199 0
175 198 0
175 198 0
174 197 0
175 198 0
171 195 0
173 197 0
175 198 0
176 199 0
175 198 0
174 197 0
175 198 0
176 199 0
175 198 0
175 198 0
175 198 0
173 197 0
173 197 0
176 198 0
173 197 0
174 197 0
172 196 0
175 198 0
174 197 0
170 194 0
174 197 0
174 197 0
174 197 0
174 198 0
175 197 0
173 197 0
175 198 0
172 196 0
173 197 0
174 197 0
173 197 0
174 198 0
173 197 0
174 198 0
174 197 0
172 195 0
174 197 0
174 198 0
172 195 0
175 198 0
171 195 0
173 195 0
172 195 0
172 195 0
171 194 0
169 193 0
171 194 0
171 194 0
171 195 0
174 197 44
183 204 111
180 202 84
212 228 227
216 233 253
211 229 248
208 226 227
196 215 179
183 204 111
173 196 44
174 197 62
173 197 67
173 196 51
176 200 84
175 198 67
174 198 72
172 196 62
172 195 84
170 193 67
168 191 57
169 192 62
175 198 67
161 185 76
117 143 152
121 145 187
77 110 179
70 104 170
63 98 157
66 100 155
64 98 149
62 97 157
60 96 155
60 95 153
60 96 158
60 96 156
61 97 156
61 97 155
62 97 155
61 97 155
61 97 157
61 97 158
61 98 163
61 98 161
62 98 159
62 98 164
62 98 160
62 98 158
63 99 169
62 98 163
61 97 159
62 97 153
62 97 156
62 98 159
61 97 153
62 97 154
62 97 152
62 97 151
61 96 147
60 94 139
116 119 31
104 104 0
113 108 0
120 114 0
129 126 0
132 134 0
148 150 0
148 145 0
145 144 0
154 160 0
155 161 0
155 162 0
158 167 0
165 177 0
165 177 0
164 179 0
163 179 0
168 182 0
167 185 0
166 182 0
169 188 0
169 187 0
171 191 0
169 189 0
169 190 0
169 189 0
171 191 0
171 192 0
170 193 0
169 190 0
172 194 0
171 192 0
171 193 0
174 196 0
174 196 0
172 192 0
173 196 0
173 195 0
172 195 0
170 192 0
174 196 0
173 196 0
172 195 0
173 195 0
174 196 0
173 196 0
174 196 0
173 197 0
174 197 0
175 197 0
173 197 0
172 195 0
173 197 0
173 196 0
175 197 0
174 197 0
172 197 0
171 196 0
174 197 0
173 197 0
175 198 0
173 197 0
171 195 0
173 197 0
176 198 0
174 198 0
174 197 0
174 197 0
174 197 0
176 199 0
173 196 0
173 197 0
175 198 0
174 197 0
173 196 0
175 198 0
174 197 0
175 198 0
173 197 0
175 198 0
175 198 0
174 198 0
174 197 0
174 197 0
174 198 0
174 198 0
173 197 0
176 198 0
174 197 0
174 197 0
174 197 0
174 197 0
174 198 0
174 198 0
173 196 0
176 198 0
173 196 0
176 199 0
173 197 0
173 197 0
175 198 0
173 197 0
174 197 0
174 198 0
175 198 0
174 197 0
172 197 0
174 197 0
176 198 0
174 198 0
175 198 0
173 197 0
174 198 0
174 197 0
175 198 0
175 198 0
175 198 0
175 198 0
174 197 0
174 197 0
173 197 0
175 198 0
175 198 0
175 198 0
174 197 0
174 198 0
175 198 0
174 198 0
174 198 0
175 198 0
174 198 0
174 198 0
175 198 0
173 197 0
174 198 0
175 198 0
174 198 0
174 197 0
174 198 0
176 199 0
175 198 0
174 198 0
175 198 0
175 198 0
175 198 0
175 198 0
174 198 0
173 197 0
175 198 0
173 197 0
174 198 0
175 198 0
174 198 0
175 198 0
176 199 0
176 199 0
174 198 0
175 198 0
175 198 0
175 198 0
174 198 0
174 198 0
175 198 0
175 198 0
175 198 0
175 198 0
173 197 0
174 198 0
174 198 0
175 198 0
174 198 0
175 198 0
176 199 0
175 198 0
174 198 0
176 199 0
175 198 0
176 198 0
174 197 0
174 198 0
175 198 0
175 198 0
175 198 0
174 197 0
174 198 0
174 197 0
174 198 0
176 198 0
174 198 0
173 197 0
175 198 0
173 197 0
174 198 0
174 198 0
175 198 0
174 198 0
173 197 0
175 198 0
175 198 0
174 197 0
173 197 0
174 198 0
175 198 0
175 198 0
175 198 0
174 198 0
173 197 0
174 198 0
174 198 0
173 197 0
174 197 0
172 196 0
176 198 0
174 198 0
174 197 0
174 198 0
175 198 0
174 198 0
175 198 0
174 198 0
174 198 0
174 198 0
174 198 0
176 199 0
175 198 0
174 197 0
174 198 0
174 198 0
175 198 0
174 198 0
175 198 0
175 198 0
174 197 0
175 198 0
174 197 0
176 199 0
173 197 0
174 198 0
176 199 0
174 197 0
173 197 0
174 198 0
174 197 0
174 197 0
174 198 0
173 197 0
173 197 0
175 198 0
175 198 0
175 198 0
173 197 0
176 198 0
173 197 0
174 198 0
175 198 0
173 197 0
175 198 0
174 198 0
175 198 0
175 198 0
174 198 0
174 198 0
176 198 0
174 197 0
174 197 0
174 198 0
174 197 0
176 199 0
175 198 0
175 198 0
175 198 0
174 198 0
174 198 0
174 198 0
175 198 0
174 198 0
174 197 0
173 197 0
174 198 0
175 198 0
174 197 0
175 198 0
175 198 0
176 199 0
173 197 0
174 197 0
174 198 0
175 198 0
172 195 0
176 198 0
173 196 0
176 199 0
174 198 0
174 198 0
172 196 0
175 198 0
174 197 0
173 196 0
172 196 0
174 197 0
174 197 0
175 198 0
174 197 0
175 198 0
173 197 0
173 197 0
174 197 0
172 196 0
174 197 0
173 196 0
172 195 0
174 197 0
173 196 0
174 197 0
174 197 0
174 197 0
172 196 0
172 196 0
175 198 0
174 197 0
173 197 0
173 197 0
174 197 0
172 196 0
174 197 0
175 198 0
174 198 0
174 197 0
173 196 0
174 197 0
174 197 0
175 198 0
172 196 0
174 197 0
173 196 0
173 196 0
173 197 0
172 196 0
174 197 0
173 196 0
174 198 51
178 200 72
183 205 111
213 228 226
217 233 250
208 227 238
195 214 175
183 205 128
175 198 51
173 196 80
175 198 80
176 199 76
174 198 67
171 194 76
175 198 62
172 196 62
169 194 72
170 194 67
171 194 76
175 199 92
174 197 72
170 193 51
169 193 51
173 196 76
111 138 139
125 150 156
96 124 170
70 104 169
74 107 170
60 96 161
61 96 150
68 102 153
60 95 149
60 96 155
61 97 160
60 95 154
61 96 153
61 97 161
62 98 160
61 97 155
62 98 156
61 97 155
61 97 160
61 98 163
61 97 153
61 96 154
62 98 155
61 97 152
61 97 150
63 99 165
61 97 150
62 98 157
62 98 159
61 96 154
61 97 153
62 98 159
61 97 143
61 97 150
61 96 144
72 100 133
121 125 25
126 128 0
134 136 0
133 137 0
137 142 0
136 136 0
142 145 0
149 152 0
145 150 0
153 159 0
155 162 0
155 163 0
158 169 0
166 177 0
164 177 0
165 178 0
166 180 0
161 177 0
165 180 0
166 185 0
165 182 0
167 186 0
168 187 0
169 187 0
168 188 0
171 193 0
170 192 0
169 190 0
171 193 0
173 196 0
173 195 0
173 195 0
172 194 0
171 194 0
174 196 0
174 196 0
173 194 0
173 195 0
171 194 0
172 196 0
173 195 0
174 197 0
173 197 0
173 196 0
173 196 0
172 195 0
173 194 0
174 196 0
173 196 0
173 197 0
174 197 0
174 197 0
174 197 0
174 197 0
173 196 0
172 195 0
175 198 0
175 197 0
173 197 0
174 198 0
173 197 0
174 198 0
175 198 0
175 198 0
175 197 0
173 197 0
175 198 0
175 198 0
173 196 0
174 197 0
175 198 0
173 197 0
175 198 0
174 198 0
173 197 0
175 198 0
174 197 0
175 198 0
174 197 0
173 197 0
174 197 0
174 197 0
175 198 0
174 197 0
174 197 0
175 198 0
174 198 0
174 197 0
175 198 0
173 197 0
175 198 0
173 197 0
175 198 0
175 198 0
174 198 0
175 198 0
175 198 0
174 198 0
176 199 0
175 198 0
174 198 0
175 198 0
174 198 0
175 198 0
174 197 0
173 197 0
176 198 0
175 198 0
173 197 0
174 197 0
173 197 0
174 198 0
175 198 0
173 197 0
175 198 0
176 199 0
174 198 0
173 197 0
175 198 0
174 197 0
174 198 0
174 198 0
172 196 0
174 198 0
173 197 0
175 198 0
175 198 0
175 198 0
174 197 0
175 198 0
174 197 0
175 198 0
175 198 0
175 198 0
174 198 0
175 198 0
175 198 0
174 197 0
174 197 0
174 197 0
176 199 0
173 197 0
173 197 0
175 198 0
175 198 0
174 198 0
174 198 0
176 199 0
175 198 0
174 198 0
174 198 0
175 198 0
174 198 0
175 198 0
176 198 0
175 198 0
175 198 0
176 199 0
174 198 0
175 198 0
175 198 0
176 198 0
174 197 0
173 197 0
176 199 0
175 198 0
174 198 0
174 198 0
176 199 0
175 198 0
175 198 0
174 198 0
174 198 0
174 198 0
175 198 0
173 197 0
176 199 0
176 199 0
173 197 0
173 197 0
175 198 0
177 199 0
174 198 0
173 197 0
175 198 0
174 198 0
174 198 0
176 199 0
174 198 0
176 199 0
174 198 0
175 198 0
174 198 0
174 198 0
174 198 0
175 198 0
176 199 0
177 199 0
174 197 0
174 198 0
173 197 0
173 197 0
174 198 0
176 198 0
174 197 0
174 198 0
173 197 0
175 198 0
175 198 0
174 198 0
176 198 0
175 198 0
173 197 0
174 198 0
174 198 0
177 199 0
176 199 0
174 198 0
173 197 0
173 197 0
174 198 0
175 198 0
174 198 0
174 198 0
175 198 0
175 198 0
175 198 0
175 198 0
174 198 0
173 197 0
175 198 0
174 198 0
174 198 0
174 198 0
174 197 0
174 198 0
174 198 0
176 198 0
175 198 0
174 198 0
175 198 0
175 198 0
174 198 0
174 198 0
174 198 0
175 198 0
175 198 0
173 197 0
175 198 0
174 198 0
175 198 0
175 198 0
175 198 0
175 198 0
174 197 0
175 198 0
174 198 0
175 198 0
174 198 0
174 198 0
175 198 0
175 198 0
175 198 0
173 197 0
176 199 0
173 197 0
174 198 0
175 198 0
174 197 0
175 198 0
174 197 0
175 198 0
175 198 0
174 198 0
176 198 0
175 198 0
175 198 0
173 196 0
175 198 0
174 198 0
174 197 0
174 198 0
175 198 0
174 198 0
175 198 0
174 198 0
174 197 0
173 197 0
174 198 0
175 198 0
175 198 0
174 198 0
171 195 0
173 197 0
175 198 0
175 198 0
173 197 0
174 198 0
175 198 0
174 198 0
174 197 0
174 198 0
173 197 0
173 196 0
173 197 0
174 197 0
172 196 0
174 198 0
174 197 0
173 197 0
175 198 0
175 198 0
173 196 0
174 196 0
174 197 0
170 194 0
171 195 0
172 195 0
173 197 0
172 196 0
173 196 0
173 197 0
173 196 0
173 197 0
172 196 0
174 197 0
174 197 0
173 196 0
172 196 0
172 196 0
175 198 0
173 196 0
172 196 0
173 197 0
172 195 0
173 196 0
174 196 0
171 195 0
172 196 0
173 196 0
181 203 102
179 201 84
206 223 204
218 234 253
212 229 242
193 213 161
175 197 57
174 199 92
175 199 72
173 196 62
174 197 57
171 194 51
171 194 84
171 196 62
171 196 84
173 198 88
170 194 67
168 193 62
172 195 57
170 194 76
176 199 84
174 198 99
175 197 67
165 188 62
125 148 105
101 128 144
88 117 138
101 129 174
81 112 179
62 98 165
62 97 160
67 100 147
63 98 154
60 96 156
59 95 151
62 97 162
61 96 151
61 97 150
60 96 148
61 97 151
61 96 151
62 98 159
62 98 160
62 98 156
62 97 150
62 98 159
61 97 159
62 97 152
62 98 158
62 98 151
60 96 148
62 98 158
62 97 156
61 97 151
61 96 149
61 97 148
62 98 158
61 96 141
60 95 139
90 108 99
130 134 0
133 139 0
131 137 0
136 143 0
138 142 0
134 140 0
143 148 0
147 154 0
152 161 0
154 159 0
159 170 0
156 167 0
157 170 0
155 168 0
162 176 0
161 175 0
166 183 0
166 182 0
166 183 0
168 185 0
168 187 0
168 187 0
173 194 0
169 189 0
168 187 0
172 193 0
168 190 0
170 192 0
171 192 0
171 193 0
171 193 0
174 196 0
169 192 0
172 193 0
172 194 0
172 195 0
173 194 0
172 195 0
171 191 0
175 197 0
172 193 0
172 195 0
174 196 0
173 196 0
173 196 0
173 195 0
172 196 0
174 197 0
173 196 0
173 196 0
174 197 0
175 198 0
174 198 0
174 196 0
172 196 0
174 197 0
173 197 0
173 197 0
174 197 0
174 197 0
173 197 0
174 197 0
175 198 0
174 196 0
175 197 0
173 197 0
173 197 0
174 197 0
174 198 0
175 198 0
173 197 0
173 196 0
171 195 0
174 197 0
175 198 0
174 197 0
174 198 0
174 198 0
174 197 0
174 197 0
173 197 0
175 198 0
173 197 0
174 197 0
174 198 0
174 197 0
174 198 0
175 198 0
174 198 0
175 198 0
174 197 0
173 197 0
175 198 0
175 198 0
175 198 0
174 197 0
175 198 0
174 197 0
174 197 0
176 199 0
175 198 0
175 198 0
175 198 0
172 196 0
174 197 0
175 198 0
173 197 0
175 198 0
172 195 0
174 197 0
176 198 0
175 198 0
174 198 0
175 198 0
173 197 0
175 198 0
175 198 0
175 198 0
173 197 0
174 198 0
175 198 0
175 198 0
175 198 0
175 198 0
175 198 0
175 198 0
176 199 0
175 198 0
175 198 0
175 198 0
176 198 0
173 197 0
173 197 0
174 198 0
175 198 0
174 198 0
174 197 0
175 198 0
173 197 0
175 198 0
174 197 0
175 198 0
175 198 0
174 198 0
175 198 0
175 198 0
175 198 0
174 197 0
175 198 0
173 197 0
173 197 0
174 198 0
175 198 0
175 198 0
174 198 0
174 198 0
174 198 0
175 198 0
175 198 0
174 198 0
174 198 0
176 199 0
174 198 0
175 198 0
174 197 0
175 198 0
174 197 0
173 197 0
174 198 0
176 198 0
174 198 0
176 198 0
175 198 0
175 198 0
174 198 0
174 198 0
174 198 0
174 198 0
175 198 0
173 197 0
173 197 0
174 198 0
174 198 0
174 198 0
174 198 0
173 197 0
173 197 0
175 198 0
175 198 0
175 197 0
175 198 0
176 199 0
174 198 0
174 198 0
173 197 0
173 196 0
174 198 0
175 198 0
173 197 0
175 198 0
175 198 0
176 199 0
175 198 0
175 198 0
174 198 0
173 197 0
176 199 0
175 198 0
176 199 0
175 198 0
174 198 0
174 198 0
174 198 0
176 199 0
173 197 0
175 198 0
176 199 0
174 198 0
174 197 0
174 198 0
174 198 0
175 198 0
173 197 0
174 198 0
175 198 0
175 198 0
174 198 0
174 197 0
175 198 0
174 198 0
175 198 0
174 197 0
175 198 0
174 198 0
175 198 0
173 197 0
175 198 0
174 198 0
174 198 0
174 198 0
174 197 0
175 198 0
174 198 0
175 198 0
174 198 0
175 198 0
174 198 0
173 197 0
175 198 0
175 198 0
174 198 0
174 198 0
174 198 0
173 197 0
173 197 0
175 198 0
175 198 0
174 197 0
173 197 0
175 198 0
174 198 0
175 198 0
175 198 0
173 197 0
176 199 0
173 197 0
174 198 0
176 198 0
173 197 0
175 198 0
176 198 0
174 198 0
175 198 0
175 198 0
174 197 0
174 198 0
173 197 0
173 197 0
175 198 0
175 198 0
173 197 0
173 197 0
176 198 0
173 197 0
173 197 0
175 198 0
174 197 0
174 198 0
174 198 0
174 197 0
172 196 0
175 198 0
174 197 0
174 197 0
173 197 0
174 197 0
173 196 0
174 197 0
174 198 0
175 198 0
174 197 0
173 197 0
172 195 0
174 198 0
174 198 0
173 197 0
172 196 0
172 197 0
172 196 0
174 198 0
175 198 0
169 193 0
173 197 0
173 196 0
174 198 0
174 198 0
174 197 0
173 196 0
174 197 0
175 197 0
174 198 0
172 196 0
173 196 0
172 196 0
172 196 0
174 197 0
173 196 0
174 197 0
170 194 0
173 196 0
172 195 0
172 196 0
174 197 0
173 196 0
174 197 0
171 195 0
173 197 0
171 195 0
172 195 0
175 198 44
181 203 99
196 214 159
219 234 252
213 230 244
187 207 135
176 199 72
174 197 62
174 198 62
173 197 72
172 196 72
174 198 95
173 197 72
171 196 80
169 193 72
173 197 72
171 195 72
172 195 92
169 192 57
169 192 57
169 192 72
172 196 72
171 194 84
170 194 84
168 191 92
162 185 95
108 134 133
98 125 150
93 120 137
88 118 159
69 103 169
62 98 163
61 96 158
58 92 137
61 94 141
61 97 161
58 93 148
61 96 151
60 96 144
61 97 148
62 98 158
61 96 154
62 98 156
60 95 143
62 97 155
62 97 152
61 97 149
62 97 150
61 96 139
61 97 154
61 97 159
61 96 145
61 97 156
61 97 150
61 96 147
62 97 155
60 96 143
61 96 141
61 96 142
60 94 133
111 122 65
128 138 0
133 142 0
127 134 0
129 136 0
140 148 0
142 151 0
144 155 0
149 160 0
147 158 0
152 161 0
153 165 0
159 171 0
160 173 0
159 175 0
166 181 0
164 178 0
163 179 0
163 181 0
165 184 0
167 185 0
164 181 0
166 185 0
169 189 0
168 189 0
167 187 0
171 192 0
173 194 0
171 193 0
172 194 0
170 193 0
170 191 0
172 195 0
172 194 0
170 194 0
171 193 0
171 192 0
171 192 0
169 191 0
171 193 0
171 195 0
174 196 0
175 198 0
172 196 0
174 197 0
172 195 0
174 197 0
174 196 0
173 195 0
173 195 0
173 197 0
172 195 0
173 197 0
174 198 0
173 196 0
173 197 0
173 195 0
174 197 0
172 196 0
173 196 0
173 197 0
175 198 0
174 197 0
176 199 0
174 197 0
175 198 0
174 197 0
174 198 0
174 197 0
174 197 0
174 198 0
173 197 0
172 196 0
173 197 0
173 197 0
174 198 0
174 198 0
174 198 0
172 197 0
172 196 0
173 197 0
176 198 0
174 197 0
173 197 0
172 197 0
174 198 0
173 197 0
174 198 0
175 198 0
174 198 0
175 198 0
174 198 0
174 198 0
173 197 0
173 197 0
173 197 0
174 197 0
175 198 0
174 197 0
174 197 0
174 198 0
175 198 0
175 198 0
174 197 0
175 198 0
173 197 0
175 198 0
174 197 0
174 198 0
174 197 0
175 198 0
175 198 0
175 198 0
174 198 0
175 198 0
174 198 0
175 198 0
173 197 0
172 197 0
176 199 0
175 198 0
176 199 0
175 198 0
173 197 0
173 197 0
173 197 0
173 197 0
174 198 0
176 199 0
175 198 0
174 198 0
173 197 0
173 197 0
175 198 0
174 197 0
173 197 0
174 197 0
175 198 0
174 198 0
174 198 0
175 198 0
173 197 0
174 198 0
175 198 0
174 198 0
174 198 0
174 198 0
174 198 0
175 198 0
174 198 0
174 198 0
174 198 0
174 198 0
174 197 0
173 197 0
174 198 0
175 198 0
175 198 0
174 198 0
174 198 0
174 198 0
175 198 0
175 198 0
175 198 0
173 197 0
175 198 0
175 198 0
175 198 0
173 197 0
174 198 0
175 198 0
175 198 0
174 198 0
175 198 0
176 199 0
175 198 0
175 198 0
174 198 0
176 199 0
175 198 0
175 198 0
174 198 0
173 197 0
177 199 0
174 198 0
173 197 0
175 198 0
175 198 0
175 198 0
176 198 0
175 198 0
175 198 0
174 197 0
174 198 0
174 198 0
176 199 0
174 198 0
173 197 0
175 198 0
175 198 0
176 199 0
173 197 0
175 198 0
174 197 0
175 198 0
175 198 0
175 198 0
175 198 0
174 198 0
173 197 0
174 198 0
174 198 0
176 198 0
175 198 0
175 198 0
174 198 0
173 197 0
175 198 0
174 198 0
174 198 0
174 198 0
175 198 0
174 198 0
176 199 0
174 198 0
176 199 0
175 198 0
175 198 0
173 197 0
175 198 0
175 198 0
174 198 0
175 198 0
174 198 0
175 198 0
174 197 0
175 198 0
175 198 0
173 197 0
174 198 0
175 198 0
175 198 0
174 198 0
176 199 0
174 198 0
174 198 0
175 198 0
174 198 0
174 198 0
174 198 0
174 198 0
174 197 0
176 199 0
175 198 0
175 198 0
174 198 0
175 198 0
174 198 0
174 198 0
174 197 0
172 197 0
175 198 0
173 197 0
175 198 0
176 199 0
174 198 0
171 195 0
174 198 0
174 198 0
176 198 0
175 198 0
175 198 0
174 198 0
174 197 0
175 198 0
174 198 0
174 198 0
174 197 0
174 198 0
175 198 0
174 198 0
176 198 0
175 198 0
174 198 0
174 198 0
174 197 0
173 196 0
174 197 0
174 197 0
172 196 0
174 198 0
175 198 0
173 197 0
174 198 0
174 198 0
173 196 0
174 197 0
174 198 0
172 196 0
173 197 0
174 197 0
175 198 0
175 198 0
173 197 0
175 198 0
177 199 0
171 195 0
173 196 0
175 198 0
174 197 0
175 198 0
174 197 0
174 198 0
173 197 0
173 197 0
175 198 0
172 196 0
175 198 0
174 197 0
174 197 0
173 197 0
172 196 0
173 196 0
172 195 0
174 197 0
173 196 0
172 196 0
174 197 0
173 197 0
171 194 0
174 198 0
172 195 0
173 197 0
172 195 0
172 196 0
172 195 0
171 195 0
171 195 0
174 197 0
171 194 0
179 201 88
182 204 99
217 232 240
214 230 242
193 212 169
176 200 88
174 198 84
174 198 80
173 197 80
175 198 95
173 197 67
172 196 88
172 196 72
168 192 72
169 193 80
170 193 67
171 196 80
166 189 51
169 193 92
172 197 84
164 189 76
165 188 76
171 194 84
170 192 80
168 192 76
164 187 57
131 154 103
91 119 131
85 114 147
88 116 140
98 125 167
61 97 159
61 97 158
63 97 151
62 95 133
60 95 145
60 95 151
59 95 142
62 97 158
60 96 144
60 96 153
60 95 139
61 97 154
61 96 149
61 97 154
60 95 144
61 96 145
61 96 145
60 95 143
62 97 150
61 97 143
61 96 143
61 96 148
61 96 145
60 95 139
61 96 142
61 96 144
61 96 145
60 95 133
79 103 113
132 143 0
134 144 0
133 142 0
132 143 0
146 158 0
148 159 0
136 146 0
140 150 0
144 155 0
145 156 0
153 165 0
159 173 0
160 172 0
162 177 0
164 180 0
163 181 0
156 172 0
165 182 0
161 177 0
160 177 0
163 183 0
166 185 0
169 188 0
165 182 0
166 186 0
170 190 0
167 187 0
171 191 0
171 192 0
170 191 0
172 194 0
169 190 0
170 191 0
171 192 0
172 193 0
172 194 0
170 193 0
171 194 0
172 195 0
171 194 0
172 196 0
173 195 0
173 196 0
173 195 0
173 196 0
175 197 0
174 197 0
174 197 0
173 196 0
172 195 0
173 196 0
174 198 0
175 197 0
175 197 0
172 195 0
174 197 0
174 196 0
175 198 0
173 196 0
173 197 0
173 196 0
175 197 0
175 198 0
173 197 0
174 197 0
175 198 0
174 197 0
174 197 0
171 195 0
175 198 0
173 197 0
174 197 0
175 198 0
174 197 0
174 197 0
174 198 0
175 198 0
174 197 0
173 197 0
175 198 0
175 198 0
174 198 0
174 197 0
175 198 0
175 198 0
175 197 0
174 197 0
174 198 0
175 198 0
175 198 0
175 198 0
174 197 0
174 197 0
175 198 0
173 197 0
174 198 0
174 197 0
174 198 0
172 196 0
174 198 0
174 198 0
173 197 0
175 198 0
174 198 0
173 197 0
173 197 0
174 198 0
173 197 0
173 197 0
173 197 0
174 198 0
176 198 0
173 197 0
175 198 0
174 198 0
174 198 0
175 198 0
176 198 0
174 198 0
174 198 0
174 198 0
175 198 0
173 197 0
174 197 0
174 198 0
175 198 0
175 198 0
174 197 0
174 198 0
175 198 0
174 198 0
173 197 0
174 198 0
174 198 0
173 197 0
175 198 0
175 198 0
174 197 0
174 197 0
174 198 0
175 198 0
174 197 0
174 197 0
174 197 0
174 198 0
175 198 0
173 197 0
175 198 0
175 198 0
175 198 0
174 197 0
175 198 0
174 198 0
174 198 0
174 198 0
174 197 0
175 198 0
173 197 0
175 198 0
177 199 0
176 198 0
173 197 0
174 198 0
174 198 0
175 198 0
175 198 0
174 197 0
175 198 0
176 198 0
174 198 0
175 198 0
176 198 0
175 198 0
175 198 0
175 198 0
173 197 0
174 197 0
174 198 0
174 198 0
174 198 0
175 198 0
175 198 0
174 198 0
174 198 0
174 198 0
174 198 0
174 198 0
175 198 0
174 198 0
174 198 0
174 198 0
174 198 0
174 198 0
176 199 0
174 197 0
174 197 0
175 198 0
174 197 0
175 198 0
174 198 0
173 197 0
175 198 0
174 198 0
174 197 0
176 199 0
175 198 0
174 198 0
174 198 0
176 198 0
173 197 0
174 198 0
174 198 0
174 197 0
173 197 0
175 198 0
174 198 0
175 198 0
174 197 0
174 198 0
174 198 0
173 197 0
174 198 0
175 198 0
174 198 0
175 198 0
175 198 0
176 199 0
175 198 0
174 197 0
174 197 0
175 198 0
174 198 0
175 198 0
174 198 0
173 197 0
175 198 0
174 198 0
175 198 0
174 197 0
175 198 0
175 198 0
177 199 0
176 199 0
174 197 0
174 198 0
174 197 0
175 198 0
176 199 0
176 199 0
174 197 0
176 199 0
173 197 0
173 197 0
173 196 0
175 198 0
174 198 0
173 197 0
173 197 0
175 198 0
174 198 0
173 197 0
174 198 0
175 198 0
174 198 0
175 198 0
173 197 0
173 197 0
175 198 0
174 197 0
172 196 0
175 198 0
174 198 0
173 197 0
173 197 0
176 199 0
175 198 0
173 197 0
174 198 0
176 199 0
176 198 0
174 198 0
176 199 0
176 198 0
173 196 0
175 198 0
175 198 0
173 197 0
175 198 0
174 197 0
174 198 0
173 197 0
175 198 0
174 197 0
173 197 0
175 198 0
173 197 0
173 196 0
175 198 0
174 197 0
174 197 0
173 196 0
173 197 0
176 199 0
176 199 0
175 198 0
175 198 0
174 197 0
173 197 0
174 197 0
174 197 0
172 196 0
171 195 0
174 198 0
173 197 0
173 196 0
175 198 0
174 198 0
173 197 0
173 197 0
173 196 0
174 198 0
173 197 0
172 195 0
171 195 0
172 195 0
172 196 0
172 196 0
174 196 0
174 197 0
172 196 0
173 197 0
172 196 0
168 192 0
171 195 0
172 196 0
171 195 0
175 198 0
172 196 0
172 196 0
176 198 51
178 201 80
200 218 175
219 234 254
203 221 203
177 200 92
176 199 67
172 195 80
172 195 62
171 195 72
172 196 62
172 196 57
171 195 72
168 192 80
170 195 80
172 196 80
170 194 51
167 190 72
169 193 57
169 193 80
167 192 99
167 190 62
165 188 25
166 189 67
161 185 76
155 178 95
165 187 88
148 171 70
93 119 126
92 118 134
97 123 141
95 122 131
79 110 159
61 97 153
62 97 160
60 93 129
61 95 141
59 94 136
60 95 149
61 97 157
61 96 140
61 96 151
61 96 150
62 97 156
61 96 145
61 96 150
60 96 145
61 96 143
60 96 148
60 95 135
62 97 151
60 95 140
61 97 144
60 94 134
61 95 140
60 95 141
61 96 139
60 94 128
59 93 129
59 92 124
120 138 78
128 139 0
126 140 0
133 145 0
136 153 0
142 156 0
144 156 0
140 157 0
145 160 0
158 173 0
156 172 0
153 170 0
152 166 0
155 172 0
157 172 0
158 175 0
162 179 0
162 182 0
160 179 0
165 184 0
164 180 0
170 191 0
167 186 0
168 187 0
169 189 0
167 188 0
167 188 0
168 191 0
170 191 0
171 193 0
170 191 0
170 192 0
171 194 0
171 192 0
171 192 0
173 195 0
171 193 0
171 193 0
171 193 0
171 194 0
173 195 0
172 196 0
172 195 0
173 196 0
171 194 0
172 194 0
175 198 0
174 197 0
174 197 0
172 196 0
171 195 0
174 197 0
173 195 0
173 196 0
174 197 0
172 196 0
172 195 0
172 195 0
173 196 0
173 195 0
175 198 0
174 197 0
176 199 0
174 197 0
173 197 0
172 195 0
174 197 0
173 197 0
174 197 0
175 198 0
174 197 0
171 194 0
173 196 0
174 197 0
174 197 0
175 198 0
174 197 0
174 198 0
174 197 0
174 198 0
173 197 0
173 197 0
173 197 0
174 197 0
174 198 0
173 197 0
175 198 0
175 198 0
174 197 0
174 198 0
175 198 0
173 196 0
173 197 0
176 199 0
173 197 0
174 197 0
175 198 0
175 198 0
174 197 0
174 198 0
173 197 0
175 198 0
174 198 0
174 198 0
175 198 0
173 197 0
173 197 0
173 197 0
174 196 0
174 197 0
173 197 0
173 196 0
176 198 0
174 198 0
174 197 0
175 198 0
175 198 0
174 198 0
175 198 0
172 196 0
172 196 0
175 198 0
175 198 0
175 198 0
176 199 0
173 197 0
175 198 0
175 198 0
177 199 0
175 198 0
173 197 0
174 197 0
176 198 0
175 198 0
175 198 0
174 198 0
174 198 0
176 199 0
173 197 0
173 197 0
174 198 0
175 198 0
173 197 0
172 197 0
174 198 0
173 197 0
175 198 0
175 198 0
174 197 0
174 198 0
174 198 0
175 198 0
174 198 0
175 198 0
172 197 0
175 198 0
175 198 0
174 198 0
175 198 0
173 197 0
173 197 0
174 198 0
175 198 0
175 198 0
174 197 0
174 198 0
174 197 0
174 198 0
175 198 0
175 198 0
174 198 0
174 198 0
176 198 0
174 197 0
174 198 0
174 198 0
174 198 0
174 197 0
175 198 0
174 198 0
176 198 0
173 197 0
174 198 0
175 198 0
174 198 0
176 199 0
173 197 0
174 197 0
176 199 0
175 198 0
177 199 0
175 198 0
174 198 0
175 198 0
175 198 0
175 198 0
175 198 0
173 197 0
174 198 0
175 198 0
175 198 0
176 198 0
174 198 0
174 197 0
175 198 0
173 197 0
175 198 0
173 197 0
173 197 0
175 198 0
174 198 0
175 198 0
173 197 0
173 197 0
174 198 0
175 198 0
173 196 0
175 198 0
175 198 0
175 198 0
175 198 0
176 199 0
175 198 0
175 198 0
174 198 0
174 198 0
174 198 0
175 198 0
175 198 0
174 198 0
173 197 0
175 198 0
176 199 0
174 197 0
174 197 0
173 197 0
173 197 0
176 199 0
175 198 0
173 197 0
175 198 0
175 198 0
175 198 0
175 198 0
175 198 0
174 197 0
174 198 0
173 197 0
173 197 0
175 198 0
175 198 0
175 198 0
173 197 0
172 197 0
175 198 0
175 198 0
175 198 0
174 197 0
175 198 0
174 198 0
176 198 0
174 197 0
173 197 0
175 198 0
173 197 0
174 198 0
174 198 0
174 198 0
174 198 0
174 198 0
173 196 0
174 197 0
174 197 0
174 198 0
175 198 0
173 197 0
175 198 0
173 197 0
173 197 0
174 197 0
175 198 0
173 196 0
175 198 0
175 198 0
175 198 0
173 197 0
174 198 0
174 197 0
171 195 0
175 198 0
175 198 0
175 198 0
172 196 0
172 196 0
172 196 0
176 198 0
173 197 0
174 198 0
173 197 0
175 198 0
175 198 0
173 197 0
174 197 0
173 196 0
175 198 0
174 198 0
173 197 0
174 197 0
174 198 0
173 197 0
174 197 0
175 198 0
174 197 0
172 196 0
174 196 0
173 196 0
173 196 0
173 196 0
173 197 0
172 195 0
174 197 0
174 197 0
173 196 0
174 197 0
173 196 0
174 197 0
173 197 0
173 197 0
173 197 0
174 198 0
171 195 0
170 194 0
170 194 0
171 194 0
173 196 0
173 197 0
172 195 0
172 195 0
171 195 0
171 194 0
177 200 62
177 200 62
213 228 223
213 229 242
177 199 72
174 197 62
176 200 92
173 197 67
175 199 80
174 197 72
172 197 67
172 196 80
169 194 80
167 190 62
169 193 84
173 198 95
168 193 44
171 196 88
167 192 76
171 195 76
165 190 80
163 187 72
171 196 67
163 187 44
166 189 67
165 188 84
158 181 51
154 177 62
121 144 99
95 121 144
84 104 106
97 123 135
88 116 141
64 99 157
60 95 141
59 93 131
63 96 127
59 93 136
60 95 140
58 93 136
59 94 135
60 95 144
61 97 144
60 95 147
60 95 136
60 95 136
60 96 144
60 95 144
60 95 139
60 95 137
61 96 139
61 96 145
60 95 137
61 96 144
61 95 143
61 96 137
60 94 135
61 96 140
59 92 124
87 110 102
135 151 0
133 146 0
134 149 0
133 146 0
139 154 0
142 157 0
146 161 0
146 159 0
151 169 0
147 163 0
158 174 0
152 168 0
156 171 0
155 170 0
157 174 0
162 181 0
161 179 0
163 182 0
163 181 0
167 186 0
165 186 0
166 187 0
164 183 0
166 186 0
168 187 0
169 191 0
169 191 0
171 193 0
170 191 0
170 192 0
170 192 0
171 192 0
166 188 0
172 194 0
169 192 0
169 192 0
169 192 0
174 196 0
172 195 0
169 191 0
169 191 0
170 193 0
169 191 0
174 196 0
172 194 0
172 195 0
171 194 0
171 194 0
173 196 0
174 196 0
174 197 0
173 196 0
175 198 0
174 197 0
171 194 0
175 198 0
172 196 0
174 197 0
172 196 0
175 198 0
176 198 0
173 197 0
174 198 0
173 197 0
174 197 0
174 197 0
172 196 0
174 197 0
175 198 0
175 198 0
176 199 0
173 196 0
175 198 0
175 198 0
173 197 0
174 197 0
175 198 0
176 199 0
174 197 0
175 198 0
174 198 0
173 197 0
174 198 0
176 198 0
175 197 0
174 197 0
174 198 0
175 198 0
174 197 0
173 196 0
175 197 0
175 198 0
175 198 0
175 198 0
174 198 0
175 198 0
175 198 0
175 198 0
174 198 0
175 198 0
175 198 0
175 198 0
175 198 0
173 197 0
176 199 0
174 197 0
175 198 0
174 198 0
174 197 0
174 198 0
174 197 0
176 198 0
173 197 0
174 197 0
174 198 0
175 198 0
175 198 0
175 198 0
175 198 0
173 197 0
175 198 0
175 198 0
176 198 0
175 198 0
174 198 0
175 198 0
176 198 0
174 197 0
176 198 0
175 198 0
174 198 0
174 198 0
173 197 0
175 198 0
175 198 0
173 197 0
174 197 0
174 197 0
174 197 0
175 198 0
173 197 0
174 198 0
172 197 0
173 197 0
175 198 0
175 198 0
175 198 0
174 197 0
173 197 0
172 197 0
173 197 0
175 198 0
175 198 0
173 197 0
174 198 0
174 198 0
174 198 0
175 198 0
174 198 0
173 197 0
176 198 0
173 197 0
173 197 0
175 198 0
176 198 0
175 198 0
175 198 0
172 197 0
175 198 0
174 198 0
175 198 0
174 198 0
174 197 0
174 197 0
175 198 0
175 198 0
173 197 0
175 198 0
173 197 0
176 199 0
175 198 0
174 198 0
174 197 0
174 198 0
175 198 0
173 197 0
175 198 0
174 197 0
173 197 0
174 198 0
174 197 0
173 197 0
176 198 0
173 197 0
176 199 0
174 198 0
175 198 0
173 197 0
175 198 0
173 197 0
174 198 0
174 198 0
174 198 0
176 198 0
174 198 0
175 198 0
174 197 0
173 197 0
174 198 0
174 198 0
174 198 0
174 198 0
175 198 0
176 199 0
174 198 0
174 197 0
175 198 0
175 198 0
174 197 0
175 198 0
176 199 0
175 198 0
175 198 0
175 198 0
173 197 0
174 197 0
175 198 0
175 198 0
175 198 0
174 197 0
176 198 0
174 197 0
173 197 0
175 198 0
175 198 0
175 198 0
174 197 0
174 198 0
174 197 0
174 198 0
173 197 0
175 198 0
174 197 0
175 198 0
176 199 0
174 197 0
175 198 0
174 198 0
175 198 0
175 198 0
176 199 0
174 197 0
173 197 0
175 198 0
175 198 0
173 197 0
174 198 0
175 198 0
174 198 0
173 196 0
173 197 0
175 198 0
175 198 0
174 197 0
174 197 0
174 198 0
172 197 0
174 197 0
174 198 0
174 197 0
174 197 0
174 197 0
174 197 0
175 198 0
175 198 0
174 197 0
172 196 0
175 198 0
173 197 0
175 198 0
175 198 0
174 198 0
174 197 0
174 197 0
174 197 0
174 198 0
174 197 0
174 198 0
174 198 0
174 197 0
173 197 0
175 198 0
174 198 0
174 198 0
174 198 0
174 198 0
174 198 0
173 197 0
173 197 0
175 198 0
173 197 0
173 197 0
171 195 0
174 197 0
174 197 0
173 197 0
173 196 0
174 197 0
173 197 0
174 197 0
172 197 0
174 198 0
174 198 0
173 197 0
173 197 0
174 197 0
174 197 0
174 197 0
174 198 0
174 197 0
175 198 0
172 196 0
174 198 0
173 197 0
173 196 0
175 197 0
173 196 0
174 198 0
173 197 0
173 197 0
173 196 0
173 197 0
171 195 0
170 194 0
173 197 0
173 196 0
173 196 0
172 196 0
170 193 0
173 197 0
178 201 80
183 204 95
221 235 250
190 210 159
177 201 84
174 197 57
176 198 88
175 199 80
171 195 44
172 196 88
171 195 67
170 195 72
171 194 72
171 195 67
172 196 62
169 193 88
169 192 62
166 190 76
161 186 67
168 192 72
173 197 114
169 192 88
172 196 105
165 188 76
165 189 67
164 187 88
161 183 84
156 178 67
147 169 74
96 121 120
105 129 149
91 118 140
105 131 136
75 106 148
61 96 148
60 95 143
64 96 124
61 93 123
57 91 124
60 95 141
60 95 133
60 95 139
60 95 137
61 95 137
61 96 139
60 95 136
60 95 136
60 94 136
59 94 134
60 95 134
60 94 139
60 95 143
60 94 130
61 96 141
60 94 134
59 94 134
59 94 121
59 93 129
70 101 124
122 137 25
128 143 0
133 149 0
134 149 0
147 165 0
136 150 0
136 150 0
145 160 0
151 168 0
156 173 0
152 168 0
151 169 0
151 167 0
161 178 0
154 172 0
154 172 0
158 176 0
164 184 0
165 184 0
162 182 0
161 180 0
163 183 0
163 181 0
164 185 0
166 186 0
169 191 0
167 187 0
169 189 0
170 190 0
164 185 0
167 189 0
170 191 0
170 193 0
171 192 0
169 190 0
168 190 0
168 191 0
173 195 0
171 194 0
168 190 0
169 192 0
173 195 0
171 195 0
174 197 0
172 195 0
170 193 0
167 190 0
172 194 0
174 197 0
172 195 0
174 197 0
174 197 0
175 198 0
173 196 0
174 197 0
173 196 0
175 198 0
174 197 0
173 196 0
174 197 0
173 196 0
173 197 0
174 197 0
174 197 0
172 195 0
174 196 0
172 196 0
173 195 0
175 198 0
175 198 0
174 197 0
172 196 0
175 198 0
172 196 0
174 197 0
176 198 0
175 198 0
174 197 0
174 198 0
174 197 0
175 198 0
175 198 0
174 197 0
175 198 0
174 197 0
176 198 0
175 198 0
174 197 0
174 197 0
172 196 0
175 198 0
174 197 0
174 198 0
172 196 0
174 198 0
173 197 0
172 196 0
175 198 0
174 197 0
175 198 0
173 196 0
173 197 0
175 198 0
176 198 0
174 198 0
175 198 0
174 197 0
175 198 0
174 197 0
178 200 0
173 197 0
175 198 0
174 197 0
173 197 0
175 198 0
176 199 0
173 197 0
177 199 0
175 198 0
174 197 0
175 198 0
174 198 0
175 198 0
174 198 0
174 198 0
174 198 0
176 198 0
174 197 0
175 198 0
175 197 0
172 196 0
175 198 0
174 198 0
174 197 0
174 198 0
173 197 0
174 198 0
173 197 0
174 197 0
174 197 0
173 197 0
174 198 0
175 198 0
174 198 0
175 198 0
174 198 0
176 199 0
174 198 0
173 197 0
173 197 0
175 198 0
175 198 0
173 197 0
175 198 0
175 198 0
175 198 0
175 198 0
173 197 0
175 198 0
175 197 0
175 198 0
175 198 0
175 198 0
175 198 0
174 198 0
175 198 0
174 197 0
175 198 0
175 198 0
177 199 0
175 198 0
173 197 0
174 197 0
172 197 0
173 197 0
173 197 0
174 198 0
174 198 0
175 198 0
175 198 0
172 197 0
174 197 0
173 197 0
174 198 0
175 198 0
175 198 0
175 198 0
174 198 0
174 198 0
174 197 0
172 197 0
174 198 0
172 197 0
174 198 0
174 198 0
175 198 0
176 199 0
173 197 0
174 198 0
174 198 0
173 197 0
175 198 0
175 198 0
174 198 0
175 198 0
174 198 0
174 198 0
174 198 0
174 198 0
175 198 0
174 197 0
175 198 0
175 198 0
174 198 0
174 198 0
174 198 0
176 198 0
174 198 0
176 198 0
174 198 0
175 198 0
175 198 0
174 197 0
175 198 0
173 197 0
175 198 0
174 198 0
173 197 0
174 198 0
174 198 0
174 198 0
174 198 0
174 198 0
174 197 0
175 198 0
174 197 0
174 197 0
174 198 0
173 197 0
173 197 0
175 198 0
174 198 0
174 198 0
173 197 0
173 197 0
173 197 0
172 197 0
174 197 0
175 198 0
173 197 0
175 198 0
175 198 0
174 198 0
175 198 0
175 198 0
174 197 0
175 198 0
175 198 0
173 197 0
173 197 0
174 198 0
175 198 0
173 197 0
175 198 0
174 197 0
175 198 0
174 198 0
174 198 0
174 198 0
174 198 0
175 198 0
175 198 0
175 198 0
174 198 0
173 197 0
174 198 0
174 198 0
174 198 0
176 198 0
175 198 0
175 198 0
173 197 0
175 198 0
176 199 0
174 198 0
174 198 0
175 198 0
173 196 0
174 197 0
172 196 0
175 198 0
175 198 0
175 198 0
174 198 0
174 198 0
174 198 0
175 198 0
175 198 0
174 197 0
174 198 0
173 196 0
174 198 0
173 197 0
175 197 0
174 198 0
174 197 0
172 196 0
173 197 0
174 197 0
172 196 0
174 197 0
170 194 0
175 198 0
174 197 0
175 198 0
175 198 0
173 197 0
175 198 0
173 197 0
170 194 0
173 197 0
174 197 0
174 197 0
175 198 0
174 197 0
172 196 0
172 196 0
172 195 0
173 196 0
171 195 0
172 195 0
173 196 0
171 195 0
173 197 0
171 195 0
171 194 0
172 196 0
173 196 0
171 194 0
169 192 0
176 199 36
179 202 88
196 215 163
212 228 223
176 198 80
176 198 67
175 198 62
173 197 80
172 196 51
172 196 95
172 196 72
172 196 72
167 191 80
169 192 44
168 192 88
170 195 92
176 199 108
172 195 102
171 194 95
169 193 92
171 194 120
168 191 88
165 188 95
172 195 92
164 187 88
160 182 80
160 182 95
163 184 76
160 182 84
140 161 36
124 147 90
97 123 137
87 114 126
93 120 134
84 113 149
62 96 137
62 95 126
64 97 136
61 94 123
58 92 120
59 94 126
60 94 129
58 93 125
59 93 132
60 95 129
60 94 126
62 97 151
61 95 136
60 95 137
61 95 133
60 94 135
61 95 135
59 93 129
60 95 131
60 94 120
60 94 130
59 92 120
59 93 128
61 91 114
107 124 47
128 145 0
131 146 0
139 156 0
143 160 0
145 161 0
142 158 0
140 155 0
137 153 0
149 165 0
149 166 0
153 171 0
148 163 0
161 181 0
157 173 0
151 171 0
155 172 0
161 179 0
161 179 0
163 182 0
164 182 0
168 187 0
166 186 0
163 182 0
168 188 0
165 185 0
165 186 0
167 188 0
170 192 0
167 188 0
166 187 0
167 188 0
169 190 0
168 190 0
170 194 0
169 190 0
169 191 0
172 194 0
168 190 0
169 190 0
171 194 0
173 194 0
172 195 0
173 196 0
174 196 0
172 195 0
170 193 0
173 196 0
173 196 0
173 195 0
173 196 0
173 195 0
170 194 0
175 198 0
174 197 0
175 198 0
173 196 0
173 196 0
174 197 0
173 196 0
174 197 0
173 196 0
174 197 0
174 197 0
174 197 0
174 197 0
174 196 0
171 194 0
172 196 0
174 197 0
173 197 0
173 197 0
175 198 0
174 197 0
174 197 0
174 197 0
174 197 0
173 197 0
173 197 0
175 198 0
175 198 0
175 198 0
172 196 0
173 197 0
176 198 0
174 197 0
174 197 0
174 197 0
174 198 0
174 197 0
175 198 0
175 198 0
174 197 0
175 198 0
173 197 0
175 198 0
175 198 0
175 198 0
175 197 0
174 197 0
176 198 0
175 198 0
174 198 0
173 197 0
176 198 0
173 197 0
175 198 0
175 198 0
174 197 0
173 197 0
174 198 0
174 197 0
174 197 0
175 198 0
174 197 0
174 198 0
173 197 0
175 198 0
175 198 0
174 198 0
173 197 0
174 197 0
175 198 0
173 197 0
173 197 0
174 197 0
173 197 0
172 196 0
173 197 0
174 197 0
175 198 0
175 198 0
175 198 0
176 199 0
174 198 0
172 197 0
174 198 0
175 198 0
175 198 0
174 198 0
175 198 0
174 198 0
175 198 0
173 197 0
173 197 0
176 199 0
175 198 0
174 198 0
175 198 0
174 198 0
174 198 0
174 197 0
175 198 0
175 198 0
175 198 0
174 198 0
176 199 0
174 198 0
176 199 0
175 198 0
175 198 0
174 197 0
175 198 0
174 198 0
175 198 0
175 198 0
175 198 0
175 198 0
174 197 0
174 198 0
174 198 0
175 198 0
174 198 0
176 199 0
175 198 0
175 198 0
174 198 0
173 197 0
175 198 0
173 197 0
176 199 0
176 199 0
175 198 0
176 198 0
174 197 0
176 198 0
173 197 0
174 198 0
175 198 0
176 199 0
175 198 0
174 198 0
173 197 0
173 197 0
175 198 0
175 198 0
177 199 0
172 197 0
174 198 0
174 198 0
172 197 0
175 198 0
174 197 0
174 197 0
174 198 0
175 198 0
176 198 0
174 197 0
175 198 0
174 198 0
174 197 0
174 198 0
175 198 0
175 198 0
176 199 0
172 197 0
174 198 0
176 199 0
176 198 0
174 198 0
175 198 0
174 197 0
175 198 0
174 197 0
175 198 0
174 198 0
174 198 0
174 197 0
174 198 0
175 198 0
175 198 0
174 198 0
174 197 0
174 197 0
173 197 0
175 198 0
173 197 0
175 198 0
174 198 0
173 197 0
175 198 0
174 198 0
177 199 0
174 198 0
174 197 0
174 198 0
174 197 0
175 198 0
176 199 0
173 197 0
173 197 0
175 198 0
175 198 0
174 197 0
173 197 0
175 198 0
175 197 0
172 197 0
174 198 0
173 197 0
173 197 0
175 198 0
173 196 0
173 197 0
172 196 0
174 198 0
174 198 0
175 198 0
174 198 0
175 198 0
175 198 0
174 197 0
174 198 0
175 198 0
174 198 0
175 198 0
174 197 0
174 198 0
174 198 0
174 197 0
174 198 0
172 196 0
175 198 0
174 198 0
175 198 0
174 197 0
174 197 0
174 197 0
174 197 0
173 197 0
175 198 0
173 197 0
173 197 0
176 198 0
175 198 0
175 198 0
175 198 0
174 198 0
173 197 0
174 198 0
175 198 0
173 197 0
172 195 0
172 195 0
174 197 0
174 197 0
175 198 0
174 198 0
174 197 0
173 197 0
175 198 0
174 197 0
176 198 0
175 197 0
174 198 0
175 198 0
174 197 0
173 196 0
174 198 0
172 196 0
173 197 0
173 196 0
171 194 0
172 196 0
174 198 0
174 198 0
173 196 0
173 196 0
172 195 0
174 197 0
172 196 0
173 196 0
173 197 0
173 197 0
170 193 0
172 196 0
172 196 0
170 194 0
173 196 0
171 194 0
172 196 0
176 199 57
178 201 72
196 214 161
202 219 188
175 198 62
173 197 57
173 196 80
178 201 84
174 198 72
172 196 57
173 197 76
171 195 72
174 198 92
169 193 80
171 194 80
172 196 84
173 195 105
169 192 80
169 192 99
166 190 80
169 193 99
169 192 125
170 194 88
168 190 95
161 182 88
158 181 84
164 186 105
169 191 114
159 181 88
152 173 76
142 162 62
104 127 107
88 112 102
107 132 126
90 117 140
70 102 129
61 94 126
62 95 124
74 103 120
56 89 103
59 93 121
59 93 131
58 92 120
58 92 119
58 92 122
59 93 118
59 94 128
59 93 121
60 94 131
60 94 130
60 95 133
60 94 125
60 94 135
59 93 121
58 92 115
56 88 107
58 92 114
60 93 117
108 127 44
124 140 0
120 133 0
137 154 0
124 141 0
129 145 0
148 165 0
143 161 0
145 161 0
151 167 0
157 175 0
151 169 0
155 175 0
153 170 0
155 175 0
150 169 0
161 178 0
162 181 0
154 173 0
162 181 0
163 184 0
164 185 0
165 184 0
164 185 0
165 187 0
165 188 0
165 187 0
170 191 0
171 191 0
165 185 0
172 193 0
169 191 0
167 189 0
168 191 0
168 190 0
167 189 0
171 194 0
172 195 0
171 193 0
169 191 0
172 194 0
173 195 0
173 195 0
172 193 0
170 192 0
174 197 0
172 195 0
171 194 0
173 195 0
173 195 0
173 196 0
172 196 0
174 196 0
174 197 0
173 195 0
172 195 0
173 196 0
174 197 0
174 196 0
173 197 0
173 196 0
174 196 0
174 197 0
174 198 0
174 197 0
173 197 0
175 198 0
171 195 0
172 195 0
173 197 0
172 196 0
176 199 0
172 196 0
175 197 0
173 197 0
173 197 0
174 198 0
174 197 0
175 198 0
174 198 0
175 198 0
173 197 0
173 197 0
175 198 0
174 198 0
173 197 0
173 197 0
175 198 0
174 197 0
175 198 0
174 198 0
175 198 0
176 199 0
174 197 0
174 197 0
176 198 0
174 197 0
175 198 0
174 198 0
174 198 0
175 198 0
173 197 0
175 198 0
173 196 0
175 197 0
174 198 0
175 198 0
175 198 0
175 198 0
174 197 0
175 197 0
175 198 0
172 196 0
173 197 0
175 198 0
173 197 0
174 198 0
176 198 0
175 198 0
174 198 0
175 198 0
175 198 0
175 198 0
173 197 0
172 196 0
175 198 0
174 198 0
174 198 0
175 198 0
175 198 0
173 197 0
176 198 0
175 198 0
174 198 0
173 197 0
172 197 0
172 196 0
173 197 0
176 199 0
175 198 0
174 198 0
174 198 0
175 198 0
174 197 0
173 197 0
175 198 0
173 197 0
175 198 0
174 197 0
174 198 0
175 198 0
174 197 0
175 198 0
175 198 0
175 198 0
174 198 0
174 197 0
176 199 0
172 197 0
176 199 0
176 199 0
175 198 0
173 197 0
173 197 0
174 198 0
174 197 0
175 198 0
175 198 0
175 198 0
174 198 0
175 198 0
173 197 0
175 198 0
173 197 0
176 199 0
174 198 0
174 198 0
174 198 0
174 198 0
174 198 0
176 199 0
174 198 0
173 197 0
175 198 0
173 197 0
174 198 0
174 198 0
174 198 0
177 199 0
175 198 0
174 198 0
176 198 0
175 198 0
175 198 0
175 198 0
174 197 0
175 198 0
175 198 0
175 198 0
173 197 0
174 198 0
174 198 0
174 198 0
175 198 0
175 198 0
174 197 0
174 198 0
174 198 0
174 197 0
174 198 0
174 198 0
175 198 0
174 197 0
174 197 0
175 198 0
174 198 0
173 197 0
176 198 0
173 197 0
175 198 0
175 198 0
174 197 0
174 198 0
175 198 0
175 198 0
174 197 0
174 197 0
175 198 0
174 198 0
174 198 0
174 198 0
174 198 0
174 198 0
174 198 0
175 198 0
175 198 0
174 198 0
175 198 0
176 199 0
173 197 0
173 197 0
175 198 0
174 197 0
174 198 0
174 198 0
175 198 0
175 198 0
175 198 0
174 198 0
175 198 0
173 197 0
174 198 0
174 197 0
176 199 0
173 197 0
175 198 0
173 197 0
173 197 0
174 198 0
174 197 0
174 197 0
174 198 0
174 197 0
174 198 0
174 197 0
173 197 0
174 197 0
173 197 0
173 197 0
174 198 0
175 198 0
174 197 0
175 198 0
175 198 0
174 198 0
173 197 0
174 198 0
173 196 0
173 197 0
174 198 0
173 197 0
174 197 0
175 198 0
175 198 0
176 199 0
175 198 0
173 197 0
172 196 0
172 195 0
175 198 0
172 197 0
175 198 0
175 198 0
175 198 0
175 198 0
172 196 0
175 197 0
174 198 0
175 198 0
171 195 0
175 198 0
173 196 0
173 197 0
174 197 0
174 198 0
175 198 0
173 196 0
175 198 0
175 198 0
172 196 0
173 197 0
173 197 0
173 197 0
174 197 0
173 196 0
173 196 0
171 195 0
174 197 0
173 197 0
175 197 0
174 197 0
173 196 0
171 195 0
173 197 0
174 197 0
172 195 0
174 198 0
169 192 0
172 196 0
174 196 0
172 196 0
171 196 0
173 197 0
174 196 0
172 195 0
173 197 0
173 196 0
172 195 0
173 197 0
173 196 0
171 195 0
172 196 0
174 197 36
179 201 67
196 214 159
184 205 114
179 201 95
172 195 57
174 197 84
172 195 80
168 191 57
172 195 57
172 196 67
175 198 95
175 198 88
170 194 92
174 198 99
177 200 111
168 192 102
173 198 111
171 194 95
172 194 99
166 190 99
172 196 92
169 192 92
160 183 88
165 188 95
165 187 80
155 176 99
155 177 80
164 185 105
150 170 72
143 164 76
131 151 74
107 130 120
98 123 114
91 117 107
68 99 121
77 106 115
66 97 118
88 115 111
56 90 110
57 90 114
56 90 111
58 92 124
57 91 105
58 92 118
59 92 114
59 93 134
59 93 117
61 95 135
58 91 108
57 90 114
59 93 125
56 88 100
57 91 114
58 92 121
56 89 97
60 92 92
107 126 47
126 143 0
117 135 0
131 149 0
142 160 0
130 150 0
140 158 0
135 153 0
145 165 0
143 162 0
146 164 0
146 165 0
152 171 0
153 174 0
153 172 0
162 182 0
156 177 0
157 177 0
165 184 0
155 174 0
164 186 0
162 182 0
164 184 0
165 185 0
163 183 0
164 185 0
167 189 0
168 191 0
166 185 0
171 192 0
170 191 0
168 189 0
168 190 0
167 190 0
171 193 0
172 194 0
168 191 0
170 193 0
170 193 0
169 193 0
171 193 0
172 194 0
171 194 0
173 195 0
172 195 0
172 195 0
170 193 0
169 191 0
173 196 0
171 193 0
171 192 0
173 197 0
174 197 0
172 194 0
173 196 0
174 197 0
173 196 0
176 198 0
174 197 0
173 197 0
172 196 0
174 198 0
173 197 0
173 196 0
171 195 0
173 196 0
175 198 0
173 196 0
172 196 0
174 198 0
174 197 0
173 197 0
173 197 0
174 197 0
172 196 0
171 195 0
174 196 0
172 196 0
174 198 0
172 196 0
174 198 0
173 196 0
173 196 0
172 196 0
176 197 0
173 196 0
173 197 0
174 197 0
173 196 0
174 198 0
175 198 0
175 198 0
175 198 0
174 197 0
173 197 0
174 197 0
174 197 0
175 198 0
173 197 0
175 198 0
174 198 0
175 198 0
175 198 0
175 198 0
174 198 0
174 197 0
175 198 0
175 198 0
175 198 0
174 197 0
174 198 0
175 198 0
175 198 0
174 198 0
174 198 0
174 198 0
175 198 0
173 197 0
176 198 0
173 196 0
176 198 0
174 198 0
176 198 0
174 198 0
175 198 0
174 198 0
174 197 0
174 197 0
176 199 0
173 197 0
174 198 0
174 198 0
176 199 0
173 197 0
173 197 0
175 198 0
174 197 0
176 199 0
175 198 0
174 198 0
175 198 0
175 198 0
174 198 0
175 198 0
174 198 0
176 199 0
175 198 0
176 198 0
175 198 0
174 197 0
175 198 0
174 198 0
174 198 0
175 198 0
174 198 0
174 197 0
175 198 0
173 197 0
175 198 0
176 199 0
173 197 0
176 199 0
174 198 0
174 197 0
176 198 0
173 197 0
174 198 0
174 198 0
173 197 0
174 197 0
175 198 0
175 198 0
175 198 0
174 197 0
173 197 0
173 197 0
175 198 0
174 198 0
175 198 0
174 198 0
175 198 0
174 197 0
174 197 0
175 198 0
175 198 0
174 198 0
174 198 0
175 198 0
173 197 0
174 198 0
174 198 0
175 198 0
175 198 0
175 198 0
175 198 0
175 198 0
174 197 0
175 198 0
175 198 0
176 198 0
174 198 0
174 197 0
173 197 0
173 197 0
175 198 0
175 198 0
174 198 0
174 198 0
173 197 0
173 197 0
174 198 0
172 197 0
173 197 0
174 197 0
174 197 0
174 198 0
174 198 0
175 198 0
174 198 0
173 197 0
176 198 0
173 197 0
174 198 0
175 198 0
176 198 0
174 197 0
173 197 0
175 198 0
173 197 0
173 197 0
174 197 0
172 196 0
173 197 0
175 198 0
175 198 0
173 197 0
173 197 0
174 198 0
175 198 0
175 198 0
175 198 0
175 198 0
175 198 0
175 198 0
174 198 0
175 198 0
174 198 0
175 198 0
175 198 0
175 198 0
173 197 0
175 198 0
174 198 0
175 198 0
174 197 0
175 198 0
174 197 0
174 197 0
173 197 0
176 198 0
176 198 0
175 198 0
173 197 0
173 197 0
175 198 0
176 199 0
173 197 0
174 198 0
176 198 0
174 198 0
175 198 0
174 198 0
174 198 0
173 196 0
174 198 0
174 198 0
173 197 0
175 198 0
174 198 0
173 197 0
173 197 0
175 198 0
175 198 0
172 197 0
174 198 0
173 197 0
174 198 0
175 198 0
175 198 0
175 198 0
173 197 0
175 198 0
175 198 0
174 198 0
174 197 0
173 197 0
174 197 0
174 198 0
175 198 0
174 197 0
174 197 0
175 198 0
174 198 0
171 195 0
175 198 0
171 195 0
174 198 0
174 198 0
174 197 0
173 197 0
176 199 0
172 197 0
175 198 0
174 197 0
174 197 0
173 197 0
174 197 0
175 198 0
175 198 0
175 198 0
172 194 0
174 197 0
173 196 0
174 198 0
173 196 0
171 195 0
174 197 0
173 197 0
171 194 0
174 197 0
173 197 0
174 197 0
173 196 0
173 197 0
172 195 0
174 197 0
170 194 0
174 197 0
173 197 0
171 194 0
170 194 0
172 195 0
174 197 0
178 200 57
174 198 36
187 207 128
172 196 51
171 195 51
175 198 67
173 196 80
173 196 84
169 192 67
174 198 72
171 194 67
174 198 72
175 197 105
172 196 102
172 195 95
175 198 92
173 197 108
169 193 95
168 191 92
168 191 80
171 195 92
169 193 102
169 192 102
168 191 114
165 188 95
156 178 80
163 185 99
160 182 92
152 173 92
151 171 95
129 149 92
145 164 99
116 134 84
89 115 99
90 116 114
66 98 128
71 102 110
60 92 117
89 114 83
57 87 95
55 88 102
56 89 110
58 91 107
57 90 115
57 90 105
59 93 125
58 92 117
57 90 111
58 92 122
59 93 113
58 92 122
57 90 117
56 89 107
57 90 110
59 90 102
81 102 44
124 140 0
121 137 0
118 134 0
130 147 0
137 154 0
130 147 0
142 160 0
131 147 0
138 158 0
143 164 0
141 160 0
151 170 0
155 175 0
148 167 0
150 171 0
155 175 0
157 176 0
156 175 0
161 181 0
158 177 0
161 183 0
161 181 0
160 181 0
168 189 0
158 178 0
167 188 0
167 190 0
160 181 0
165 187 0
169 190 0
167 187 0
170 192 0
165 186 0
168 191 0
168 191 0
170 193 0
168 192 0
170 193 0
171 193 0
171 193 0
171 192 0
172 195 0
169 192 0
173 196 0
167 191 0
172 195 0
170 193 0
170 191 0
172 195 0
168 191 0
172 194 0
171 194 0
173 195 0
174 196 0
176 197 0
174 196 0
174 196 0
173 197 0
174 197 0
174 198 0
175 198 0
172 194 0
174 196 0
173 195 0
172 196 0
173 196 0
173 197 0
175 198 0
175 198 0
171 195 0
174 197 0
172 195 0
174 197 0
171 195 0
174 197 0
172 195 0
172 196 0
172 195 0
174 197 0
174 197 0
173 197 0
173 196 0
172 195 0
174 198 0
174 197 0
174 197 0
173 197 0
174 197 0
174 198 0
173 197 0
174 197 0
175 198 0
175 198 0
174 197 0
174 197 0
172 195 0
174 197 0
173 196 0
174 198 0
175 197 0
175 198 0
173 197 0
175 198 0
174 197 0
173 197 0
175 198 0
175 198 0
175 198 0
175 198 0
174 198 0
174 198 0
172 197 0
173 197 0
175 198 0
176 198 0
173 197 0
174 198 0
174 198 0
174 198 0
174 197 0
174 198 0
173 197 0
173 195 0
174 198 0
175 198 0
176 198 0
174 197 0
175 198 0
175 198 0
176 199 0
173 197 0
173 197 0
175 198 0
175 198 0
175 198 0
173 197 0
175 198 0
173 197 0
174 198 0
173 197 0
174 197 0
174 197 0
175 198 0
175 198 0
173 197 0
174 198 0
175 198 0
173 197 0
174 198 0
174 198 0
174 198 0
174 197 0
175 198 0
174 197 0
175 198 0
175 198 0
174 197 0
176 199 0
173 197 0
174 198 0
176 199 0
175 198 0
173 197 0
173 197 0
175 198 0
175 198 0
175 198 0
176 199 0
174 197 0
175 198 0
174 198 0
176 199 0
174 198 0
173 197 0
175 198 0
175 198 0
175 198 0
174 198 0
174 198 0
176 199 0
174 198 0
173 197 0
174 198 0
174 198 0
175 198 0
176 199 0
175 198 0
174 198 0
176 199 0
174 197 0
174 198 0
175 198 0
174 197 0
175 198 0
174 198 0
175 198 0
174 198 0
172 197 0
174 198 0
174 198 0
176 199 0
174 198 0
174 198 0
175 198 0
174 197 0
175 198 0
175 198 0
174 198 0
173 197 0
174 197 0
174 198 0
173 197 0
175 198 0
174 198 0
174 198 0
175 198 0
175 198 0
174 198 0
175 198 0
174 198 0
174 198 0
174 198 0
173 197 0
174 197 0
176 199 0
173 197 0
175 198 0
175 198 0
174 198 0
174 197 0
175 198 0
175 198 0
174 198 0
175 198 0
175 198 0
175 198 0
173 197 0
175 198 0
175 198 0
174 198 0
175 198 0
175 198 0
174 198 0
175 198 0
174 197 0
174 198 0
174 197 0
175 198 0
175 198 0
175 198 0
174 198 0
174 197 0
174 198 0
175 198 0
174 198 0
176 198 0
175 198 0
175 198 0
174 197 0
175 198 0
174 197 0
176 198 0
175 198 0
174 198 0
175 198 0
174 197 0
174 197 0
176 198 0
175 198 0
175 198 0
172 197 0
174 198 0
174 198 0
174 198 0
174 198 0
173 197 0
174 198 0
176 199 0
174 197 0
173 197 0
174 198 0
174 198 0
174 198 0
174 198 0
175 198 0
176 199 0
173 197 0
175 198 0
174 198 0
173 196 0
173 196 0
174 197 0
174 197 0
173 197 0
176 199 0
174 197 0
175 198 0
174 198 0
172 196 0
174 198 0
175 198 0
173 197 0
173 197 0
175 198 0
175 198 0
174 197 0
174 198 0
175 197 0
174 197 0
172 196 0
175 198 0
172 196 0
173 197 0
173 197 0
175 198 0
172 196 0
173 196 0
174 197 0
172 196 0
174 197 0
173 197 0
173 197 0
174 197 0
173 196 0
172 196 0
173 196 0
172 196 0
171 195 0
174 197 0
172 195 0
172 196 0
173 197 0
174 197 0
171 194 0
170 194 0
173 197 0
173 196 0
172 196 0
172 195 0
172 195 0
175 198 0
170 193 0
171 194 0
174 197 0
176 199 44
178 201 62
180 202 92
177 199 84
171 194 44
178 200 99
171 194 51
171 194 84
170 193 84
169 193 72
176 198 84
177 200 105
174 196 114
173 196 95
174 198 95
174 197 102
167 191 92
171 195 95
168 192 62
167 190 105
170 193 105
171 195 108
165 189 99
166 189 111
163 186 94
161 184 108
153 174 95
159 179 111
155 175 95
153 173 102
148 169 84
131 150 80
129 147 62
106 127 65
106 129 89
122 143 74
68 99 111
71 99 83
87 109 54
117 134 31
74 95 52
57 88 92
56 88 94
55 87 97
55 87 92
56 89 108
56 89 92
56 89 100
57 90 107
57 90 103
56 89 105
54 86 97
60 91 99
73 96 82
89 105 18
119 135 0
124 141 0
123 142 0
128 147 0
127 145 0
134 154 0
136 155 0
140 159 0
147 166 0
143 163 0
135 154 0
146 166 0
151 171 0
155 175 0
153 173 0
159 181 0
156 178 0
159 179 0
158 178 0
163 184 0
162 183 0
159 179 0
168 189 0
160 181 0
163 185 0
162 184 0
164 184 0
165 185 0
167 190 0
166 187 0
168 190 0
166 188 0
169 191 0
170 193 0
170 192 0
166 189 0
169 193 0
171 192 0
169 190 0
170 193 0
169 192 0
170 193 0
172 195 0
169 192 0
171 194 0
172 196 0
173 196 0
170 193 0
171 193 0
171 194 0
169 193 0
173 196 0
172 195 0
171 195 0
172 196 0
173 196 0
173 196 0
172 196 0
173 196 0
175 197 0
170 194 0
173 196 0
170 194 0
169 192 0
174 197 0
174 197 0
175 198 0
174 196 0
175 198 0
173 197 0
173 197 0
174 197 0
173 197 0
174 197 0
176 198 0
175 198 0
174 196 0
173 196 0
174 197 0
172 196 0
173 197 0
173 196 0
174 197 0
173 197 0
174 197 0
174 197 0
175 198 0
175 198 0
172 196 0
173 196 0
174 197 0
173 197 0
173 197 0
175 198 0
173 197 0
174 197 0
172 196 0
175 198 0
174 197 0
175 198 0
173 197 0
174 198 0
174 197 0
176 198 0
174 198 0
175 198 0
175 198 0
173 197 0
173 197 0
174 198 0
172 197 0
174 197 0
173 197 0
174 198 0
175 198 0
174 198 0
174 197 0
172 196 0
173 197 0
175 198 0
174 197 0
175 198 0
173 197 0
175 198 0
175 198 0
174 197 0
174 197 0
174 197 0
174 198 0
173 197 0
175 198 0
174 198 0
176 198 0
176 198 0
174 198 0
174 198 0
174 197 0
174 198 0
174 198 0
175 198 0
173 197 0
174 198 0
173 197 0
174 197 0
174 198 0
175 198 0
173 197 0
174 198 0
176 199 0
177 199 0
173 197 0
174 198 0
176 199 0
175 197 0
176 198 0
174 198 0
173 197 0
175 198 0
175 198 0
174 198 0
174 197 0
175 198 0
175 198 0
173 197 0
176 199 0
175 198 0
174 198 0
175 198 0
175 198 0
175 198 0
175 198 0
174 198 0
175 198 0
174 198 0
173 197 0
173 197 0
174 198 0
175 198 0
176 198 0
175 198 0
174 198 0
174 198 0
174 198 0
175 198 0
176 198 0
174 198 0
173 197 0
174 198 0
175 198 0
176 198 0
174 197 0
174 198 0
175 198 0
174 198 0
175 198 0
176 199 0
174 198 0
175 198 0
174 198 0
174 198 0
174 198 0
173 197 0
174 197 0
173 197 0
175 198 0
175 198 0
175 198 0
174 197 0
173 197 0
174 198 0
174 198 0
175 198 0
174 198 0
174 198 0
175 198 0
175 198 0
176 199 0
175 198 0
175 198 0
175 198 0
176 199 0
175 198 0
175 198 0
175 198 0
175 198 0
174 198 0
173 197 0
176 199 0
173 197 0
173 197 0
174 198 0
174 198 0
176 199 0
175 198 0
175 198 0
174 198 0
174 197 0
174 198 0
176 198 0
175 198 0
173 197 0
175 198 0
172 196 0
174 197 0
175 198 0
176 198 0
176 199 0
175 198 0
174 197 0
176 199 0
176 199 0
175 198 0
175 198 0
174 197 0
175 198 0
174 197 0
172 196 0
174 198 0
173 197 0
173 197 0
175 198 0
174 198 0
173 197 0
176 198 0
172 197 0
175 198 0
174 198 0
174 198 0
175 198 0
173 196 0
174 197 0
174 197 0
174 197 0
175 198 0
175 198 0
174 198 0
175 198 0
174 198 0
175 198 0
175 198 0
173 197 0
174 198 0
174 198 0
175 198 0
173 197 0
174 197 0
175 198 0
173 197 0
174 197 0
174 198 0
173 197 0
174 197 0
172 196 0
175 198 0
173 197 0
173 196 0
173 196 0
174 197 0
173 197 0
174 197 0
174 198 0
170 194 0
175 198 0
174 197 0
174 198 0
176 199 0
174 197 0
174 198 0
175 198 0
172 195 0
172 196 0
175 198 0
172 196 0
174 197 0
174 197 0
173 197 0
174 197 0
177 199 0
172 196 0
175 198 0
174 197 0
173 197 0
172 196 0
174 197 0
171 194 0
172 197 0
175 198 0
172 196 0
174 198 0
173 197 0
172 195 0
171 195 0
174 197 0
170 194 0
171 196 0
173 197 0
170 194 0
172 196 0
170 194 0
171 194 0
171 195 0
172 195 0
173 195 0
173 196 0
173 197 0
172 196 25
179 201 72
178 200 57
176 199 72
176 199 67
169 192 76
167 190 51
167 191 92
171 194 65
175 197 95
169 193 105
169 193 92
173 196 92
169 192 80
173 195 99
170 193 88
169 193 88
169 192 84
167 190 120
163 186 99
170 193 102
156 180 76
164 188 84
168 191 122
166 189 108
164 186 122
163 185 102
162 184 88
166 186 114
151 171 102
142 162 72
140 160 80
125 145 36
122 140 57
88 109 60
136 154 25
114 134 60
78 99 57
109 129 51
115 131 0
97 114 0
100 115 0
90 107 31
69 90 60
65 89 72
57 85 88
62 89 80
58 85 65
53 82 94
64 91 78
67 88 65
94 113 60
93 110 18
100 115 0
104 121 0
125 143 0
116 133 0
127 146 0
123 143 0
142 162 0
136 155 0
132 149 0
133 154 0
138 158 0
144 162 0
152 173 0
148 169 0
155 176 0
151 169 0
150 171 0
154 173 0
159 179 0
156 177 0
151 171 0
160 181 0
159 179 0
163 185 0
165 186 0
164 186 0
165 188 0
165 186 0
163 184 0
166 188 0
169 190 0
168 189 0
162 183 0
166 190 0
170 192 0
169 190 0
167 188 0
173 195 0
168 190 0
171 193 0
168 191 0
174 196 0
169 192 0
171 194 0
172 194 0
171 193 0
173 196 0
171 192 0
170 192 0
169 192 0
170 192 0
173 197 0
174 198 0
175 198 0
170 194 0
173 196 0
173 196 0
175 198 0
174 196 0
173 196 0
173 197 0
172 195 0
171 193 0
174 197 0
171 194 0
175 197 0
171 195 0
174 198 0
173 196 0
173 196 0
173 196 0
174 197 0
173 195 0
172 196 0
173 196 0
175 198 0
175 198 0
174 197 0
172 196 0
173 197 0
173 197 0
175 198 0
173 196 0
172 195 0
175 198 0
173 197 0
174 197 0
174 197 0
173 197 0
175 198 0
174 197 0
176 198 0
174 197 0
173 197 0
174 197 0
173 197 0
174 197 0
174 197 0
175 198 0
173 197 0
174 198 0
174 198 0
175 198 0
174 198 0
172 196 0
175 198 0
173 197 0
174 198 0
175 198 0
175 198 0
174 198 0
173 196 0
175 198 0
174 198 0
176 198 0
175 198 0
174 197 0
173 197 0
176 199 0
176 198 0
175 198 0
175 198 0
174 198 0
174 198 0
174 197 0
173 197 0
176 198 0
174 198 0
175 198 0
174 198 0
174 197 0
173 196 0
173 197 0
175 198 0
175 198 0
173 197 0
175 198 0
174 198 0
173 197 0
175 198 0
175 198 0
177 199 0
175 198 0
174 198 0
176 199 0
175 198 0
174 198 0
174 198 0
173 196 0
173 197 0
177 199 0
175 198 0
174 198 0
175 198 0
174 198 0
173 197 0
175 198 0
174 198 0
175 198 0
175 198 0
175 198 0
175 198 0
174 197 0
173 197 0
174 198 0
173 197 0
173 197 0
174 198 0
175 198 0
176 199 0
174 197 0
174 198 0
173 197 0
174 197 0
172 197 0
174 198 0
175 198 0
175 198 0
175 198 0
174 198 0
175 198 0
176 199 0
174 197 0
176 198 0
174 198 0
174 198 0
176 198 0
175 198 0
175 198 0
172 196 0
175 198 0
173 197 0
174 198 0
174 198 0
174 198 0
172 197 0
174 198 0
173 197 0
174 197 0
175 198 0
172 197 0
173 197 0
174 198 0
175 198 0
174 198 0
176 198 0
174 198 0
175 198 0
175 198 0
174 198 0
175 198 0
174 198 0
174 197 0
174 197 0
174 197 0
173 197 0
175 198 0
175 198 0
175 198 0
175 198 0
175 198 0
174 198 0
174 198 0
176 199 0
173 197 0
174 197 0
175 198 0
174 198 0
174 197 0
176 198 0
175 198 0
176 199 0
175 198 0
175 198 0
176 199 0
174 197 0
175 198 0
174 198 0
173 197 0
174 198 0
174 198 0
174 198 0
176 198 0
172 196 0
176 199 0
176 199 0
175 198 0
173 196 0
175 198 0
175 198 0
175 198 0
173 197 0
175 198 0
171 195 0
173 197 0
175 198 0
173 197 0
174 198 0
174 198 0
173 197 0
175 198 0
173 197 0
174 197 0
175 198 0
175 198 0
174 197 0
173 197 0
176 199 0
174 198 0
174 198 0
175 198 0
174 197 0
173 197 0
172 196 0
175 198 0
173 196 0
175 198 0
175 198 0
174 197 0
173 197 0
175 198 0
176 199 0
174 198 0
175 198 0
173 197 0
174 197 0
175 198 0
174 198 0
174 197 0
174 197 0
174 198 0
174 197 0
174 198 0
174 198 0
173 197 0
172 196 0
175 198 0
173 197 0
174 197 0
174 197 0
175 198 0
172 196 0
174 198 0
175 198 0
174 198 0
173 196 0
175 198 0
173 196 0
174 197 0
174 197 0
175 198 0
175 198 0
173 196 0
174 197 0
173 197 0
173 197 0
175 198 0
176 198 0
175 198 0
174 197 0
172 197 0
175 197 0
172 196 0
173 197 0
174 198 0
173 196 0
174 197 0
173 197 0
176 199 0
171 195 0
174 198 0
172 196 0
172 196 0
174 197 0
173 196 0
174 197 0
173 196 0
173 196 0
176 198 0
172 195 0
170 194 0
169 193 0
173 196 0
172 195 0
174 197 0
170 194 0
173 197 0
173 197 0
176 199 57
178 200 72
175 198 65
172 195 67
171 194 72
172 195 78
168 191 65
175 197 94
163 186 76
173 195 95
175 198 99
175 197 84
172 195 92
169 192 92
175 198 102
170 194 99
167 190 88
171 195 95
161 185 102
162 186 88
165 189 99
163 186 88
159 181 92
166 189 84
154 176 88
162 185 80
153 174 88
161 182 114
156 175 99
152 173 80
151 171 92
136 155 51
127 146 25
121 139 25
144 164 0
125 144 0
105 123 0
112 130 0
119 137 0
121 140 0
118 135 0
110 127 0
93 109 0
111 128 0
102 117 0
89 104 0
97 112 0
92 107 0
92 107 0
90 107 0
102 118 0
112 129 0
107 123 0
110 127 0
133 153 0
137 156 0
139 158 0
134 152 0
138 157 0
132 151 0
143 163 0
158 179 0
145 165 0
146 167 0
153 174 0
150 170 0
146 168 0
159 180 0
156 176 0
159 179 0
156 175 0
167 188 0
159 179 0
163 184 0
162 184 0
160 182 0
163 184 0
164 185 0
163 185 0
165 187 0
166 187 0
165 187 0
165 186 0
162 184 0
165 186 0
169 190 0
166 187 0
171 193 0
170 192 0
168 190 0
170 193 0
168 191 0
170 192 0
166 188 0
169 192 0
173 196 0
170 192 0
173 195 0
174 197 0
171 194 0
171 194 0
173 196 0
173 197 0
173 195 0
171 194 0
173 195 0
170 194 0
172 195 0
174 197 0
173 197 0
173 196 0
175 197 0
173 196 0
173 196 0
174 196 0
173 196 0
172 195 0
175 197 0
172 196 0
173 197 0
174 196 0
173 196 0
173 197 0
173 197 0
175 198 0
173 196 0
174 197 0
173 197 0
173 196 0
175 198 0
173 196 0
173 196 0
175 197 0
174 197 0
175 198 0
173 197 0
173 197 0
174 196 0
173 197 0
176 198 0
173 196 0
174 198 0
173 197 0
174 197 0
175 197 0
173 196 0
175 198 0
174 197 0
172 197 0
174 197 0
173 197 0
174 197 0
175 198 0
174 197 0
173 197 0
175 198 0
174 198 0
172 195 0
174 197 0
173 197 0
173 197 0
174 197 0
173 196 0
175 197 0
174 197 0
173 197 0
173 197 0
173 197 0
174 198 0
174 198 0
174 197 0
175 198 0
175 198 0
176 199 0
175 198 0
174 198 0
173 197 0
174 198 0
174 197 0
175 198 0
173 197 0
175 198 0
175 198 0
173 197 0
175 198 0
173 197 0
173 197 0
175 198 0
176 199 0
173 197 0
175 198 0
175 198 0
174 197 0
175 198 0
174 197 0
173 197 0
174 197 0
174 198 0
174 197 0
175 198 0
174 197 0
175 198 0
174 198 0
173 197 0
175 198 0
175 198 0
175 198 0
175 198 0
172 197 0
174 198 0
174 198 0
175 198 0
174 197 0
174 197 0
175 198 0
173 197 0
173 197 0
175 198 0
174 198 0
174 197 0
174 198 0
173 197 0
175 198 0
173 197 0
175 198 0
176 199 0
174 198 0
174 197 0
175 198 0
173 197 0
175 198 0
175 198 0
175 198 0
174 197 0
175 198 0
175 198 0
175 198 0
175 198 0
173 197 0
174 197 0
174 197 0
173 197 0
176 199 0
175 198 0
174 198 0
173 197 0
176 198 0
173 197 0
173 197 0
175 198 0
175 198 0
175 198 0
175 198 0
175 198 0
174 198 0
174 198 0
174 198 0
175 198 0
172 196 0
173 197 0
174 197 0
175 198 0
173 197 0
173 197 0
174 198 0
175 198 0
174 198 0
173 197 0
174 197 0
174 197 0
174 197 0
174 197 0
174 198 0
174 198 0
175 198 0
174 197 0
174 197 0
175 198 0
176 199 0
175 198 0
173 197 0
175 198 0
173 197 0
174 197 0
175 198 0
173 197 0
175 198 0
175 198 0
177 199 0
174 198 0
175 198 0
174 198 0
173 197 0
172 197 0
173 197 0
173 197 0
174 197 0
174 198 0
176 199 0
174 198 0
174 198 0
174 198 0
174 197 0
174 198 0
173 197 0
175 198 0
175 198 0
173 197 0
174 197 0
173 197 0
174 198 0
175 198 0
175 198 0
176 199 0
175 198 0
175 198 0
174 197 0
173 197 0
175 198 0
174 198 0
175 198 0
174 197 0
173 197 0
174 197 0
175 198 0
174 198 0
174 198 0
174 198 0
174 197 0
175 198 0
173 197 0
173 197 0
173 197 0
173 197 0
174 197 0
177 199 0
175 198 0
174 197 0
174 198 0
175 198 0
173 197 0
174 197 0
174 198 0
175 198 0
174 197 0
172 196 0
174 197 0
173 197 0
175 198 0
174 197 0
174 197 0
174 197 0
174 198 0
175 198 0
174 198 0
175 198 0
173 197 0
174 197 0
174 198 0
172 195 0
176 198 0
174 197 0
173 197 0
174 198 0
175 198 0
175 198 0
175 198 0
174 198 0
172 196 0
174 197 0
174 198 0
172 196 0
172 195 0
174 197 0
174 197 0
172 196 0
173 197 0
175 198 0
174 197 0
172 196 0
173 197 0
173 197 0
174 197 0
172 195 0
175 198 0
172 196 0
172 195 0
173 196 0
174 198 0
171 194 0
170 194 0
172 195 0
169 193 0
172 195 0
171 196 0
170 194 0
171 195 0
170 194 0
172 196 0
175 198 0
176 199 25
174 197 51
174 197 65
175 197 88
171 194 67
169 192 54
173 195 80
168 190 97
166 190 74
170 192 80
175 198 80
171 194 88
173 196 105
170 194 92
170 193 102
173 196 114
170 194 95
170 193 92
169 192 95
164 187 62
168 191 92
164 187 102
165 189 95
163 185 92
166 188 99
159 181 105
165 186 105
160 181 111
152 173 88
152 171 80
154 174 76
136 156 36
129 148 0
129 149 25
147 169 0
129 149 0
117 137 0
115 134 0
113 133 0
131 150 0
113 131 0
115 132 0
96 114 0
107 124 0
105 122 0
102 120 0
108 126 0
106 123 0
114 131 0
109 126 0
105 123 0
117 135 0
122 141 0
121 140 0
118 137 0
136 155 0
137 157 0
135 155 0
141 160 0
136 155 0
135 155 0
144 165 0
152 174 0
154 175 0
151 173 0
154 174 0
146 166 0
146 166 0
158 179 0
156 177 0
153 174 0
156 177 0
154 175 0
165 188 0
164 185 0
165 187 0
160 182 0
160 182 0
162 183 0
171 194 0
163 185 0
166 189 0
169 192 0
164 187 0
166 188 0
168 189 0
164 186 0
165 187 0
168 190 0
170 194 0
170 193 0
171 193 0
169 191 0
172 194 0
171 193 0
171 193 0
170 192 0
172 196 0
167 190 0
171 194 0
172 195 0
171 195 0
171 193 0
169 193 0
173 195 0
170 193 0
172 194 0
170 194 0
171 194 0
171 195 0
173 196 0
173 195 0
174 197 0
173 196 0
175 198 0
172 195 0
173 196 0
173 196 0
172 196 0
172 196 0
174 197 0
170 193 0
173 197 0
171 195 0
173 196 0
171 195 0
174 197 0
171 195 0
173 196 0
173 196 0
174 197 0
175 198 0
173 197 0
175 198 0
176 198 0
173 197 0
173 197 0
175 197 0
173 197 0
174 197 0
173 196 0
175 198 0
174 197 0
174 197 0
174 197 0
172 196 0
174 197 0
173 197 0
173 196 0
174 198 0
173 196 0
173 197 0
174 198 0
173 197 0
173 196 0
173 197 0
173 197 0
174 197 0
175 198 0
173 197 0
173 197 0
173 197 0
175 198 0
175 198 0
174 197 0
173 197 0
175 198 0
175 198 0
175 198 0
175 198 0
175 198 0
173 197 0
174 198 0
175 198 0
176 199 0
173 197 0
173 197 0
175 198 0
176 198 0
173 197 0
174 197 0
173 197 0
173 197 0
173 197 0
174 198 0
175 198 0
175 198 0
174 198 0
174 198 0
174 198 0
176 199 0
175 198 0
174 198 0
176 199 0
174 197 0
174 197 0
174 197 0
174 198 0
173 197 0
174 197 0
175 198 0
174 197 0
175 198 0
175 198 0
174 197 0
174 198 0
175 198 0
173 197 0
173 197 0
173 197 0
175 198 0
174 198 0
175 198 0
175 198 0
173 197 0
175 198 0
174 198 0
173 197 0
173 197 0
174 198 0
175 198 0
175 198 0
175 198 0
174 198 0
174 198 0
175 198 0
174 198 0
175 198 0
175 198 0
174 197 0
174 197 0
176 199 0
174 197 0
176 199 0
175 198 0
174 198 0
175 198 0
175 198 0
174 198 0
173 197 0
174 198 0
174 198 0
176 199 0
174 197 0
175 198 0
174 198 0
172 197 0
176 198 0
175 198 0
173 196 0
174 198 0
174 198 0
174 197 0
174 197 0
175 198 0
174 198 0
174 198 0
174 198 0
173 197 0
174 198 0
175 198 0
175 198 0
173 197 0
174 198 0
175 198 0
176 199 0
175 198 0
175 198 0
175 198 0
174 197 0
174 197 0
174 198 0
174 198 0
173 197 0
174 197 0
172 197 0
173 197 0
175 198 0
174 197 0
175 198 0
175 198 0
175 198 0
173 197 0
174 198 0
175 198 0
174 198 0
175 198 0
175 198 0
172 196 0
176 198 0
176 199 0
174 198 0
175 198 0
175 198 0
174 198 0
175 198 0
173 197 0
175 198 0
174 198 0
173 197 0
174 198 0
174 197 0
173 197 0
174 198 0
173 197 0
176 199 0
172 197 0
173 197 0
173 197 0
175 198 0
176 198 0
175 198 0
175 198 0
174 198 0
175 198 0
176 199 0
172 196 0
174 198 0
173 197 0
173 197 0
175 198 0
173 197 0
174 197 0
174 198 0
174 197 0
175 198 0
174 197 0
175 198 0
175 198 0
174 197 0
174 197 0
175 198 0
173 197 0
175 198 0
176 199 0
174 197 0
174 198 0
174 198 0
174 198 0
176 199 0
174 198 0
173 197 0
176 198 0
173 197 0
174 197 0
175 198 0
173 196 0
174 198 0
173 197 0
173 196 0
173 197 0
174 198 0
175 198 0
175 198 0
175 198 0
173 197 0
174 198 0
172 197 0
174 198 0
174 197 0
173 196 0
173 197 0
174 197 0
171 195 0
172 196 0
173 196 0
174 197 0
171 195 0
176 198 0
173 197 0
176 199 0
173 197 0
174 198 0
174 198 0
174 197 0
174 197 0
171 195 0
171 195 0
173 196 0
176 198 0
172 195 0
172 196 0
172 197 0
170 194 0
171 195 0
174 197 0
175 198 0
174 197 0
173 196 0
172 196 0
173 196 0
171 195 0
169 193 0
173 196 0
171 194 0
172 195 0
171 195 0
171 194 0
172 196 0
174 197 0
175 198 0
179 201 67
175 198 57
173 196 57
173 195 82
171 194 72
173 195 74
171 193 90
172 194 90
168 190 90
171 194 88
176 198 108
174 197 88
175 198 92
172 195 76
172 195 80
168 192 92
166 189 105
169 192 92
165 187 72
163 185 92
163 186 88
164 186 76
169 191 108
163 184 88
164 186 108
166 188 88
157 178 80
157 178 92
158 178 84
140 161 44
146 167 36
141 161 25
147 169 36
147 167 0
144 165 0
136 156 0
130 149 0
140 158 0
120 140 0
120 140 0
125 144 0
121 139 0
119 139 0
116 134 0
116 135 0
116 134 0
113 132 0
124 143 0
101 118 0
129 148 0
132 150 0
123 142 0
134 154 0
134 154 0
135 155 0
133 154 0
135 156 0
135 156 0
145 166 0
147 168 0
142 162 0
140 159 0
148 170 0
150 172 0
152 174 0
145 166 0
159 181 0
153 175 0
156 179 0
155 176 0
160 182 0
161 182 0
161 183 0
165 186 0
163 184 0
166 189 0
165 187 0
166 190 0
167 190 0
165 185 0
161 182 0
167 189 0
169 190 0
168 191 0
170 193 0
171 193 0
171 192 0
168 192 0
170 191 0
169 192 0
170 191 0
170 193 0
170 193 0
170 193 0
167 190 0
171 194 0
173 195 0
170 193 0
171 194 0
170 193 0
171 194 0
170 193 0
170 193 0
173 196 0
170 194 0
170 192 0
170 193 0
173 197 0
172 195 0
173 196 0
173 196 0
174 197 0
173 196 0
172 195 0
174 198 0
174 197 0
172 196 0
175 198 0
172 195 0
174 197 0
174 197 0
173 196 0
173 196 0
174 197 0
172 195 0
172 196 0
173 197 0
174 198 0
174 197 0
173 197 0
173 196 0
174 197 0
174 196 0
173 196 0
174 197 0
173 196 0
174 197 0
174 197 0
173 197 0
174 198 0
173 197 0
172 196 0
174 197 0
174 196 0
175 198 0
175 198 0
174 197 0
172 196 0
172 196 0
174 197 0
175 198 0
176 198 0
174 197 0
174 197 0
175 198 0
175 198 0
173 197 0
173 197 0
175 198 0
173 197 0
175 198 0
172 196 0
174 197 0
174 197 0
174 197 0
173 197 0
174 197 0
175 198 0
174 197 0
175 198 0
175 198 0
174 197 0
175 198 0
174 198 0
173 197 0
174 197 0
176 198 0
174 197 0
174 198 0
173 197 0
175 198 0
174 198 0
174 197 0
175 198 0
173 197 0
175 198 0
175 198 0
174 197 0
174 198 0
172 197 0
174 198 0
174 198 0
176 198 0
175 198 0
174 198 0
176 199 0
175 198 0
175 198 0
175 198 0
175 198 0
174 198 0
174 197 0
175 198 0
175 198 0
175 198 0
176 199 0
173 197 0
175 198 0
174 198 0
175 198 0
176 199 0
175 198 0
175 198 0
174 197 0
175 198 0
175 198 0
174 197 0
174 197 0
174 198 0
174 198 0
173 197 0
176 199 0
174 198 0
174 197 0
175 198 0
174 198 0
173 197 0
176 198 0
173 197 0
175 198 0
174 198 0
173 197 0
176 198 0
175 198 0
174 198 0
176 198 0
174 197 0
175 198 0
174 198 0
175 198 0
173 197 0
174 198 0
175 198 0
174 197 0
175 198 0
175 198 0
172 197 0
173 197 0
174 197 0
173 197 0
173 197 0
174 198 0
174 198 0
175 198 0
176 198 0
175 198 0
175 198 0
175 198 0
173 197 0
173 197 0
173 197 0
176 199 0
174 198 0
175 198 0
174 198 0
175 198 0
174 197 0
175 198 0
175 198 0
176 199 0
173 197 0
174 198 0
175 198 0
175 198 0
174 198 0
174 197 0
174 198 0
174 198 0
175 198 0
175 198 0
175 198 0
174 198 0
174 197 0
173 197 0
173 197 0
174 198 0
173 197 0
173 197 0
175 198 0
175 198 0
174 198 0
176 199 0
175 198 0
174 198 0
174 198 0
174 198 0
175 198 0
176 199 0
175 198 0
174 198 0
174 198 0
174 198 0
173 197 0
173 197 0
175 198 0
174 197 0
173 197 0
175 198 0
174 198 0
175 198 0
174 197 0
173 197 0
173 197 0
174 197 0
174 198 0
173 197 0
174 198 0
176 199 0
175 198 0
174 198 0
174 197 0
173 197 0
175 198 0
175 198 0
173 197 0
174 197 0
172 197 0
176 198 0
174 198 0
174 197 0
173 197 0
174 197 0
173 197 0
174 198 0
176 198 0
173 197 0
173 197 0
173 197 0
174 197 0
174 197 0
173 197 0
174 197 0
175 198 0
175 198 0
173 197 0
174 198 0
173 196 0
175 198 0
175 198 0
174 198 0
176 199 0
175 198 0
173 197 0
174 198 0
174 197 0
173 196 0
175 198 0
174 197 0
171 195 0
174 197 0
173 197 0
174 197 0
174 198 0
174 197 0
175 198 0
174 197 0
173 196 0
173 196 0
173 197 0
173 197 0
174 198 0
173 197 0
173 197 0
172 196 0
172 197 0
172 196 0
173 197 0
172 196 0
173 197 0
173 197 0
171 195 0
172 196 0
174 198 0
172 195 0
171 195 0
174 197 0
172 195 0
171 195 0
173 196 0
172 196 0
173 196 0
170 194 0
175 198 0
172 195 0
171 194 0
169 193 0
170 192 0
172 196 0
171 194 0
173 197 0
175 198 0
174 197 57
172 195 57
171 192 78
168 191 60
169 191 51
169 192 78
169 192 77
173 195 76
174 196 92
174 196 78
171 194 92
172 195 92
172 194 95
176 199 114
169 192 105
169 192 88
167 190 84
170 192 92
164 186 95
169 191 105
171 194 114
162 184 92
164 185 80
159 179 114
168 188 111
156 177 99
154 175 72
163 184 84
148 169 44
144 164 36
149 170 0
152 173 25
143 165 0
141 162 0
140 162 0
140 160 0
135 155 0
139 159 0
128 148 0
127 146 0
120 140 0
127 147 0
132 152 0
121 140 0
121 141 0
124 143 0
123 142 0
136 155 0
128 148 0
131 150 0
135 156 0
138 157 0
140 160 0
138 158 0
134 154 0
144 164 0
144 164 0
143 163 0
152 172 0
153 175 0
144 165 0
146 167 0
150 172 0
155 177 0
156 179 0
154 175 0
158 179 0
148 170 0
158 180 0
161 183 0
160 183 0
153 175 0
159 180 0
165 186 0
165 187 0
162 183 0
163 185 0
164 185 0
164 186 0
166 188 0
163 185 0
166 189 0
165 187 0
168 190 0
166 189 0
166 188 0
170 192 0
170 194 0
168 191 0
170 192 0
169 192 0
169 193 0
168 190 0
171 195 0
171 194 0
172 195 0
168 190 0
172 195 0
173 196 0
172 195 0
171 195 0
172 195 0
170 193 0
174 197 0
168 190 0
170 193 0
172 196 0
172 195 0
173 196 0
170 193 0
172 196 0
173 197 0
174 196 0
172 196 0
174 196 0
174 197 0
172 194 0
171 193 0
172 195 0
171 195 0
174 197 0
174 196 0
172 195 0
173 197 0
174 198 0
175 198 0
172 196 0
174 197 0
174 197 0
174 197 0
175 198 0
176 199 0
173 196 0
174 197 0
175 198 0
173 196 0
173 196 0
174 197 0
174 197 0
175 198 0
173 197 0
174 197 0
174 197 0
174 197 0
174 197 0
174 196 0
176 199 0
175 198 0
174 197 0
174 197 0
174 198 0
174 198 0
174 197 0
175 198 0
174 197 0
175 198 0
174 197 0
173 197 0
173 197 0
174 197 0
174 198 0
174 197 0
173 197 0
175 198 0
175 198 0
173 197 0
173 197 0
175 198 0
174 197 0
174 198 0
174 198 0
175 198 0
174 198 0
175 198 0
174 198 0
173 196 0
173 197 0
173 197 0
173 197 0
174 197 0
176 199 0
173 197 0
173 196 0
174 198 0
175 198 0
174 197 0
174 197 0
174 198 0
173 197 0
175 198 0
174 198 0
173 197 0
175 198 0
174 198 0
173 197 0
173 197 0
174 198 0
175 198 0
174 197 0
175 198 0
174 198 0
175 198 0
174 197 0
176 199 0
174 198 0
173 197 0
173 197 0
173 197 0
174 198 0
174 197 0
174 198 0
175 198 0
174 197 0
173 197 0
174 197 0
174 197 0
175 198 0
174 198 0
173 197 0
174 197 0
176 199 0
174 198 0
174 198 0
174 198 0
174 197 0
174 198 0
174 197 0
175 198 0
174 198 0
175 198 0
175 198 0
173 197 0
173 197 0
175 198 0
174 197 0
175 198 0
175 198 0
176 198 0
174 197 0
173 197 0
174 197 0
174 198 0
173 197 0
176 198 0
175 198 0
175 198 0
174 198 0
175 198 0
173 197 0
174 197 0
175 198 0
175 198 0
176 199 0
174 198 0
174 198 0
176 198 0
175 198 0
175 198 0
173 197 0
176 198 0
176 199 0
175 198 0
175 198 0
174 197 0
173 197 0
175 198 0
174 198 0
174 198 0
173 197 0
173 197 0
174 198 0
175 198 0
174 198 0
174 198 0
173 197 0
174 198 0
173 197 0
175 198 0
175 198 0
173 197 0
174 197 0
174 198 0
175 198 0
175 198 0
174 198 0
174 198 0
175 198 0
172 197 0
175 198 0
172 197 0
174 198 0
175 198 0
172 197 0
175 198 0
174 197 0
174 198 0
173 197 0
174 198 0
174 198 0
174 197 0
175 198 0
175 198 0
175 198 0
173 197 0
175 198 0
174 198 0
176 199 0
174 197 0
175 198 0
175 198 0
174 197 0
173 197 0
175 198 0
175 198 0
174 198 0
174 197 0
176 199 0
173 197 0
173 197 0
174 198 0
175 198 0
174 197 0
173 197 0
174 198 0
173 197 0
173 197 0
173 196 0
174 198 0
174 197 0
174 197 0
173 197 0
174 197 0
174 197 0
174 198 0
173 196 0
174 197 0
172 196 0
174 198 0
175 198 0
173 197 0
175 198 0
174 198 0
174 198 0
173 197 0
174 198 0
175 198 0
175 198 0
175 198 0
174 198 0
174 197 0
175 198 0
173 197 0
175 198 0
174 197 0
175 198 0
174 197 0
174 197 0
174 197 0
173 197 0
172 196 0
174 198 0
170 193 0
175 198 0
175 198 0
174 198 0
174 197 0
173 197 0
173 197 0
174 198 0
172 195 0
174 197 0
173 197 0
173 196 0
175 197 0
173 197 0
174 197 0
174 198 0
172 197 0
171 194 0
172 196 0
174 198 0
174 197 0
174 197 0
173 196 0
172 197 0
174 197 0
175 198 0
170 194 0
172 195 0
173 197 0
171 195 0
172 196 0
173 196 0
172 195 0
172 196 0
168 191 0
174 197 0
174 197 0
175 197 0
173 197 0
171 195 0
172 195 25
173 196 72
169 193 47
169 191 70
170 193 74
170 192 76
168 190 76
170 193 78
173 195 102
177 200 99
171 194 76
176 198 102
177 199 99
169 191 80
163 185 84
169 191 105
175 197 95
173 194 114
165 187 95
169 190 108
164 185 92
170 190 99
163 183 99
165 186 92
162 183 72
149 170 72
160 182 84
154 175 51
154 175 44
146 168 0
157 180 0
152 174 0
147 168 0
142 162 0
144 164 0
130 151 0
140 161 0
134 154 0
131 151 0
134 155 0
136 156 0
138 159 0
120 139 0
127 148 0
130 149 0
140 161 0
122 143 0
144 165 0
138 158 0
136 155 0
141 160 0
141 163 0
144 165 0
142 164 0
147 168 0
143 163 0
146 167 0
140 162 0
145 166 0
152 173 0
152 174 0
153 175 0
154 175 0
156 178 0
155 177 0
155 177 0
158 179 0
161 184 0
159 181 0
159 182 0
161 183 0
164 187 0
162 185 0
163 186 0
161 184 0
166 189 0
167 190 0
164 186 0
169 192 0
167 189 0
165 188 0
165 187 0
165 187 0
168 191 0
167 191 0
170 192 0
169 191 0
169 192 0
173 196 0
170 192 0
168 191 0
170 193 0
168 192 0
168 190 0
170 192 0
171 193 0
171 194 0
170 193 0
173 196 0
174 196 0
170 193 0
173 196 0
170 193 0
172 195 0
172 196 0
171 194 0
174 197 0
169 193 0
173 197 0
170 193 0
172 196 0
171 195 0
173 195 0
172 196 0
172 195 0
174 196 0
175 198 0
174 197 0
174 195 0
173 197 0
172 195 0
174 197 0
174 198 0
173 196 0
173 196 0
175 198 0
172 196 0
171 195 0
174 197 0
173 197 0
173 197 0
174 197 0
173 197 0
171 195 0
172 196 0
174 198 0
174 197 0
173 197 0
175 197 0
173 197 0
173 196 0
173 197 0
176 198 0
173 197 0
174 197 0
172 196 0
174 197 0
174 198 0
175 198 0
172 196 0
174 197 0
174 197 0
173 196 0
172 196 0
175 198 0
175 198 0
174 198 0
176 198 0
172 197 0
175 198 0
174 198 0
175 198 0
174 197 0
174 197 0
174 198 0
174 198 0
175 198 0
173 197 0
173 197 0
174 198 0
174 197 0
172 197 0
175 198 0
173 196 0
172 196 0
173 197 0
174 197 0
173 197 0
174 198 0
175 198 0
174 198 0
173 196 0
173 197 0
174 197 0
176 199 0
174 197 0
173 197 0
172 197 0
173 197 0
175 198 0
175 198 0
175 198 0
175 198 0
175 198 0
174 198 0
173 197 0
175 198 0
174 198 0
174 197 0
174 197 0
172 197 0
173 197 0
175 198 0
176 199 0
174 197 0
176 199 0
175 198 0
175 198 0
172 196 0
173 197 0
175 198 0
173 197 0
173 197 0
176 198 0
175 198 0
172 197 0
175 198 0
175 198 0
174 198 0
175 198 0
175 198 0
174 198 0
174 197 0
176 199 0
175 198 0
175 198 0
174 197 0
175 198 0
174 198 0
175 198 0
174 198 0
173 197 0
176 198 0
175 198 0
175 198 0
174 197 0
173 197 0
174 198 0
173 197 0
175 198 0
175 198 0
174 198 0
174 197 0
174 198 0
175 198 0
174 197 0
175 198 0
174 198 0
175 198 0
174 198 0
174 198 0
175 198 0
173 197 0
175 198 0
174 198 0
175 198 0
174 198 0
174 197 0
175 198 0
174 197 0
175 198 0
174 197 0
175 198 0
176 199 0
172 196 0
174 198 0
174 198 0
175 198 0
172 197 0
176 198 0
173 197 0
175 198 0
174 197 0
176 199 0
175 198 0
174 198 0
174 198 0
174 198 0
174 198 0
175 198 0
175 198 0
174 197 0
174 198 0
175 198 0
174 198 0
174 197 0
175 198 0
174 198 0
175 198 0
173 197 0
174 197 0
173 197 0
174 198 0
174 198 0
175 198 0
175 198 0
175 198 0
176 199 0
172 196 0
175 198 0
174 197 0
174 198 0
175 198 0
174 198 0
173 197 0
175 198 0
174 198 0
173 197 0
173 197 0
175 198 0
175 198 0
175 198 0
174 198 0
175 198 0
173 197 0
175 198 0
175 198 0
173 197 0
174 197 0
174 198 0
174 197 0
174 197 0
174 197 0
173 197 0
174 197 0
174 197 0
174 197 0
174 198 0
174 198 0
174 198 0
172 196 0
174 198 0
172 196 0
174 197 0
174 198 0
172 196 0
174 198 0
174 198 0
175 198 0
174 198 0
175 198 0
174 197 0
174 197 0
175 198 0
174 197 0
174 198 0
173 197 0
175 198 0
173 197 0
172 196 0
174 198 0
174 198 0
174 198 0
173 197 0
173 197 0
173 197 0
174 198 0
173 197 0
174 198 0
171 195 0
174 197 0
174 198 0
176 199 0
175 198 0
175 198 0
172 196 0
175 198 0
174 197 0
175 198 0
174 198 0
174 198 0
172 195 0
174 197 0
173 197 0
174 198 0
173 197 0
172 195 0
168 192 0
172 196 0
174 196 0
172 196 0
174 197 0
173 197 0
174 197 0
173 197 0
172 196 0
172 196 0
172 196 0
172 195 0
171 194 0
174 197 0
171 194 0
172 196 0
170 195 0
169 192 0
172 196 0
173 196 0
173 196 0
174 198 0
173 197 0
170 194 0
174 197 51
175 197 72
167 189 57
168 191 76
170 192 88
172 194 72
171 193 84
175 198 94
177 198 99
177 200 105
178 200 95
171 193 76
174 196 102
170 191 92
167 190 95
171 192 95
169 192 95
162 183 88
171 192 95
159 180 76
164 185 72
159 180 67
169 191 92
152 174 72
161 180 72
155 177 51
159 180 62
153 174 25
152 174 0
155 178 0
155 177 0
154 176 0
147 168 0
149 170 0
142 161 0
139 160 0
142 163 0
133 155 0
140 161 0
140 161 0
141 162 0
131 151 0
136 157 0
132 153 0
140 160 0
128 149 0
143 165 0
138 159 0
139 160 0
143 164 0
146 168 0
143 164 0
144 167 0
146 168 0
150 172 0
153 174 0
158 179 0
157 179 0
146 167 0
148 170 0
158 181 0
159 181 0
164 186 0
157 179 0
159 181 0
160 182 0
162 184 0
161 184 0
164 186 0
163 186 0
165 188 0
166 187 0
163 184 0
162 185 0
166 188 0
164 186 0
167 188 0
167 191 0
168 191 0
168 190 0
168 191 0
164 186 0
169 189 0
170 193 0
171 195 0
169 192 0
168 190 0
172 194 0
172 195 0
171 193 0
170 193 0
170 194 0
170 194 0
171 195 0
169 193 0
171 194 0
172 195 0
171 194 0
172 194 0
172 195 0
168 192 0
172 194 0
172 195 0
173 195 0
170 194 0
175 197 0
172 195 0
172 194 0
175 197 0
173 196 0
172 196 0
174 197 0
172 196 0
174 197 0
172 196 0
173 196 0
171 195 0
173 197 0
173 196 0
174 196 0
175 198 0
173 197 0
173 197 0
173 197 0
175 198 0
173 197 0
174 197 0
173 196 0
171 195 0
174 197 0
172 195 0
174 197 0
175 198 0
173 197 0
173 196 0
174 196 0
174 197 0
174 198 0
174 198 0
174 198 0
175 198 0
172 196 0
173 196 0
175 198 0
175 197 0
175 198 0
172 196 0
174 197 0
174 197 0
171 194 0
175 198 0
173 197 0
174 198 0
175 198 0
174 197 0
175 198 0
174 197 0
173 196 0
175 198 0
175 198 0
173 197 0
175 198 0
175 198 0
175 198 0
172 197 0
174 197 0
174 198 0
174 197 0
175 198 0
174 197 0
174 198 0
175 198 0
175 198 0
175 198 0
174 197 0
174 198 0
175 198 0
174 198 0
174 198 0
173 197 0
172 196 0
175 198 0
174 197 0
175 198 0
175 198 0
174 198 0
174 198 0
175 198 0
174 198 0
175 198 0
172 196 0
173 197 0
174 198 0
173 197 0
175 198 0
173 197 0
174 198 0
174 197 0
174 198 0
175 198 0
173 197 0
173 197 0
173 197 0
176 199 0
174 198 0
175 198 0
174 198 0
175 198 0
173 197 0
174 198 0
173 197 0
175 198 0
174 197 0
174 197 0
174 198 0
174 198 0
175 198 0
175 198 0
175 198 0
174 197 0
175 198 0
176 199 0
175 198 0
173 197 0
176 199 0
174 198 0
175 198 0
173 197 0
174 198 0
174 198 0
174 198 0
175 198 0
174 198 0
173 197 0
175 198 0
174 197 0
173 197 0
174 198 0
176 199 0
174 198 0
174 197 0
176 199 0
175 198 0
176 199 0
176 198 0
175 198 0
175 198 0
173 197 0
174 198 0
175 198 0
174 198 0
175 198 0
175 198 0
175 198 0
176 199 0
175 198 0
174 198 0
174 197 0
176 199 0
174 198 0
174 198 0
175 198 0
174 198 0
175 198 0
174 197 0
175 198 0
173 197 0
174 198 0
174 198 0
175 198 0
173 197 0
174 198 0
176 199 0
175 198 0
174 198 0
174 198 0
174 197 0
175 198 0
175 198 0
174 197 0
173 197 0
175 198 0
174 198 0
174 197 0
176 198 0
174 197 0
174 197 0
175 198 0
174 198 0
175 198 0
174 197 0
174 198 0
175 198 0
174 198 0
172 197 0
174 198 0
175 198 0
174 197 0
174 198 0
175 198 0
174 197 0
175 198 0
173 197 0
174 198 0
173 197 0
175 198 0
173 197 0
173 196 0
175 198 0
174 198 0
173 197 0
173 197 0
175 198 0
175 198 0
175 198 0
176 198 0
174 197 0
172 196 0
173 197 0
176 198 0
173 197 0
175 197 0
175 198 0
173 197 0
173 197 0
176 199 0
174 197 0
175 198 0
173 197 0
174 197 0
173 197 0
174 197 0
174 197 0
175 198 0
173 196 0
174 197 0
176 199 0
174 197 0
173 197 0
174 198 0
174 197 0
175 198 0
173 197 0
173 197 0
175 198 0
174 197 0
172 196 0
174 197 0
173 197 0
176 198 0
174 198 0
174 197 0
173 197 0
174 197 0
174 197 0
175 198 0
175 198 0
173 197 0
174 198 0
173 197 0
174 198 0
173 197 0
176 199 0
172 196 0
175 197 0
173 196 0
174 198 0
174 197 0
173 197 0
174 198 0
174 197 0
173 197 0
174 197 0
173 197 0
172 196 0
170 195 0
174 197 0
173 197 0
173 196 0
174 197 0
174 197 0
173 196 0
171 194 0
175 198 0
172 195 0
172 196 0
171 195 0
173 197 0
173 196 0
173 197 0
170 193 0
171 195 0
171 195 0
169 193 0
169 192 0
171 194 0
173 197 0
174 197 0
170 194 0
167 191 18
171 194 25
173 196 36
175 196 78
166 189 18
171 193 70
169 191 83
164 187 70
172 193 80
169 191 80
179 199 105
175 196 92
171 192 88
179 200 117
171 193 88
172 193 88
172 193 95
166 188 76
168 190 72
165 186 72
168 190 76
163 184 80
160 181 62
163 185 72
157 178 67
165 187 76
162 184 44
153 175 51
155 178 36
156 179 0
156 179 0
158 180 0
146 168 0
147 168 0
138 160 0
152 172 0
149 171 0
143 164 0
146 168 0
142 164 0
148 169 0
142 164 0
148 169 0
142 163 0
143 165 0
142 165 0
144 166 0
141 161 0
146 168 0
149 172 0
145 167 0
150 172 0
147 169 0
150 171 0
151 173 0
143 165 0
145 166 0
152 174 0
155 178 0
155 178 0
155 177 0
154 175 0
158 180 0
156 180 0
164 187 0
164 186 0
155 179 0
162 184 0
163 186 0
157 179 0
163 186 0
164 187 0
162 184 0
164 186 0
166 188 0
166 188 0
165 189 0
170 193 0
162 185 0
169 192 0
166 189 0
169 192 0
172 194 0
169 191 0
171 194 0
165 188 0
170 192 0
169 191 0
171 194 0
171 195 0
170 192 0
173 196 0
171 195 0
171 193 0
171 194 0
171 194 0
170 193 0
169 193 0
172 195 0
172 196 0
173 196 0
172 195 0
173 197 0
173 195 0
171 195 0
173 197 0
172 196 0
173 196 0
172 195 0
169 192 0
169 193 0
174 197 0
173 197 0
172 195 0
172 196 0
173 196 0
173 196 0
174 197 0
173 197 0
174 196 0
175 198 0
172 195 0
172 196 0
174 197 0
173 196 0
173 196 0
173 196 0
173 196 0
174 198 0
173 197 0
173 196 0
173 197 0
173 197 0
173 196 0
176 199 0
173 196 0
175 197 0
173 197 0
174 197 0
174 198 0
173 197 0
173 196 0
174 197 0
174 197 0
176 199 0
174 197 0
173 196 0
175 198 0
173 196 0
174 198 0
173 197 0
174 198 0
174 197 0
174 197 0
176 198 0
175 198 0
174 197 0
173 197 0
175 198 0
175 197 0
174 198 0
172 196 0
174 197 0
173 196 0
173 197 0
173 197 0
175 198 0
173 197 0
174 198 0
175 198 0
173 197 0
174 197 0
173 196 0
175 198 0
177 199 0
174 198 0
172 196 0
175 198 0
175 198 0
175 198 0
174 198 0
175 198 0
175 198 0
174 198 0
174 198 0
174 198 0
174 197 0
174 198 0
174 198 0
174 198 0
174 197 0
176 199 0
175 198 0
176 198 0
176 198 0
175 198 0
173 197 0
175 198 0
174 197 0
174 198 0
175 198 0
176 198 0
173 197 0
174 198 0
174 198 0
174 198 0
175 198 0
174 198 0
174 198 0
174 198 0
174 198 0
174 197 0
174 198 0
175 198 0
175 198 0
176 198 0
173 197 0
174 197 0
174 197 0
174 198 0
175 198 0
176 199 0
175 198 0
174 198 0
174 198 0
176 198 0
173 197 0
175 198 0
175 198 0
174 198 0
174 198 0
174 197 0
173 197 0
174 198 0
175 198 0
174 198 0
175 198 0
176 199 0
176 199 0
175 198 0
175 198 0
174 198 0
173 197 0
174 198 0
174 198 0
174 197 0
175 198 0
174 198 0
175 198 0
174 197 0
174 198 0
175 198 0
173 197 0
173 197 0
174 197 0
174 197 0
173 197 0
173 197 0
174 198 0
174 197 0
174 198 0
173 197 0
176 199 0
174 198 0
176 198 0
174 198 0
174 197 0
173 197 0
173 197 0
173 197 0
174 197 0
174 198 0
175 198 0
173 197 0
176 198 0
175 198 0
174 198 0
175 198 0
175 198 0
174 198 0
174 197 0
175 198 0
175 198 0
174 198 0
174 198 0
175 198 0
174 197 0
175 198 0
175 198 0
174 197 0
174 197 0
176 198 0
175 198 0
173 197 0
173 197 0
174 198 0
174 198 0
175 198 0
174 197 0
173 197 0
174 198 0
175 198 0
175 198 0
174 197 0
176 199 0
175 198 0
175 198 0
174 198 0
173 197 0
174 198 0
173 196 0
175 198 0
173 197 0
174 198 0
175 198 0
174 198 0
174 198 0
175 198 0
174 197 0
175 198 0
175 198 0
174 198 0
172 197 0
175 198 0
174 197 0
175 198 0
173 197 0
174 198 0
174 198 0
173 197 0
176 198 0
174 197 0
173 197 0
174 197 0
172 196 0
173 197 0
174 197 0
175 198 0
173 197 0
172 196 0
174 197 0
174 197 0
173 196 0
174 198 0
174 197 0
173 197 0
174 197 0
173 197 0
174 197 0
172 195 0
175 198 0
174 198 0
174 198 0
174 197 0
173 197 0
172 196 0
173 197 0
174 197 0
174 197 0
175 198 0
174 198 0
173 197 0
174 197 0
174 198 0
173 196 0
175 198 0
176 199 0
172 196 0
173 197 0
173 196 0
173 197 0
176 198 0
173 196 0
175 198 0
174 196 0
172 196 0
171 194 0
173 197 0
173 197 0
173 197 0
172 196 0
173 196 0
173 196 0
172 196 0
173 197 0
173 196 0
172 197 0
173 197 0
169 193 0
173 196 0
173 197 0
174 196 0
172 195 0
168 192 0
173 196 0
173 197 0
174 197 0
173 197 0
173 196 0
174 198 0
172 196 0
172 195 0
171 194 18
163 186 18
172 195 47
172 194 65
165 188 51
171 193 70
168 190 70
171 193 70
177 197 103
179 200 105
176 197 102
173 194 95
174 196 92
167 189 95
170 191 80
171 191 67
168 189 72
163 185 76
164 185 67
161 183 80
161 182 67
161 183 80
164 185 72
166 187 62
157 179 62
156 178 25
163 186 36
164 187 0
149 172 0
156 179 0
148 170 0
139 161 0
149 171 0
138 160 0
149 171 0
140 162 0
145 167 0
151 173 0
146 169 0
146 167 0
142 163 0
138 160 0
158 179 0
134 155 0
146 167 0
142 163 0
146 167 0
137 161 0
148 170 0
146 168 0
155 178 0
153 175 0
154 177 0
157 178 0
153 175 0
155 177 0
155 177 0
154 177 0
163 186 0
157 180 0
155 178 0
159 182 0
161 184 0
159 182 0
155 177 0
160 182 0
157 179 0
163 186 0
164 186 0
167 189 0
170 193 0
165 187 0
166 189 0
168 190 0
170 194 0
169 191 0
169 191 0
170 194 0
172 194 0
169 191 0
170 192 0
168 191 0
169 191 0
170 192 0
172 195 0
170 193 0
168 190 0
172 195 0
172 195 0
173 196 0
173 196 0
172 195 0
168 192 0
173 196 0
172 196 0
173 196 0
170 192 0
171 195 0
171 194 0
170 193 0
173 196 0
172 195 0
171 195 0
174 197 0
172 196 0
173 196 0
172 195 0
173 196 0
172 195 0
171 195 0
172 195 0
174 197 0
172 195 0
171 195 0
174 197 0
173 195 0
172 194 0
173 196 0
172 196 0
174 197 0
174 197 0
172 196 0
173 197 0
172 196 0
172 196 0
175 198 0
174 197 0
175 198 0
174 197 0
174 197 0
172 196 0
173 197 0
172 197 0
173 197 0
173 197 0
171 195 0
175 198 0
173 196 0
173 197 0
173 197 0
173 196 0
172 197 0
174 197 0
174 197 0
175 198 0
174 197 0
172 196 0
175 198 0
174 197 0
174 198 0
173 197 0
175 198 0
173 197 0
175 198 0
176 199 0
174 198 0
174 198 0
176 198 0
175 198 0
176 198 0
174 198 0
175 198 0
174 197 0
175 198 0
175 198 0
176 199 0
176 199 0
175 198 0
175 198 0
175 198 0
173 197 0
176 199 0
173 197 0
174 198 0
174 197 0
174 197 0
175 198 0
175 198 0
174 197 0
174 197 0
176 199 0
175 198 0
174 197 0
174 198 0
176 198 0
173 197 0
174 197 0
174 197 0
173 197 0
175 198 0
175 198 0
173 197 0
174 197 0
175 198 0
178 199 0
175 198 0
174 198 0
174 198 0
174 198 0
174 198 0
174 198 0
174 198 0
176 199 0
175 198 0
174 198 0
176 199 0
171 196 0
175 198 0
174 198 0
174 198 0
176 199 0
172 197 0
175 198 0
173 197 0
173 197 0
175 198 0
173 197 0
174 197 0
172 196 0
174 198 0
174 198 0
173 197 0
175 198 0
175 198 0
173 197 0
173 197 0
175 198 0
174 198 0
175 198 0
173 197 0
175 198 0
174 198 0
172 196 0
177 199 0
174 197 0
171 196 0
175 198 0
173 197 0
173 197 0
174 197 0
174 198 0
174 197 0
173 197 0
174 198 0
174 198 0
174 197 0
174 198 0
173 197 0
174 198 0
174 198 0
175 198 0
176 199 0
175 198 0
174 198 0
174 198 0
175 198 0
174 198 0
175 198 0
173 197 0
173 197 0
175 198 0
174 197 0
173 197 0
173 197 0
174 198 0
175 198 0
176 199 0
173 197 0
175 198 0
176 199 0
174 197 0
174 198 0
175 198 0
175 198 0
174 198 0
176 198 0
175 198 0
172 197 0
174 197 0
174 198 0
174 197 0
175 198 0
173 197 0
175 198 0
175 198 0
175 198 0
175 198 0
175 198 0
173 197 0
174 198 0
175 198 0
174 198 0
175 198 0
173 197 0
175 198 0
176 198 0
174 198 0
175 198 0
174 197 0
174 198 0
175 198 0
176 199 0
175 198 0
175 198 0
175 198 0
176 199 0
175 198 0
173 197 0
175 198 0
173 197 0
175 198 0
174 197 0
174 197 0
174 197 0
174 197 0
173 197 0
173 197 0
173 197 0
175 198 0
173 197 0
174 198 0
175 198 0
174 197 0
175 198 0
174 197 0
174 197 0
171 195 0
176 199 0
174 198 0
173 197 0
175 198 0
173 197 0
175 198 0
174 198 0
173 197 0
174 197 0
175 198 0
173 197 0
176 199 0
174 197 0
174 198 0
173 197 0
173 196 0
175 198 0
174 197 0
175 198 0
174 197 0
174 197 0
173 197 0
175 198 0
174 198 0
175 198 0
174 197 0
174 197 0
173 197 0
174 197 0
171 196 0
173 197 0
173 197 0
174 198 0
174 197 0
173 196 0
174 198 0
174 197 0
173 196 0
174 198 0
173 197 0
172 196 0
170 193 0
172 195 0
172 196 0
173 197 0
173 197 0
172 196 0
170 194 0
173 197 0
172 196 0
175 198 0
174 197 0
172 196 0
173 197 0
172 196 0
173 196 0
170 194 0
174 197 0
174 197 0
175 198 0
174 198 0
170 194 0
172 196 0
171 195 0
171 194 0
168 192 0
168 192 0
174 197 0
170 194 0
173 197 0
173 196 0
174 197 0
173 197 25
172 195 0
172 195 0
167 189 0
172 194 57
170 193 40
168 191 51
173 194 36
165 187 74
178 200 88
176 198 76
174 196 57
175 196 62
175 196 67
167 189 62
171 192 57
166 188 80
164 185 62
165 186 57
167 188 36
166 187 76
163 185 57
170 190 72
159 182 44
165 186 51
160 181 0
164 186 44
163 185 36
163 186 0
157 180 0
152 174 0
146 167 0
154 176 0
154 176 0
150 171 0
148 169 0
161 183 0
155 177 0
151 173 0
143 165 0
139 162 0
144 166 0
145 167 0
159 181 0
152 175 0
155 178 0
156 179 0
155 177 0
156 178 0
156 178 0
152 175 0
150 172 0
152 174 0
151 173 0
154 177 0
150 172 0
151 173 0
158 180 0
158 181 0
161 181 0
163 185 0
155 176 0
160 182 0
161 183 0
166 188 0
159 180 0
168 191 0
163 185 0
162 185 0
162 184 0
167 189 0
166 190 0
165 189 0
165 188 0
169 190 0
169 191 0
163 186 0
170 193 0
170 193 0
167 191 0
166 190 0
164 188 0
169 192 0
169 191 0
170 192 0
170 192 0
170 192 0
171 195 0
169 191 0
170 194 0
168 192 0
169 193 0
170 193 0
167 191 0
172 196 0
170 194 0
173 196 0
174 197 0
169 192 0
172 195 0
171 194 0
173 195 0
171 195 0
172 195 0
174 196 0
172 196 0
173 196 0
172 196 0
171 195 0
173 196 0
174 197 0
173 196 0
174 196 0
171 195 0
172 196 0
173 197 0
175 198 0
173 197 0
171 195 0
173 196 0
172 196 0
173 197 0
171 195 0
173 197 0
174 198 0
174 197 0
174 197 0
175 198 0
173 196 0
174 197 0
173 197 0
172 196 0
174 197 0
172 196 0
174 197 0
174 196 0
174 198 0
174 197 0
174 198 0
174 198 0
174 196 0
173 197 0
174 198 0
175 198 0
174 198 0
173 197 0
175 198 0
174 196 0
173 197 0
172 197 0
174 197 0
173 197 0
173 197 0
174 198 0
174 197 0
174 197 0
174 197 0
173 197 0
174 197 0
175 198 0
174 198 0
174 198 0
173 197 0
175 198 0
175 198 0
173 197 0
174 197 0
175 198 0
175 198 0
174 197 0
174 197 0
174 197 0
173 197 0
173 196 0
173 197 0
173 197 0
175 197 0
174 197 0
174 197 0
174 198 0
173 197 0
174 197 0
174 198 0
175 198 0
175 198 0
175 198 0
175 198 0
174 197 0
173 197 0
174 197 0
174 198 0
174 198 0
175 198 0
175 198 0
173 197 0
175 198 0
172 196 0
175 198 0
174 197 0
174 197 0
174 198 0
175 198 0
175 198 0
175 198 0
174 198 0
174 198 0
173 197 0
176 199 0
173 197 0
174 198 0
175 198 0
174 197 0
174 198 0
176 198 0
174 198 0
174 197 0
174 197 0
175 198 0
173 197 0
174 198 0
175 198 0
173 197 0
173 197 0
174 197 0
175 198 0
173 197 0
173 197 0
174 198 0
176 199 0
175 198 0
173 197 0
175 198 0
175 198 0
174 198 0
174 197 0
173 197 0
174 198 0
174 198 0
173 197 0
174 197 0
174 198 0
175 198 0
174 197 0
175 198 0
175 198 0
174 198 0
174 198 0
174 198 0
174 198 0
174 198 0
175 198 0
173 197 0
173 197 0
175 198 0
173 197 0
174 197 0
173 197 0
176 198 0
175 198 0
174 198 0
174 198 0
174 198 0
174 198 0
174 197 0
174 198 0
174 197 0
175 198 0
175 198 0
173 197 0
176 199 0
174 198 0
173 197 0
172 197 0
175 198 0
173 197 0
174 197 0
173 197 0
173 197 0
174 198 0
175 198 0
174 198 0
175 198 0
176 198 0
172 197 0
174 198 0
176 199 0
175 198 0
175 198 0
174 198 0
175 198 0
172 197 0
175 198 0
174 198 0
173 197 0
176 198 0
173 197 0
175 198 0
174 198 0
175 198 0
175 198 0
171 195 0
176 198 0
174 198 0
174 198 0
175 198 0
175 198 0
173 197 0
172 197 0
175 198 0
172 197 0
175 198 0
174 197 0
174 197 0
173 197 0
174 197 0
174 197 0
173 197 0
174 197 0
175 198 0
173 197 0
174 198 0
173 196 0
175 198 0
174 197 0
174 198 0
172 196 0
175 198 0
175 198 0
174 198 0
174 198 0
173 197 0
176 199 0
174 198 0
174 198 0
174 198 0
174 197 0
175 198 0
175 198 0
175 198 0
172 196 0
174 198 0
176 199 0
173 197 0
172 196 0
175 198 0
173 197 0
174 197 0
172 196 0
174 197 0
174 197 0
174 198 0
174 198 0
175 198 0
172 196 0
175 198 0
175 198 0
173 196 0
173 197 0
174 197 0
171 195 0
172 196 0
173 196 0
173 197 0
173 197 0
173 196 0
173 196 0
174 198 0
174 198 0
174 197 0
174 197 0
173 197 0
173 196 0
173 197 0
173 197 0
174 197 0
174 197 0
175 198 0
175 198 0
172 196 0
175 198 0
172 196 0
173 196 0
173 196 0
170 194 0
171 195 0
175 198 0
172 196 0
172 195 0
171 195 0
173 197 0
172 195 0
173 196 0
174 197 0
172 196 0
172 196 0
170 193 0
173 196 0
172 196 0
172 196 0
174 197 0
176 199 0
172 195 25
171 193 18
168 191 0
176 199 54
175 197 36
169 192 78
169 192 44
167 189 40
177 199 72
173 194 67
168 189 62
171 192 57
171 192 57
167 189 67
167 189 51
167 189 67
166 188 57
172 194 72
166 188 92
169 190 80
167 188 44
170 191 57
164 186 62
166 189 36
159 181 25
166 190 0
161 185 0
159 182 0
162 184 0
154 176 0
154 176 0
156 177 0
153 175 0
148 170 0
154 177 0
150 171 0
152 174 0
153 175 0
158 181 0
143 165 0
151 172 0
147 170 0
145 167 0
148 170 0
148 171 0
152 173 0
152 174 0
156 179 0
154 176 0
157 179 0
159 182 0
154 177 0
151 173 0
158 180 0
158 180 0
157 179 0
157 180 0
155 178 0
156 179 0
157 179 0
161 184 0
163 186 0
161 184 0
161 184 0
162 185 0
165 188 0
161 184 0
163 187 0
164 187 0
163 187 0
167 189 0
166 190 0
164 187 0
164 187 0
163 187 0
165 188 0
169 192 0
170 192 0
168 191 0
167 190 0
167 190 0
168 191 0
174 197 0
172 194 0
167 190 0
169 192 0
170 193 0
173 195 0
172 195 0
168 192 0
173 195 0
173 196 0
173 196 0
171 194 0
171 194 0
171 194 0
171 194 0
173 196 0
171 195 0
172 196 0
172 195 0
168 191 0
174 198 0
172 196 0
174 197 0
171 194 0
172 195 0
174 197 0
171 194 0
174 196 0
172 196 0
174 197 0
172 196 0
170 194 0
174 196 0
173 196 0
173 196 0
172 196 0
173 197 0
172 195 0
175 198 0
171 195 0
173 196 0
175 198 0
173 197 0
174 197 0
171 194 0
174 198 0
173 197 0
174 197 0
175 198 0
173 196 0
174 197 0
174 197 0
175 198 0
174 197 0
175 198 0
176 198 0
175 198 0
174 197 0
174 197 0
175 198 0
174 197 0
174 198 0
175 198 0
174 198 0
175 198 0
174 198 0
174 197 0
175 198 0
174 197 0
175 198 0
174 198 0
174 197 0
173 197 0
175 198 0
173 197 0
177 199 0
173 197 0
173 197 0
176 198 0
173 196 0
176 199 0
174 198 0
172 196 0
174 198 0
173 197 0
175 197 0
174 197 0
175 198 0
175 198 0
174 198 0
174 198 0
175 198 0
175 198 0
175 198 0
175 198 0
175 198 0
174 197 0
175 198 0
175 198 0
174 197 0
174 197 0
174 198 0
175 198 0
172 196 0
174 198 0
174 198 0
174 198 0
173 197 0
174 198 0
173 197 0
172 197 0
175 198 0
172 197 0
175 198 0
177 199 0
175 198 0
173 197 0
174 198 0
175 198 0
174 198 0
174 198 0
174 197 0
175 198 0
174 198 0
174 197 0
174 198 0
175 198 0
175 198 0
175 198 0
175 198 0
175 198 0
174 198 0
173 197 0
174 198 0
173 197 0
175 198 0
173 197 0
175 198 0
176 199 0
174 197 0
174 198 0
175 198 0
175 198 0
177 199 0
175 198 0
176 199 0
174 197 0
175 198 0
173 197 0
174 198 0
174 197 0
175 198 0
176 198 0
175 198 0
175 198 0
174 198 0
174 198 0
174 198 0
176 199 0
174 198 0
173 197 0
174 197 0
174 198 0
175 198 0
173 197 0
175 198 0
173 197 0
175 198 0
174 197 0
174 198 0
174 198 0
174 198 0
174 198 0
175 198 0
175 198 0
174 197 0
174 198 0
174 198 0
173 197 0
175 198 0
172 196 0
174 198 0
175 198 0
174 197 0
174 197 0
175 198 0
175 198 0
175 198 0
173 197 0
175 198 0
175 198 0
176 199 0
175 198 0
175 198 0
173 197 0
173 197 0
175 198 0
174 198 0
172 197 0
173 197 0
176 198 0
174 197 0
173 197 0
175 198 0
174 198 0
174 198 0
174 198 0
173 197 0
175 198 0
174 198 0
174 198 0
176 199 0
174 198 0
174 198 0
174 198 0
173 197 0
174 198 0
174 197 0
174 197 0
174 197 0
174 198 0
175 198 0
176 199 0
174 198 0
175 198 0
176 199 0
176 198 0
174 198 0
173 196 0
174 197 0
173 197 0
173 197 0
173 197 0
175 198 0
174 198 0
174 198 0
174 198 0
174 198 0
175 198 0
174 197 0
174 198 0
174 198 0
174 197 0
176 199 0
174 197 0
174 198 0
171 196 0
174 198 0
176 199 0
176 198 0
172 196 0
173 197 0
173 197 0
176 199 0
175 198 0
174 197 0
174 197 0
175 198 0
174 198 0
173 197 0
174 197 0
174 198 0
174 198 0
175 198 0
174 197 0
174 197 0
175 198 0
176 198 0
174 198 0
173 197 0
174 198 0
172 196 0
175 198 0
173 197 0
172 195 0
173 197 0
174 198 0
174 198 0
172 195 0
174 198 0
173 196 0
173 197 0
173 196 0
174 197 0
175 198 0
170 194 0
174 197 0
173 196 0
176 198 0
175 198 0
173 197 0
172 195 0
174 197 0
175 198 0
172 196 0
173 197 0
173 196 0
174 197 0
173 196 0
174 198 0
171 195 0
172 195 0
170 195 0
173 197 0
173 196 0
172 196 0
173 197 0
171 195 0
172 196 0
169 193 0
173 196 0
171 194 0
174 197 0
172 195 0
172 195 0
173 197 0
173 196 0
172 196 0
172 196 0
173 196 25
172 195 36
168 191 31
173 196 36
175 197 36
173 195 57
178 200 62
174 195 67
174 195 67
173 195 84
175 197 88
175 197 57
166 188 76
166 188 44
168 190 51
165 186 67
168 189 67
171 193 62
170 191 67
170 191 67
163 185 67
165 187 36
164 186 25
156 180 0
166 189 0
165 187 0
165 187 0
159 182 0
155 176 0
154 176 0
162 184 0
156 179 0
144 167 0
150 172 0
153 176 0
153 176 0
157 180 0
145 167 0
156 177 0
157 179 0
152 175 0
150 173 0
147 169 0
152 174 0
153 175 0
157 180 0
146 170 0
144 166 0
157 180 0
157 180 0
152 174 0
161 182 0
163 185 0
158 180 0
159 182 0
154 176 0
155 177 0
154 178 0
159 182 0
157 179 0
158 180 0
161 184 0
165 188 0
165 188 0
160 185 0
163 185 0
162 184 0
168 190 0
166 189 0
168 191 0
163 186 0
167 189 0
165 187 0
170 192 0
168 191 0
169 192 0
171 194 0
167 190 0
167 190 0
169 192 0
169 191 0
168 191 0
170 193 0
171 194 0
172 194 0
171 194 0
170 194 0
170 192 0
171 194 0
172 195 0
171 193 0
172 195 0
172 195 0
171 194 0
169 192 0
170 193 0
173 197 0
172 194 0
171 193 0
171 195 0
171 195 0
172 195 0
171 194 0
172 195 0
172 195 0
172 195 0
172 196 0
174 196 0
173 196 0
170 194 0
173 196 0
173 196 0
172 194 0
173 196 0
173 196 0
173 196 0
174 197 0
173 197 0
174 197 0
172 195 0
173 196 0
173 196 0
175 198 0
173 197 0
173 196 0
174 198 0
172 196 0
173 197 0
175 197 0
173 197 0
174 198 0
175 197 0
175 198 0
173 195 0
174 197 0
174 198 0
174 197 0
173 197 0
172 194 0
176 199 0
175 198 0
175 198 0
174 198 0
174 197 0
174 198 0
173 197 0
173 197 0
175 198 0
173 197 0
174 198 0
174 198 0
174 197 0
174 197 0
174 197 0
174 198 0
173 197 0
174 197 0
174 197 0
174 198 0
175 198 0
174 198 0
172 196 0
174 197 0
175 198 0
173 196 0
175 198 0
173 197 0
174 198 0
176 198 0
175 198 0
175 198 0
174 198 0
175 198 0
174 197 0
172 197 0
175 198 0
173 197 0
175 198 0
176 199 0
175 198 0
175 198 0
174 198 0
176 199 0
173 197 0
175 198 0
173 197 0
174 198 0
174 197 0
175 198 0
173 197 0
173 197 0
176 199 0
176 198 0
175 198 0
174 197 0
175 198 0
173 197 0
175 198 0
174 198 0
173 197 0
174 198 0
175 198 0
176 198 0
176 198 0
174 197 0
174 198 0
173 197 0
173 197 0
176 199 0
174 198 0
173 197 0
174 198 0
174 198 0
174 198 0
175 198 0
173 197 0
175 198 0
174 198 0
173 197 0
174 198 0
174 198 0
174 198 0
174 198 0
174 198 0
174 198 0
173 197 0
175 198 0
174 198 0
175 198 0
175 198 0
174 198 0
173 197 0
175 198 0
173 197 0
175 198 0
176 199 0
175 198 0
174 198 0
176 198 0
174 198 0
173 197 0
174 198 0
175 198 0
174 198 0
173 197 0
175 198 0
174 198 0
174 198 0
172 196 0
175 198 0
175 198 0
175 198 0
176 199 0
173 197 0
175 198 0
175 198 0
175 198 0
174 197 0
173 197 0
174 198 0
174 197 0
173 197 0
174 197 0
175 198 0
174 198 0
175 198 0
173 197 0
174 198 0
175 198 0
176 198 0
176 198 0
174 197 0
174 198 0
175 198 0
175 198 0
175 198 0
176 199 0
174 197 0
178 200 0
174 197 0
175 198 0
174 198 0
172 197 0
174 197 0
175 198 0
175 198 0
176 199 0
173 197 0
174 198 0
174 198 0
174 198 0
173 197 0
173 197 0
175 198 0
175 198 0
174 197 0
174 198 0
174 198 0
173 197 0
175 198 0
175 198 0
174 197 0
174 198 0
173 197 0
174 197 0
173 197 0
174 197 0
174 197 0
174 197 0
171 195 0
171 196 0
175 198 0
176 199 0
174 198 0
174 198 0
173 197 0
174 197 0
174 198 0
173 197 0
174 198 0
174 198 0
175 198 0
175 198 0
172 196 0
174 198 0
172 197 0
174 197 0
173 197 0
174 198 0
173 197 0
175 198 0
174 197 0
174 198 0
173 196 0
175 198 0
173 197 0
174 198 0
175 198 0
172 196 0
174 197 0
173 196 0
175 198 0
173 196 0
174 198 0
176 198 0
174 197 0
172 196 0
175 198 0
174 198 0
174 197 0
173 197 0
176 199 0
173 196 0
175 198 0
174 197 0
170 194 0
172 196 0
171 195 0
174 197 0
172 196 0
171 195 0
173 197 0
174 197 0
172 195 0
174 197 0
174 197 0
174 197 0
174 197 0
172 196 0
173 197 0
174 197 0
173 197 0
172 195 0
173 197 0
173 196 0
172 195 0
171 194 0
175 198 0
170 193 0
173 197 0
173 197 0
172 196 0
174 197 0
171 195 0
174 197 0
173 196 0
170 194 0
170 195 0
172 196 0
173 197 0
169 193 0
172 195 0
173 196 0
173 196 0
172 196 0
172 196 0
171 194 0
175 198 0
172 196 0
172 197 0
171 194 0
171 195 25
174 196 36
172 194 25
171 193 25
176 198 72
177 198 67
179 200 76
175 196 72
174 196 51
178 198 72
170 192 57
170 191 67
170 192 80
169 190 25
170 192 62
174 194 57
172 194 72
172 192 62
169 191 44
162 184 25
170 191 62
165 188 0
166 189 0
159 181 0
160 182 0
162 184 0
156 179 0
156 179 0
157 178 0
156 178 0
156 177 0
150 172 0
157 179 0
157 180 0
149 171 0
156 178 0
156 179 0
150 174 0
158 181 0
150 172 0
156 179 0
154 177 0
162 184 0
154 176 0
152 174 0
158 180 0
151 174 0
163 185 0
155 177 0
154 175 0
162 185 0
158 180 0
160 182 0
159 182 0
158 181 0
158 181 0
155 178 0
162 185 0
162 185 0
162 184 0
168 191 0
161 183 0
161 183 0
170 193 0
166 188 0
165 188 0
168 191 0
165 188 0
165 187 0
172 194 0
162 186 0
169 191 0
165 189 0
164 187 0
171 194 0
166 189 0
168 191 0
166 189 0
169 193 0
171 193 0
165 187 0
171 194 0
169 190 0
167 189 0
170 193 0
171 193 0
170 192 0
171 194 0
174 196 0
168 192 0
167 191 0
171 194 0
171 194 0
169 192 0
172 195 0
167 190 0
174 196 0
172 196 0
173 196 0
172 195 0
171 195 0
172 196 0
173 196 0
172 196 0
174 197 0
173 197 0
173 196 0
173 196 0
174 197 0
172 195 0
173 196 0
173 195 0
172 195 0
174 197 0
175 198 0
173 197 0
172 195 0
172 195 0
174 198 0
175 198 0
174 197 0
175 198 0
173 197 0
173 197 0
174 197 0
173 197 0
173 196 0
171 195 0
174 197 0
173 197 0
174 197 0
175 198 0
174 197 0
173 197 0
172 195 0
173 197 0
172 196 0
175 198 0
174 198 0
175 198 0
174 197 0
172 197 0
173 196 0
174 198 0
175 197 0
175 198 0
175 198 0
175 198 0
174 197 0
174 198 0
175 198 0
173 196 0
174 198 0
173 197 0
174 198 0
175 198 0
175 198 0
174 197 0
175 198 0
174 198 0
173 197 0
175 198 0
173 197 0
175 198 0
174 197 0
175 198 0
173 197 0
173 197 0
175 198 0
174 198 0
176 198 0
174 197 0
174 197 0
175 198 0
174 197 0
174 198 0
175 198 0
175 198 0
172 197 0
173 197 0
175 198 0
175 198 0
173 197 0
175 198 0
173 197 0
175 198 0
175 198 0
174 198 0
176 199 0
174 197 0
173 197 0
175 198 0
177 199 0
175 198 0
175 198 0
175 197 0
173 196 0
175 198 0
174 198 0
174 198 0
173 197 0
174 198 0
175 198 0
175 198 0
172 196 0
175 198 0
175 198 0
173 197 0
175 198 0
176 199 0
173 196 0
176 198 0
175 198 0
174 198 0
175 198 0
173 197 0
175 198 0
172 196 0
173 197 0
174 198 0
174 198 0
174 197 0
174 197 0
175 198 0
174 197 0
173 197 0
173 197 0
174 197 0
175 198 0
174 198 0
175 198 0
174 198 0
173 197 0
175 198 0
175 198 0
176 198 0
175 198 0
174 198 0
174 198 0
174 198 0
174 198 0
175 198 0
173 197 0
174 197 0
174 197 0
174 198 0
176 198 0
176 198 0
173 197 0
174 197 0
175 198 0
174 197 0
176 199 0
176 198 0
175 198 0
176 198 0
173 197 0
175 198 0
174 198 0
174 197 0
173 197 0
172 197 0
173 197 0
174 198 0
176 199 0
174 198 0
174 198 0
176 198 0
174 198 0
176 198 0
174 198 0
174 198 0
174 197 0
174 198 0
174 197 0
171 196 0
174 198 0
175 198 0
174 197 0
173 197 0
174 197 0
176 199 0
174 198 0
174 198 0
176 199 0
174 197 0
175 198 0
174 197 0
174 198 0
175 198 0
174 197 0
174 198 0
174 198 0
174 198 0
176 198 0
174 197 0
174 197 0
173 197 0
176 199 0
174 198 0
174 197 0
175 198 0
174 197 0
173 197 0
174 198 0
175 198 0
175 198 0
175 198 0
175 198 0
172 197 0
175 198 0
173 197 0
174 198 0
173 197 0
175 198 0
176 199 0
176 198 0
175 198 0
174 197 0
174 198 0
174 198 0
175 198 0
176 199 0
173 197 0
174 198 0
175 198 0
174 197 0
173 197 0
175 197 0
175 198 0
173 197 0
173 197 0
175 198 0
174 197 0
174 198 0
173 197 0
174 198 0
174 197 0
174 197 0
173 197 0
174 198 0
174 198 0
174 198 0
175 198 0
173 197 0
174 197 0
174 197 0
174 197 0
173 197 0
171 195 0
175 198 0
173 196 0
174 198 0
173 196 0
175 198 0
173 196 0
174 198 0
174 198 0
176 198 0
171 194 0
174 197 0
174 198 0
172 196 0
173 197 0
174 198 0
174 197 0
173 197 0
172 196 0
172 196 0
172 195 0
174 198 0
171 195 0
171 195 0
175 198 0
174 197 0
174 197 0
174 197 0
175 198 0
174 197 0
173 197 0
174 198 0
174 196 0
174 198 0
171 195 0
172 195 0
171 196 0
173 197 0
173 196 0
172 196 0
173 197 0
170 194 0
171 195 0
173 197 0
172 194 0
173 196 0
174 197 0
174 197 0
174 197 0
172 196 0
173 197 0
173 197 25
172 196 36
173 196 0
172 194 25
168 190 40
174 196 25
180 201 76
174 196 57
177 198 84
173 194 57
171 192 57
175 196 67
174 195 51
176 197 88
172 193 67
173 194 67
168 188 0
170 192 57
164 187 36
174 195 44
170 193 25
169 192 0
166 189 0
157 180 0
164 186 0
157 179 0
158 180 0
161 183 0
165 186 0
157 179 0
160 182 0
151 173 0
157 180 0
154 176 0
148 172 0
162 184 0
157 181 0
158 181 0
157 179 0
151 174 0
161 183 0
159 182 0
162 185 0
155 178 0
156 179 0
161 183 0
155 179 0
161 185 0
156 179 0
160 183 0
162 184 0
160 183 0
159 183 0
167 190 0
158 180 0
162 186 0
163 185 0
165 188 0
165 187 0
162 185 0
167 190 0
168 191 0
169 191 0
163 186 0
167 190 0
164 186 0
166 188 0
168 191 0
168 191 0
170 192 0
165 188 0
167 189 0
165 188 0
168 192 0
165 188 0
168 191 0
168 191 0
171 194 0
169 192 0
167 191 0
171 194 0
168 191 0
171 193 0
171 194 0
170 193 0
168 192 0
170 193 0
170 193 0
169 192 0
171 195 0
168 191 0
173 195 0
169 192 0
171 194 0
174 196 0
174 196 0
173 195 0
173 196 0
170 193 0
172 195 0
171 195 0
170 193 0
173 196 0
172 195 0
171 194 0
171 194 0
173 197 0
173 195 0
173 196 0
174 197 0
174 197 0
170 194 0
173 195 0
173 196 0
173 197 0
172 195 0
171 194 0
172 196 0
174 198 0
173 197 0
175 198 0
171 196 0
174 197 0
174 197 0
174 197 0
174 197 0
175 198 0
171 195 0
174 197 0
172 196 0
173 197 0
172 195 0
175 198 0
173 196 0
174 197 0
174 197 0
174 198 0
173 197 0
172 196 0
172 196 0
174 198 0
174 197 0
173 196 0
176 198 0
173 197 0
174 197 0
173 197 0
174 198 0
175 198 0
173 197 0
174 197 0
173 196 0
172 197 0
171 195 0
174 198 0
173 197 0
175 198 0
174 198 0
174 198 0
174 197 0
173 197 0
175 198 0
172 196 0
176 199 0
172 196 0
173 197 0
174 198 0
174 198 0
172 197 0
174 197 0
174 198 0
172 197 0
174 198 0
175 198 0
174 198 0
173 197 0
175 198 0
173 197 0
175 198 0
174 198 0
174 198 0
175 198 0
174 197 0
175 198 0
173 197 0
175 198 0
175 198 0
175 198 0
174 198 0
175 198 0
174 197 0
175 198 0
172 196 0
174 197 0
173 197 0
174 197 0
175 198 0
173 197 0
174 198 0
175 198 0
175 198 0
175 198 0
174 198 0
174 198 0
175 198 0
173 197 0
174 198 0
175 198 0
173 197 0
175 198 0
174 198 0
176 199 0
176 198 0
173 197 0
174 197 0
174 197 0
175 198 0
175 198 0
175 198 0
174 198 0
175 198 0
175 198 0
175 198 0
175 198 0
174 197 0
173 197 0
174 197 0
175 198 0
175 198 0
173 197 0
174 198 0
175 198 0
175 198 0
174 198 0
174 197 0
174 197 0
175 198 0
174 198 0
173 197 0
175 198 0
175 198 0
174 198 0
174 198 0
174 198 0
174 198 0
172 197 0
175 198 0
176 199 0
174 197 0
175 198 0
175 198 0
173 197 0
175 198 0
176 199 0
174 197 0
174 197 0
174 197 0
175 198 0
174 197 0
175 198 0
176 199 0
174 197 0
175 198 0
176 198 0
172 197 0
174 198 0
175 198 0
173 197 0
176 199 0
173 197 0
175 198 0
174 198 0
175 198 0
174 198 0
174 198 0
174 198 0
176 199 0
175 198 0
175 198 0
174 198 0
174 198 0
173 197 0
174 197 0
174 198 0
173 197 0
174 198 0
174 198 0
176 199 0
176 198 0
174 198 0
173 197 0
173 197 0
175 198 0
175 198 0
175 198 0
174 198 0
176 198 0
175 198 0
173 197 0
173 197 0
174 197 0
172 197 0
175 198 0
173 197 0
174 198 0
173 197 0
174 197 0
173 197 0
173 197 0
174 197 0
176 198 0
174 198 0
175 198 0
173 197 0
174 197 0
174 197 0
175 198 0
173 197 0
175 198 0
172 197 0
174 198 0
174 198 0
174 198 0
174 198 0
176 199 0
175 198 0
172 197 0
174 198 0
174 197 0
175 198 0
174 198 0
174 198 0
176 199 0
172 196 0
174 197 0
174 197 0
174 198 0
176 199 0
173 196 0
173 196 0
173 197 0
172 196 0
175 198 0
174 197 0
173 196 0
173 197 0
174 197 0
174 198 0
175 198 0
174 198 0
173 197 0
173 197 0
173 197 0
175 197 0
173 196 0
174 197 0
172 196 0
173 196 0
173 197 0
174 197 0
174 197 0
173 197 0
171 195 0
176 199 0
173 196 0
173 197 0
173 197 0
172 195 0
175 198 0
174 198 0
174 197 0
170 194 0
174 198 0
174 197 0
173 196 0
174 197 0
174 198 0
175 197 0
174 197 0
173 197 0
172 196 0
171 195 0
173 196 0
174 197 0
169 193 0
172 195 0
175 197 0
174 197 0
172 195 0
172 196 0
175 198 0
174 196 0
171 195 0
171 195 0
171 194 0
170 193 0
174 198 0
174 198 0
172 195 0
172 196 0
174 197 0
173 196 0
171 195 25
173 195 0
173 196 44
173 195 25
174 196 57
175 197 25
177 198 57
177 198 72
175 196 67
174 195 62
175 195 44
172 194 36
174 195 36
170 191 36
168 190 36
167 189 25
169 192 36
166 189 0
171 193 0
160 183 0
164 187 0
160 182 0
166 188 0
161 182 0
160 183 0
167 189 0
161 183 0
159 181 0
159 182 0
155 178 0
159 182 0
159 181 0
152 174 0
156 178 0
164 186 0
152 176 0
159 181 0
155 178 0
156 179 0
159 181 0
157 179 0
157 180 0
155 177 0
159 181 0
161 184 0
155 178 0
162 185 0
160 183 0
159 181 0
157 180 0
160 183 0
163 187 0
156 179 0
164 186 0
165 188 0
163 187 0
164 187 0
166 190 0
167 190 0
161 184 0
166 188 0
155 179 0
166 189 0
162 184 0
164 187 0
168 191 0
165 188 0
163 185 0
168 191 0
167 190 0
165 189 0
166 190 0
167 190 0
168 191 0
169 192 0
167 190 0
167 191 0
170 194 0
169 191 0
167 191 0
168 192 0
168 192 0
172 196 0
172 194 0
170 194 0
171 194 0
173 196 0
172 194 0
172 195 0
172 196 0
172 195 0
172 195 0
171 195 0
170 193 0
174 196 0
172 194 0
171 195 0
170 193 0
172 195 0
170 193 0
172 194 0
171 195 0
174 197 0
170 194 0
173 196 0
172 196 0
173 196 0
171 194 0
172 195 0
172 195 0
174 197 0
172 195 0
171 194 0
174 197 0
175 198 0
172 195 0
173 197 0
175 198 0
172 196 0
174 197 0
174 197 0
174 197 0
173 196 0
172 196 0
174 198 0
173 196 0
175 197 0
171 195 0
175 198 0
174 197 0
174 197 0
172 196 0
173 196 0
174 198 0
174 197 0
174 197 0
173 197 0
174 197 0
173 197 0
174 198 0
174 197 0
174 197 0
173 197 0
173 197 0
174 198 0
173 196 0
174 197 0
173 197 0
173 197 0
173 197 0
172 196 0
173 197 0
172 196 0
174 197 0
172 196 0
174 198 0
175 198 0
174 198 0
173 197 0
174 197 0
174 197 0
175 198 0
173 197 0
175 198 0
173 196 0
175 198 0
175 198 0
173 196 0
175 198 0
174 198 0
173 197 0
174 198 0
176 198 0
174 197 0
174 198 0
175 198 0
173 196 0
175 198 0
174 198 0
174 197 0
174 198 0
174 198 0
173 197 0
174 198 0
174 197 0
175 198 0
174 198 0
174 198 0
174 198 0
173 197 0
175 197 0
172 196 0
174 197 0
174 197 0
175 198 0
174 197 0
174 198 0
174 198 0
175 198 0
176 198 0
177 199 0
173 197 0
175 198 0
173 197 0
173 197 0
175 198 0
175 198 0
174 198 0
174 198 0
175 198 0
174 198 0
176 198 0
174 198 0
175 198 0
173 197 0
175 198 0
176 199 0
176 199 0
174 198 0
175 198 0
172 197 0
175 198 0
175 198 0
174 198 0
175 198 0
176 199 0
175 198 0
175 198 0
175 198 0
175 198 0
176 199 0
175 198 0
175 198 0
174 198 0
175 198 0
175 198 0
175 198 0
174 197 0
175 198 0
174 198 0
173 197 0
174 198 0
174 197 0
175 198 0
174 197 0
174 198 0
173 197 0
175 198 0
174 198 0
175 198 0
173 197 0
173 197 0
176 198 0
174 198 0
175 198 0
174 198 0
174 198 0
175 198 0
175 197 0
176 198 0
175 198 0
176 199 0
174 198 0
174 198 0
174 197 0
175 198 0
175 198 0
174 197 0
174 198 0
175 198 0
174 197 0
175 198 0
175 198 0
175 198 0
174 198 0
173 197 0
175 198 0
173 197 0
173 197 0
174 198 0
174 197 0
174 198 0
174 198 0
175 198 0
174 197 0
174 198 0
174 198 0
174 198 0
175 198 0
176 199 0
174 197 0
174 198 0
174 197 0
175 198 0
175 198 0
176 198 0
172 196 0
174 198 0
176 198 0
175 198 0
174 198 0
176 198 0
173 197 0
175 198 0
175 198 0
176 198 0
171 195 0
175 198 0
173 197 0
175 198 0
174 197 0
173 197 0
174 198 0
174 197 0
173 197 0
173 197 0
173 197 0
175 198 0
176 198 0
174 198 0
175 198 0
174 198 0
175 198 0
174 198 0
174 197 0
173 197 0
174 198 0
171 196 0
172 197 0
173 197 0
175 198 0
175 198 0
174 197 0
174 198 0
176 199 0
175 197 0
173 197 0
172 196 0
176 198 0
172 196 0
175 198 0
172 196 0
173 197 0
174 197 0
172 197 0
173 197 0
175 198 0
174 197 0
174 197 0
174 197 0
172 196 0
172 197 0
173 197 0
175 198 0
174 198 0
174 198 0
176 198 0
173 197 0
172 195 0
172 196 0
175 198 0
173 196 0
173 197 0
174 197 0
174 198 0
172 196 0
174 198 0
174 197 0
173 197 0
174 198 0
174 197 0
173 197 0
174 197 0
172 195 0
172 196 0
175 198 0
172 196 0
173 197 0
170 194 0
172 196 0
172 195 0
173 196 0
174 197 0
174 197 0
173 197 0
170 193 0
173 196 0
170 194 0
174 196 0
174 197 0
170 194 0
173 196 0
172 195 0
173 195 0
170 194 0
171 194 0
175 198 0
174 197 0
172 195 0
172 195 0
175 198 0
171 195 0
174 197 25
174 197 25
173 195 0
173 195 36
173 195 44
174 196 44
171 192 36
172 194 36
172 194 36
173 195 44
174 195 36
173 195 25
169 192 0
171 193 0
169 191 0
170 192 0
162 184 0
167 189 0
167 189 0
168 189 0
162 183 0
157 179 0
159 182 0
161 183 0
164 185 0
158 180 0
160 182 0
151 173 0
160 183 0
160 182 0
158 180 0
156 179 0
164 187 0
168 191 0
160 183 0
165 187 0
160 182 0
161 184 0
160 183 0
161 184 0
157 179 0
155 179 0
158 181 0
163 186 0
161 184 0
163 187 0
161 183 0
162 185 0
160 183 0
165 188 0
165 187 0
165 188 0
165 189 0
169 192 0
168 192 0
165 188 0
169 192 0
162 186 0
162 185 0
166 189 0
167 190 0
167 190 0
167 190 0
167 190 0
163 186 0
167 191 0
170 193 0
164 187 0
166 189 0
173 196 0
171 194 0
171 194 0
169 193 0
171 194 0
174 197 0
170 194 0
169 192 0
169 193 0
174 197 0
172 195 0
171 195 0
171 194 0
171 194 0
169 192 0
171 194 0
171 195 0
172 195 0
170 194 0
172 195 0
173 195 0
173 197 0
168 191 0
174 197 0
172 194 0
171 195 0
171 194 0
171 194 0
172 195 0
172 195 0
172 196 0
172 195 0
171 194 0
174 197 0
172 195 0
174 197 0
171 194 0
171 195 0
171 195 0
170 194 0
173 196 0
173 197 0
176 198 0
169 193 0
173 196 0
174 197 0
173 197 0
172 196 0
175 198 0
175 198 0
174 197 0
174 197 0
173 196 0
173 197 0
175 198 0
172 196 0
174 197 0
173 196 0
173 197 0
174 198 0
173 196 0
174 197 0
174 197 0
173 196 0
173 197 0
175 198 0
174 197 0
173 197 0
173 197 0
173 197 0
175 198 0
173 196 0
174 198 0
174 198 0
174 197 0
172 196 0
174 197 0
174 198 0
174 197 0
174 198 0
175 198 0
173 197 0
173 196 0
175 197 0
174 197 0
174 197 0
173 196 0
175 198 0
174 198 0
174 197 0
174 197 0
175 198 0
174 198 0
174 197 0
175 198 0
174 198 0
174 197 0
173 197 0
173 197 0
174 197 0
173 197 0
173 197 0
174 198 0
175 198 0
174 198 0
176 199 0
173 197 0
175 198 0
174 198 0
174 198 0
172 196 0
175 198 0
173 196 0
175 198 0
176 199 0
174 198 0
173 197 0
175 198 0
174 198 0
174 198 0
176 199 0
172 196 0
173 197 0
173 197 0
175 198 0
175 198 0
174 198 0
175 198 0
175 198 0
175 198 0
174 197 0
175 198 0
175 198 0
174 197 0
174 197 0
175 198 0
173 197 0
172 196 0
174 197 0
172 197 0
174 197 0
175 198 0
176 198 0
174 197 0
174 198 0
176 199 0
174 198 0
175 198 0
174 197 0
175 198 0
176 198 0
175 198 0
175 198 0
173 197 0
174 198 0
175 198 0
175 198 0
173 197 0
175 198 0
175 198 0
173 197 0
174 198 0
175 198 0
174 198 0
175 198 0
175 198 0
174 197 0
174 197 0
173 197 0
175 198 0
175 198 0
175 198 0
175 198 0
174 198 0
174 198 0
173 197 0
174 198 0
175 198 0
173 197 0
174 198 0
175 198 0
174 198 0
176 199 0
175 198 0
175 198 0
174 198 0
174 198 0
175 198 0
175 198 0
175 198 0
174 198 0
175 198 0
174 198 0
174 198 0
174 198 0
173 197 0
174 197 0
172 196 0
174 198 0
174 198 0
174 198 0
174 198 0
174 198 0
175 198 0
174 198 0
173 197 0
173 197 0
174 198 0
175 198 0
175 198 0
173 197 0
174 197 0
175 198 0
175 198 0
174 198 0
176 198 0
174 198 0
175 198 0
175 198 0
174 198 0
174 198 0
175 198 0
174 198 0
174 198 0
174 197 0
175 198 0
174 198 0
174 198 0
174 198 0
175 198 0
174 198 0
173 197 0
172 197 0
174 197 0
174 197 0
174 198 0
174 197 0
174 198 0
174 198 0
172 197 0
175 198 0
173 197 0
173 196 0
176 199 0
175 198 0
173 197 0
173 197 0
175 198 0
174 198 0
174 197 0
173 197 0
175 198 0
174 197 0
174 197 0
174 198 0
175 198 0
175 198 0
173 197 0
173 197 0
174 197 0
174 198 0
172 195 0
176 199 0
174 197 0
174 197 0
174 198 0
175 198 0
175 198 0
175 198 0
174 197 0
172 196 0
173 196 0
175 198 0
173 196 0
174 197 0
172 196 0
174 197 0
175 198 0
175 198 0
174 198 0
174 198 0
175 198 0
174 197 0
174 197 0
174 197 0
173 197 0
171 195 0
174 197 0
175 198 0
173 197 0
172 196 0
173 197 0
173 196 0
172 196 0
176 199 0
173 197 0
173 196 0
175 198 0
173 197 0
171 195 0
174 197 0
173 196 0
174 197 0
171 195 0
173 197 0
173 196 0
175 198 0
172 196 0
173 196 0
171 195 0
172 196 0
175 198 0
172 195 0
171 195 0
174 197 0
172 195 0
173 196 0
171 194 0
175 198 0
171 195 0
171 194 0
171 194 0
170 193 0
173 196 0
171 194 0
172 195 0
173 196 0
172 195 0
173 196 0
173 196 0
173 195 0
174 197 0
171 194 0
172 196 0
171 195 25
175 198 36
171 194 25
170 193 25
170 192 25
172 195 36
167 190 25
170 192 0
171 195 0
164 186 0
172 195 0
171 193 0
168 191 0
167 190 0
167 189 0
165 187 0
166 189 0
163 184 0
155 177 0
159 182 0
161 184 0
161 183 0
157 180 0
161 184 0
166 188 0
158 181 0
161 184 0
155 178 0
159 182 0
159 181 0
165 189 0
160 184 0
158 181 0
162 185 0
165 188 0
159 182 0
160 182 0
165 189 0
161 184 0
164 187 0
164 188 0
162 185 0
162 186 0
159 181 0
167 190 0
163 186 0
167 190 0
164 188 0
166 189 0
162 184 0
169 192 0
165 187 0
166 189 0
165 189 0
166 189 0
171 195 0
168 190 0
168 191 0
168 191 0
172 195 0
170 193 0
168 191 0
170 192 0
167 190 0
170 192 0
166 190 0
167 190 0
170 193 0
168 191 0
170 193 0
172 195 0
168 191 0
170 193 0
169 192 0
169 192 0
168 191 0
170 193 0
170 194 0
171 193 0
171 194 0
172 196 0
171 195 0
169 192 0
170 193 0
168 191 0
170 194 0
171 194 0
172 195 0
172 196 0
172 197 0
173 196 0
169 192 0
172 195 0
172 196 0
174 198 0
173 197 0
173 196 0
172 196 0
174 197 0
171 195 0
171 194 0
173 197 0
172 195 0
174 197 0
174 197 0
172 196 0
172 195 0
173 196 0
172 195 0
172 195 0
172 196 0
173 196 0
173 196 0
171 195 0
173 195 0
174 197 0
173 197 0
173 196 0
174 198 0
175 198 0
172 195 0
174 198 0
173 196 0
174 197 0
173 197 0
173 196 0
174 197 0
173 197 0
173 196 0
173 197 0
175 198 0
174 197 0
173 197 0
173 196 0
173 196 0
174 197 0
174 197 0
174 197 0
173 197 0
176 198 0
175 198 0
174 197 0
174 198 0
175 198 0
174 197 0
174 198 0
174 197 0
174 198 0
172 196 0
173 197 0
172 196 0
173 197 0
174 197 0
174 197 0
174 197 0
173 197 0
174 198 0
174 198 0
174 197 0
174 198 0
173 197 0
173 196 0
174 198 0
173 197 0
174 197 0
175 197 0
173 197 0
174 197 0
174 197 0
174 197 0
175 197 0
175 198 0
174 198 0
174 198 0
174 198 0
173 197 0
174 197 0
175 198 0
174 197 0
174 198 0
175 198 0
175 198 0
174 198 0
173 197 0
175 198 0
173 197 0
176 198 0
174 198 0
175 198 0
172 196 0
176 198 0
175 198 0
175 198 0
173 197 0
175 198 0
173 197 0
174 197 0
174 198 0
175 198 0
175 198 0
175 198 0
174 197 0
171 196 0
175 198 0
176 199 0
175 198 0
174 197 0
173 197 0
178 199 0
175 198 0
174 198 0
175 198 0
175 198 0
174 198 0
175 198 0
174 197 0
176 198 0
175 198 0
174 198 0
173 197 0
174 197 0
173 197 0
176 199 0
175 198 0
173 197 0
174 198 0
175 198 0
175 198 0
174 198 0
174 198 0
175 198 0
174 198 0
175 198 0
175 198 0
173 197 0
172 197 0
176 199 0
173 197 0
174 198 0
174 198 0
175 198 0
177 199 0
176 199 0
176 199 0
173 197 0
175 198 0
175 198 0
175 198 0
175 198 0
173 197 0
176 199 0
174 197 0
173 197 0
174 197 0
174 198 0
174 197 0
175 198 0
175 198 0
176 199 0
173 197 0
175 198 0
175 197 0
175 198 0
174 198 0
176 199 0
173 197 0
174 198 0
174 198 0
173 197 0
175 198 0
175 198 0
174 198 0
174 198 0
174 197 0
174 197 0
174 197 0
176 198 0
174 198 0
175 198 0
175 198 0
174 198 0
176 199 0
175 198 0
174 197 0
175 198 0
174 197 0
175 198 0
174 197 0
173 197 0
174 197 0
174 198 0
174 198 0
174 198 0
174 198 0
173 197 0
175 198 0
174 197 0
174 198 0
174 197 0
173 197 0
175 198 0
174 197 0
174 197 0
174 198 0
174 197 0
174 198 0
174 198 0
174 197 0
173 197 0
174 198 0
175 198 0
174 198 0
175 198 0
175 198 0
175 198 0
173 197 0
174 198 0
176 199 0
174 198 0
175 198 0
175 198 0
176 199 0
174 197 0
174 198 0
174 197 0
172 196 0
174 198 0
175 198 0
173 197 0
173 197 0
173 197 0
173 196 0
174 198 0
175 198 0
175 198 0
175 198 0
173 197 0
175 198 0
174 197 0
175 198 0
172 196 0
175 198 0
174 198 0
175 198 0
173 196 0
173 197 0
172 197 0
174 198 0
174 197 0
173 196 0
172 196 0
173 197 0
173 197 0
172 196 0
174 197 0
174 197 0
172 196 0
169 194 0
173 196 0
174 197 0
172 196 0
173 197 0
173 196 0
173 197 0
173 196 0
173 197 0
173 197 0
173 197 0
173 196 0
172 195 0
172 196 0
175 198 0
172 196 0
173 196 0
174 197 0
174 197 0
174 197 0
172 195 0
172 196 0
172 196 0
174 197 0
170 194 0
173 196 0
171 194 0
172 196 0
171 195 0
173 196 0
172 195 0
172 195 0
172 195 0
174 197 0
173 196 0
171 194 0
174 197 0
172 195 0
170 193 0
173 195 0
172 194 0
171 195 0
173 196 0
172 195 0
171 194 0
173 196 0
173 196 0
173 195 0
173 194 0
171 194 0
171 194 0
172 194 0
169 192 0
166 188 0
175 196 0
169 190 0
168 189 0
167 189 25
159 181 0
160 182 0
163 185 0
164 187 0
164 185 0
164 186 0
164 186 0
159 182 0
167 189 0
165 187 0
164 187 0
161 183 0
164 187 0
162 185 0
165 188 0
166 189 0
161 184 0
169 192 0
166 189 0
155 179 0
161 185 0
165 188 0
166 189 0
164 186 0
168 191 0
161 185 0
158 181 0
164 188 0
163 186 0
157 180 0
163 186 0
167 191 0
163 186 0
159 182 0
164 188 0
167 189 0
160 184 0
165 188 0
167 189 0
167 189 0
165 188 0
164 187 0
167 190 0
166 189 0
163 187 0
165 187 0
168 191 0
171 195 0
165 189 0
164 189 0
169 192 0
169 192 0
169 193 0
164 188 0
171 194 0
169 193 0
165 188 0
168 193 0
168 192 0
166 189 0
168 192 0
172 196 0
168 190 0
170 193 0
168 192 0
169 192 0
168 191 0
169 192 0
171 193 0
171 194 0
173 196 0
171 195 0
172 195 0
173 195 0
175 198 0
172 194 0
171 195 0
171 194 0
172 196 0
170 194 0
172 196 0
173 196 0
172 195 0
171 195 0
173 196 0
173 196 0
173 196 0
170 194 0
171 195 0
175 197 0
173 196 0
175 198 0
174 197 0
171 195 0
173 196 0
176 199 0
171 195 0
171 195 0
174 197 0
173 196 0
172 196 0
173 195 0
172 196 0
174 197 0
173 196 0
174 198 0
173 195 0
173 196 0
174 197 0
175 198 0
174 198 0
173 197 0
172 196 0
173 196 0
174 197 0
174 197 0
174 197 0
173 196 0
173 197 0
174 197 0
174 197 0
173 197 0
174 197 0
177 199 0
173 197 0
175 198 0
174 197 0
174 197 0
174 197 0
174 198 0
174 198 0
175 198 0
173 196 0
174 197 0
174 197 0
174 197 0
175 198 0
174 198 0
174 198 0
176 198 0
174 197 0
176 199 0
175 198 0
175 198 0
175 198 0
174 198 0
174 197 0
174 197 0
175 198 0
176 198 0
174 197 0
174 197 0
175 198 0
175 198 0
175 198 0
175 198 0
173 196 0
175 198 0
175 198 0
175 198 0
175 198 0
173 197 0
175 198 0
173 197 0
173 197 0
175 198 0
174 197 0
176 198 0
175 198 0
174 197 0
175 198 0
174 197 0
174 197 0
174 197 0
174 197 0
175 198 0
176 199 0
174 198 0
174 197 0
172 196 0
175 198 0
175 198 0
174 197 0
174 198 0
174 197 0
174 198 0
173 197 0
176 198 0
174 198 0
176 199 0
175 198 0
174 198 0
173 197 0
175 198 0
174 197 0
175 198 0
175 198 0
174 198 0
175 198 0
175 198 0
175 198 0
175 198 0
176 198 0
174 197 0
174 198 0
175 198 0
175 198 0
176 198 0
174 198 0
177 199 0
175 198 0
174 198 0
177 199 0
174 198 0
175 198 0
175 198 0
175 198 0
175 197 0
174 197 0
174 197 0
173 197 0
173 197 0
175 198 0
175 198 0
175 198 0
175 198 0
174 198 0
175 198 0
175 198 0
175 198 0
175 198 0
173 197 0
174 198 0
174 198 0
174 198 0
175 198 0
173 197 0
173 197 0
174 197 0
173 197 0
174 198 0
174 197 0
174 198 0
174 198 0
175 198 0
175 198 0
174 197 0
174 198 0
174 198 0
175 198 0
175 198 0
176 199 0
175 198 0
174 198 0
173 197 0
174 198 0
175 198 0
175 198 0
174 198 0
174 197 0
172 197 0
174 198 0
174 198 0
173 197 0
174 197 0
175 198 0
175 198 0
174 198 0
175 198 0
176 199 0
172 196 0
174 197 0
175 198 0
174 197 0
174 198 0
175 198 0
173 197 0
174 197 0
174 198 0
173 197 0
174 198 0
174 197 0
174 197 0
174 197 0
174 198 0
175 198 0
173 197 0
174 197 0
175 198 0
174 198 0
174 197 0
173 197 0
174 198 0
174 198 0
175 198 0
174 197 0
175 198 0
175 198 0
175 198 0
175 198 0
174 197 0
175 198 0
175 198 0
175 198 0
175 198 0
174 198 0
175 198 0
175 198 0
175 198 0
172 196 0
175 198 0
175 198 0
174 198 0
174 197 0
175 198 0
175 198 0
173 197 0
174 198 0
176 199 0
174 197 0
175 198 0
176 199 0
175 198 0
174 197 0
174 197 0
175 198 0
175 198 0
172 196 0
175 198 0
173 197 0
175 198 0
172 196 0
174 197 0
173 196 0
173 196 0
174 198 0
174 198 0
174 198 0
175 198 0
173 196 0
175 198 0
172 196 0
175 198 0
171 195 0
172 195 0
174 197 0
173 197 0
174 198 0
173 197 0
174 197 0
175 198 0
172 195 0
174 198 0
168 191 0
172 196 0
174 197 0
173 197 0
173 197 0
173 196 0
171 195 0
173 197 0
172 195 0
170 194 0
171 195 0
172 197 0
171 195 0
170 194 0
172 196 0
174 197 0
173 196 0
169 192 0
172 195 0
171 194 0
174 197 0
170 193 0
172 195 0
176 198 0
175 197 0
175 197 0
171 194 0
172 194 0
176 198 0
170 192 0
174 196 0
171 194 0
174 196 0
175 197 0
173 195 0
172 195 0
171 193 0
173 196 0
175 197 0
173 195 0
174 196 0
174 195 25
169 191 0
168 190 0
166 187 0
168 189 0
170 193 0
163 186 0
169 191 0
165 187 0
163 186 0
166 189 0
159 181 0
166 189 0
165 188 0
162 185 0
160 184 0
163 186 0
159 181 0
160 183 0
160 183 0
161 184 0
162 185 0
160 183 0
159 182 0
166 190 0
162 185 0
170 193 0
157 181 0
159 182 0
164 186 0
165 189 0
168 192 0
163 186 0
166 189 0
161 184 0
164 187 0
163 186 0
168 191 0
158 180 0
162 185 0
166 188 0
170 192 0
163 186 0
164 188 0
164 187 0
167 191 0
167 190 0
168 191 0
166 189 0
165 188 0
165 188 0
168 191 0
169 192 0
171 193 0
169 192 0
167 189 0
169 192 0
165 189 0
167 189 0
171 194 0
168 191 0
167 190 0
169 192 0
173 195 0
170 193 0
170 193 0
173 195 0
172 195 0
171 194 0
167 189 0
168 191 0
167 190 0
172 194 0
173 196 0
173 197 0
171 194 0
172 194 0
168 192 0
173 196 0
173 196 0
173 197 0
169 193 0
169 194 0
174 196 0
172 195 0
171 194 0
174 197 0
176 198 0
171 195 0
170 193 0
171 195 0
171 194 0
172 196 0
173 197 0
173 196 0
173 197 0
174 197 0
173 197 0
171 195 0
175 198 0
174 197 0
173 197 0
171 196 0
171 195 0
172 196 0
173 197 0
173 196 0
174 197 0
173 197 0
174 197 0
175 198 0
171 194 0
173 196 0
172 196 0
173 197 0
173 197 0
174 197 0
175 198 0
174 198 0
175 197 0
174 197 0
174 197 0
174 197 0
175 198 0
175 198 0
173 197 0
174 197 0
173 197 0
174 197 0
173 197 0
174 197 0
173 197 0
174 197 0
172 197 0
173 197 0
175 198 0
173 196 0
173 197 0
176 199 0
174 198 0
173 197 0
173 197 0
172 197 0
174 197 0
174 197 0
175 198 0
174 197 0
174 197 0
174 197 0
171 195 0
175 198 0
174 198 0
174 197 0
174 197 0
172 197 0
174 198 0
174 197 0
175 198 0
175 198 0
174 197 0
173 197 0
173 197 0
174 198 0
175 198 0
174 197 0
175 198 0
175 198 0
174 198 0
176 198 0
174 197 0
174 198 0
173 197 0
175 198 0
174 197 0
174 197 0
174 198 0
176 198 0
172 196 0
174 198 0
174 198 0
174 197 0
176 198 0
176 198 0
176 199 0
173 197 0
175 198 0
174 197 0
175 198 0
173 197 0
173 197 0
174 198 0
174 197 0
172 196 0
176 199 0
173 197 0
175 198 0
174 198 0
176 199 0
173 196 0
175 198 0
175 198 0
176 199 0
174 198 0
175 198 0
172 197 0
174 198 0
174 197 0
173 196 0
173 197 0
174 198 0
173 197 0
174 197 0
173 197 0
175 198 0
174 197 0
174 198 0
173 197 0
174 197 0
173 197 0
174 198 0
175 198 0
174 198 0
175 198 0
173 197 0
175 198 0
174 197 0
174 197 0
174 198 0
177 199 0
174 198 0
176 199 0
175 198 0
175 198 0
173 197 0
174 198 0
172 196 0
175 198 0
173 197 0
174 198 0
175 198 0
174 197 0
175 198 0
175 198 0
174 198 0
175 198 0
176 199 0
175 198 0
173 197 0
175 198 0
174 198 0
175 198 0
175 198 0
175 198 0
174 198 0
174 197 0
173 197 0
174 198 0
175 198 0
173 197 0
176 198 0
173 197 0
175 198 0
175 198 0
174 198 0
174 198 0
173 197 0
175 198 0
175 198 0
174 198 0
173 197 0
175 198 0
173 197 0
175 198 0
175 198 0
175 198 0
175 198 0
174 198 0
175 198 0
173 197 0
173 196 0
172 196 0
175 198 0
174 198 0
175 198 0
174 198 0
174 198 0
176 199 0
175 198 0
174 197 0
174 198 0
173 197 0
174 197 0
175 198 0
176 199 0
174 198 0
174 197 0
173 197 0
173 197 0
174 197 0
175 198 0
173 197 0
174 197 0
174 197 0
173 197 0
173 196 0
174 198 0
174 197 0
174 197 0
175 198 0
175 198 0
174 197 0
174 198 0
175 198 0
174 198 0
173 196 0
174 198 0
175 198 0
174 198 0
172 197 0
173 197 0
175 198 0
176 199 0
172 197 0
174 198 0
174 197 0
174 198 0
174 197 0
176 199 0
173 197 0
174 198 0
173 197 0
173 197 0
174 197 0
173 196 0
173 197 0
172 195 0
172 196 0
173 196 0
174 198 0
175 198 0
175 198 0
175 198 0
173 197 0
172 196 0
175 198 0
173 197 0
173 197 0
173 197 0
173 196 0
173 197 0
174 198 0
174 198 0
172 196 0
174 197 0
172 196 0
173 196 0
174 197 0
174 198 0
172 196 0
172 196 0
172 195 0
170 194 0
173 196 0
174 197 0
172 196 0
174 197 0
173 196 0
172 195 0
174 197 0
172 196 0
173 196 0
172 196 0
173 197 0
174 197 0
173 196 0
173 197 0
172 196 0
172 195 0
173 197 0
175 198 0
172 194 0
174 196 0
172 194 0
173 195 0
173 195 0
173 195 0
172 194 0
175 197 0
173 195 0
171 193 0
173 195 0
172 194 0
174 195 0
173 195 0
172 194 0
175 196 0
174 195 0
173 194 0
174 196 25
172 194 0
170 191 0
169 191 0
171 193 0
166 187 0
169 191 0
168 190 0
169 191 0
165 187 0
168 190 0
163 187 0
169 191 0
165 188 0
164 186 0
164 187 0
167 190 0
162 185 0
167 190 0
166 189 0
162 185 0
154 177 0
169 192 0
166 189 0
162 185 0
166 189 0
166 190 0
161 185 0
165 189 0
166 189 0
163 187 0
161 185 0
166 189 0
168 190 0
166 190 0
164 188 0
169 193 0
168 191 0
168 191 0
166 189 0
164 188 0
166 188 0
164 187 0
162 186 0
170 193 0
167 191 0
162 186 0
170 193 0
164 188 0
168 191 0
167 191 0
169 192 0
169 193 0
166 189 0
170 193 0
171 193 0
170 192 0
169 193 0
167 191 0
170 192 0
171 193 0
172 195 0
169 193 0
172 195 0
170 193 0
168 192 0
169 191 0
169 193 0
172 196 0
173 196 0
168 191 0
172 195 0
172 194 0
169 192 0
172 195 0
172 196 0
169 192 0
174 196 0
171 193 0
171 194 0
172 195 0
169 192 0
172 195 0
171 195 0
173 196 0
174 196 0
172 194 0
172 196 0
174 196 0
172 196 0
171 195 0
174 197 0
171 194 0
172 195 0
176 198 0
174 197 0
173 196 0
171 194 0
173 197 0
172 196 0
175 197 0
174 197 0
173 197 0
173 197 0
174 198 0
174 197 0
175 198 0
176 199 0
174 197 0
173 196 0
173 197 0
173 197 0
172 195 0
174 197 0
174 197 0
174 197 0
172 196 0
174 197 0
175 198 0
175 197 0
174 197 0
174 197 0
172 196 0
174 197 0
175 198 0
175 197 0
173 197 0
173 196 0
173 197 0
174 198 0
174 198 0
171 194 0
173 196 0
174 197 0
173 197 0
175 198 0
173 197 0
174 198 0
174 197 0
174 198 0
174 198 0
174 197 0
174 197 0
173 197 0
174 198 0
173 197 0
175 198 0
175 198 0
173 196 0
174 198 0
176 199 0
175 198 0
175 198 0
175 198 0
175 198 0
175 198 0
174 198 0
175 198 0
175 198 0
176 198 0
175 198 0
173 197 0
173 197 0
172 196 0
174 198 0
172 196 0
175 198 0
173 197 0
173 197 0
173 197 0
174 198 0
174 198 0
175 198 0
175 198 0
173 197 0
175 198 0
173 197 0
173 197 0
174 198 0
175 198 0
175 198 0
174 198 0
174 198 0
174 198 0
173 197 0
174 197 0
174 198 0
174 198 0
175 198 0
174 198 0
174 198 0
174 197 0
176 198 0
173 196 0
175 198 0
175 198 0
175 198 0
174 197 0
174 197 0
174 198 0
173 197 0
175 198 0
174 198 0
173 196 0
174 197 0
176 199 0
174 198 0
174 198 0
175 198 0
174 198 0
172 197 0
175 198 0
174 198 0
173 197 0
175 198 0
174 198 0
175 198 0
175 198 0
174 198 0
174 197 0
174 197 0
174 198 0
174 198 0
175 198 0
175 198 0
174 198 0
173 197 0
176 199 0
175 198 0
175 198 0
173 197 0
174 197 0
174 198 0
175 198 0
174 197 0
174 198 0
174 198 0
176 199 0
174 198 0
175 198 0
175 198 0
174 197 0
174 197 0
174 197 0
175 198 0
173 197 0
175 198 0
173 197 0
174 198 0
174 198 0
174 197 0
174 197 0
175 198 0
175 198 0
174 198 0
174 197 0
174 198 0
174 198 0
174 198 0
175 198 0
175 198 0
173 197 0
176 199 0
174 198 0
174 197 0
173 197 0
175 198 0
176 199 0
174 198 0
174 198 0
174 197 0
175 198 0
174 197 0
174 198 0
174 197 0
174 197 0
175 198 0
174 197 0
174 198 0
176 198 0
174 198 0
174 197 0
174 197 0
173 197 0
174 197 0
173 197 0
176 199 0
175 198 0
174 198 0
174 197 0
174 197 0
174 198 0
173 197 0
173 197 0
174 197 0
175 198 0
173 197 0
175 198 0
174 198 0
174 198 0
176 199 0
175 198 0
173 197 0
173 197 0
174 197 0
173 197 0
173 197 0
175 198 0
173 197 0
173 197 0
175 198 0
174 198 0
176 199 0
176 199 0
175 198 0
175 198 0
173 197 0
175 198 0
176 199 0
174 197 0
174 198 0
175 198 0
174 197 0
173 196 0
173 197 0
174 198 0
173 197 0
175 198 0
174 198 0
173 197 0
175 198 0
174 197 0
171 195 0
175 198 0
176 199 0
172 196 0
173 196 0
173 197 0
174 197 0
175 198 0
174 197 0
173 197 0
173 197 0
173 196 0
174 197 0
174 198 0
173 197 0
175 198 0
173 197 0
172 196 0
171 195 0
173 196 0
173 197 0
173 196 0
173 197 0
175 198 0
175 198 0
171 196 0
173 197 0
174 197 0
172 196 0
173 196 0
172 196 0
173 197 0
173 196 0
173 196 0
174 197 0
169 193 0
172 196 0
169 193 0
174 197 0
174 197 0
171 194 0
172 194 0
173 196 0
176 198 0
171 195 0
173 196 0
174 197 0
172 196 0
173 197 0
174 197 0
166 190 0
170 193 0
174 197 0
173 196 0
168 191 0
174 197 0
175 197 0
174 196 0
172 195 0
174 195 0
172 193 0
173 195 0
170 193 0
172 193 0
172 194 0
165 187 0
173 195 0
172 193 0
170 191 0
171 192 0
173 195 0
170 191 0
170 191 0
171 193 0
171 193 0
170 192 0
168 191 0
168 191 0
165 188 0
170 193 0
167 190 0
157 180 0
165 188 0
166 190 0
164 188 0
164 186 0
160 183 0
167 190 0
164 187 0
164 187 0
169 191 0
161 185 0
165 189 0
160 185 0
164 187 0
163 186 0
160 183 0
162 186 0
162 184 0
167 190 0
165 189 0
168 191 0
164 188 0
169 193 0
167 190 0
170 194 0
161 184 0
169 192 0
164 187 0
166 189 0
171 194 0
166 190 0
164 187 0
169 192 0
165 187 0
169 192 0
169 193 0
168 190 0
170 192 0
163 186 0
165 188 0
170 193 0
167 190 0
169 193 0
167 190 0
162 186 0
169 193 0
172 195 0
171 194 0
173 196 0
169 192 0
170 193 0
170 193 0
171 194 0
170 194 0
169 193 0
172 195 0
174 197 0
170 193 0
169 193 0
173 196 0
172 196 0
171 194 0
172 195 0
173 196 0
170 194 0
170 193 0
171 195 0
174 197 0
168 192 0
172 195 0
172 195 0
171 194 0
169 193 0
173 195 0
171 195 0
171 195 0
173 196 0
173 196 0
172 195 0
172 195 0
174 197 0
171 194 0
174 197 0
174 196 0
171 195 0
174 197 0
174 197 0
174 198 0
172 195 0
174 197 0
174 197 0
172 196 0
174 198 0
173 196 0
174 197 0
171 195 0
174 197 0
175 198 0
174 197 0
174 197 0
174 197 0
173 196 0
174 198 0
174 197 0
172 195 0
173 197 0
173 196 0
172 196 0
173 197 0
174 197 0
172 196 0
173 196 0
174 197 0
175 198 0
174 197 0
175 198 0
173 197 0
174 197 0
173 197 0
173 197 0
173 197 0
174 197 0
174 198 0
173 197 0
175 198 0
175 198 0
175 198 0
173 197 0
175 198 0
173 197 0
174 198 0
174 197 0
173 197 0
175 198 0
175 198 0
174 197 0
174 198 0
174 198 0
174 198 0
175 198 0
174 198 0
174 197 0
173 197 0
172 197 0
175 198 0
175 197 0
174 197 0
174 198 0
175 198 0
174 198 0
176 199 0
175 198 0
175 198 0
173 197 0
175 198 0
174 197 0
175 198 0
174 197 0
174 197 0
173 197 0
174 198 0
174 197 0
171 196 0
173 196 0
176 198 0
177 199 0
174 198 0
173 197 0
173 197 0
174 198 0
175 198 0
174 197 0
173 197 0
175 198 0
174 197 0
175 198 0
176 198 0
176 198 0
173 197 0
175 198 0
175 198 0
173 197 0
174 197 0
174 197 0
174 198 0
173 197 0
175 198 0
175 198 0
174 197 0
174 198 0
175 198 0
175 198 0
173 197 0
175 198 0
175 198 0
175 198 0
174 198 0
174 197 0
174 197 0
173 197 0
174 198 0
175 198 0
174 198 0
173 197 0
175 198 0
175 198 0
175 198 0
172 197 0
175 198 0
173 197 0
173 197 0
174 198 0
174 197 0
175 198 0
176 199 0
175 198 0
174 198 0
175 198 0
176 199 0
175 198 0
173 197 0
173 197 0
175 198 0
177 199 0
174 197 0
172 196 0
172 197 0
174 197 0
176 198 0
175 198 0
175 198 0
175 198 0
174 198 0
176 199 0
175 198 0
175 198 0
174 197 0
174 197 0
173 197 0
175 198 0
173 197 0
174 197 0
174 197 0
173 197 0
175 198 0
174 197 0
174 198 0
175 198 0
175 198 0
175 198 0
175 198 0
176 198 0
174 198 0
176 199 0
175 198 0
176 199 0
173 197 0
174 197 0
175 198 0
173 197 0
174 198 0
175 198 0
174 198 0
175 198 0
174 197 0
174 197 0
174 198 0
176 199 0
175 198 0
174 198 0
174 197 0
175 198 0
175 198 0
174 198 0
174 197 0
175 198 0
173 197 0
174 198 0
174 198 0
174 198 0
174 198 0
175 198 0
175 198 0
176 199 0
176 198 0
174 198 0
174 198 0
174 198 0
173 197 0
174 198 0
174 198 0
175 198 0
176 199 0
175 198 0
174 198 0
175 198 0
173 197 0
174 198 0
174 198 0
174 198 0
175 198 0
173 197 0
172 197 0
175 198 0
173 196 0
174 197 0
174 197 0
173 197 0
172 196 0
174 198 0
174 197 0
173 197 0
173 197 0
174 197 0
174 197 0
174 197 0
175 198 0
173 197 0
174 198 0
173 197 0
172 196 0
175 198 0
175 198 0
173 197 0
172 196 0
175 198 0
175 198 0
172 196 0
175 198 0
175 198 0
175 198 0
175 198 0
173 197 0
175 198 0
172 196 0
172 196 0
173 196 0
174 198 0
175 198 0
171 196 0
172 196 0
172 195 0
173 197 0
173 196 0
173 197 0
173 197 0
172 196 0
173 196 0
174 197 0
176 198 0
173 196 0
173 196 0
173 197 0
172 196 0
172 196 0
172 195 0
173 196 0
173 197 0
174 197 0
172 195 0
175 198 0
175 198 0
175 198 0
171 195 0
173 196 0
173 196 0
172 195 0
174 197 0
173 196 0
172 195 0
172 194 0
173 196 0
173 195 0
175 197 0
172 195 0
172 195 0
170 193 0
169 192 0
170 192 0
170 193 0
172 195 0
171 193 0
174 196 0
172 193 0
173 195 0
175 196 0
171 193 0
175 196 0
172 193 0
169 190 0
168 191 0
169 192 0
171 194 0
168 189 0
162 185 0
165 188 0
165 187 0
166 190 0
161 184 0
162 185 0
167 190 0
161 184 0
169 192 0
166 189 0
167 190 0
159 183 0
164 188 0
165 189 0
166 190 0
158 182 0
165 188 0
166 190 0
164 187 0
156 179 0
164 188 0
170 192 0
162 185 0
160 184 0
169 192 0
162 186 0
170 194 0
165 189 0
163 186 0
170 193 0
168 191 0
164 188 0
168 191 0
168 191 0
165 189 0
163 186 0
169 193 0
167 190 0
164 188 0
166 188 0
168 190 0
166 189 0
168 191 0
165 187 0
169 193 0
167 191 0
169 192 0
167 190 0
168 192 0
172 195 0
169 191 0
168 192 0
172 194 0
171 194 0
170 194 0
170 194 0
170 194 0
166 190 0
169 192 0
170 193 0
170 194 0
168 191 0
169 192 0
170 193 0
166 188 0
171 194 0
169 192 0
172 196 0
175 197 0
172 196 0
171 194 0
173 196 0
173 196 0
174 196 0
170 194 0
171 195 0
174 197 0
171 194 0
173 197 0
171 194 0
172 194 0
170 194 0
171 195 0
173 196 0
173 196 0
174 196 0
173 195 0
170 193 0
174 197 0
176 199 0
171 195 0
172 196 0
174 197 0
171 195 0
174 197 0
173 196 0
174 197 0
174 197 0
172 195 0
174 197 0
174 198 0
175 198 0
173 196 0
172 196 0
174 197 0
174 198 0
174 197 0
173 197 0
173 197 0
172 196 0
176 198 0
174 197 0
173 196 0
173 197 0
173 197 0
175 198 0
174 197 0
176 198 0
172 195 0
175 198 0
173 195 0
174 197 0
173 197 0
175 198 0
175 198 0
174 197 0
174 197 0
174 198 0
174 197 0
174 197 0
174 198 0
173 197 0
174 197 0
173 197 0
175 198 0
174 197 0
175 198 0
172 197 0
175 198 0
175 198 0
175 198 0
174 198 0
174 197 0
174 198 0
174 198 0
174 197 0
173 197 0
175 198 0
176 199 0
173 197 0
172 196 0
174 198 0
175 198 0
173 197 0
174 198 0
174 198 0
173 197 0
175 198 0
174 198 0
172 196 0
174 197 0
174 197 0
173 197 0
175 198 0
175 197 0
173 196 0
174 198 0
171 196 0
174 197 0
173 196 0
174 198 0
175 198 0
174 198 0
175 198 0
175 198 0
175 198 0
175 198 0
173 197 0
175 198 0
173 197 0
175 198 0
175 198 0
174 198 0
175 198 0
176 198 0
174 198 0
174 198 0
174 197 0
175 198 0
173 197 0
175 198 0
173 197 0
174 197 0
175 198 0
174 198 0
175 198 0
175 198 0
174 197 0
174 197 0
172 196 0
174 197 0
177 199 0
173 197 0
174 198 0
174 198 0
173 197 0
171 196 0
174 198 0
175 198 0
176 198 0
175 198 0
174 197 0
174 198 0
175 198 0
176 198 0
175 198 0
175 198 0
174 198 0
174 197 0
175 198 0
175 198 0
171 196 0
175 198 0
176 198 0
173 197 0
174 198 0
176 199 0
173 197 0
176 198 0
174 198 0
174 198 0
175 198 0
175 198 0
174 197 0
173 197 0
174 198 0
172 197 0
174 197 0
175 198 0
174 197 0
174 198 0
174 198 0
175 198 0
173 197 0
175 198 0
173 197 0
175 198 0
174 198 0
173 197 0
174 198 0
175 198 0
173 197 0
173 197 0
174 197 0
174 198 0
174 197 0
175 198 0
175 198 0
174 198 0
174 197 0
174 198 0
175 198 0
174 198 0
176 199 0
174 198 0
174 198 0
174 197 0
175 198 0
174 197 0
173 197 0
176 199 0
174 198 0
174 198 0
173 197 0
173 197 0
174 197 0
175 198 0
173 197 0
174 197 0
174 197 0
174 197 0
175 198 0
172 196 0
174 197 0
173 197 0
175 198 0
174 197 0
174 197 0
174 198 0
173 196 0
174 197 0
172 197 0
176 199 0
173 197 0
174 197 0
173 197 0
173 197 0
173 197 0
174 197 0
175 198 0
173 197 0
174 198 0
175 197 0
174 197 0
175 198 0
174 198 0
175 198 0
174 197 0
174 198 0
174 198 0
175 198 0
175 198 0
173 196 0
173 196 0
175 198 0
175 198 0
174 198 0
174 198 0
174 198 0
172 197 0
173 197 0
174 197 0
174 197 0
173 197 0
173 197 0
174 197 0
173 196 0
173 197 0
173 197 0
173 197 0
172 196 0
172 196 0
173 197 0
173 197 0
172 196 0
174 198 0
174 197 0
174 197 0
174 198 0
175 198 0
173 196 0
172 196 0
174 197 0
176 198 0
173 196 0
173 197 0
172 196 0
173 197 0
175 198 0
173 197 0
170 194 0
172 196 0
173 196 0
173 196 0
174 196 0
173 196 0
172 196 0
173 197 0
171 195 0
173 196 0
174 197 0
174 198 0
175 198 0
173 197 0
172 196 0
172 195 0
169 193 0
173 196 0
173 196 0
174 197 0
173 196 0
173 196 0
172 196 0
170 193 0
173 196 0
172 195 0
174 197 0
171 195 0
172 194 0
169 192 0
176 197 0
175 197 0
174 196 0
169 190 0
173 196 0
172 194 0
173 194 0
171 193 0
174 195 0
173 195 0
174 196 0
173 195 0
172 194 0
168 190 0
169 191 0
169 191 0
170 192 0
172 194 0
173 195 0
171 193 0
170 192 0
167 189 0
166 189 0
166 189 0
165 187 0
168 190 0
170 193 0
165 188 0
165 188 0
163 187 0
169 192 0
165 189 0
166 189 0
158 181 0
166 190 0
169 192 0
168 191 0
163 187 0
166 189 0
164 188 0
164 188 0
164 187 0
163 187 0
163 187 0
161 184 0
167 190 0
166 189 0
168 191 0
165 189 0
169 193 0
168 191 0
166 190 0
169 192 0
167 190 0
168 192 0
166 189 0
163 187 0
167 189 0
168 192 0
168 190 0
166 190 0
169 192 0
166 190 0
169 192 0
165 188 0
171 195 0
168 192 0
170 193 0
169 193 0
171 194 0
173 196 0
167 189 0
170 193 0
170 193 0
169 194 0
166 190 0
171 195 0
170 193 0
173 196 0
170 194 0
168 191 0
168 192 0
171 194 0
166 189 0
172 196 0
171 194 0
172 195 0
171 194 0
171 195 0
172 196 0
171 194 0
169 191 0
172 194 0
172 195 0
170 193 0
174 197 0
174 197 0
173 196 0
174 197 0
173 197 0
172 196 0
172 196 0
175 198 0
175 198 0
173 197 0
172 196 0
171 194 0
171 195 0
174 197 0
172 195 0
173 197 0
171 195 0
171 194 0
174 197 0
172 196 0
173 196 0
173 196 0
172 196 0
175 197 0
173 197 0
173 196 0
173 196 0
174 198 0
173 197 0
173 197 0
173 196 0
174 198 0
174 197 0
176 199 0
174 197 0
174 197 0
175 198 0
173 197 0
175 197 0
173 196 0
175 197 0
174 198 0
174 197 0
174 198 0
173 197 0
175 198 0
173 196 0
173 197 0
174 197 0
175 198 0
173 197 0
173 197 0
173 197 0
173 196 0
173 197 0
174 198 0
175 198 0
174 197 0
174 197 0
173 197 0
175 198 0
175 197 0
175 198 0
175 198 0
174 197 0
174 198 0
176 198 0
174 197 0
174 197 0
175 198 0
172 196 0
174 198 0
176 198 0
174 198 0
176 198 0
175 197 0
175 198 0
174 197 0
176 198 0
173 197 0
174 197 0
174 198 0
175 198 0
174 198 0
174 198 0
175 198 0
174 197 0
173 196 0
174 197 0
174 198 0
174 197 0
174 197 0
176 198 0
174 197 0
174 198 0
174 198 0
176 198 0
174 197 0
175 198 0
174 198 0
175 198 0
174 197 0
175 198 0
175 198 0
174 198 0
173 197 0
175 198 0
174 197 0
174 197 0
175 198 0
176 199 0
173 197 0
174 198 0
173 197 0
173 197 0
175 198 0
174 197 0
176 198 0
173 197 0
176 199 0
174 198 0
174 198 0
177 199 0
174 198 0
175 198 0
174 198 0
176 199 0
176 199 0
174 197 0
174 198 0
174 198 0
175 198 0
176 198 0
174 197 0
175 198 0
174 198 0
176 199 0
175 198 0
176 199 0
175 198 0
173 197 0
176 199 0
174 198 0
173 197 0
173 197 0
176 199 0
173 197 0
173 197 0
173 197 0
175 198 0
176 198 0
175 198 0
175 198 0
175 198 0
174 197 0
174 197 0
174 197 0
174 197 0
174 198 0
176 198 0
174 198 0
174 198 0
174 198 0
175 198 0
174 198 0
174 198 0
174 198 0
174 198 0
174 197 0
173 197 0
174 197 0
174 198 0
175 198 0
174 197 0
175 198 0
174 198 0
176 198 0
175 198 0
174 197 0
174 197 0
174 198 0
174 198 0
174 198 0
172 197 0
174 198 0
173 197 0
174 197 0
174 198 0
174 197 0
173 197 0
173 196 0
174 198 0
174 198 0
173 197 0
173 197 0
174 197 0
175 198 0
174 198 0
177 199 0
175 198 0
174 198 0
177 199 0
176 199 0
176 199 0
175 198 0
175 198 0
174 198 0
173 197 0
174 197 0
174 197 0
174 198 0
174 197 0
174 197 0
173 196 0
175 198 0
172 196 0
175 197 0
173 197 0
173 197 0
175 198 0
175 198 0
174 197 0
175 198 0
172 196 0
175 198 0
175 198 0
173 197 0
173 196 0
173 197 0
175 198 0
175 198 0
174 198 0
174 198 0
174 198 0
172 197 0
174 197 0
175 198 0
175 198 0
175 198 0
174 197 0
174 198 0
175 198 0
174 198 0
173 197 0
176 199 0
175 198 0
173 197 0
173 197 0
174 197 0
173 197 0
172 196 0
173 197 0
174 197 0
175 198 0
174 197 0
173 197 0
174 197 0
174 197 0
174 197 0
172 196 0
173 197 0
173 197 0
173 196 0
175 198 0
173 197 0
174 197 0
173 197 0
174 198 0
171 196 0
173 196 0
173 197 0
175 198 0
173 196 0
174 197 0
174 197 0
173 196 0
176 198 0
172 196 0
174 197 0
174 198 0
172 196 0
174 198 0
173 196 0
173 196 0
174 197 0
174 197 0
174 197 0
174 197 0
174 197 0
172 196 0
172 195 0
173 196 0
174 196 0
177 199 0
172 196 0
173 196 0
172 195 0
174 197 0
171 194 0
168 192 0
175 197 0
171 194 0
174 196 0
175 197 0
173 196 0
172 194 0
171 194 0
171 194 0
174 196 0
172 195 0
172 194 0
173 195 0
174 196 0
171 193 0
172 195 0
170 192 0
173 196 0
172 195 0
172 194 0
170 192 0
170 192 0
167 189 0
168 191 0
175 196 0
172 194 0
170 192 0
168 191 0
166 190 0
164 187 0
169 191 0
174 196 0
168 190 0
166 190 0
168 191 0
168 192 0
164 188 0
163 186 0
165 189 0
164 188 0
169 192 0
165 188 0
169 192 0
165 189 0
168 191 0
166 189 0
168 191 0
163 186 0
166 190 0
167 191 0
167 191 0
169 191 0
167 191 0
165 189 0
166 188 0
168 191 0
166 190 0
170 193 0
167 189 0
167 191 0
170 194 0
164 188 0
169 192 0
170 193 0
167 190 0
166 190 0
166 189 0
166 189 0
169 192 0
172 195 0
172 196 0
166 189 0
168 191 0
172 196 0
163 187 0
171 194 0
169 192 0
172 194 0
170 194 0
170 193 0
172 195 0
168 193 0
172 195 0
168 191 0
173 196 0
168 191 0
173 197 0
172 195 0
170 194 0
171 195 0
169 192 0
171 195 0
172 195 0
171 195 0
172 196 0
169 193 0
173 196 0
171 195 0
173 196 0
172 196 0
172 195 0
171 194 0
170 194 0
172 196 0
173 196 0
172 194 0
172 195 0
173 196 0
171 195 0
172 196 0
170 194 0
171 195 0
173 196 0
174 197 0
173 196 0
172 195 0
173 196 0
173 197 0
171 194 0
173 197 0
173 197 0
173 197 0
173 197 0
172 196 0
172 196 0
173 196 0
173 197 0
175 198 0
174 198 0
174 197 0
172 196 0
172 196 0
174 198 0
174 197 0
174 197 0
173 197 0
175 198 0
174 197 0
172 196 0
173 196 0
175 197 0
174 198 0
174 197 0
172 196 0
174 197 0
172 196 0
175 198 0
174 198 0
174 197 0
172 196 0
174 197 0
175 198 0
174 198 0
174 197 0
175 198 0
173 197 0
171 196 0
174 196 0
174 197 0
174 197 0
173 197 0
174 198 0
173 197 0
173 197 0
172 196 0
175 198 0
174 198 0
175 198 0
173 197 0
174 197 0
174 197 0
173 197 0
172 196 0
176 198 0
173 196 0
174 198 0
175 198 0
173 197 0
174 198 0
175 198 0
174 197 0
175 198 0
176 199 0
175 198 0
175 198 0
174 197 0
175 198 0
175 198 0
173 197 0
174 198 0
172 197 0
175 198 0
175 198 0
175 198 0
174 197 0
176 199 0
175 198 0
174 197 0
174 198 0
173 197 0
175 198 0
176 198 0
176 199 0
174 198 0
173 197 0
174 197 0
174 198 0
175 198 0
174 197 0
175 198 0
174 198 0
174 197 0
173 197 0
176 199 0
174 198 0
174 197 0
173 197 0
174 198 0
173 197 0
173 197 0
174 198 0
173 197 0
174 197 0
175 198 0
175 198 0
174 197 0
174 198 0
173 197 0
174 198 0
174 198 0
175 198 0
174 197 0
175 198 0
175 198 0
174 197 0
174 197 0
175 198 0
174 197 0
174 198 0
174 198 0
174 198 0
174 198 0
173 197 0
175 198 0
176 198 0
175 198 0
175 198 0
173 197 0
175 198 0
173 197 0
174 198 0
174 198 0
175 198 0
175 198 0
176 199 0
174 197 0
174 197 0
173 197 0
173 197 0
175 198 0
174 198 0
174 197 0
173 197 0
174 198 0
174 197 0
174 198 0
174 198 0
175 198 0
174 198 0
174 198 0
175 198 0
175 198 0
173 197 0
173 196 0
174 198 0
175 198 0
175 198 0
173 197 0
174 198 0
175 198 0
174 197 0
174 197 0
174 198 0
176 198 0
175 198 0
175 198 0
175 198 0
175 198 0
173 197 0
174 197 0
173 197 0
173 197 0
175 198 0
174 198 0
174 197 0
176 199 0
174 198 0
175 198 0
174 198 0
175 198 0
174 197 0
175 198 0
176 198 0
175 198 0
175 198 0
175 198 0
174 197 0
174 198 0
173 197 0
173 197 0
175 198 0
173 197 0
175 198 0
174 197 0
175 198 0
174 198 0
176 198 0
173 197 0
176 198 0
174 198 0
173 197 0
174 198 0
175 198 0
174 198 0
174 197 0
174 198 0
174 197 0
175 198 0
173 197 0
175 198 0
174 198 0
175 198 0
174 198 0
174 198 0
174 198 0
173 197 0
174 198 0
174 198 0
175 198 0
174 197 0
175 198 0
175 198 0
173 197 0
173 197 0
174 197 0
174 198 0
174 197 0
176 199 0
173 197 0
173 197 0
172 196 0
174 197 0
176 198 0
173 197 0
174 197 0
174 197 0
174 198 0
175 198 0
172 196 0
172 196 0
173 197 0
174 197 0
172 196 0
172 197 0
173 197 0
173 197 0
173 197 0
172 196 0
173 197 0
172 196 0
174 197 0
173 196 0
174 198 0
174 197 0
172 195 0
172 195 0
173 196 0
173 196 0
176 198 0
173 196 0
173 196 0
173 196 0
172 196 0
173 197 0
175 197 0
172 196 0
173 196 0
174 197 0
175 198 0
173 196 0
173 197 0
173 196 0
173 196 0
172 195 0
172 195 0
173 197 0
173 196 0
173 196 0
173 196 0
174 198 0
172 196 0
173 196 0
173 195 0
173 196 0
174 197 0
173 195 0
170 193 0
176 198 0
174 197 0
171 194 0
174 196 0
174 197 0
176 197 0
172 194 0
173 196 0
171 193 0
172 195 0
174 196 0
173 196 0
173 195 0
172 195 0
171 192 0
171 194 0
171 194 0
171 193 0
171 194 0
168 190 0
166 189 0
167 190 0
169 192 0
164 187 0
167 190 0
167 190 0
167 190 0
166 189 0
166 189 0
167 190 0
164 187 0
167 191 0
164 187 0
168 191 0
167 190 0
169 193 0
166 189 0
167 191 0
168 191 0
169 192 0
170 192 0
167 190 0
168 191 0
163 187 0
162 185 0
161 184 0
163 185 0
167 191 0
168 191 0
171 195 0
167 190 0
169 191 0
165 188 0
169 192 0
168 191 0
168 192 0
170 194 0
168 192 0
167 191 0
168 191 0
168 191 0
168 191 0
168 192 0
170 193 0
171 194 0
168 191 0
171 195 0
171 194 0
171 194 0
164 187 0
173 197 0
170 193 0
169 193 0
171 193 0
171 194 0
171 194 0
172 195 0
169 192 0
169 192 0
171 194 0
168 192 0
172 195 0
170 194 0
172 195 0
169 192 0
169 193 0
173 196 0
171 195 0
171 193 0
172 195 0
171 195 0
170 193 0
172 196 0
173 195 0
173 196 0
170 194 0
172 196 0
173 195 0
173 197 0
172 196 0
173 196 0
170 193 0
173 196 0
173 196 0
172 195 0
172 195 0
172 196 0
174 197 0
172 195 0
174 197 0
173 197 0
172 195 0
174 196 0
173 197 0
171 195 0
172 195 0
176 198 0
170 193 0
173 196 0
172 196 0
174 197 0
173 196 0
173 196 0
175 198 0
173 196 0
174 197 0
175 197 0
174 197 0
172 196 0
171 194 0
173 196 0
173 197 0
173 197 0
172 196 0
173 196 0
171 194 0
174 197 0
175 198 0
173 197 0
174 197 0
174 197 0
173 196 0
172 196 0
173 197 0
175 198 0
174 197 0
174 197 0
173 197 0
175 198 0
172 196 0
174 197 0
174 197 0
173 197 0
173 197 0
171 195 0
174 197 0
173 197 0
175 198 0
175 198 0
173 197 0
174 197 0
174 197 0
175 198 0
174 198 0
174 197 0
174 197 0
174 197 0
175 198 0
174 198 0
174 197 0
175 198 0
174 197 0
175 198 0
173 197 0
174 198 0
174 198 0
174 197 0
173 197 0
174 198 0
175 198 0
173 197 0
172 196 0
174 197 0
175 198 0
174 197 0
176 199 0
175 198 0
174 198 0
174 198 0
173 197 0
175 198 0
175 198 0
174 198 0
173 197 0
175 198 0
175 198 0
174 197 0
173 197 0
175 198 0
175 198 0
174 198 0
175 198 0
175 198 0
175 198 0
175 198 0
174 197 0
174 197 0
173 197 0
173 197 0
174 198 0
175 198 0
175 198 0
174 197 0
175 198 0
175 198 0
174 197 0
175 198 0
174 197 0
175 198 0
174 198 0
173 197 0
172 197 0
175 198 0
174 198 0
175 198 0
174 198 0
174 197 0
175 198 0
174 198 0
176 199 0
174 198 0
174 198 0
173 197 0
175 198 0
174 197 0
173 197 0
172 197 0
175 198 0
174 198 0
174 198 0
173 197 0
174 198 0
173 197 0
175 198 0
173 197 0
174 198 0
174 198 0
175 198 0
174 198 0
175 198 0
175 198 0
174 198 0
173 197 0
176 198 0
174 198 0
175 198 0
174 197 0
173 197 0
173 197 0
176 199 0
174 198 0
174 198 0
173 197 0
174 197 0
173 197 0
174 198 0
175 198 0
174 198 0
173 197 0
174 198 0
174 198 0
174 197 0
174 198 0
173 197 0
174 198 0
173 197 0
174 197 0
173 197 0
175 198 0
173 197 0
176 198 0
174 197 0
174 198 0
176 198 0
175 198 0
174 198 0
175 198 0
175 198 0
175 198 0
174 198 0
176 199 0
175 198 0
176 198 0
175 198 0
173 197 0
174 197 0
177 199 0
174 198 0
173 197 0
174 198 0
175 198 0
174 197 0
173 197 0
174 197 0
174 198 0
174 198 0
172 196 0
175 198 0
174 197 0
174 198 0
174 197 0
174 197 0
175 198 0
173 197 0
174 198 0
173 197 0
173 197 0
172 196 0
174 197 0
172 196 0
175 198 0
174 198 0
172 196 0
173 197 0
175 198 0
172 197 0
175 198 0
174 198 0
173 197 0
174 197 0
174 198 0
174 198 0
175 198 0
175 198 0
173 197 0
175 198 0
174 197 0
174 198 0
173 197 0
173 197 0
175 198 0
176 199 0
174 198 0
175 198 0
173 197 0
176 198 0
175 198 0
174 198 0
173 196 0
175 198 0
174 197 0
173 197 0
175 198 0
174 197 0
175 198 0
175 198 0
173 197 0
173 197 0
174 197 0
173 197 0
172 197 0
172 196 0
173 197 0
171 196 0
173 197 0
171 195 0
173 197 0
172 196 0
174 197 0
174 198 0
173 197 0
172 196 0
172 196 0
172 196 0
174 198 0
173 197 0
172 196 0
174 198 0
174 198 0
173 196 0
174 197 0
173 196 0
176 198 0
172 195 0
171 194 0
174 197 0
173 197 0
173 196 0
172 195 0
172 195 0
173 196 0
173 196 0
170 193 0
170 193 0
172 195 0
173 196 0
175 197 0
172 196 0
175 197 0
173 195 0
172 194 0
174 196 0
175 198 0
175 197 0
176 197 0
174 197 0
175 198 0
174 196 0
172 194 0
174 196 0
174 197 0
171 194 0
173 195 0
170 192 0
170 192 0
169 192 0
175 197 0
171 193 0
171 194 0
165 188 0
172 194 0
169 191 0
172 194 0
164 187 0
169 193 0
167 189 0
165 188 0
167 190 0
167 191 0
166 189 0
163 186 0
164 187 0
166 188 0
165 189 0
163 186 0
169 191 0
166 190 0
167 190 0
169 192 0
167 192 0
170 194 0
168 191 0
167 190 0
166 190 0
167 190 0
167 191 0
166 189 0
164 187 0
167 191 0
163 187 0
172 195 0
171 194 0
171 194 0
167 190 0
167 191 0
166 189 0
169 193 0
165 189 0
170 193 0
173 196 0
165 187 0
167 191 0
163 186 0
169 192 0
166 190 0
172 195 0
171 195 0
169 193 0
171 194 0
172 195 0
169 193 0
172 196 0
171 193 0
170 193 0
167 191 0
172 195 0
173 196 0
169 192 0
169 192 0
169 192 0
173 196 0
169 192 0
171 195 0
173 196 0
170 194 0
171 194 0
171 195 0
172 194 0
173 196 0
171 195 0
172 195 0
168 192 0
170 194 0
174 197 0
171 195 0
172 196 0
174 197 0
171 194 0
174 197 0
171 194 0
173 196 0
173 196 0
175 197 0
172 196 0
175 198 0
173 196 0
174 197 0
173 197 0
171 195 0
172 195 0
174 197 0
173 196 0
174 197 0
174 197 0
173 196 0
170 194 0
174 196 0
174 197 0
170 193 0
173 197 0
171 194 0
174 197 0
172 196 0
174 198 0
174 198 0
175 198 0
174 198 0
174 198 0
174 197 0
174 197 0
175 198 0
174 197 0
173 197 0
174 198 0
173 197 0
174 197 0
172 196 0
173 197 0
174 197 0
174 197 0
174 197 0
174 197 0
175 198 0
172 196 0
173 197 0
171 195 0
174 197 0
173 197 0
174 197 0
173 196 0
174 197 0
173 197 0
176 198 0
173 197 0
174 198 0
173 197 0
171 195 0
174 197 0
173 197 0
175 198 0
173 197 0
173 197 0
175 198 0
175 198 0
174 197 0
174 197 0
175 198 0
175 198 0
175 198 0
173 197 0
175 198 0
174 197 0
175 198 0
174 198 0
174 197 0
175 198 0
173 197 0
174 198 0
175 198 0
175 198 0
174 197 0
176 199 0
174 198 0
175 198 0
176 199 0
174 198 0
173 197 0
175 198 0
174 197 0
174 198 0
174 197 0
174 198 0
175 198 0
174 198 0
175 198 0
173 197 0
173 197 0
174 198 0
175 198 0
175 198 0
174 198 0
176 198 0
174 198 0
175 198 0
175 198 0
176 199 0
175 198 0
175 198 0
175 198 0
173 197 0
173 197 0
175 198 0
174 198 0
175 198 0
175 198 0
175 198 0
173 197 0
175 198 0
173 197 0
174 197 0
177 199 0
175 198 0
174 197 0
175 198 0
175 198 0
174 197 0
175 198 0
174 198 0
174 198 0
175 198 0
173 197 0
174 198 0
175 198 0
174 198 0
174 198 0
175 198 0
173 197 0
174 198 0
175 198 0
173 197 0
174 197 0
173 197 0
174 197 0
174 197 0
174 198 0
175 198 0
174 198 0
175 198 0
176 199 0
174 197 0
175 198 0
175 198 0
175 198 0
175 198 0
175 198 0
175 198 0
175 198 0
174 198 0
172 197 0
173 197 0
173 197 0
175 198 0
174 197 0
175 198 0
175 198 0
175 198 0
177 199 0
175 198 0
173 197 0
175 198 0
176 199 0
173 197 0
174 198 0
174 197 0
176 198 0
174 198 0
174 198 0
175 198 0
175 198 0
173 197 0
175 198 0
176 198 0
174 198 0
172 196 0
175 198 0
174 198 0
173 197 0
173 197 0
174 198 0
174 198 0
174 198 0
174 197 0
174 198 0
175 198 0
175 198 0
172 196 0
174 198 0
175 198 0
175 198 0
173 197 0
175 198 0
176 199 0
174 197 0
174 197 0
174 198 0
173 197 0
174 198 0
173 197 0
174 197 0
175 198 0
175 198 0
173 197 0
173 197 0
174 197 0
175 198 0
176 199 0
175 198 0
175 198 0
172 197 0
173 197 0
174 198 0
174 197 0
173 197 0
174 198 0
175 198 0
174 198 0
172 196 0
176 198 0
173 197 0
174 198 0
171 195 0
173 197 0
175 198 0
174 198 0
175 198 0
174 198 0
173 196 0
175 198 0
175 198 0
175 198 0
174 198 0
173 197 0
174 198 0
174 197 0
176 199 0
173 197 0
175 198 0
174 198 0
174 197 0
173 197 0
176 199 0
174 198 0
175 198 0
175 198 0
172 196 0
174 197 0
173 197 0
172 196 0
176 199 0
171 195 0
174 197 0
174 197 0
173 197 0
173 197 0
175 198 0
175 198 0
174 197 0
173 197 0
174 198 0
174 198 0
173 197 0
173 197 0
172 195 0
171 195 0
175 198 0
174 197 0
173 196 0
173 197 0
174 197 0
173 196 0
174 197 0
173 197 0
172 196 0
172 195 0
173 196 0
174 198 0
176 198 0
174 197 0
172 195 0
174 197 0
174 197 0
173 197 0
173 196 0
173 196 0
170 194 0
174 196 0
174 197 0
172 195 0
176 198 0
173 196 0
171 194 0
174 197 0
173 197 0
172 195 0
173 195 0
172 195 0
171 194 0
170 193 0
175 197 0
174 196 0
170 192 0
169 192 0
170 193 0
173 196 0
173 196 0
169 191 0
169 192 0
169 191 0
171 194 0
170 193 0
172 195 0
169 192 0
171 194 0
166 190 0
169 193 0
170 193 0
164 188 0
166 190 0
164 188 0
172 194 0
172 195 0
161 184 0
169 192 0
171 194 0
165 188 0
169 192 0
170 193 0
168 191 0
167 190 0
167 191 0
163 187 0
166 189 0
165 189 0
168 192 0
170 193 0
168 191 0
168 193 0
168 191 0
167 191 0
169 192 0
165 188 0
167 191 0
166 190 0
172 194 0
167 190 0
169 192 0
169 192 0
170 193 0
169 192 0
163 187 0
169 193 0
170 194 0
170 193 0
171 195 0
172 195 0
172 195 0
169 193 0
169 192 0
172 195 0
171 195 0
171 194 0
169 193 0
172 195 0
168 191 0
171 196 0
174 197 0
171 195 0
173 195 0
170 193 0
170 193 0
169 193 0
171 194 0
172 195 0
173 196 0
168 191 0
171 195 0
173 196 0
171 194 0
174 196 0
172 195 0
172 195 0
171 195 0
173 196 0
170 193 0
171 195 0
172 195 0
174 197 0
172 195 0
173 197 0
173 195 0
171 194 0
174 197 0
174 197 0
172 195 0
175 198 0
171 194 0
173 197 0
173 196 0
174 197 0
173 197 0
171 196 0
174 197 0
175 198 0
172 196 0
173 197 0
174 197 0
172 196 0
173 196 0
173 196 0
174 197 0
173 196 0
173 197 0
173 197 0
173 196 0
173 196 0
173 197 0
173 197 0
173 197 0
173 197 0
174 197 0
176 198 0
174 197 0
174 197 0
174 197 0
173 197 0
171 195 0
175 198 0
174 197 0
174 198 0
173 196 0
173 197 0
172 197 0
174 198 0
173 197 0
174 197 0
174 197 0
175 198 0
173 197 0
174 197 0
176 198 0
172 196 0
174 198 0
174 197 0
173 197 0
175 198 0
173 197 0
174 197 0
174 197 0
175 198 0
173 197 0
175 198 0
175 198 0
174 198 0
174 198 0
174 197 0
173 197 0
174 198 0
174 198 0
174 197 0
175 198 0
174 196 0
175 198 0
175 198 0
174 197 0
173 197 0
175 198 0
174 197 0
175 198 0
174 198 0
176 199 0
175 198 0
175 198 0
175 198 0
175 198 0
174 198 0
174 197 0
174 198 0
175 198 0
175 198 0
174 197 0
174 197 0
174 198 0
174 198 0
174 197 0
175 198 0
175 198 0
173 197 0
174 197 0
174 198 0
173 197 0
175 198 0
175 198 0
173 197 0
174 198 0
175 198 0
175 198 0
175 197 0
174 197 0
174 197 0
175 198 0
175 198 0
175 198 0
174 197 0
174 198 0
174 198 0
173 197 0
175 198 0
175 198 0
175 198 0
174 197 0
174 198 0
175 198 0
173 197 0
174 197 0
177 199 0
174 197 0
176 198 0
174 198 0
173 197 0
176 199 0
174 197 0
175 198 0
174 197 0
175 198 0
174 197 0
175 198 0
174 198 0
175 198 0
175 198 0
174 198 0
174 198 0
174 198 0
174 198 0
175 198 0
174 197 0
174 197 0
175 198 0
175 198 0
175 198 0
174 198 0
176 199 0
174 197 0
175 198 0
173 197 0
174 198 0
175 198 0
176 199 0
174 198 0
174 197 0
176 198 0
174 198 0
174 198 0
175 198 0
175 198 0
175 198 0
175 198 0
173 197 0
175 198 0
176 199 0
174 197 0
174 198 0
174 198 0
174 197 0
175 198 0
174 198 0
172 197 0
174 198 0
174 197 0
175 198 0
172 197 0
175 198 0
175 198 0
174 198 0
174 197 0
174 197 0
174 198 0
175 198 0
175 198 0
175 198 0
174 198 0
173 197 0
175 198 0
174 198 0
175 198 0
175 198 0
174 197 0
176 199 0
174 198 0
175 197 0
173 197 0
175 198 0
174 197 0
174 197 0
176 198 0
174 197 0
175 198 0
175 198 0
173 197 0
173 196 0
176 198 0
174 197 0
174 197 0
174 197 0
175 198 0
174 198 0
174 198 0
174 197 0
174 198 0
174 197 0
173 197 0
174 197 0
174 198 0
173 197 0
175 198 0
173 197 0
176 198 0
176 198 0
173 197 0
174 198 0
173 197 0
174 198 0
173 197 0
174 197 0
175 198 0
172 196 0
175 198 0
174 197 0
175 198 0
176 198 0
173 197 0
172 195 0
174 197 0
173 197 0
174 198 0
173 197 0
174 198 0
174 197 0
174 198 0
175 198 0
173 197 0
174 197 0
173 197 0
173 197 0
173 197 0
174 197 0
174 197 0
174 197 0
173 197 0
174 197 0
174 197 0
173 197 0
174 197 0
173 197 0
174 197 0
174 198 0
175 198 0
173 197 0
174 197 0
173 197 0
172 196 0
175 198 0
173 197 0
173 197 0
174 198 0
175 198 0
174 197 0
174 196 0
172 195 0
172 195 0
174 197 0
174 197 0
172 196 0
171 195 0
170 194 0
174 198 0
172 196 0
172 196 0
173 196 0
172 195 0
171 194 0
175 198 0
175 198 0
171 194 0
177 199 0
174 196 0
174 197 0
174 197 0
174 197 0
173 196 0
173 196 0
173 195 0
173 196 0
175 198 0
170 193 0
168 191 0
168 191 0
173 195 0
172 194 0
168 191 0
171 193 0
169 192 0
173 196 0
173 195 0
169 191 0
166 190 0
168 191 0
169 192 0
171 194 0
170 193 0
169 192 0
169 193 0
170 193 0
164 187 0
169 193 0
167 190 0
168 192 0
170 194 0
165 189 0
171 194 0
170 192 0
172 195 0
169 192 0
172 195 0
172 195 0
165 188 0
164 187 0
164 188 0
168 191 0
168 191 0
166 189 0
168 192 0
171 194 0
170 194 0
170 193 0
168 192 0
167 191 0
168 192 0
165 189 0
172 196 0
170 193 0
167 190 0
168 191 0
170 192 0
169 193 0
170 193 0
170 194 0
170 194 0
169 193 0
168 191 0
165 189 0
166 190 0
169 193 0
168 191 0
173 197 0
172 195 0
170 194 0
170 193 0
169 192 0
172 194 0
172 195 0
170 194 0
172 194 0
169 193 0
169 191 0
169 192 0
169 192 0
169 192 0
172 195 0
169 193 0
170 194 0
171 194 0
172 195 0
172 194 0
170 193 0
170 193 0
170 193 0
172 195 0
171 194 0
172 195 0
174 196 0
170 193 0
174 197 0
173 197 0
172 195 0
172 195 0
173 196 0
174 197 0
169 192 0
171 194 0
171 195 0
174 197 0
172 195 0
173 197 0
172 195 0
173 196 0
174 198 0
173 195 0
174 197 0
172 196 0
173 197 0
173 196 0
174 197 0
172 195 0
175 197 0
173 196 0
173 197 0
173 196 0
176 198 0
172 196 0
174 197 0
173 196 0
172 196 0
171 194 0
174 197 0
174 196 0
176 198 0
174 197 0
173 196 0
173 196 0
174 197 0
171 195 0
173 196 0
174 198 0
174 197 0
175 198 0
175 198 0
173 196 0
174 197 0
173 197 0
174 197 0
173 197 0
175 198 0
173 196 0
174 197 0
173 196 0
173 197 0
175 198 0
175 197 0
173 197 0
172 196 0
174 197 0
172 196 0
173 197 0
176 198 0
174 197 0
174 198 0
175 198 0
173 197 0
175 198 0
174 197 0
174 197 0
174 198 0
175 198 0
174 197 0
175 198 0
173 197 0
175 198 0
173 197 0
174 197 0
174 198 0
175 198 0
174 197 0
174 197 0
174 197 0
173 197 0
173 197 0
174 198 0
174 197 0
175 198 0
174 198 0
175 198 0
174 198 0
174 198 0
174 197 0
174 198 0
174 198 0
174 198 0
175 198 0
175 198 0
174 198 0
174 198 0
174 197 0
175 198 0
174 197 0
175 198 0
174 198 0
175 198 0
174 198 0
175 198 0
174 198 0
175 198 0
175 198 0
173 197 0
175 198 0
173 197 0
174 198 0
175 198 0
174 198 0
175 198 0
174 197 0
174 198 0
174 197 0
174 198 0
175 198 0
174 198 0
175 198 0
174 198 0
176 199 0
176 199 0
175 198 0
175 198 0
175 198 0
175 198 0
175 198 0
174 197 0
174 197 0
173 197 0
175 198 0
173 197 0
174 197 0
176 198 0
175 198 0
173 197 0
173 197 0
173 197 0
174 198 0
175 198 0
175 198 0
175 198 0
175 198 0
175 198 0
175 198 0
174 197 0
175 198 0
176 199 0
176 199 0
175 198 0
174 198 0
174 198 0
173 197 0
174 197 0
173 197 0
174 198 0
174 198 0
175 198 0
176 198 0
174 198 0
175 198 0
173 197 0
175 198 0
173 197 0
174 198 0
175 198 0
175 198 0
173 197 0
176 199 0
176 199 0
175 198 0
173 197 0
173 197 0
176 199 0
173 197 0
174 198 0
175 198 0
174 198 0
174 198 0
174 197 0
173 197 0
176 199 0
174 198 0
175 198 0
174 198 0
174 197 0
174 197 0
174 197 0
173 197 0
175 198 0
173 197 0
174 198 0
174 197 0
173 197 0
172 196 0
176 199 0
175 198 0
174 198 0
175 198 0
172 196 0
174 197 0
174 198 0
173 197 0
174 197 0
174 197 0
175 198 0
173 197 0
175 198 0
174 197 0
174 197 0
174 198 0
173 197 0
175 198 0
173 197 0
174 198 0
174 198 0
171 196 0
176 198 0
175 198 0
174 197 0
175 198 0
175 198 0
174 197 0
174 198 0
173 197 0
174 197 0
173 196 0
174 198 0
175 198 0
174 197 0
174 198 0
172 196 0
177 199 0
173 196 0
177 199 0
175 198 0
173 197 0
174 198 0
174 198 0
173 197 0
174 197 0
175 198 0
175 198 0
174 196 0
174 197 0
174 198 0
173 196 0
173 196 0
171 196 0
174 197 0
175 198 0
174 197 0
173 197 0
173 197 0
173 197 0
173 196 0
173 197 0
173 197 0
173 197 0
173 197 0
174 197 0
173 196 0
172 196 0
173 197 0
172 196 0
173 196 0
174 198 0
173 197 0
173 197 0
173 197 0
174 197 0
172 196 0
173 197 0
174 198 0
174 197 0
173 197 0
174 197 0
171 196 0
172 196 0
175 198 0
173 197 0
173 197 0
174 197 0
173 197 0
171 194 0
175 198 0
173 197 0
173 196 0
171 194 0
174 197 0
175 198 0
171 195 0
176 198 0
174 197 0
174 197 0
171 195 0
172 195 0
173 196 0
168 191 0
173 196 0
173 196 0
170 194 0
175 198 0
174 197 0
172 195 0
170 193 0
173 196 0
173 195 0
173 196 0
169 193 0
173 196 0
172 195 0
169 193 0
173 195 0
174 196 0
170 193 0
172 195 0
171 194 0
173 196 0
170 193 0
172 195 0
172 195 0
172 194 0
170 194 0
169 192 0
171 194 0
169 192 0
165 189 0
162 186 0
167 190 0
173 195 0
170 193 0
168 191 0
168 192 0
169 192 0
167 191 0
165 188 0
172 196 0
165 189 0
170 194 0
169 192 0
168 192 0
171 195 0
170 193 0
168 191 0
169 193 0
166 189 0
169 192 0
168 191 0
170 193 0
168 191 0
172 195 0
167 190 0
170 194 0
172 194 0
172 195 0
168 191 0
168 191 0
168 193 0
169 192 0
168 191 0
169 192 0
171 195 0
170 194 0
170 194 0
171 195 0
169 192 0
171 194 0
173 196 0
173 195 0
169 192 0
172 195 0
172 195 0
173 196 0
169 192 0
168 191 0
173 196 0
169 193 0
168 190 0
170 193 0
172 195 0
171 194 0
170 194 0
173 196 0
169 191 0
170 193 0
173 197 0
170 194 0
172 195 0
171 194 0
169 192 0
170 193 0
174 197 0
171 194 0
173 197 0
168 192 0
173 196 0
175 197 0
173 196 0
172 196 0
172 196 0
171 194 0
169 193 0
173 196 0
171 195 0
174 197 0
172 196 0
172 196 0
173 196 0
174 197 0
171 195 0
170 193 0
174 198 0
173 196 0
174 197 0
173 197 0
174 197 0
173 196 0
173 197 0
174 197 0
173 196 0
173 197 0
173 197 0
174 197 0
174 197 0
175 198 0
174 197 0
174 197 0
174 198 0
174 197 0
174 197 0
174 197 0
174 197 0
173 196 0
174 197 0
174 198 0
174 197 0
174 197 0
174 197 0
174 197 0
174 198 0
172 196 0
175 198 0
174 197 0
175 198 0
174 197 0
175 198 0
173 196 0
173 197 0
173 197 0
174 198 0
173 197 0
175 198 0
175 198 0
175 198 0
173 197 0
174 197 0
175 198 0
174 198 0
175 198 0
175 198 0
172 196 0
174 197 0
175 198 0
174 197 0
174 197 0
175 198 0
173 197 0
174 197 0
174 197 0
174 198 0
176 198 0
174 197 0
175 198 0
174 198 0
174 197 0
173 197 0
175 197 0
174 198 0
173 197 0
175 198 0
174 198 0
174 198 0
173 197 0
175 198 0
174 198 0
174 197 0
174 198 0
176 198 0
174 198 0
174 197 0
175 198 0
175 198 0
173 197 0
174 198 0
174 197 0
175 198 0
174 198 0
175 198 0
174 198 0
175 198 0
175 198 0
175 198 0
173 197 0
174 198 0
175 198 0
173 197 0
174 198 0
174 198 0
173 197 0
174 198 0
176 199 0
176 199 0
176 199 0
175 198 0
173 196 0
175 198 0
175 198 0
175 198 0
176 199 0
174 197 0
175 198 0
174 198 0
173 197 0
173 197 0
173 197 0
175 198 0
174 198 0
175 198 0
174 197 0
176 198 0
173 197 0
175 198 0
174 198 0
174 198 0
174 197 0
173 197 0
173 197 0
174 197 0
174 198 0
174 198 0
175 198 0
176 199 0
175 198 0
177 199 0
172 197 0
174 198 0
173 197 0
174 197 0
173 197 0
174 197 0
174 197 0
174 198 0
175 198 0
175 198 0
173 197 0
175 198 0
173 197 0
174 197 0
175 198 0
176 198 0
173 197 0
174 198 0
175 198 0
173 197 0
175 198 0
175 198 0
173 197 0
174 198 0
175 198 0
173 197 0
176 198 0
173 197 0
175 198 0
176 199 0
174 198 0
174 197 0
175 198 0
174 197 0
176 198 0
176 198 0
175 198 0
175 198 0
173 197 0
174 198 0
174 197 0
173 197 0
173 197 0
173 197 0
174 198 0
174 197 0
176 198 0
173 197 0
175 198 0
174 198 0
174 198 0
176 198 0
176 199 0
175 198 0
174 198 0
174 197 0
175 198 0
174 197 0
174 197 0
174 198 0
175 198 0
173 197 0
176 199 0
175 198 0
175 198 0
174 197 0
174 197 0
174 198 0
175 198 0
174 197 0
173 197 0
173 197 0
174 197 0
176 198 0
174 197 0
173 197 0
175 198 0
174 197 0
174 198 0
175 198 0
173 197 0
174 198 0
175 198 0
173 197 0
175 198 0
174 198 0
174 198 0
174 198 0
174 198 0
175 198 0
173 197 0
174 198 0
174 197 0
173 197 0
174 197 0
173 197 0
172 196 0
172 197 0
176 199 0
174 197 0
174 197 0
174 198 0
172 196 0
175 198 0
172 196 0
173 196 0
172 196 0
174 198 0
174 198 0
174 197 0
174 198 0
171 195 0
172 196 0
172 197 0
172 195 0
173 196 0
170 194 0
174 197 0
173 197 0
173 197 0
174 197 0
174 198 0
173 197 0
174 197 0
174 197 0
173 196 0
174 198 0
174 197 0
173 197 0
172 196 0
175 198 0
175 198 0
174 197 0
173 197 0
171 194 0
174 197 0
173 197 0
173 197 0
173 196 0
173 197 0
171 195 0
174 198 0
175 198 0
175 197 0
173 196 0
173 196 0
175 198 0
174 196 0
171 195 0
172 195 0
173 196 0
171 194 0
173 196 0
169 193 0
170 193 0
173 196 0
174 197 0
173 196 0
172 195 0
171 194 0
173 196 0
173 196 0
174 196 0
170 194 0
168 192 0
172 196 0
169 193 0
173 196 0
170 193 0
172 195 0
171 195 0
168 191 0
174 197 0
171 195 0
172 196 0
168 191 0
173 196 0
171 194 0
171 194 0
169 192 0
169 191 0
168 192 0
165 189 0
169 192 0
168 191 0
167 190 0
173 197 0
168 192 0
166 190 0
166 190 0
170 194 0
167 191 0
170 193 0
168 190 0
170 193 0
167 191 0
173 196 0
168 192 0
169 192 0
168 192 0
164 188 0
167 191 0
165 188 0
168 192 0
170 192 0
170 193 0
169 193 0
169 193 0
170 194 0
169 192 0
169 193 0
169 191 0
166 189 0
167 191 0
169 192 0
169 193 0
169 192 0
171 196 0
170 192 0
171 195 0
169 192 0
170 193 0
168 190 0
168 191 0
170 193 0
170 193 0
168 192 0
172 196 0
170 194 0
171 194 0
169 192 0
173 196 0
171 194 0
170 194 0
174 197 0
172 196 0
172 195 0
171 195 0
172 195 0
174 197 0
172 196 0
175 198 0
172 195 0
175 198 0
172 196 0
172 195 0
173 196 0
172 196 0
170 194 0
173 197 0
171 195 0
176 199 0
173 197 0
174 198 0
173 196 0
171 194 0
172 195 0
171 195 0
174 197 0
171 195 0
175 198 0
173 196 0
174 196 0
170 193 0
174 197 0
173 196 0
174 197 0
173 197 0
174 198 0
173 196 0
174 197 0
172 196 0
173 196 0
171 195 0
171 195 0
175 198 0
173 196 0
172 196 0
175 198 0
171 194 0
173 196 0
173 197 0
173 196 0
173 196 0
172 196 0
174 197 0
173 197 0
174 196 0
174 198 0
173 197 0
175 198 0
173 197 0
174 197 0
173 196 0
173 197 0
173 197 0
174 197 0
175 197 0
174 197 0
174 197 0
173 197 0
173 196 0
174 197 0
173 197 0
174 197 0
174 197 0
173 197 0
173 197 0
173 197 0
174 197 0
173 197 0
173 197 0
174 197 0
173 196 0
173 197 0
175 198 0
175 198 0
176 198 0
174 197 0
176 199 0
174 198 0
172 196 0
173 196 0
174 197 0
174 197 0
173 197 0
174 198 0
174 198 0
175 198 0
173 197 0
176 199 0
173 196 0
175 198 0
174 197 0
173 197 0
176 199 0
174 197 0
175 198 0
174 198 0
174 198 0
174 198 0
173 197 0
173 197 0
175 198 0
173 197 0
174 197 0
174 197 0
172 196 0
175 198 0
175 198 0
175 198 0
173 197 0
174 197 0
173 197 0
174 197 0
173 197 0
175 198 0
175 198 0
174 197 0
174 198 0
173 196 0
174 197 0
174 197 0
174 198 0
174 198 0
174 197 0
174 197 0
175 197 0
173 197 0
172 197 0
175 198 0
173 197 0
175 198 0
175 198 0
175 198 0
175 198 0
176 198 0
173 197 0
173 197 0
174 197 0
175 198 0
173 197 0
175 198 0
175 198 0
173 197 0
175 198 0
176 198 0
175 198 0
175 198 0
176 199 0
176 198 0
175 198 0
175 198 0
173 197 0
174 198 0
173 197 0
173 197 0
172 197 0
174 198 0
175 198 0
174 198 0
174 197 0
173 197 0
174 198 0
174 197 0
175 198 0
174 197 0
175 198 0
176 198 0
175 198 0
174 198 0
175 198 0
174 198 0
174 197 0
175 198 0
174 197 0
174 197 0
172 197 0
174 198 0
172 197 0
174 198 0
173 197 0
175 198 0
174 198 0
175 198 0
174 197 0
172 197 0
175 198 0
173 197 0
172 196 0
173 197 0
176 198 0
174 198 0
176 199 0
174 197 0
173 197 0
173 197 0
174 197 0
175 198 0
175 198 0
173 196 0
175 198 0
174 198 0
173 197 0
173 197 0
175 198 0
175 198 0
174 197 0
176 199 0
174 198 0
176 199 0
174 197 0
176 198 0
173 197 0
175 198 0
174 198 0
175 198 0
174 197 0
175 198 0
174 198 0
174 197 0
174 198 0
173 197 0
176 199 0
175 198 0
175 198 0
175 198 0
174 198 0
174 198 0
173 197 0
174 198 0
174 198 0
174 197 0
174 198 0
173 197 0
173 197 0
176 199 0
174 198 0
175 198 0
176 199 0
174 197 0
172 197 0
174 198 0
173 197 0
176 199 0
174 197 0
175 198 0
174 198 0
174 198 0
174 197 0
175 198 0
175 198 0
175 198 0
174 198 0
172 197 0
173 196 0
174 198 0
174 198 0
174 198 0
174 197 0
174 197 0
174 197 0
174 197 0
173 197 0
175 198 0
174 197 0
173 197 0
174 197 0
174 197 0
174 198 0
174 197 0
175 198 0
172 196 0
174 197 0
172 197 0
174 198 0
174 198 0
172 197 0
173 197 0
174 197 0
174 197 0
175 198 0
172 196 0
174 197 0
173 196 0
173 196 0
175 198 0
174 197 0
174 197 0
174 197 0
172 196 0
172 195 0
171 195 0
173 197 0
174 197 0
172 196 0
172 196 0
173 197 0
176 198 0
174 197 0
171 196 0
173 197 0
171 195 0
173 196 0
174 197 0
174 197 0
174 197 0
174 197 0
174 197 0
173 197 0
172 195 0
170 193 0
174 197 0
173 196 0
171 194 0
174 197 0
171 195 0
175 198 0
172 195 0
173 196 0
176 198 0
171 194 0
170 193 0
172 194 0
170 194 0
173 196 0
171 194 0
173 196 0
169 193 0
171 194 0
174 196 0
174 197 0
175 198 0
173 196 0
171 194 0
172 195 0
171 194 0
168 192 0
170 193 0
170 194 0
169 193 0
167 191 0
168 191 0
168 192 0
167 191 0
173 196 0
163 187 0
169 192 0
170 193 0
170 194 0
168 193 0
169 191 0
167 191 0
168 192 0
166 190 0
174 196 0
168 192 0
170 193 0
167 190 0
170 194 0
167 191 0
171 194 0
169 194 0
169 192 0
170 193 0
167 190 0
169 192 0
170 193 0
170 193 0
170 194 0
171 195 0
170 194 0
169 191 0
167 191 0
167 191 0
170 194 0
167 191 0
172 194 0
168 192 0
171 194 0
168 192 0
173 197 0
169 193 0
168 192 0
166 189 0
168 191 0
171 194 0
170 193 0
172 196 0
174 197 0
171 194 0
170 193 0
173 196 0
174 198 0
173 196 0
172 196 0
172 194 0
173 196 0
172 196 0
171 195 0
172 196 0
171 193 0
171 194 0
168 193 0
174 197 0
171 195 0
171 195 0
170 193 0
171 195 0
171 195 0
173 196 0
172 196 0
172 195 0
171 195 0
170 194 0
172 196 0
171 194 0
172 196 0
174 197 0
174 197 0
173 197 0
169 192 0
173 196 0
173 196 0
174 196 0
172 196 0
174 197 0
172 196 0
173 197 0
172 196 0
173 196 0
173 196 0
172 194 0
173 196 0
174 197 0
173 196 0
176 198 0
173 197 0
171 194 0
175 198 0
171 195 0
174 197 0
175 198 0
176 199 0
176 198 0
173 196 0
173 197 0
172 195 0
171 195 0
174 197 0
173 196 0
175 198 0
172 196 0
175 198 0
175 198 0
175 198 0
175 198 0
174 197 0
175 198 0
173 197 0
170 194 0
174 197 0
172 195 0
174 198 0
172 196 0
174 197 0
174 197 0
175 198 0
174 197 0
171 196 0
174 197 0
176 199 0
175 198 0
174 197 0
174 198 0
175 198 0
174 198 0
174 197 0
174 198 0
175 198 0
175 198 0
173 197 0
174 197 0
173 197 0
174 197 0
173 197 0
174 197 0
174 198 0
174 198 0
173 197 0
175 198 0
174 197 0
173 197 0
172 196 0
176 199 0
174 198 0
173 197 0
175 198 0
176 198 0
174 197 0
174 197 0
175 198 0
174 197 0
174 197 0
175 198 0
175 198 0
173 196 0
174 198 0
176 199 0
174 197 0
174 198 0
174 198 0
173 197 0
173 197 0
174 197 0
174 198 0
174 197 0
175 198 0
175 198 0
175 198 0
175 198 0
172 197 0
175 198 0
175 198 0
174 197 0
174 198 0
173 197 0
177 199 0
175 198 0
173 197 0
174 198 0
175 198 0
172 197 0
174 198 0
174 198 0
173 197 0
175 198 0
175 198 0
174 198 0
174 197 0
174 198 0
172 197 0
173 197 0
176 199 0
174 197 0
175 198 0
174 198 0
174 198 0
175 198 0
176 199 0
174 198 0
173 197 0
175 198 0
174 197 0
174 197 0
175 198 0
175 198 0
176 198 0
174 197 0
175 198 0
174 198 0
174 197 0
175 198 0
176 199 0
172 197 0
175 198 0
176 198 0
174 197 0
174 198 0
175 198 0
174 198 0
176 199 0
173 197 0
176 199 0
174 197 0
173 197 0
174 198 0
173 197 0
176 198 0
175 198 0
176 199 0
174 198 0
175 198 0
175 198 0
173 197 0
176 198 0
176 198 0
175 198 0
174 198 0
173 197 0
174 198 0
171 196 0
175 198 0
175 198 0
174 197 0
174 198 0
175 198 0
173 197 0
173 197 0
175 197 0
174 198 0
175 198 0
175 198 0
174 198 0
176 199 0
173 197 0
175 198 0
175 198 0
173 197 0
175 198 0
174 197 0
176 199 0
174 198 0
174 198 0
173 197 0
176 199 0
174 197 0
175 198 0
174 197 0
175 198 0
174 198 0
173 197 0
175 198 0
175 198 0
175 198 0
174 197 0
175 198 0
174 197 0
173 197 0
174 197 0
174 197 0
173 197 0
173 197 0
174 197 0
173 197 0
175 198 0
174 198 0
174 198 0
175 198 0
175 198 0
173 197 0
174 198 0
174 197 0
174 198 0
174 197 0
175 198 0
173 197 0
174 198 0
172 196 0
176 199 0
175 198 0
175 198 0
172 196 0
175 198 0
174 197 0
173 197 0
174 197 0
174 198 0
173 197 0
174 198 0
174 198 0
172 196 0
173 196 0
173 196 0
173 197 0
174 198 0
173 197 0
177 199 0
173 197 0
171 195 0
173 197 0
173 197 0
173 197 0
173 197 0
174 198 0
174 198 0
173 197 0
175 198 0
173 197 0
174 198 0
174 198 0
174 197 0
174 197 0
174 197 0
173 197 0
172 196 0
174 197 0
175 198 0
173 196 0
173 196 0
173 197 0
172 196 0
172 196 0
175 198 0
173 196 0
172 196 0
168 192 0
176 198 0
173 196 0
173 197 0
172 196 0
174 197 0
172 195 0
173 196 0
175 198 0
175 198 0
174 197 0
173 196 0
174 197 0
168 192 0
173 195 0
174 196 0
174 197 0
174 196 0
174 197 0
172 195 0
172 196 0
175 198 0
171 195 0
173 195 0
175 198 0
172 195 0
170 193 0
171 193 0
170 192 0
169 193 0
171 194 0
170 193 0
174 197 0
173 196 0
171 195 0
170 193 0
172 196 0
172 196 0
175 198 0
171 194 0
169 192 0
169 192 0
168 192 0
170 192 0
169 192 0
170 194 0
167 190 0
170 193 0
168 191 0
162 185 0
167 190 0
170 193 0
169 193 0
169 192 0
170 193 0
167 191 0
170 194 0
170 193 0
168 190 0
171 194 0
170 193 0
172 195 0
167 191 0
168 192 0
168 191 0
170 193 0
169 192 0
168 191 0
173 196 0
170 194 0
170 193 0
168 192 0
169 193 0
170 193 0
167 191 0
173 195 0
171 194 0
168 191 0
171 194 0
170 194 0
171 194 0
171 195 0
169 193 0
168 192 0
168 192 0
170 194 0
168 191 0
173 196 0
172 195 0
169 193 0
170 193 0
170 193 0
169 193 0
168 192 0
172 196 0
172 195 0
172 194 0
170 194 0
170 193 0
172 196 0
171 195 0
173 196 0
174 198 0
173 197 0
170 194 0
173 196 0
173 196 0
173 196 0
172 195 0
172 195 0
170 193 0
171 195 0
170 194 0
172 194 0
172 196 0
172 195 0
173 196 0
170 194 0
168 192 0
173 196 0
174 197 0
173 197 0
173 197 0
172 195 0
171 196 0
172 196 0
173 197 0
172 195 0
174 197 0
171 195 0
171 195 0
174 197 0
172 196 0
172 195 0
173 197 0
175 198 0
172 196 0
175 198 0
173 197 0
172 195 0
173 195 0
174 198 0
174 196 0
171 195 0
171 196 0
172 196 0
174 198 0
174 197 0
175 197 0
173 197 0
173 196 0
174 197 0
174 197 0
175 198 0
173 195 0
174 197 0
175 198 0
173 197 0
173 197 0
174 197 0
174 197 0
175 198 0
173 197 0
175 197 0
172 196 0
176 199 0
173 197 0
173 197 0
174 197 0
172 196 0
175 198 0
175 198 0
173 196 0
174 197 0
174 198 0
174 197 0
173 197 0
174 197 0
175 198 0
174 197 0
173 196 0
176 199 0
174 198 0
174 198 0
175 198 0
175 198 0
173 197 0
175 198 0
173 197 0
174 197 0
175 198 0
174 198 0
173 196 0
175 198 0
173 197 0
176 198 0
175 198 0
175 198 0
174 198 0
175 198 0
174 198 0
175 198 0
175 198 0
174 198 0
174 197 0
172 196 0
173 197 0
174 198 0
172 196 0
173 197 0
174 197 0
172 196 0
174 197 0
175 197 0
174 198 0
174 198 0
174 198 0
171 195 0
174 197 0
172 197 0
176 199 0
175 198 0
174 198 0
174 198 0
173 196 0
173 197 0
176 198 0
174 198 0
174 198 0
175 198 0
175 198 0
172 197 0
174 197 0
174 197 0
174 198 0
173 197 0
174 197 0
175 198 0
175 198 0
173 197 0
174 197 0
173 197 0
174 197 0
173 196 0
173 197 0
175 198 0
173 197 0
173 197 0
174 198 0
174 197 0
174 198 0
173 197 0
173 197 0
173 197 0
173 197 0
174 198 0
174 197 0
173 197 0
175 198 0
176 199 0
175 198 0
175 198 0
176 199 0
174 198 0
172 197 0
175 198 0
175 198 0
173 197 0
172 197 0
174 198 0
175 198 0
175 198 0
176 198 0
175 198 0
173 197 0
176 199 0
174 197 0
174 197 0
174 198 0
175 198 0
174 198 0
175 198 0
172 197 0
174 198 0
175 198 0
173 197 0
176 198 0
172 197 0
174 197 0
174 198 0
174 198 0
175 198 0
175 198 0
175 198 0
175 198 0
175 198 0
174 198 0
174 197 0
172 196 0
175 198 0
174 197 0
175 198 0
173 197 0
176 199 0
174 197 0
175 198 0
176 199 0
174 197 0
176 199 0
174 198 0
175 198 0
174 197 0
174 197 0
173 197 0
177 199 0
175 198 0
173 197 0
174 198 0
174 197 0
175 198 0
173 197 0
175 198 0
174 198 0
175 198 0
176 199 0
174 198 0
176 198 0
175 198 0
172 196 0
174 197 0
173 197 0
174 198 0
173 197 0
174 197 0
174 197 0
174 197 0
173 197 0
174 197 0
174 197 0
171 196 0
173 196 0
175 198 0
172 196 0
173 197 0
175 198 0
174 197 0
175 198 0
174 198 0
174 198 0
175 198 0
174 198 0
174 198 0
176 199 0
172 196 0
174 197 0
174 197 0
174 197 0
174 197 0
174 197 0
174 198 0
173 196 0
175 198 0
174 197 0
172 196 0
174 198 0
174 197 0
173 197 0
173 197 0
174 198 0
173 197 0
173 197 0
174 197 0
174 197 0
174 197 0
174 198 0
174 198 0
174 197 0
172 196 0
173 197 0
173 197 0
174 197 0
174 197 0
173 197 0
175 198 0
173 197 0
174 197 0
175 198 0
175 198 0
173 197 0
172 196 0
174 197 0
171 195 0
173 196 0
173 196 0
172 195 0
175 198 0
173 196 0
170 193 0
173 197 0
171 195 0
174 197 0
172 197 0
173 196 0
172 196 0
173 197 0
173 196 0
170 194 0
172 196 0
173 196 0
173 197 0
173 197 0
173 196 0
171 194 0
175 197 0
174 197 0
172 196 0
174 197 0
175 198 0
173 195 0
173 196 0
173 196 0
171 195 0
173 197 0
172 195 0
173 196 0
174 197 0
173 196 0
170 193 0
174 197 0
175 198 0
171 195 0
172 196 0
171 195 0
170 193 0
170 193 0
173 196 0
170 192 0
170 193 0
173 196 0
171 194 0
173 196 0
171 194 0
169 193 0
171 195 0
173 197 0
166 190 0
172 196 0
170 193 0
168 191 0
172 195 0
169 192 0
168 192 0
167 191 0
166 189 0
171 195 0
173 196 0
167 190 0
170 193 0
169 192 0
168 192 0
173 196 0
170 193 0
169 192 0
169 192 0
168 191 0
174 197 0
167 191 0
168 192 0
166 189 0
169 192 0
170 193 0
166 190 0
168 192 0
169 192 0
168 191 0
169 193 0
171 195 0
169 193 0
169 192 0
170 194 0
170 193 0
171 195 0
172 195 0
169 192 0
168 192 0
169 193 0
169 193 0
168 192 0
174 197 0
171 194 0
171 195 0
170 193 0
171 194 0
171 195 0
171 195 0
172 195 0
171 194 0
172 195 0
171 194 0
170 194 0
174 197 0
170 195 0
173 197 0
171 194 0
170 193 0
173 197 0
171 195 0
172 196 0
172 195 0
170 194 0
171 194 0
173 196 0
169 193 0
171 195 0
171 195 0
171 195 0
173 197 0
173 197 0
170 193 0
173 196 0
174 197 0
173 196 0
171 195 0
171 194 0
173 197 0
172 195 0
174 197 0
174 197 0
172 196 0
173 196 0
175 197 0
174 197 0
173 197 0
172 196 0
173 197 0
173 197 0
174 197 0
173 197 0
174 197 0
174 197 0
175 198 0
174 197 0
172 195 0
174 198 0
173 196 0
174 197 0
174 197 0
171 195 0
173 197 0
173 197 0
176 199 0
173 196 0
173 197 0
174 197 0
173 197 0
174 197 0
175 198 0
173 197 0
171 196 0
174 198 0
175 198 0
174 197 0
173 197 0
175 197 0
175 198 0
174 197 0
173 197 0
174 198 0
175 198 0
173 196 0
173 196 0
172 196 0
175 198 0
175 198 0
174 196 0
173 197 0
173 197 0
175 198 0
174 197 0
173 197 0
175 198 0
175 198 0
173 197 0
173 197 0
175 197 0
174 197 0
175 198 0
173 197 0
175 198 0
175 198 0
172 197 0
174 197 0
174 197 0
174 197 0
175 198 0
175 198 0
175 198 0
174 197 0
176 199 0
174 197 0
173 197 0
176 199 0
174 197 0
172 197 0
173 197 0
174 198 0
174 197 0
175 198 0
173 196 0
172 197 0
174 198 0
174 198 0
174 197 0
174 197 0
175 198 0
173 197 0
173 197 0
174 198 0
175 197 0
174 198 0
174 197 0
175 198 0
174 197 0
175 198 0
174 197 0
175 198 0
175 198 0
176 199 0
176 199 0
173 197 0
174 198 0
174 198 0
174 198 0
174 197 0
174 198 0
175 198 0
174 197 0
174 197 0
174 198 0
173 197 0
174 197 0
175 198 0
174 197 0
175 198 0
174 198 0
175 198 0
175 198 0
174 198 0
175 198 0
175 198 0
176 198 0
174 198 0
175 198 0
174 198 0
173 197 0
174 197 0
174 198 0
175 198 0
175 198 0
176 199 0
175 198 0
175 198 0
175 198 0
173 197 0
175 198 0
174 198 0
175 198 0
175 198 0
174 198 0
174 198 0
175 198 0
174 198 0
174 198 0
176 199 0
173 197 0
175 198 0
173 197 0
174 198 0
176 198 0
173 197 0
175 198 0
176 198 0
174 198 0
172 197 0
176 199 0
174 197 0
175 198 0
174 198 0
175 198 0
174 197 0
175 198 0
173 197 0
175 198 0
174 197 0
173 197 0
173 197 0
174 198 0
174 198 0
175 198 0
174 197 0
173 196 0
174 198 0
174 198 0
174 197 0
174 197 0
175 198 0
174 197 0
173 197 0
175 198 0
173 197 0
173 197 0
174 198 0
173 196 0
174 198 0
174 198 0
173 197 0
173 197 0
175 198 0
174 198 0
174 198 0
174 198 0
175 198 0
174 197 0
174 198 0
174 197 0
172 196 0
172 197 0
174 198 0
174 198 0
174 198 0
173 197 0
173 197 0
175 198 0
174 198 0
173 197 0
175 198 0
174 198 0
174 198 0
174 197 0
175 198 0
173 197 0
175 198 0
175 197 0
173 197 0
175 198 0
173 197 0
173 197 0
174 198 0
172 196 0
175 198 0
174 197 0
174 197 0
173 197 0
175 198 0
173 196 0
174 197 0
175 198 0
174 198 0
175 198 0
173 197 0
173 197 0
173 197 0
175 198 0
174 198 0
174 198 0
174 197 0
175 198 0
173 197 0
175 198 0
175 198 0
175 198 0
174 198 0
173 197 0
176 198 0
174 198 0
174 197 0
173 197 0
172 196 0
173 196 0
173 196 0
174 197 0
174 198 0
173 196 0
172 195 0
174 197 0
173 197 0
173 197 0
174 198 0
172 196 0
171 195 0
173 197 0
172 195 0
173 196 0
174 197 0
175 198 0
175 198 0
174 198 0
172 196 0
173 196 0
174 197 0
174 198 0
173 196 0
173 196 0
175 198 0
172 196 0
173 196 0
173 197 0
173 197 0
173 197 0
174 196 0
173 197 0
177 199 0
172 196 0
173 196 0
171 194 0
174 197 0
171 195 0
171 195 0
168 192 0
171 195 0
173 196 0
173 197 0
171 195 0
171 195 0
173 196 0
170 194 0
173 196 0
174 197 0
172 196 0
170 194 0
170 194 0
172 196 0
174 196 0
174 197 0
169 192 0
171 195 0
173 196 0
171 194 0
169 193 0
173 196 0
168 192 0
170 194 0
167 191 0
170 193 0
170 193 0
171 194 0
171 195 0
167 190 0
170 194 0
172 195 0
173 196 0
170 194 0
169 193 0
167 191 0
168 192 0
167 190 0
164 188 0
166 190 0
167 190 0
169 192 0
171 194 0
172 196 0
169 191 0
169 192 0
170 193 0
168 191 0
170 193 0
171 194 0
171 194 0
170 193 0
168 192 0
170 192 0
169 193 0
173 196 0
173 196 0
170 193 0
170 194 0
170 193 0
171 195 0
173 196 0
171 194 0
172 195 0
169 192 0
171 194 0
168 191 0
171 194 0
172 195 0
169 193 0
173 196 0
170 193 0
171 194 0
167 191 0
170 194 0
169 192 0
171 195 0
170 193 0
172 196 0
171 195 0
170 193 0
172 195 0
173 197 0
170 194 0
169 192 0
175 198 0
173 196 0
175 197 0
173 197 0
173 196 0
171 194 0
174 197 0
174 197 0
173 195 0
174 197 0
175 198 0
172 196 0
172 195 0
170 194 0
172 196 0
173 196 0
174 197 0
170 193 0
174 197 0
173 197 0
171 194 0
171 195 0
169 193 0
173 197 0
173 196 0
173 196 0
172 195 0
172 196 0
173 196 0
173 197 0
173 196 0
172 196 0
174 197 0
174 198 0
173 196 0
174 197 0
174 197 0
174 197 0
174 197 0
173 197 0
175 198 0
174 197 0
175 198 0
173 195 0
172 196 0
174 197 0
173 197 0
176 198 0
173 196 0
173 197 0
172 196 0
174 197 0
174 198 0
172 196 0
175 197 0
173 197 0
174 198 0
173 197 0
174 198 0
173 197 0
173 197 0
175 198 0
174 198 0
175 197 0
172 196 0
172 196 0
172 196 0
174 198 0
176 198 0
173 197 0
173 196 0
172 196 0
175 198 0
174 197 0
175 198 0
173 197 0
174 197 0
175 198 0
172 196 0
174 198 0
174 198 0
175 198 0
174 197 0
174 197 0
174 197 0
175 198 0
174 197 0
175 198 0
175 197 0
175 198 0
176 198 0
172 196 0
176 198 0
174 197 0
174 198 0
172 196 0
173 197 0
174 197 0
175 198 0
175 198 0
173 197 0
174 197 0
174 197 0
174 197 0
173 197 0
173 197 0
175 198 0
172 197 0
174 198 0
174 198 0
174 198 0
175 198 0
174 197 0
174 197 0
174 198 0
174 197 0
174 198 0
174 198 0
175 198 0
175 198 0
174 198 0
173 197 0
175 198 0
175 198 0
176 199 0
176 199 0
175 198 0
174 198 0
175 198 0
172 197 0
176 199 0
174 197 0
175 198 0
177 199 0
174 197 0
172 197 0
176 199 0
174 198 0
175 198 0
174 198 0
174 198 0
175 198 0
173 197 0
175 198 0
175 198 0
173 197 0
173 197 0
175 198 0
176 198 0
175 198 0
174 198 0
174 197 0
173 197 0
175 198 0
174 198 0
177 199 0
175 198 0
173 197 0
175 198 0
175 198 0
172 197 0
174 198 0
174 198 0
175 198 0
174 197 0
174 197 0
175 198 0
174 198 0
174 198 0
174 198 0
174 198 0
176 198 0
174 198 0
173 197 0
175 198 0
174 198 0
174 198 0
174 198 0
174 197 0
175 198 0
175 198 0
174 198 0
174 198 0
176 199 0
174 198 0
175 198 0
174 198 0
175 198 0
175 198 0
173 197 0
174 198 0
175 198 0
174 198 0
174 198 0
173 197 0
173 197 0
174 198 0
173 197 0
174 198 0
174 197 0
176 198 0
174 198 0
175 198 0
174 197 0
175 198 0
176 199 0
174 198 0
173 197 0
175 198 0
174 198 0
177 199 0
174 198 0
175 198 0
174 198 0
173 197 0
174 197 0
174 197 0
175 198 0
176 199 0
173 197 0
174 198 0
175 198 0
174 198 0
174 198 0
174 198 0
175 198 0
173 197 0
174 198 0
173 197 0
173 197 0
172 196 0
173 196 0
173 197 0
173 197 0
175 198 0
175 198 0
173 197 0
175 198 0
175 198 0
175 198 0
174 197 0
173 197 0
173 197 0
173 197 0
175 198 0
174 197 0
174 198 0
173 196 0
172 197 0
174 198 0
174 197 0
174 198 0
173 196 0
171 195 0
174 198 0
175 198 0
174 197 0
174 198 0
175 198 0
173 197 0
174 197 0
172 197 0
174 197 0
174 198 0
174 198 0
176 198 0
175 198 0
174 197 0
174 198 0
175 198 0
176 198 0
172 197 0
174 198 0
173 197 0
174 196 0
174 198 0
173 196 0
174 198 0
173 197 0
172 195 0
172 196 0
169 194 0
175 198 0
173 196 0
175 198 0
173 197 0
173 197 0
173 196 0
175 198 0
170 193 0
173 196 0
172 196 0
172 196 0
171 195 0
174 198 0
172 196 0
175 198 0
172 195 0
175 198 0
171 196 0
171 195 0
172 195 0
171 194 0
173 197 0
174 197 0
171 195 0
172 195 0
171 195 0
172 195 0
176 198 0
175 198 0
175 198 0
174 197 0
173 196 0
173 196 0
172 195 0
172 196 0
170 194 0
172 196 0
174 196 0
175 197 0
173 197 0
171 194 0
171 195 0
172 195 0
172 196 0
172 195 0
170 194 0
174 197 0
175 197 0
173 195 0
173 196 0
174 197 0
173 196 0
170 192 0
173 196 0
170 193 0
173 196 0
170 192 0
171 194 0
172 195 0
170 193 0
168 191 0
171 193 0
165 189 0
172 195 0
169 193 0
171 195 0
171 195 0
168 192 0
165 189 0
169 192 0
169 193 0
167 192 0
171 194 0
170 194 0
170 193 0
169 192 0
172 195 0
172 195 0
167 191 0
172 195 0
169 193 0
171 195 0
170 193 0
167 191 0
170 194 0
171 194 0
166 189 0
172 195 0
169 192 0
170 193 0
169 192 0
172 195 0
168 192 0
169 193 0
171 195 0
173 197 0
171 194 0
169 192 0
173 197 0
168 193 0
170 194 0
170 193 0
166 190 0
171 194 0
169 192 0
168 191 0
171 195 0
174 196 0
171 194 0
169 192 0
173 197 0
172 195 0
171 194 0
168 192 0
172 195 0
170 195 0
174 197 0
171 195 0
174 197 0
172 195 0
173 195 0
171 195 0
173 196 0
173 196 0
171 194 0
172 195 0
172 196 0
169 193 0
174 197 0
173 196 0
173 197 0
173 196 0
172 196 0
171 195 0
170 193 0
173 196 0
172 195 0
171 194 0
175 198 0
172 196 0
172 196 0
172 195 0
173 196 0
172 197 0
171 195 0
175 198 0
173 196 0
171 195 0
173 197 0
172 196 0
172 196 0
172 196 0
174 197 0
172 195 0
172 196 0
174 197 0
175 198 0
173 197 0
173 197 0
172 196 0
172 196 0
174 197 0
174 198 0
173 196 0
175 197 0
175 198 0
173 196 0
173 196 0
173 196 0
175 198 0
173 197 0
172 196 0
174 197 0
173 197 0
173 196 0
173 196 0
174 196 0
174 197 0
172 196 0
174 197 0
174 198 0
173 196 0
172 196 0
173 196 0
175 198 0
174 198 0
173 197 0
174 197 0
175 198 0
172 196 0
175 198 0
176 198 0
173 196 0
175 198 0
176 199 0
173 197 0
173 197 0
174 197 0
172 196 0
175 198 0
174 198 0
172 197 0
173 197 0
174 197 0
174 198 0
173 197 0
175 198 0
175 198 0
174 198 0
173 197 0
175 198 0
174 197 0
173 196 0
174 197 0
175 198 0
174 197 0
175 198 0
174 197 0
174 197 0
175 198 0
173 196 0
173 197 0
172 196 0
174 198 0
174 197 0
175 198 0
175 198 0
173 197 0
174 198 0
174 197 0
175 198 0
175 198 0
176 198 0
174 197 0
175 198 0
174 198 0
173 197 0
173 197 0
174 197 0
174 197 0
174 197 0
174 198 0
173 197 0
175 198 0
174 198 0
173 197 0
174 198 0
174 198 0
174 198 0
173 197 0
175 198 0
175 198 0
174 198 0
174 198 0
176 198 0
172 197 0
174 197 0
174 198 0
175 198 0
175 198 0
174 197 0
173 196 0
174 198 0
174 198 0
174 197 0
174 198 0
173 197 0
175 198 0
175 198 0
173 197 0
175 198 0
175 198 0
175 198 0
176 198 0
174 198 0
173 197 0
174 198 0
176 199 0
176 199 0
173 197 0
174 197 0
174 198 0
174 198 0
174 198 0
174 198 0
174 197 0
174 197 0
174 198 0
175 198 0
176 199 0
175 198 0
174 198 0
175 198 0
174 198 0
172 197 0
175 198 0
175 198 0
174 198 0
173 197 0
175 198 0
173 197 0
175 198 0
175 198 0
176 199 0
172 197 0
175 198 0
174 198 0
173 197 0
175 198 0
174 198 0
174 197 0
174 198 0
175 198 0
173 197 0
174 198 0
175 198 0
176 199 0
175 198 0
173 197 0
173 196 0
174 198 0
174 198 0
175 198 0
174 198 0
175 198 0
174 198 0
174 197 0
175 198 0
175 198 0
174 198 0
175 198 0
175 198 0
174 197 0
175 198 0
175 198 0
174 198 0
174 197 0
173 197 0
172 196 0
175 198 0
175 198 0
174 197 0
173 197 0
175 198 0
175 198 0
173 197 0
174 197 0
173 197 0
176 198 0
174 197 0
174 197 0
175 198 0
175 198 0
172 196 0
175 198 0
172 196 0
172 196 0
175 198 0
174 197 0
175 198 0
174 197 0
174 198 0
174 197 0
174 198 0
174 197 0
175 198 0
174 197 0
175 198 0
171 195 0
174 197 0
174 197 0
175 198 0
174 197 0
174 198 0
173 196 0
174 198 0
172 197 0
173 197 0
174 198 0
175 198 0
174 197 0
174 198 0
176 199 0
175 198 0
174 198 0
175 198 0
174 197 0
173 197 0
174 197 0
175 198 0
175 198 0
175 198 0
174 198 0
175 198 0
176 199 0
174 197 0
175 198 0
173 196 0
172 196 0
174 198 0
174 197 0
173 197 0
174 197 0
174 198 0
174 197 0
173 197 0
174 197 0
173 196 0
173 197 0
176 199 0
175 198 0
173 197 0
173 196 0
174 197 0
174 197 0
172 196 0
173 197 0
171 195 0
173 197 0
171 195 0
176 199 0
175 198 0
173 197 0
173 196 0
175 198 0
173 196 0
174 197 0
171 195 0
173 196 0
174 196 0
174 197 0
172 195 0
171 195 0
171 195 0
171 195 0
175 198 0
172 196 0
172 196 0
171 195 0
170 195 0
172 196 0
171 195 0
174 196 0
170 193 0
173 196 0
167 191 0
170 194 0
172 196 0
172 196 0
170 194 0
171 195 0
169 193 0
170 193 0
172 195 0
168 191 0
173 196 0
173 196 0
173 196 0
170 192 0
170 194 0
169 192 0
169 193 0
169 193 0
173 196 0
172 195 0
171 195 0
171 194 0
167 190 0
170 193 0
169 194 0
169 194 0
170 193 0
168 191 0
170 193 0
170 194 0
167 190 0
171 194 0
172 195 0
171 195 0
170 194 0
169 192 0
170 193 0
167 191 0
169 193 0
170 194 0
171 195 0
169 193 0
170 193 0
173 196 0
171 194 0
167 190 0
167 191 0
174 197 0
169 192 0
173 196 0
171 195 0
170 194 0
172 195 0
173 196 0
173 196 0
172 195 0
171 194 0
171 194 0
172 195 0
174 196 0
171 194 0
172 196 0
168 192 0
171 194 0
173 196 0
169 193 0
172 194 0
174 197 0
173 196 0
173 197 0
172 196 0
172 196 0
172 195 0
173 197 0
171 194 0
172 196 0
174 196 0
173 196 0
173 197 0
171 195 0
174 198 0
174 197 0
171 195 0
170 194 0
170 194 0
172 196 0
174 196 0
171 195 0
174 196 0
171 195 0
174 197 0
171 194 0
170 194 0
171 195 0
174 197 0
173 196 0
173 197 0
174 197 0
175 198 0
170 194 0
175 198 0
173 197 0
172 196 0
173 196 0
174 197 0
174 197 0
174 198 0
173 196 0
173 196 0
172 196 0
175 198 0
173 196 0
173 196 0
174 196 0
175 197 0
173 197 0
174 197 0
174 197 0
172 196 0
173 197 0
172 195 0
172 196 0
174 197 0
174 197 0
173 197 0
174 197 0
175 198 0
175 198 0
176 199 0
173 197 0
174 197 0
173 196 0
172 196 0
174 197 0
173 197 0
176 198 0
173 197 0
174 197 0
173 196 0
173 197 0
174 197 0
174 197 0
174 198 0
175 198 0
174 198 0
173 197 0
173 196 0
173 197 0
173 197 0
174 198 0
174 197 0
174 198 0
176 199 0
175 197 0
174 197 0
174 198 0
172 196 0
175 198 0
173 196 0
174 197 0
174 197 0
176 198 0
173 196 0
175 198 0
174 197 0
175 198 0
175 198 0
176 199 0
175 198 0
174 197 0
174 197 0
174 197 0
175 198 0
173 197 0
174 198 0
176 198 0
176 199 0
174 197 0
173 197 0
174 198 0
174 197 0
172 196 0
176 198 0
174 197 0
173 197 0
174 198 0
173 196 0
173 197 0
174 197 0
173 197 0
174 198 0
175 198 0
174 197 0
174 197 0
176 199 0
174 198 0
174 198 0
175 198 0
175 198 0
174 197 0
173 197 0
174 198 0
174 197 0
174 198 0
176 198 0
174 197 0
173 197 0
174 197 0
174 197 0
176 199 0
174 198 0
176 199 0
174 197 0
176 198 0
174 197 0
175 198 0
174 198 0
174 198 0
174 197 0
174 197 0
175 198 0
175 198 0
175 198 0
175 198 0
176 198 0
175 198 0
175 198 0
172 197 0
174 198 0
173 197 0
174 197 0
175 198 0
173 197 0
174 197 0
174 198 0
174 198 0
174 198 0
175 198 0
173 197 0
176 198 0
175 198 0
175 198 0
176 198 0
175 198 0
175 198 0
173 197 0
174 198 0
175 198 0
175 198 0
175 198 0
174 198 0
174 197 0
174 198 0
175 198 0
175 198 0
174 197 0
174 198 0
175 198 0
175 198 0
174 197 0
173 197 0
173 197 0
176 199 0
175 198 0
175 198 0
174 198 0
174 197 0
175 198 0
175 198 0
172 196 0
175 198 0
174 198 0
174 198 0
174 198 0
175 198 0
174 198 0
174 198 0
174 197 0
175 198 0
177 199 0
175 198 0
173 197 0
175 198 0
174 198 0
175 198 0
174 198 0
174 197 0
174 198 0
174 198 0
174 197 0
174 197 0
174 198 0
174 198 0
174 198 0
173 197 0
173 196 0
173 197 0
173 197 0
173 197 0
174 197 0
174 197 0
175 198 0
174 197 0
174 197 0
173 197 0
172 196 0
173 197 0
175 198 0
174 197 0
174 198 0
175 198 0
174 198 0
174 198 0
175 198 0
174 197 0
174 198 0
173 196 0
173 197 0
173 197 0
174 198 0
172 196 0
175 198 0
173 197 0
173 197 0
174 197 0
173 197 0
174 197 0
174 197 0
174 197 0
175 198 0
173 196 0
173 197 0
175 198 0
173 197 0
175 198 0
174 197 0
175 198 0
174 198 0
173 196 0
175 198 0
174 198 0
176 199 0
174 197 0
174 197 0
172 196 0
175 198 0
175 198 0
173 197 0
174 198 0
173 197 0
175 198 0
173 197 0
173 197 0
175 198 0
173 197 0
173 197 0
170 195 0
174 198 0
172 196 0
174 198 0
175 198 0
171 195 0
173 197 0
174 197 0
174 198 0
174 198 0
171 195 0
174 197 0
174 197 0
173 195 0
173 196 0
173 197 0
173 197 0
174 198 0
172 196 0
174 196 0
175 198 0
173 196 0
172 196 0
173 196 0
173 196 0
173 196 0
174 197 0
173 197 0
171 195 0
174 197 0
172 196 0
174 197 0
174 197 0
174 196 0
173 196 0
174 197 0
172 196 0
174 197 0
170 194 0
173 195 0
175 198 0
176 198 0
172 195 0
170 193 0
174 197 0
173 196 0
170 194 0
171 195 0
170 194 0
173 196 0
173 196 0
171 194 0
173 197 0
169 192 0
170 193 0
167 191 0
173 197 0
170 193 0
172 196 0
172 196 0
170 193 0
168 192 0
172 196 0
171 194 0
170 194 0
169 192 0
170 193 0
169 193 0
169 193 0
173 197 0
172 195 0
169 192 0
171 194 0
170 193 0
173 196 0
171 195 0
170 194 0
172 195 0
170 193 0
167 191 0
168 193 0
169 192 0
170 194 0
171 195 0
168 191 0
169 193 0
172 195 0
172 196 0
171 194 0
174 197 0
172 195 0
170 194 0
167 192 0
169 193 0
172 195 0
171 195 0
170 193 0
170 193 0
171 195 0
172 194 0
171 195 0
170 193 0
172 195 0
171 195 0
170 193 0
172 196 0
171 194 0
169 193 0
171 195 0
173 195 0
170 193 0
171 195 0
172 195 0
173 196 0
171 195 0
172 196 0
174 196 0
172 195 0
171 195 0
172 194 0
173 196 0
171 194 0
173 196 0
173 196 0
172 195 0
169 192 0
171 196 0
173 197 0
172 195 0
173 196 0
171 196 0
174 197 0
173 195 0
172 195 0
173 196 0
174 197 0
173 196 0
173 196 0
172 196 0
173 197 0
173 197 0
171 195 0
175 197 0
174 197 0
173 196 0
172 196 0
175 197 0
173 197 0
172 195 0
176 198 0
175 198 0
174 197 0
173 197 0
174 197 0
171 195 0
174 198 0
169 192 0
172 196 0
173 197 0
175 198 0
171 195 0
174 197 0
176 198 0
174 197 0
174 198 0
174 198 0
172 196 0
173 197 0
175 197 0
172 196 0
173 196 0
176 198 0
175 198 0
173 196 0
174 197 0
175 198 0
175 198 0
174 198 0
172 196 0
174 197 0
174 197 0
173 196 0
174 197 0
174 197 0
174 197 0
174 197 0
174 198 0
175 198 0
173 197 0
174 196 0
174 197 0
173 197 0
173 197 0
173 197 0
172 196 0
175 198 0
172 196 0
174 197 0
174 197 0
173 197 0
172 196 0
175 198 0
174 198 0
174 197 0
175 198 0
174 197 0
176 198 0
175 198 0
175 198 0
175 198 0
174 198 0
175 198 0
175 198 0
175 197 0
174 197 0
173 197 0
173 197 0
173 197 0
174 197 0
172 196 0
176 199 0
174 198 0
173 197 0
173 197 0
173 197 0
174 198 0
175 198 0
175 198 0
176 199 0
173 197 0
174 197 0
173 196 0
174 198 0
174 198 0
175 198 0
175 198 0
174 198 0
173 197 0
175 198 0
173 197 0
176 199 0
175 198 0
175 198 0
173 196 0
173 197 0
174 198 0
173 196 0
174 198 0
176 199 0
174 197 0
173 197 0
173 197 0
173 197 0
174 197 0
174 197 0
173 197 0
176 199 0
175 198 0
173 196 0
174 197 0
175 198 0
175 198 0
175 198 0
174 197 0
176 199 0
175 198 0
174 198 0
174 198 0
174 197 0
175 198 0
173 197 0
175 198 0
175 198 0
174 198 0
174 197 0
172 196 0
174 197 0
175 198 0
175 198 0
175 198 0
174 198 0
173 196 0
176 199 0
175 198 0
175 198 0
175 198 0
174 198 0
175 198 0
173 197 0
176 199 0
175 198 0
176 198 0
174 197 0
175 198 0
175 198 0
175 198 0
175 198 0
175 198 0
173 197 0
176 199 0
175 198 0
175 198 0
174 198 0
175 198 0
176 199 0
175 198 0
173 197 0
174 197 0
175 198 0
175 198 0
174 198 0
175 198 0
176 198 0
176 199 0
173 197 0
174 197 0
175 198 0
174 198 0
174 198 0
173 197 0
174 198 0
172 196 0
174 198 0
175 198 0
175 198 0
175 198 0
174 198 0
175 198 0
173 197 0
174 197 0
175 198 0
173 197 0
175 198 0
173 197 0
174 197 0
174 198 0
174 198 0
173 197 0
174 198 0
171 196 0
174 197 0
173 197 0
175 198 0
175 198 0
173 197 0
176 199 0
175 198 0
175 198 0
176 199 0
174 198 0
174 198 0
173 197 0
174 198 0
176 199 0
174 198 0
175 198 0
174 197 0
173 197 0
174 198 0
173 197 0
174 198 0
174 198 0
173 197 0
174 198 0
175 198 0
174 198 0
173 197 0
173 197 0
173 197 0
174 197 0
176 198 0
175 198 0
173 197 0
173 196 0
172 196 0
175 198 0
174 198 0
172 196 0
173 197 0
173 197 0
173 197 0
173 197 0
176 199 0
173 197 0
175 198 0
173 197 0
171 195 0
173 197 0
173 197 0
174 197 0
172 196 0
174 197 0
174 197 0
174 197 0
174 197 0
174 198 0
174 198 0
175 198 0
174 196 0
174 198 0
174 197 0
173 196 0
175 198 0
174 197 0
175 198 0
176 198 0
174 198 0
174 198 0
174 197 0
173 197 0
171 195 0
174 198 0
174 197 0
173 197 0
172 196 0
172 196 0
173 196 0
174 198 0
175 198 0
171 195 0
175 198 0
174 197 0
173 196 0
170 193 0
172 196 0
175 198 0
174 197 0
173 197 0
173 197 0
171 195 0
173 197 0
173 197 0
174 198 0
172 195 0
172 195 0
174 197 0
173 196 0
171 196 0
172 195 0
174 198 0
174 197 0
171 194 0
172 195 0
175 198 0
173 197 0
170 193 0
170 193 0
173 196 0
170 193 0
169 194 0
167 191 0
172 195 0
171 194 0
173 196 0
171 194 0
167 191 0
172 196 0
173 197 0
171 194 0
171 195 0
172 195 0
168 191 0
171 196 0
172 196 0
171 195 0
170 193 0
168 192 0
173 196 0
173 196 0
169 194 0
172 196 0
168 191 0
168 192 0
172 195 0
168 192 0
172 195 0
169 193 0
170 193 0
171 195 0
168 192 0
169 192 0
170 193 0
172 196 0
173 196 0
169 192 0
170 193 0
169 192 0
170 193 0
170 194 0
172 195 0
168 191 0
169 192 0
170 193 0
173 196 0
170 193 0
170 194 0
169 192 0
171 195 0
169 192 0
169 192 0
169 193 0
170 193 0
172 196 0
169 193 0
168 193 0
171 194 0
173 197 0
171 195 0
173 196 0
173 196 0
170 193 0
172 196 0
172 196 0
170 193 0
172 196 0
173 196 0
174 197 0
173 196 0
170 193 0
172 195 0
174 197 0
173 196 0
171 194 0
172 196 0
173 196 0
171 194 0
173 196 0
172 196 0
172 196 0
171 194 0
172 196 0
173 196 0
174 197 0
172 196 0
175 198 0
173 196 0
173 197 0
172 196 0
173 197 0
172 196 0
173 196 0
174 197 0
175 198 0
175 198 0
174 197 0
174 197 0
169 193 0
170 194 0
175 198 0
172 195 0
174 198 0
173 197 0
171 195 0
174 197 0
176 198 0
172 196 0
170 194 0
175 197 0
174 197 0
174 197 0
172 196 0
173 197 0
173 196 0
172 196 0
175 198 0
174 198 0
174 197 0
174 197 0
175 198 0
173 197 0
172 196 0
173 196 0
173 197 0
174 197 0
173 197 0
173 196 0
175 198 0
173 197 0
174 198 0
174 197 0
174 197 0
173 197 0
174 197 0
175 198 0
174 198 0
172 196 0
175 198 0
175 198 0
175 198 0
177 199 0
172 196 0
176 199 0
174 198 0
174 198 0
173 197 0
175 198 0
174 197 0
175 198 0
175 198 0
175 198 0
176 198 0
173 196 0
172 196 0
172 196 0
175 198 0
174 197 0
173 197 0
175 198 0
173 196 0
174 197 0
175 198 0
174 198 0
174 197 0
175 198 0
173 197 0
173 197 0
174 197 0
174 198 0
173 197 0
176 198 0
174 198 0
173 197 0
174 197 0
174 197 0
174 197 0
174 197 0
176 198 0
174 198 0
173 197 0
175 198 0
174 198 0
175 198 0
174 198 0
172 195 0
175 198 0
174 198 0
174 198 0
175 198 0
174 197 0
174 197 0
175 198 0
176 199 0
174 198 0
175 198 0
173 197 0
174 197 0
175 198 0
176 199 0
174 197 0
174 197 0
175 198 0
173 197 0
172 197 0
174 198 0
174 197 0
175 198 0
175 198 0
174 198 0
174 197 0
175 198 0
175 198 0
175 198 0
176 198 0
176 199 0
174 198 0
175 198 0
175 198 0
172 196 0
173 197 0
174 198 0
173 197 0
173 197 0
173 197 0
173 197 0
174 198 0
176 199 0
176 198 0
174 197 0
174 198 0
174 198 0
175 198 0
175 198 0
174 198 0
174 198 0
175 198 0
174 197 0
173 197 0
172 196 0
174 198 0
173 197 0
174 198 0
175 198 0
176 199 0
174 198 0
173 197 0
174 198 0
173 197 0
174 197 0
174 198 0
174 197 0
173 197 0
174 198 0
175 198 0
174 198 0
172 197 0
174 198 0
173 197 0
174 198 0
174 197 0
175 198 0
174 198 0
173 197 0
175 198 0
174 198 0
174 198 0
175 198 0
174 198 0
174 197 0
174 198 0
174 197 0
175 198 0
174 198 0
175 198 0
174 197 0
174 198 0
173 197 0
174 197 0
174 198 0
174 198 0
174 197 0
173 197 0
174 197 0
173 197 0
174 198 0
173 197 0
174 197 0
173 197 0
173 197 0
174 197 0
175 198 0
175 198 0
174 198 0
174 198 0
174 198 0
175 198 0
174 198 0
175 198 0
175 198 0
172 197 0
173 196 0
175 198 0
175 198 0
175 198 0
174 198 0
174 197 0
176 199 0
175 198 0
176 199 0
175 198 0
175 198 0
173 197 0
175 198 0
173 197 0
176 198 0
174 198 0
174 198 0
174 197 0
174 197 0
174 198 0
176 199 0
174 197 0
173 197 0
175 198 0
172 196 0
173 197 0
174 197 0
175 198 0
173 196 0
174 197 0
173 197 0
173 197 0
175 198 0
176 199 0
175 198 0
173 196 0
173 196 0
176 199 0
173 197 0
174 197 0
173 197 0
173 197 0
175 198 0
172 196 0
173 197 0
174 198 0
173 197 0
174 198 0
174 198 0
174 196 0
172 196 0
173 197 0
173 197 0
174 198 0
174 198 0
172 196 0
172 197 0
175 198 0
173 196 0
173 197 0
174 198 0
173 196 0
174 197 0
176 199 0
172 197 0
174 197 0
172 196 0
175 198 0
173 197 0
172 196 0
174 198 0
172 196 0
172 195 0
173 196 0
171 195 0
173 197 0
174 198 0
171 195 0
171 195 0
172 196 0
173 196 0
173 196 0
172 196 0
174 197 0
174 198 0
174 197 0
170 194 0
174 197 0
173 197 0
174 196 0
173 196 0
173 197 0
172 195 0
169 193 0
170 195 0
173 196 0
167 191 0
172 196 0
171 195 0
174 197 0
171 195 0
174 197 0
172 196 0
168 192 0
168 192 0
171 195 0
166 190 0
169 192 0
171 194 0
172 196 0
168 192 0
172 195 0
167 190 0
171 194 0
171 194 0
171 194 0
171 195 0
168 192 0
171 195 0
167 191 0
173 196 0
169 193 0
170 194 0
173 196 0
170 193 0
175 197 0
170 193 0
170 194 0
171 194 0
169 192 0
169 192 0
170 193 0
172 195 0
170 194 0
171 195 0
171 195 0
171 195 0
169 194 0
168 191 0
168 191 0
173 196 0
170 194 0
171 195 0
172 196 0
173 197 0
171 195 0
173 196 0
172 195 0
171 194 0
171 195 0
170 194 0
172 196 0
171 194 0
169 192 0
170 194 0
169 193 0
171 195 0
173 196 0
171 195 0
172 196 0
174 196 0
172 195 0
172 195 0
173 196 0
173 197 0
172 195 0
170 193 0
168 191 0
171 194 0
172 194 0
171 194 0
172 196 0
172 195 0
172 196 0
171 194 0
172 195 0
171 194 0
174 198 0
173 197 0
173 196 0
171 195 0
171 194 0
172 195 0
173 196 0
175 198 0
171 195 0
173 197 0
174 198 0
173 196 0
170 194 0
173 196 0
171 195 0
175 198 0
174 197 0
173 197 0
172 196 0
173 197 0
173 197 0
174 197 0
172 194 0
176 198 0
173 196 0
174 197 0
173 197 0
174 197 0
173 196 0
173 196 0
176 199 0
174 197 0
174 198 0
174 197 0
174 197 0
174 197 0
173 196 0
173 197 0
173 196 0
174 198 0
175 198 0
174 197 0
172 197 0
174 198 0
173 196 0
172 196 0
171 195 0
172 195 0
173 196 0
174 197 0
173 196 0
175 198 0
174 197 0
174 197 0
174 198 0
173 197 0
172 196 0
174 197 0
174 197 0
175 198 0
172 196 0
173 196 0
170 194 0
174 197 0
174 198 0
172 197 0
170 195 0
175 198 0
172 196 0
173 196 0
173 196 0
173 197 0
174 197 0
174 198 0
173 197 0
174 198 0
174 197 0
175 198 0
173 197 0
173 196 0
174 198 0
174 197 0
175 198 0
173 197 0
174 197 0
176 199 0
175 198 0
173 196 0
175 198 0
175 198 0
174 198 0
175 198 0
174 198 0
175 198 0
174 197 0
175 198 0
177 199 0
173 197 0
174 197 0
174 198 0
175 198 0
176 198 0
176 198 0
172 195 0
175 198 0
175 198 0
174 198 0
174 197 0
174 197 0
176 198 0
174 198 0
174 197 0
172 195 0
174 198 0
174 197 0
172 196 0
175 198 0
175 198 0
174 198 0
174 198 0
175 198 0
175 198 0
174 197 0
172 197 0
175 198 0
175 198 0
174 198 0
174 198 0
173 197 0
175 198 0
174 198 0
176 198 0
174 198 0
174 198 0
176 199 0
174 197 0
174 198 0
174 197 0
172 197 0
174 198 0
175 198 0
174 197 0
174 197 0
174 198 0
174 198 0
175 198 0
174 198 0
175 198 0
176 198 0
173 197 0
175 198 0
173 196 0
172 197 0
175 198 0
175 198 0
174 198 0
175 198 0
173 197 0
175 198 0
173 197 0
174 198 0
175 198 0
173 197 0
174 198 0
174 198 0
175 198 0
174 198 0
175 198 0
175 198 0
173 197 0
175 198 0
173 197 0
174 198 0
174 198 0
174 198 0
176 199 0
175 198 0
174 197 0
175 198 0
174 198 0
174 197 0
174 198 0
174 198 0
174 197 0
173 197 0
173 197 0
174 198 0
173 197 0
174 198 0
174 198 0
174 198 0
175 198 0
173 196 0
173 197 0
174 198 0
175 198 0
174 198 0
173 197 0
173 197 0
175 198 0
175 198 0
172 195 0
175 198 0
174 198 0
175 198 0
175 198 0
174 198 0
174 197 0
173 197 0
174 198 0
176 198 0
173 197 0
173 197 0
175 198 0
173 197 0
174 198 0
176 199 0
173 197 0
173 197 0
173 197 0
174 197 0
173 197 0
175 198 0
174 198 0
176 199 0
175 198 0
175 198 0
175 198 0
172 197 0
174 197 0
175 198 0
173 197 0
173 197 0
174 198 0
174 198 0
174 197 0
173 197 0
174 197 0
175 198 0
173 197 0
175 198 0
172 196 0
175 198 0
172 195 0
172 196 0
173 197 0
172 197 0
173 197 0
175 198 0
172 196 0
173 197 0
176 198 0
174 198 0
173 197 0
175 198 0
173 196 0
174 198 0
175 198 0
172 196 0
174 197 0
174 197 0
172 196 0
174 197 0
174 197 0
175 198 0
173 197 0
175 198 0
174 197 0
175 198 0
172 196 0
174 197 0
173 197 0
174 197 0
174 197 0
173 196 0
173 197 0
173 197 0
174 197 0
174 197 0
173 196 0
173 197 0
173 197 0
172 196 0
174 198 0
175 198 0
173 196 0
175 198 0
175 198 0
171 195 0
173 196 0
174 197 0
174 197 0
174 198 0
174 196 0
174 198 0
174 197 0
174 197 0
174 196 0
173 196 0
173 196 0
173 197 0
172 196 0
173 196 0
174 198 0
173 197 0
173 196 0
173 196 0
173 196 0
174 196 0
172 196 0
170 194 0
173 196 0
172 196 0
174 197 0
171 195 0
171 195 0
173 196 0
172 196 0
170 194 0
172 196 0
172 196 0
172 196 0
172 196 0
172 195 0
174 197 0
168 192 0
173 196 0
172 195 0
171 195 0
171 195 0
172 195 0
171 195 0
170 194 0
174 197 0
170 194 0
171 195 0
173 196 0
170 194 0
169 193 0
170 194 0
172 194 0
170 193 0
172 196 0
170 193 0
168 193 0
166 190 0
172 195 0
171 194 0
170 194 0
174 196 0
170 194 0
171 193 0
170 193 0
174 197 0
170 193 0
170 194 0
170 193 0
170 193 0
172 195 0
167 191 0
172 195 0
168 192 0
170 193 0
171 194 0
173 197 0
173 196 0
172 195 0
173 196 0
169 194 0
173 196 0
169 193 0
174 198 0
173 196 0
169 193 0
172 195 0
170 193 0
172 196 0
171 195 0
172 196 0
172 195 0
172 195 0
173 197 0
172 196 0
173 196 0
173 197 0
172 195 0
175 198 0
170 193 0
172 196 0
174 197 0
171 195 0
172 196 0
172 195 0
171 195 0
170 193 0
173 196 0
171 194 0
171 195 0
170 193 0
170 194 0
173 196 0
172 195 0
172 196 0
174 197 0
174 197 0
176 198 0
172 195 0
171 195 0
175 197 0
173 195 0
172 196 0
175 198 0
172 196 0
176 198 0
174 197 0
173 195 0
174 197 0
172 195 0
174 198 0
171 195 0
173 196 0
174 198 0
174 197 0
175 198 0
172 196 0
173 197 0
172 195 0
174 197 0
174 198 0
174 197 0
173 196 0
174 197 0
173 197 0
174 197 0
172 196 0
173 197 0
175 198 0
173 196 0
172 196 0
175 197 0
176 198 0
171 195 0
174 197 0
173 197 0
174 197 0
174 197 0
174 197 0
174 197 0
174 198 0
174 197 0
174 197 0
173 196 0
174 197 0
174 198 0
173 197 0
172 196 0
174 198 0
174 197 0
173 196 0
173 197 0
175 198 0
173 196 0
174 198 0
175 198 0
173 196 0
174 197 0
174 197 0
173 197 0
176 198 0
174 197 0
174 198 0
175 198 0
173 197 0
173 197 0
175 198 0
173 197 0
173 197 0
172 196 0
175 198 0
174 198 0
173 196 0
174 197 0
175 198 0
176 199 0
174 197 0
173 196 0
175 198 0
174 197 0
174 198 0
173 196 0
174 197 0
174 198 0
174 197 0
174 197 0
175 198 0
172 196 0
173 197 0
175 198 0
172 196 0
174 198 0
175 198 0
175 198 0
175 198 0
174 198 0
174 198 0
174 197 0
175 198 0
175 198 0
174 197 0
175 198 0
174 198 0
173 196 0
175 198 0
174 197 0
173 197 0
175 198 0
174 197 0
174 197 0
174 197 0
172 196 0
173 197 0
174 198 0
175 198 0
174 198 0
176 199 0
174 197 0
174 198 0
174 198 0
174 198 0
174 198 0
172 197 0
173 197 0
174 198 0
174 197 0
173 197 0
172 196 0
174 197 0
175 198 0
174 197 0
174 198 0
175 198 0
174 198 0
174 197 0
172 196 0
175 198 0
177 199 0
174 197 0
175 198 0
174 198 0
173 197 0
175 198 0
175 198 0
174 198 0
174 197 0
174 197 0
174 197 0
174 198 0
174 198 0
174 197 0
176 198 0
173 197 0
174 198 0
176 199 0
175 198 0
175 198 0
175 198 0
173 197 0
175 198 0
173 197 0
174 197 0
175 198 0
176 199 0
175 198 0
173 197 0
175 198 0
175 198 0
176 198 0
175 198 0
175 198 0
175 198 0
173 197 0
174 197 0
175 198 0
176 199 0
174 198 0
176 199 0
174 197 0
176 198 0
175 198 0
174 198 0
175 198 0
174 197 0
173 197 0
173 197 0
172 196 0
174 197 0
175 198 0
175 198 0
175 198 0
174 198 0
175 198 0
175 198 0
174 198 0
173 197 0
175 198 0
174 198 0
176 199 0
174 198 0
173 197 0
172 196 0
174 197 0
173 197 0
176 199 0
175 198 0
175 198 0
175 198 0
173 197 0
174 197 0
173 197 0
175 198 0
175 198 0
174 197 0
173 196 0
174 198 0
175 198 0
174 197 0
174 198 0
174 198 0
174 197 0
174 197 0
173 197 0
172 196 0
176 199 0
174 197 0
174 197 0
173 197 0
175 198 0
174 198 0
174 197 0
174 198 0
176 199 0
175 198 0
174 197 0
173 197 0
174 197 0
174 197 0
175 198 0
175 198 0
174 197 0
175 198 0
174 198 0
173 197 0
175 198 0
173 197 0
174 197 0
174 198 0
175 198 0
176 199 0
174 197 0
174 198 0
174 197 0
174 198 0
173 196 0
171 195 0
174 197 0
174 198 0
173 197 0
174 197 0
171 195 0
173 197 0
174 198 0
174 198 0
173 196 0
173 197 0
174 197 0
174 197 0
172 195 0
173 197 0
172 196 0
173 197 0
176 198 0
174 198 0
176 198 0
171 194 0
172 195 0
175 198 0
171 195 0
173 196 0
172 196 0
173 197 0
174 197 0
173 197 0
173 196 0
173 197 0
173 196 0
172 196 0
171 196 0
174 198 0
171 195 0
175 198 0
171 195 0
171 195 0
174 197 0
172 196 0
173 196 0
172 195 0
175 198 0
173 196 0
176 198 0
173 196 0
175 198 0
172 196 0
176 198 0
171 195 0
170 194 0
173 197 0
173 196 0
172 195 0
169 193 0
172 195 0
174 196 0
171 194 0
172 196 0
173 196 0
171 195 0
170 194 0
171 195 0
171 195 0
168 193 0
173 197 0
171 195 0
173 197 0
172 195 0
172 195 0
174 197 0
171 194 0
173 196 0
173 196 0
169 194 0
172 195 0
168 192 0
170 194 0
173 196 0
169 191 0
166 190 0
173 196 0
174 197 0
170 194 0
170 193 0
172 195 0
174 197 0
169 193 0
171 195 0
172 195 0
172 196 0
172 195 0
169 193 0
174 197 0
170 193 0
171 195 0
168 193 0
171 194 0
174 197 0
171 194 0
168 192 0
171 194 0
172 196 0
174 197 0
173 196 0
168 191 0
173 196 0
172 196 0
172 196 0
172 195 0
171 195 0
171 195 0
170 194 0
168 192 0
173 197 0
169 193 0
168 192 0
172 195 0
171 194 0
171 195 0
171 195 0
173 197 0
168 191 0
173 197 0
172 196 0
170 193 0
172 196 0
173 195 0
174 197 0
172 195 0
172 196 0
169 192 0
172 197 0
171 195 0
174 197 0
170 194 0
173 196 0
172 196 0
170 194 0
172 196 0
173 196 0
172 195 0
174 197 0
172 196 0
176 198 0
174 196 0
175 198 0
171 195 0
172 196 0
173 196 0
175 198 0
172 196 0
172 196 0
173 196 0
172 195 0
172 196 0
173 197 0
173 197 0
172 196 0
174 197 0
174 197 0
175 198 0
173 197 0
172 196 0
174 197 0
173 197 0
175 198 0
172 195 0
174 197 0
176 198 0
175 198 0
174 197 0
172 196 0
174 197 0
173 196 0
174 198 0
174 198 0
173 197 0
174 198 0
175 198 0
173 196 0
174 197 0
174 197 0
174 198 0
171 195 0
174 197 0
174 198 0
174 198 0
173 196 0
174 197 0
174 198 0
171 195 0
175 198 0
174 197 0
173 197 0
176 198 0
173 196 0
174 196 0
175 197 0
175 197 0
174 198 0
174 198 0
175 198 0
175 198 0
176 199 0
174 198 0
174 198 0
175 198 0
174 197 0
176 199 0
174 197 0
174 197 0
174 197 0
174 197 0
172 196 0
173 196 0
174 198 0
175 198 0
174 198 0
174 197 0
174 197 0
176 199 0
172 196 0
173 197 0
174 198 0
176 198 0
174 197 0
175 198 0
175 198 0
175 198 0
173 197 0
175 198 0
173 196 0
173 197 0
175 198 0
175 198 0
174 198 0
175 198 0
177 199 0
176 199 0
175 198 0
174 198 0
175 198 0
174 198 0
174 197 0
174 197 0
174 197 0
173 197 0
174 198 0
175 198 0
175 198 0
174 197 0
174 198 0
174 198 0
175 198 0
173 197 0
174 198 0
173 197 0
175 198 0
174 197 0
175 198 0
175 198 0
174 198 0
174 197 0
173 197 0
175 198 0
172 197 0
174 197 0
173 197 0
175 198 0
174 198 0
175 198 0
175 198 0
176 198 0
174 198 0
175 198 0
175 198 0
176 198 0
174 198 0
175 198 0
174 198 0
175 198 0
173 197 0
175 198 0
174 197 0
173 197 0
174 198 0
175 198 0
175 198 0
175 198 0
176 199 0
173 197 0
174 198 0
174 198 0
174 197 0
174 198 0
174 198 0
173 197 0
174 198 0
174 198 0
176 199 0
175 198 0
175 198 0
173 197 0
175 198 0
174 198 0
176 198 0
174 198 0
174 197 0
175 198 0
175 198 0
174 198 0
174 197 0
174 197 0
175 198 0
172 196 0
175 198 0
175 198 0
174 197 0
175 198 0
173 197 0
174 198 0
174 198 0
174 197 0
175 198 0
173 197 0
175 198 0
175 198 0
174 198 0
174 198 0
175 198 0
175 198 0
173 197 0
173 197 0
173 197 0
175 198 0
175 198 0
174 197 0
176 199 0
174 198 0
175 198 0
176 198 0
174 197 0
174 198 0
175 198 0
174 198 0
173 197 0
174 197 0
174 198 0
175 198 0
175 198 0
173 197 0
175 198 0
174 197 0
172 196 0
175 198 0
174 198 0
173 197 0
173 197 0
173 197 0
174 198 0
173 197 0
174 198 0
173 197 0
175 198 0
173 197 0
174 198 0
174 198 0
173 197 0
173 197 0
175 198 0
174 197 0
173 197 0
173 197 0
173 196 0
176 198 0
173 197 0
176 199 0
174 197 0
175 198 0
174 198 0
172 196 0
174 198 0
173 197 0
174 197 0
174 197 0
174 197 0
176 199 0
174 198 0
174 198 0
172 197 0
174 198 0
173 197 0
174 198 0
173 197 0
174 198 0
174 198 0
174 198 0
172 196 0
173 197 0
174 197 0
173 197 0
175 198 0
174 198 0
174 197 0
175 198 0
174 198 0
174 197 0
174 197 0
174 198 0
173 196 0
172 195 0
173 196 0
175 198 0
174 197 0
173 197 0
176 199 0
174 198 0
175 198 0
174 198 0
175 198 0
174 197 0
174 198 0
176 199 0
172 196 0
173 196 0
173 197 0
172 196 0
173 197 0
173 196 0
173 197 0
172 196 0
175 197 0
173 196 0
172 197 0
175 198 0
175 198 0
172 196 0
173 196 0
171 195 0
174 197 0
174 197 0
174 197 0
171 195 0
175 198 0
174 198 0
172 196 0
170 194 0
171 195 0
172 195 0
170 194 0
174 197 0
171 195 0
171 194 0
173 196 0
171 195 0
174 197 0
173 196 0
174 197 0
169 194 0
173 197 0
169 193 0
173 196 0
170 194 0
171 195 0
171 195 0
172 195 0
174 197 0
172 195 0
175 198 0
171 195 0
173 196 0
169 193 0
172 196 0
169 193 0
171 194 0
171 195 0
173 195 0
172 196 0
172 196 0
173 197 0
171 194 0
170 193 0
168 192 0
171 194 0
173 197 0
168 192 0
171 194 0
169 192 0
173 195 0
168 192 0
166 190 0
171 194 0
171 194 0
169 193 0
173 196 0
169 194 0
171 195 0
167 191 0
172 196 0
166 190 0
172 195 0
168 192 0
172 197 0
171 194 0
174 198 0
170 193 0
172 196 0
172 195 0
169 193 0
171 195 0
174 197 0
172 196 0
171 195 0
171 194 0
171 194 0
170 193 0
173 196 0
173 197 0
171 194 0
172 195 0
170 193 0
172 196 0
170 193 0
172 196 0
170 193 0
172 196 0
173 196 0
172 196 0
173 196 0
171 195 0
171 194 0
173 197 0
172 196 0
172 196 0
173 197 0
174 197 0
173 196 0
171 195 0
170 194 0
172 196 0
173 197 0
172 195 0
172 196 0
175 198 0
171 195 0
172 196 0
174 197 0
173 196 0
172 195 0
174 197 0
174 198 0
172 196 0
172 195 0
173 197 0
173 196 0
173 197 0
173 196 0
175 197 0
172 195 0
172 196 0
173 197 0
171 194 0
174 197 0
174 197 0
173 197 0
175 198 0
174 197 0
173 197 0
174 198 0
171 195 0
177 199 0
174 197 0
173 197 0
175 198 0
173 197 0
176 198 0
172 196 0
175 197 0
174 197 0
174 198 0
172 195 0
173 197 0
172 196 0
172 195 0
177 199 0
174 197 0
174 197 0
175 198 0
173 196 0
174 197 0
172 197 0
176 199 0
173 197 0
173 197 0
173 197 0
175 198 0
174 196 0
175 198 0
173 196 0
175 198 0
173 197 0
172 196 0
173 197 0
172 196 0
174 197 0
173 197 0
172 196 0
174 197 0
174 197 0
175 198 0
173 197 0
174 197 0
175 198 0
172 197 0
174 198 0
173 197 0
174 197 0
173 197 0
174 198 0
172 196 0
174 198 0
173 197 0
176 198 0
172 196 0
174 198 0
173 197 0
174 198 0
175 198 0
174 197 0
173 197 0
175 198 0
175 198 0
174 198 0
175 198 0
173 197 0
175 198 0
172 196 0
174 197 0
173 197 0
174 198 0
174 198 0
174 197 0
174 197 0
174 197 0
175 198 0
174 198 0
174 198 0
173 197 0
174 197 0
173 197 0
173 197 0
174 198 0
176 199 0
175 198 0
174 198 0
174 198 0
173 197 0
173 197 0
176 199 0
174 198 0
173 197 0
173 197 0
173 197 0
174 198 0
173 196 0
174 198 0
175 198 0
176 199 0
174 197 0
175 198 0
176 199 0
174 198 0
176 199 0
175 198 0
173 197 0
175 198 0
175 198 0
174 197 0
175 198 0
176 198 0
174 198 0
175 198 0
173 197 0
174 198 0
174 197 0
175 198 0
173 197 0
174 198 0
175 198 0
174 198 0
172 197 0
174 198 0
176 199 0
174 198 0
174 198 0
174 197 0
174 198 0
173 197 0
174 198 0
174 197 0
174 198 0
175 198 0
175 198 0
175 198 0
174 198 0
173 197 0
174 198 0
175 198 0
174 198 0
174 198 0
175 198 0
174 197 0
174 198 0
176 198 0
174 198 0
175 198 0
172 196 0
176 198 0
175 198 0
175 198 0
177 199 0
172 197 0
174 197 0
175 198 0
176 198 0
175 198 0
174 197 0
174 198 0
174 198 0
174 198 0
176 199 0
173 197 0
176 199 0
175 198 0
174 198 0
174 198 0
175 198 0
175 198 0
174 198 0
176 198 0
174 198 0
174 198 0
174 198 0
174 198 0
175 197 0
173 197 0
174 198 0
173 197 0
173 197 0
174 198 0
174 198 0
176 198 0
174 198 0
174 198 0
175 198 0
174 198 0
173 197 0
173 197 0
175 198 0
175 198 0
174 198 0
175 198 0
174 198 0
174 197 0
174 198 0
174 198 0
173 196 0
174 197 0
173 197 0
174 197 0
175 198 0
173 197 0
173 197 0
174 197 0
172 196 0
176 198 0
176 199 0
173 197 0
173 197 0
174 197 0
174 198 0
173 197 0
173 197 0
172 195 0
174 197 0
174 197 0
174 197 0
174 198 0
174 197 0
174 197 0
175 198 0
175 198 0
174 197 0
174 197 0
173 197 0
172 196 0
174 197 0
176 199 0
175 198 0
174 198 0
175 198 0
174 197 0
172 196 0
174 197 0
174 198 0
175 198 0
174 198 0
174 198 0
171 194 0
173 197 0
172 196 0
173 197 0
175 198 0
173 197 0
174 198 0
172 196 0
173 196 0
174 197 0
176 199 0
173 197 0
174 197 0
173 197 0
173 196 0
173 197 0
172 196 0
172 197 0
175 198 0
173 197 0
172 195 0
173 196 0
174 197 0
174 198 0
173 196 0
173 197 0
173 196 0
171 194 0
173 197 0
173 197 0
172 196 0
172 196 0
172 196 0
176 198 0
173 196 0
174 197 0
173 196 0
173 197 0
174 197 0
173 196 0
172 196 0
174 197 0
173 195 0
172 196 0
173 196 0
170 194 0
171 195 0
168 193 0
171 195 0
173 196 0
172 195 0
175 198 0
172 195 0
172 195 0
170 194 0
172 195 0
174 197 0
173 195 0
173 196 0
169 193 0
172 195 0
170 194 0
170 195 0
174 197 0
168 191 0
171 195 0
171 194 0
173 196 0
174 197 0
169 193 0
171 195 0
171 195 0
172 196 0
171 195 0
171 194 0
171 194 0
171 195 0
172 195 0
172 195 0
170 195 0
175 197 0
174 198 0
169 193 0
173 196 0
169 192 0
172 196 0
172 195 0
170 193 0
171 195 0
169 193 0
170 194 0
171 194 0
172 196 0
173 196 0
173 197 0
173 195 0
171 195 0
172 195 0
171 195 0
169 193 0
173 196 0
175 197 0
172 195 0
172 195 0
171 195 0
172 196 0
172 196 0
171 195 0
171 194 0
170 193 0
170 194 0
168 192 0
171 195 0
172 195 0
170 194 0
174 198 0
169 193 0
174 197 0
173 196 0
172 194 0
171 194 0
170 194 0
170 194 0
173 197 0
175 197 0
172 196 0
171 195 0
172 196 0
174 197 0
173 197 0
173 196 0
170 194 0
171 193 0
174 197 0
172 194 0
173 197 0
172 196 0
172 196 0
171 194 0
173 196 0
173 196 0
173 196 0
172 196 0
173 196 0
172 195 0
171 195 0
175 198 0
173 197 0
173 197 0
175 198 0
173 196 0
174 198 0
173 196 0
175 198 0
174 197 0
173 196 0
171 194 0
174 197 0
173 196 0
172 196 0
173 197 0
173 197 0
173 197 0
171 195 0
174 198 0
173 196 0
174 197 0
176 199 0
173 197 0
173 197 0
175 198 0
174 197 0
173 197 0
173 197 0
174 198 0
174 197 0
172 196 0
174 197 0
171 194 0
175 198 0
173 197 0
174 198 0
176 198 0
173 197 0
175 198 0
174 198 0
175 198 0
174 196 0
174 197 0
173 197 0
174 197 0
173 197 0
174 198 0
173 197 0
174 197 0
176 198 0
174 197 0
176 199 0
173 197 0
174 198 0
173 197 0
173 197 0
175 198 0
174 198 0
173 197 0
174 197 0
174 198 0
174 197 0
173 197 0
173 197 0
176 198 0
173 197 0
174 198 0
176 199 0
174 197 0
173 197 0
174 197 0
174 197 0
173 197 0
175 198 0
175 198 0
174 198 0
172 196 0
173 197 0
176 199 0
173 197 0
175 197 0
172 196 0
175 198 0
176 199 0
173 197 0
173 197 0
172 196 0
174 197 0
173 197 0
175 198 0
173 197 0
173 197 0
174 196 0
176 199 0
175 198 0
175 198 0
174 197 0
174 197 0
173 197 0
173 197 0
175 198 0
174 197 0
175 198 0
175 198 0
173 197 0
174 197 0
174 197 0
173 197 0
174 198 0
174 198 0
174 197 0
174 198 0
175 198 0
175 198 0
174 197 0
175 198 0
175 198 0
173 197 0
173 197 0
174 198 0
174 198 0
174 197 0
175 198 0
173 197 0
176 198 0
173 197 0
176 199 0
174 197 0
174 198 0
175 198 0
176 198 0
173 197 0
175 198 0
175 198 0
174 197 0
173 197 0
173 197 0
174 198 0
174 198 0
175 198 0
175 198 0
175 198 0
174 198 0
175 198 0
174 198 0
176 199 0
174 197 0
176 198 0
175 198 0
173 197 0
174 198 0
174 198 0
175 198 0
175 198 0
174 198 0
176 199 0
174 197 0
174 197 0
175 198 0
174 198 0
175 198 0
174 197 0
173 197 0
175 198 0
173 197 0
173 197 0
174 198 0
174 197 0
174 197 0
173 197 0
176 199 0
174 198 0
175 198 0
175 198 0
173 197 0
175 198 0
174 197 0
173 197 0
172 196 0
174 198 0
174 198 0
173 197 0
172 196 0
174 198 0
173 197 0
174 197 0
175 198 0
174 198 0
174 198 0
175 198 0
173 197 0
175 198 0
176 199 0
175 198 0
173 197 0
172 197 0
174 198 0
174 197 0
174 197 0
173 197 0
173 197 0
173 197 0
172 196 0
174 198 0
174 198 0
174 197 0
174 197 0
173 196 0
175 198 0
174 198 0
174 198 0
173 197 0
174 197 0
174 197 0
174 198 0
174 198 0
173 197 0
172 196 0
174 198 0
174 198 0
174 198 0
173 197 0
174 198 0
174 197 0
174 198 0
174 197 0
174 198 0
172 196 0
174 198 0
174 197 0
173 197 0
174 198 0
173 197 0
173 197 0
173 197 0
174 198 0
173 197 0
173 196 0
171 195 0
176 198 0
173 196 0
171 195 0
174 198 0
175 198 0
174 198 0
173 196 0
176 198 0
174 197 0
173 196 0
175 198 0
174 197 0
175 198 0
172 196 0
174 197 0
173 197 0
173 196 0
172 196 0
172 195 0
175 198 0
174 198 0
174 198 0
173 196 0
172 195 0
174 197 0
172 196 0
174 197 0
174 197 0
173 197 0
172 195 0
171 195 0
171 195 0
175 198 0
171 195 0
173 197 0
173 197 0
173 197 0
171 195 0
172 196 0
172 196 0
174 197 0
171 195 0
172 196 0
174 197 0
173 197 0
173 196 0
173 196 0
170 194 0
172 196 0
174 197 0
172 196 0
172 195 0
173 197 0
171 195 0
171 196 0
171 195 0
172 196 0
174 197 0
171 195 0
172 196 0
172 194 0
172 195 0
170 194 0
172 196 0
173 195 0
171 195 0
171 195 0
173 197 0
169 193 0
171 195 0
171 194 0
174 197 0
174 197 0
170 193 0
174 197 0
171 194 0
169 193 0
170 194 0
175 197 0
172 196 0
172 196 0
171 194 0
171 195 0
171 194 0
170 193 0
172 195 0
173 196 0
171 195 0
172 195 0
171 195 0
170 193 0
173 196 0
171 194 0
173 197 0
170 194 0
170 193 0
171 195 0
172 196 0
169 193 0
171 195 0
172 196 0
171 194 0
171 194 0
171 194 0
171 194 0
172 196 0
168 191 0
170 193 0
168 192 0
169 193 0
173 196 0
171 194 0
169 192 0
170 194 0
171 195 0
174 197 0
171 194 0
174 197 0
169 193 0
172 195 0
172 195 0
171 195 0
171 194 0
172 195 0
173 197 0
174 198 0
171 194 0
171 195 0
172 196 0
172 195 0
174 197 0
172 195 0
174 196 0
173 197 0
169 193 0
173 196 0
172 196 0
173 197 0
174 197 0
172 195 0
170 194 0
174 197 0
172 196 0
172 195 0
170 194 0
172 196 0
172 195 0
173 197 0
175 198 0
174 197 0
173 196 0
173 196 0
175 198 0
174 197 0
174 196 0
172 195 0
173 196 0
174 198 0
175 198 0
173 197 0
172 197 0
172 196 0
175 198 0
175 198 0
171 194 0
174 197 0
172 195 0
172 196 0
174 197 0
173 197 0
175 198 0
174 197 0
174 197 0
174 197 0
173 197 0
173 197 0
175 198 0
172 196 0
174 197 0
175 198 0
174 197 0
174 197 0
174 198 0
173 197 0
174 198 0
174 198 0
172 195 0
173 197 0
174 197 0
174 198 0
175 198 0
174 197 0
175 198 0
172 196 0
174 198 0
175 198 0
173 197 0
172 196 0
172 196 0
174 197 0
172 196 0
172 195 0
175 198 0
173 197 0
175 197 0
174 197 0
173 197 0
172 196 0
173 197 0
175 198 0
174 197 0
174 198 0
175 198 0
175 198 0
172 196 0
174 197 0
175 198 0
174 197 0
173 197 0
171 195 0
174 197 0
172 197 0
175 198 0
173 197 0
174 198 0
175 198 0
173 197 0
173 197 0
175 198 0
173 197 0
172 196 0
176 198 0
174 197 0
174 197 0
175 198 0
175 198 0
174 198 0
175 198 0
175 198 0
174 198 0
174 198 0
174 198 0
176 198 0
174 198 0
174 198 0
173 196 0
175 198 0
174 197 0
173 197 0
175 198 0
174 197 0
175 198 0
175 198 0
174 198 0
175 198 0
173 197 0
174 198 0
174 197 0
175 198 0
176 198 0
174 198 0
173 197 0
175 198 0
173 197 0
174 197 0
174 197 0
174 198 0
172 196 0
175 198 0
174 198 0
172 197 0
172 196 0
174 198 0
173 197 0
175 198 0
176 198 0
174 198 0
174 197 0
175 198 0
175 198 0
173 197 0
174 197 0
176 199 0
174 198 0
176 198 0
174 197 0
174 198 0
174 198 0
174 198 0
176 198 0
175 198 0
175 198 0
174 198 0
174 198 0
174 198 0
173 197 0
175 198 0
174 198 0
174 198 0
176 198 0
173 197 0
174 198 0
175 198 0
174 198 0
173 197 0
173 197 0
173 197 0
176 199 0
175 198 0
173 197 0
175 198 0
174 198 0
173 197 0
174 198 0
174 197 0
176 198 0
174 198 0
173 197 0
174 197 0
174 198 0
175 198 0
175 198 0
174 197 0
174 198 0
173 197 0
174 197 0
176 199 0
174 197 0
174 198 0
174 197 0
173 197 0
174 197 0
174 198 0
172 196 0
175 198 0
173 197 0
175 198 0
173 197 0
173 197 0
175 198 0
174 197 0
174 198 0
174 197 0
176 199 0
176 199 0
176 199 0
173 197 0
174 198 0
174 198 0
175 198 0
174 197 0
174 198 0
175 198 0
176 199 0
173 197 0
174 197 0
174 198 0
175 198 0
171 195 0
175 198 0
174 198 0
173 197 0
173 197 0
175 198 0
174 198 0
174 198 0
174 197 0
174 197 0
175 198 0
176 198 0
175 198 0
172 197 0
174 197 0
175 198 0
174 197 0
174 197 0
173 197 0
173 197 0
174 198 0
174 197 0
175 198 0
173 197 0
174 197 0
173 197 0
174 198 0
172 196 0
172 196 0
175 198 0
174 198 0
174 197 0
175 198 0
174 198 0
173 197 0
174 197 0
173 196 0
174 197 0
173 197 0
175 198 0
173 197 0
173 197 0
172 196 0
174 197 0
175 198 0
172 196 0
173 197 0
174 197 0
171 195 0
175 198 0
174 197 0
173 197 0
173 196 0
175 198 0
175 198 0
174 197 0
173 196 0
173 197 0
175 197 0
174 197 0
174 197 0
174 198 0
174 197 0
174 197 0
172 196 0
174 197 0
174 197 0
175 198 0
174 197 0
173 197 0
175 198 0
174 197 0
174 198 0
172 196 0
174 197 0
174 197 0
173 197 0
172 196 0
174 196 0
172 196 0
175 198 0
175 198 0
175 198 0
173 196 0
173 196 0
175 198 0
173 197 0
175 197 0
173 196 0
173 197 0
172 196 0
174 197 0
172 195 0
170 194 0
173 197 0
173 197 0
174 197 0
174 197 0
173 196 0
172 196 0
173 196 0
173 196 0
171 194 0
174 197 0
173 196 0
172 196 0
172 196 0
171 195 0
172 196 0
173 197 0
173 197 0
172 195 0
172 196 0
172 196 0
170 194 0
174 197 0
169 193 0
171 194 0
173 195 0
170 194 0
174 197 0
170 193 0
168 192 0
171 194 0
173 196 0
173 196 0
172 195 0
171 194 0
171 194 0
170 194 0
169 192 0
173 196 0
171 195 0
170 193 0
172 195 0
170 194 0
173 196 0
171 195 0
173 196 0
172 195 0
173 196 0
171 195 0
171 194 0
171 194 0
171 194 0
169 192 0
172 195 0
171 194 0
171 195 0
172 195 0
170 194 0
173 196 0
173 196 0
172 196 0
168 192 0
170 194 0
171 195 0
172 196 0
172 195 0
174 197 0
171 194 0
172 195 0
170 194 0
172 195 0
175 197 0
170 194 0
174 197 0
174 197 0
172 195 0
174 197 0
172 195 0
173 196 0
172 195 0
173 196 0
173 197 0
174 197 0
171 195 0
171 195 0
173 195 0
173 197 0
174 197 0
172 196 0
171 195 0
174 197 0
171 195 0
172 195 0
171 194 0
173 197 0
173 196 0
170 194 0
173 197 0
175 198 0
172 196 0
173 197 0
173 197 0
170 194 0
173 196 0
173 197 0
173 197 0
173 196 0
170 194 0
172 196 0
172 195 0
171 195 0
173 197 0
175 198 0
174 197 0
174 197 0
174 197 0
175 198 0
173 197 0
174 197 0
173 197 0
173 195 0
174 197 0
175 198 0
174 197 0
173 197 0
174 197 0
173 197 0
175 197 0
174 197 0
174 197 0
174 197 0
175 198 0
174 197 0
175 198 0
172 196 0
175 198 0
174 198 0
174 197 0
173 197 0
173 196 0
174 196 0
171 195 0
174 197 0
173 196 0
173 197 0
174 198 0
174 198 0
173 196 0
174 197 0
173 197 0
174 197 0
175 198 0
175 198 0
174 197 0
174 198 0
174 197 0
175 198 0
173 197 0
175 198 0
175 198 0
174 197 0
173 196 0
174 197 0
174 197 0
175 197 0
175 198 0
174 197 0
174 197 0
174 197 0
174 197 0
174 198 0
175 198 0
174 197 0
174 197 0
174 197 0
174 197 0
173 197 0
174 198 0
175 198 0
172 195 0
175 198 0
173 197 0
175 198 0
173 197 0
175 198 0
172 196 0
175 198 0
173 197 0
174 197 0
175 198 0
174 198 0
174 197 0
174 197 0
172 196 0
173 196 0
175 198 0
175 198 0
174 197 0
175 198 0
174 198 0
174 197 0
175 198 0
173 197 0
175 198 0
175 198 0
175 198 0
175 198 0
173 196 0
175 198 0
174 197 0
174 197 0
172 196 0
173 197 0
174 198 0
176 199 0
174 198 0
175 198 0
173 197 0
175 198 0
176 198 0
174 198 0
174 198 0
175 198 0
174 198 0
174 198 0
173 197 0
174 198 0
175 198 0
173 197 0
173 197 0
174 197 0
174 198 0
175 198 0
175 198 0
174 198 0
176 199 0
175 198 0
173 197 0
174 198 0
175 198 0
174 197 0
174 198 0
174 198 0
174 198 0
176 198 0
175 198 0
175 198 0
173 197 0
174 197 0
173 197 0
175 198 0
172 196 0
176 199 0
176 198 0
174 198 0
174 197 0
175 198 0
174 198 0
174 198 0
173 197 0
175 198 0
174 198 0
174 198 0
174 198 0
176 198 0
174 198 0
173 197 0
174 198 0
173 197 0
175 198 0
174 198 0
172 196 0
173 197 0
174 198 0
173 197 0
174 198 0
174 198 0
175 198 0
175 198 0
173 197 0
174 198 0
173 197 0
173 197 0
174 198 0
175 198 0
174 198 0
173 197 0
175 198 0
174 197 0
173 197 0
176 199 0
176 198 0
173 197 0
174 197 0
175 198 0
176 198 0
174 197 0
175 197 0
175 197 0
175 198 0
174 197 0
174 197 0
172 196 0
174 198 0
174 198 0
175 198 0
177 199 0
175 198 0
172 196 0
175 198 0
175 198 0
174 198 0
175 198 0
172 196 0
173 197 0
174 198 0
174 197 0
174 198 0
176 199 0
174 198 0
173 197 0
174 197 0
174 198 0
174 197 0
174 198 0
175 198 0
173 197 0
174 197 0
174 197 0
173 197 0
174 197 0
173 197 0
173 197 0
173 197 0
173 197 0
173 197 0
174 197 0
176 198 0
174 198 0
176 199 0
174 198 0
174 197 0
175 198 0
175 198 0
175 198 0
174 197 0
174 197 0
175 198 0
174 197 0
174 197 0
174 198 0
173 197 0
174 198 0
172 197 0
170 195 0
174 197 0
174 198 0
171 195 0
173 196 0
174 198 0
174 198 0
175 198 0
175 198 0
172 195 0
173 197 0
175 198 0
173 197 0
173 196 0
174 198 0
174 197 0
171 195 0
172 196 0
174 197 0
174 198 0
173 197 0
174 197 0
173 197 0
174 197 0
175 198 0
173 196 0
173 197 0
173 196 0
174 197 0
171 195 0
174 197 0
174 196 0
174 198 0
172 196 0
173 197 0
176 198 0
171 194 0
171 195 0
171 195 0
174 196 0
171 195 0
173 197 0
174 197 0
171 195 0
173 197 0
171 195 0
175 197 0
172 196 0
172 195 0
173 197 0
170 194 0
173 197 0
174 197 0
171 195 0
173 197 0
174 197 0
172 196 0
170 194 0
173 197 0
169 193 0
172 195 0
173 196 0
174 197 0
172 196 0
171 195 0
171 195 0
171 195 0
174 197 0
173 196 0
172 195 0
173 197 0
173 197 0
172 194 0
172 195 0
169 193 0
171 195 0
173 196 0
171 194 0
173 197 0
175 197 0
174 197 0
173 196 0
172 196 0
173 196 0
167 190 0
171 196 0
169 193 0
172 195 0
173 197 0
170 194 0
171 195 0
172 195 0
170 193 0
173 196 0
173 197 0
171 194 0
172 195 0
169 193 0
174 197 0
170 194 0
172 196 0
173 196 0
168 193 0
168 192 0
169 192 0
171 194 0
173 196 0
172 195 0
171 195 0
170 194 0
169 193 0
173 195 0
172 195 0
171 193 0
172 196 0
171 195 0
172 195 0
170 194 0
171 195 0
171 193 0
171 194 0
172 195 0
171 194 0
171 195 0
172 196 0
175 198 0
170 194 0
174 198 0
174 197 0
172 196 0
171 194 0
173 196 0
173 197 0
170 194 0
174 197 0
171 196 0
173 196 0
173 196 0
172 195 0
171 195 0
172 195 0
173 197 0
176 198 0
171 195 0
174 197 0
173 197 0
175 198 0
174 196 0
174 197 0
171 195 0
175 197 0
173 197 0
172 196 0
172 195 0
172 195 0
173 197 0
173 197 0
172 196 0
174 197 0
175 198 0
173 197 0
173 196 0
172 196 0
173 196 0
174 197 0
175 198 0
173 196 0
172 196 0
172 196 0
174 197 0
173 197 0
171 195 0
172 196 0
173 197 0
171 195 0
173 196 0
173 197 0
174 196 0
175 198 0
173 196 0
173 197 0
174 197 0
176 199 0
173 196 0
175 198 0
173 197 0
174 197 0
174 197 0
174 197 0
172 196 0
173 197 0
174 197 0
174 197 0
172 195 0
172 196 0
173 197 0
172 196 0
174 197 0
173 197 0
174 198 0
174 198 0
175 198 0
176 199 0
174 197 0
175 198 0
173 196 0
173 197 0
176 198 0
176 199 0
174 197 0
173 196 0
174 197 0
174 198 0
174 198 0
173 197 0
172 196 0
174 197 0
174 198 0
175 198 0
174 198 0
174 197 0
174 197 0
174 198 0
174 198 0
174 198 0
174 198 0
174 197 0
174 197 0
174 198 0
174 197 0
173 197 0
172 196 0
173 197 0
175 198 0
176 198 0
174 197 0
175 198 0
175 197 0
174 198 0
174 198 0
174 197 0
173 197 0
173 197 0
175 198 0
174 198 0
174 198 0
174 197 0
173 197 0
174 198 0
175 198 0
176 199 0
175 198 0
174 198 0
175 198 0
175 198 0
174 198 0
174 197 0
175 198 0
175 198 0
175 198 0
175 198 0
176 199 0
173 197 0
174 198 0
175 198 0
174 198 0
175 198 0
173 197 0
173 197 0
173 197 0
174 197 0
173 197 0
173 197 0
175 198 0
174 197 0
174 198 0
175 198 0
174 197 0
176 198 0
175 198 0
174 198 0
175 198 0
175 198 0
176 199 0
174 198 0
174 198 0
174 197 0
174 197 0
174 198 0
174 198 0
174 198 0
174 198 0
175 198 0
175 198 0
175 198 0
175 198 0
173 197 0
174 198 0
174 198 0
174 198 0
174 198 0
175 198 0
175 198 0
174 197 0
176 198 0
173 197 0
176 199 0
174 198 0
177 199 0
173 197 0
176 198 0
175 198 0
172 197 0
174 198 0
176 198 0
173 197 0
174 197 0
173 197 0
173 197 0
175 198 0
174 198 0
175 198 0
175 198 0
174 198 0
175 198 0
175 198 0
174 198 0
173 197 0
176 198 0
175 198 0
175 198 0
175 198 0
174 197 0
175 198 0
176 198 0
175 198 0
174 198 0
175 198 0
175 198 0
175 198 0
175 198 0
173 197 0
173 197 0
174 198 0
174 198 0
174 197 0
173 197 0
175 198 0
173 197 0
176 199 0
174 197 0
175 198 0
174 198 0
174 198 0
175 198 0
173 197 0
173 197 0
174 198 0
174 197 0
174 197 0
176 199 0
176 199 0
175 198 0
174 197 0
175 198 0
174 198 0
174 198 0
174 198 0
174 197 0
173 197 0
171 196 0
173 197 0
173 197 0
174 197 0
175 198 0
175 198 0
175 198 0
171 195 0
173 197 0
175 198 0
172 195 0
171 196 0
174 197 0
171 195 0
173 197 0
173 197 0
174 197 0
174 198 0
175 198 0
174 197 0
173 197 0
173 197 0
173 197 0
173 197 0
174 198 0
176 198 0
174 198 0
174 198 0
173 197 0
172 195 0
171 195 0
173 197 0
174 198 0
173 197 0
174 198 0
175 198 0
175 198 0
174 197 0
176 199 0
171 195 0
172 196 0
174 197 0
172 196 0
174 197 0
170 194 0
173 197 0
172 196 0
173 197 0
173 197 0
173 197 0
171 195 0
172 196 0
173 196 0
173 197 0
172 197 0
173 196 0
174 197 0
173 196 0
173 197 0
174 197 0
174 197 0
173 196 0
173 197 0
173 197 0
173 197 0
171 195 0
175 198 0
173 196 0
173 196 0
174 197 0
173 196 0
174 197 0
173 196 0
174 198 0
172 195 0
174 197 0
172 196 0
172 195 0
174 197 0
173 197 0
175 198 0
171 195 0
173 196 0
172 195 0
174 197 0
173 196 0
174 197 0
172 196 0
171 195 0
172 196 0
172 195 0
172 196 0
169 194 0
173 196 0
173 197 0
172 195 0
172 196 0
172 196 0
171 194 0
172 194 0
174 197 0
173 196 0
172 196 0
171 194 0
171 195 0
171 194 0
170 195 0
170 194 0
168 192 0
170 194 0
174 196 0
172 195 0
171 194 0
173 197 0
172 196 0
173 195 0
169 193 0
174 197 0
170 194 0
171 195 0
174 197 0
171 195 0
171 193 0
170 194 0
170 193 0
172 196 0
173 196 0
172 196 0
171 194 0
172 196 0
173 195 0
171 194 0
171 195 0
172 195 0
170 194 0
172 196 0
172 196 0
174 197 0
173 197 0
173 196 0
170 194 0
173 197 0
171 195 0
170 194 0
173 197 0
173 196 0
173 196 0
172 195 0
172 195 0
173 196 0
173 197 0
170 193 0
171 195 0
172 195 0
172 195 0
172 196 0
171 195 0
171 195 0
173 196 0
170 194 0
170 193 0
173 196 0
170 194 0
170 193 0
172 196 0
172 195 0
174 198 0
173 196 0
172 196 0
171 194 0
172 196 0
174 196 0
174 198 0
172 195 0
175 198 0
174 198 0
174 197 0
173 197 0
171 195 0
172 196 0
173 197 0
173 197 0
175 197 0
175 198 0
174 197 0
173 197 0
174 197 0
172 196 0
175 198 0
171 195 0
172 196 0
172 196 0
173 197 0
173 197 0
174 198 0
174 198 0
173 196 0
175 198 0
174 197 0
174 197 0
173 196 0
173 196 0
173 197 0
173 197 0
174 197 0
175 197 0
171 195 0
173 196 0
172 196 0
174 197 0
173 197 0
172 196 0
173 197 0
173 196 0
174 198 0
174 196 0
175 198 0
174 197 0
173 196 0
176 199 0
175 197 0
174 198 0
172 196 0
175 198 0
173 197 0
176 198 0
171 195 0
175 198 0
172 196 0
172 196 0
173 197 0
172 196 0
172 196 0
173 197 0
174 197 0
171 195 0
172 196 0
173 197 0
174 197 0
174 198 0
175 198 0
174 198 0
172 196 0
175 198 0
173 197 0
172 195 0
172 196 0
174 198 0
174 198 0
175 198 0
174 198 0
175 198 0
175 198 0
174 198 0
174 197 0
176 199 0
174 198 0
174 197 0
173 197 0
173 197 0
174 198 0
173 196 0
175 198 0
174 197 0
174 198 0
174 198 0
174 198 0
174 197 0
173 196 0
175 198 0
173 197 0
175 198 0
173 197 0
176 199 0
174 197 0
174 198 0
175 198 0
175 198 0
175 198 0
175 198 0
175 198 0
174 197 0
173 197 0
174 198 0
174 197 0
174 197 0
174 198 0
174 198 0
173 197 0
175 198 0
175 198 0
174 197 0
174 197 0
175 198 0
176 199 0
174 198 0
175 198 0
174 197 0
175 198 0
174 198 0
176 199 0
175 198 0
174 198 0
175 198 0
175 198 0
174 198 0
176 198 0
174 197 0
174 197 0
175 197 0
174 198 0
173 197 0
174 198 0
175 198 0
174 198 0
175 198 0
174 197 0
173 197 0
176 199 0
176 198 0
175 198 0
173 197 0
175 198 0
174 198 0
175 198 0
175 198 0
174 198 0
174 198 0
174 197 0
172 196 0
175 198 0
175 198 0
174 198 0
175 198 0
173 197 0
174 198 0
174 198 0
175 198 0
175 198 0
174 197 0
174 197 0
176 198 0
175 198 0
174 197 0
174 198 0
175 198 0
174 198 0
172 196 0
176 199 0
174 198 0
175 198 0
175 198 0
175 198 0
174 197 0
175 198 0
173 197 0
176 199 0
174 197 0
175 198 0
176 199 0
174 197 0
175 198 0
175 198 0
173 197 0
172 196 0
173 197 0
174 197 0
176 199 0
173 197 0
174 198 0
174 198 0
174 197 0
175 198 0
174 198 0
173 197 0
174 197 0
175 198 0
174 197 0
175 198 0
174 197 0
175 198 0
174 198 0
174 198 0
174 198 0
175 198 0
174 198 0
174 197 0
175 198 0
175 198 0
175 198 0
174 198 0
174 198 0
175 198 0
175 198 0
173 197 0
175 198 0
174 198 0
175 198 0
173 196 0
175 198 0
174 197 0
175 198 0
176 199 0
176 199 0
173 197 0
174 198 0
174 197 0
174 197 0
175 198 0
174 198 0
174 197 0
174 198 0
175 198 0
172 197 0
175 198 0
175 198 0
176 199 0
175 198 0
173 197 0
175 198 0
173 196 0
173 197 0
174 197 0
174 197 0
174 198 0
173 197 0
173 197 0
173 197 0
172 196 0
174 197 0
174 198 0
174 197 0
172 196 0
176 199 0
173 197 0
175 198 0
172 196 0
175 198 0
174 198 0
175 198 0
174 198 0
172 196 0
174 197 0
173 197 0
172 196 0
175 198 0
174 198 0
175 198 0
175 198 0
171 195 0
174 198 0
173 197 0
172 196 0
174 197 0
172 196 0
174 198 0
173 197 0
174 198 0
173 197 0
174 197 0
175 198 0
175 198 0
171 195 0
173 197 0
173 197 0
175 198 0
174 198 0
172 196 0
173 196 0
173 196 0
175 198 0
173 197 0
172 197 0
171 195 0
172 196 0
173 196 0
172 196 0
173 197 0
172 195 0
172 195 0
173 196 0
175 197 0
172 196 0
172 196 0
173 196 0
173 196 0
172 196 0
174 198 0
171 194 0
173 197 0
170 194 0
171 194 0
175 198 0
172 196 0
168 191 0
173 196 0
173 196 0
172 196 0
171 195 0
173 196 0
171 194 0
172 195 0
173 197 0
171 194 0
171 194 0
172 196 0
174 197 0
171 194 0
174 197 0
173 196 0
170 193 0
175 197 0
173 196 0
172 195 0
171 195 0
174 197 0
171 194 0
173 196 0
168 192 0
172 196 0
172 197 0
169 193 0
169 193 0
172 196 0
170 194 0
172 196 0
173 196 0
171 195 0
170 193 0
171 195 0
170 193 0
173 196 0
171 195 0
171 194 0
173 197 0
173 196 0
172 195 0
169 192 0
173 196 0
172 195 0
173 196 0
168 192 0
175 198 0
171 194 0
172 195 0
170 194 0
171 194 0
174 197 0
173 196 0
168 192 0
172 196 0
172 195 0
171 194 0
172 195 0
172 196 0
173 196 0
172 196 0
174 197 0
173 196 0
172 196 0
172 196 0
174 198 0
171 195 0
172 197 0
170 192 0
173 197 0
171 195 0
173 197 0
172 196 0
172 196 0
174 197 0
171 194 0
172 196 0
174 197 0
173 196 0
170 195 0
170 194 0
173 196 0
174 197 0
174 197 0
173 197 0
174 197 0
172 195 0
172 195 0
175 198 0
173 197 0
172 195 0
173 197 0
172 196 0
175 197 0
174 196 0
174 197 0
173 197 0
174 197 0
174 197 0
175 197 0
172 196 0
174 198 0
173 196 0
173 197 0
172 196 0
174 197 0
175 198 0
173 197 0
173 196 0
174 197 0
174 197 0
175 198 0
174 197 0
173 197 0
172 196 0
174 197 0
175 198 0
175 198 0
173 197 0
174 197 0
173 196 0
174 198 0
171 195 0
173 196 0
174 197 0
175 198 0
173 197 0
173 197 0
173 197 0
174 198 0
173 197 0
174 198 0
175 198 0
174 197 0
174 198 0
175 198 0
172 196 0
173 196 0
175 198 0
174 197 0
175 198 0
174 198 0
174 198 0
173 197 0
175 198 0
173 196 0
175 198 0
174 198 0
175 198 0
173 196 0
174 197 0
174 198 0
174 198 0
176 199 0
174 197 0
175 198 0
175 198 0
175 198 0
175 198 0
175 198 0
174 197 0
175 198 0
175 198 0
174 198 0
175 198 0
175 198 0
175 198 0
175 198 0
174 197 0
174 198 0
174 198 0
174 198 0
174 197 0
175 198 0
175 198 0
174 197 0
174 198 0
175 198 0
174 198 0
173 197 0
174 197 0
175 198 0
176 198 0
174 197 0
175 198 0
174 197 0
174 198 0
175 198 0
173 196 0
175 198 0
174 198 0
173 197 0
175 198 0
173 197 0
174 198 0
174 198 0
175 198 0
173 197 0
174 198 0
175 198 0
175 198 0
173 197 0
175 198 0
173 196 0
174 197 0
175 198 0
173 197 0
175 198 0
174 197 0
172 197 0
173 197 0
175 198 0
173 196 0
175 198 0
173 197 0
174 198 0
173 197 0
174 198 0
173 197 0
173 197 0
176 199 0
174 198 0
173 197 0
175 198 0
175 198 0
173 197 0
175 198 0
173 197 0
175 198 0
173 197 0
175 198 0
174 198 0
175 198 0
175 198 0
175 198 0
175 198 0
175 198 0
175 198 0
174 198 0
172 197 0
174 198 0
174 197 0
175 198 0
175 198 0
174 197 0
175 198 0
174 197 0
173 197 0
174 197 0
174 198 0
173 197 0
174 198 0
174 197 0
175 198 0
174 197 0
175 198 0
174 197 0
174 198 0
175 198 0
173 197 0
174 198 0
174 198 0
174 197 0
173 197 0
175 198 0
176 198 0
174 198 0
174 198 0
174 197 0
174 198 0
174 197 0
175 198 0
175 198 0
174 198 0
173 197 0
175 198 0
173 197 0
175 198 0
175 198 0
173 197 0
174 197 0
174 197 0
175 198 0
174 197 0
172 196 0
175 198 0
175 198 0
173 197 0
174 198 0
174 198 0
174 198 0
175 197 0
173 197 0
176 199 0
175 198 0
173 197 0
174 197 0
175 198 0
174 197 0
174 198 0
173 197 0
174 198 0
173 197 0
174 198 0
172 196 0
174 198 0
175 198 0
174 197 0
174 197 0
176 199 0
172 196 0
174 197 0
173 196 0
173 197 0
174 198 0
174 198 0
173 197 0
172 196 0
173 197 0
175 198 0
175 198 0
174 198 0
175 198 0
173 196 0
174 198 0
174 197 0
174 197 0
174 197 0
175 198 0
173 197 0
174 198 0
172 196 0
173 197 0
173 197 0
172 197 0
172 196 0
175 198 0
172 196 0
175 198 0
172 196 0
174 197 0
175 198 0
171 195 0
173 197 0
174 198 0
173 197 0
174 197 0
175 198 0
174 197 0
172 196 0
174 197 0
175 198 0
174 197 0
173 196 0
174 198 0
173 197 0
174 198 0
174 198 0
175 198 0
173 196 0
172 196 0
173 196 0
173 197 0
174 197 0
176 199 0
174 197 0
176 198 0
173 197 0
171 195 0
172 196 0
173 196 0
175 198 0
173 196 0
175 198 0
173 196 0
173 197 0
174 197 0
174 197 0
175 198 0
170 194 0
174 197 0
172 195 0
172 195 0
172 196 0
173 196 0
172 195 0
172 195 0
172 195 0
172 195 0
174 197 0
175 198 0
168 192 0
172 196 0
175 198 0
172 196 0
171 194 0
172 196 0
172 196 0
175 198 0
169 193 0
172 196 0
173 196 0
170 194 0
173 196 0
172 196 0
172 195 0
171 195 0
171 194 0
172 196 0
174 197 0
172 196 0
171 194 0
174 197 0
173 196 0
171 194 0
168 191 0
170 195 0
169 192 0
173 197 0
170 194 0
173 197 0
174 197 0
171 195 0
173 196 0
174 196 0
170 194 0
172 195 0
170 194 0
170 194 0
170 192 0
173 197 0
172 195 0
172 195 0
174 196 0
170 194 0
173 195 0
171 193 0
171 195 0
172 195 0
173 196 0
169 193 0
172 196 0
172 196 0
170 194 0
175 197 0
172 195 0
173 196 0
172 197 0
172 195 0
172 195 0
173 197 0
172 195 0
173 196 0
170 193 0
174 198 0
172 196 0
172 195 0
174 197 0
173 196 0
173 196 0
173 196 0
173 196 0
172 196 0
171 195 0
174 197 0
172 195 0
171 195 0
172 195 0
173 197 0
174 197 0
173 196 0
170 194 0
171 194 0
172 195 0
173 197 0
172 196 0
170 193 0
175 198 0
171 195 0
174 197 0
172 196 0
173 197 0
174 197 0
173 196 0
173 197 0
172 195 0
172 196 0
173 197 0
174 198 0
172 196 0
175 197 0
174 197 0
174 198 0
172 196 0
174 198 0
171 194 0
172 195 0
172 196 0
171 195 0
172 196 0
174 197 0
173 197 0
174 197 0
174 198 0
173 197 0
176 199 0
175 198 0
173 196 0
173 197 0
174 197 0
176 199 0
176 199 0
173 196 0
171 195 0
174 197 0
174 197 0
176 198 0
173 197 0
176 198 0
175 198 0
173 197 0
173 196 0
173 197 0
173 197 0
174 197 0
175 197 0
173 196 0
174 196 0
173 197 0
175 198 0
173 196 0
173 196 0
173 197 0
175 198 0
174 198 0
173 197 0
174 197 0
174 198 0
174 197 0
172 195 0
174 197 0
174 198 0
172 196 0
174 197 0
175 198 0
173 197 0
173 197 0
175 198 0
174 198 0
173 197 0
174 197 0
173 197 0
173 197 0
174 197 0
175 198 0
175 198 0
173 197 0
175 198 0
173 197 0
173 197 0
173 196 0
175 198 0
174 197 0
175 198 0
173 197 0
173 197 0
175 198 0
175 198 0
175 198 0
175 198 0
173 197 0
174 197 0
175 198 0
175 198 0
176 199 0
175 198 0
173 197 0
174 198 0
174 198 0
174 198 0
174 197 0
174 197 0
174 198 0
174 198 0
173 196 0
175 198 0
174 197 0
172 196 0
174 198 0
174 197 0
175 198 0
175 198 0
176 198 0
174 197 0
174 198 0
174 198 0
175 198 0
175 198 0
174 197 0
174 197 0
174 198 0
172 196 0
175 198 0
173 196 0
174 198 0
174 197 0
174 197 0
174 197 0
173 197 0
173 197 0
174 197 0
172 196 0
175 198 0
174 197 0
175 198 0
174 198 0
176 199 0
174 198 0
174 198 0
173 197 0
175 198 0
173 197 0
173 197 0
175 198 0
173 197 0
176 199 0
175 198 0
174 197 0
174 197 0
175 198 0
176 199 0
175 198 0
172 196 0
173 197 0
175 198 0
174 198 0
174 198 0
174 198 0
173 197 0
174 198 0
173 197 0
176 199 0
174 198 0
175 198 0
175 198 0
175 198 0
173 197 0
175 198 0
174 198 0
175 198 0
175 198 0
174 198 0
174 198 0
173 197 0
173 197 0
174 198 0
174 198 0
175 198 0
173 197 0
172 196 0
174 198 0
174 197 0
175 198 0
176 198 0
175 198 0
174 198 0
174 198 0
175 198 0
175 198 0
174 198 0
173 197 0
175 198 0
174 197 0
174 198 0
175 198 0
174 198 0
175 198 0
173 197 0
175 198 0
173 197 0
175 198 0
173 197 0
174 198 0
175 198 0
175 198 0
175 198 0
173 197 0
173 197 0
176 199 0
177 199 0
174 198 0
175 198 0
174 197 0
173 197 0
174 197 0
175 198 0
174 197 0
175 198 0
172 196 0
174 197 0
172 196 0
173 197 0
175 198 0
174 198 0
172 197 0
174 198 0
174 197 0
174 198 0
175 198 0
173 197 0
173 197 0
175 198 0
173 197 0
174 197 0
175 198 0
175 198 0
175 198 0
173 197 0
174 197 0
173 197 0
173 196 0
175 198 0
175 198 0
173 197 0
173 196 0
175 198 0
173 197 0
173 197 0
176 198 0
172 196 0
174 197 0
173 197 0
173 197 0
172 196 0
172 196 0
172 195 0
174 197 0
174 197 0
174 197 0
171 196 0
174 197 0
174 197 0
175 198 0
174 197 0
174 198 0
175 198 0
173 197 0
174 197 0
173 196 0
172 195 0
174 198 0
174 197 0
175 198 0
172 196 0
173 197 0
173 197 0
174 197 0
174 197 0
174 197 0
172 196 0
172 195 0
174 196 0
174 198 0
172 196 0
174 197 0
175 198 0
172 195 0
171 195 0
173 197 0
173 196 0
174 198 0
173 197 0
171 195 0
173 196 0
171 195 0
169 193 0
172 196 0
172 195 0
170 194 0
170 193 0
175 198 0
174 197 0
169 193 0
171 195 0
174 198 0
174 196 0
171 195 0
171 195 0
172 196 0
172 196 0
173 196 0
172 195 0
174 198 0
173 196 0
172 195 0
172 196 0
173 196 0
171 195 0
172 195 0
172 196 0
169 193 0
172 196 0
171 194 0
171 194 0
171 195 0
174 197 0
174 197 0
171 194 0
171 195 0
172 195 0
173 197 0
172 196 0
168 192 0
174 197 0
172 196 0
172 195 0
170 193 0
172 196 0
172 196 0
171 195 0
170 194 0
172 195 0
173 197 0
171 194 0
172 196 0
173 196 0
174 198 0
170 193 0
174 197 0
171 194 0
171 194 0
172 196 0
175 198 0
173 196 0
170 194 0
172 195 0
171 195 0
170 193 0
173 197 0
172 195 0
173 197 0
173 196 0
172 196 0
170 194 0
172 195 0
174 198 0
172 196 0
175 198 0
171 195 0
170 194 0
173 196 0
175 198 0
173 196 0
174 198 0
171 195 0
172 195 0
172 195 0
173 196 0
171 196 0
168 192 0
172 195 0
172 195 0
173 196 0
174 197 0
173 197 0
169 193 0
170 194 0
171 194 0
172 196 0
171 194 0
171 196 0
175 198 0
172 196 0
173 197 0
173 196 0
173 197 0
171 195 0
174 197 0
174 198 0
172 196 0
173 196 0
173 196 0
172 197 0
173 196 0
174 197 0
175 198 0
174 198 0
174 197 0
174 197 0
172 195 0
171 195 0
175 198 0
175 198 0
174 197 0
174 197 0
173 197 0
174 197 0
173 196 0
174 197 0
172 196 0
172 196 0
175 197 0
173 197 0
173 197 0
171 194 0
176 198 0
174 198 0
174 198 0
174 197 0
175 198 0
174 197 0
171 195 0
174 198 0
172 196 0
173 196 0
170 194 0
174 197 0
171 195 0
174 197 0
173 196 0
173 196 0
171 195 0
173 196 0
174 197 0
174 197 0
173 197 0
174 197 0
172 196 0
175 198 0
174 198 0
175 198 0
173 196 0
172 197 0
174 197 0
174 197 0
175 198 0
174 198 0
174 198 0
174 197 0
172 197 0
174 196 0
174 197 0
174 197 0
174 197 0
174 197 0
176 198 0
175 198 0
174 198 0
174 197 0
173 197 0
174 198 0
175 198 0
173 197 0
174 198 0
175 198 0
174 197 0
174 197 0
172 196 0
173 197 0
172 196 0
174 197 0
173 197 0
175 198 0
174 198 0
174 198 0
175 198 0
175 198 0
175 197 0
174 198 0
172 196 0
175 198 0
176 199 0
173 197 0
174 197 0
175 198 0
174 198 0
174 197 0
174 197 0
175 198 0
174 198 0
175 198 0
175 198 0
173 197 0
175 198 0
174 198 0
175 198 0
174 197 0
175 198 0
175 198 0
175 198 0
174 198 0
176 199 0
174 198 0
175 198 0
174 198 0
173 197 0
175 198 0
175 198 0
175 198 0
174 197 0
175 198 0
174 198 0
174 198 0
174 197 0
176 198 0
173 197 0
176 199 0
175 198 0
175 198 0
173 197 0
173 197 0
173 197 0
173 197 0
176 199 0
176 199 0
172 196 0
172 196 0
174 198 0
174 198 0
174 197 0
174 198 0
174 198 0
174 198 0
174 198 0
172 196 0
174 198 0
175 198 0
175 198 0
175 198 0
173 197 0
176 198 0
175 198 0
175 198 0
174 198 0
175 198 0
174 198 0
174 197 0
174 197 0
174 197 0
176 199 0
174 198 0
175 198 0
175 198 0
173 197 0
174 198 0
173 197 0
174 197 0
175 198 0
173 197 0
172 196 0
173 197 0
174 198 0
174 198 0
174 198 0
175 198 0
174 198 0
175 198 0
176 198 0
173 197 0
172 197 0
174 198 0
174 198 0
173 197 0
174 197 0
174 198 0
174 198 0
176 198 0
175 198 0
175 198 0
174 197 0
174 198 0
175 198 0
175 198 0
174 198 0
177 199 0
174 197 0
173 197 0
174 197 0
174 197 0
172 196 0
175 198 0
175 198 0
173 197 0
175 198 0
174 197 0
174 197 0
175 198 0
172 196 0
176 199 0
173 197 0
174 198 0
173 197 0
174 197 0
173 197 0
173 197 0
173 197 0
176 198 0
172 196 0
173 197 0
172 197 0
173 197 0
174 198 0
174 198 0
174 197 0
174 198 0
174 197 0
174 198 0
174 197 0
173 197 0
173 197 0
173 197 0
173 197 0
174 198 0
175 198 0
175 198 0
174 198 0
173 197 0
173 196 0
175 198 0
174 197 0
173 196 0
173 196 0
173 197 0
175 198 0
174 198 0
173 196 0
173 197 0
173 197 0
174 198 0
174 198 0
172 196 0
173 196 0
172 196 0
172 196 0
175 198 0
174 197 0
172 196 0
174 197 0
175 198 0
171 195 0
174 197 0
174 198 0
173 197 0
173 197 0
174 197 0
175 198 0
174 197 0
173 197 0
174 197 0
172 196 0
175 198 0
175 198 0
174 197 0
174 198 0
173 197 0
173 196 0
175 198 0
173 197 0
173 197 0
172 196 0
173 197 0
174 197 0
173 197 0
175 198 0
173 197 0
176 199 0
173 197 0
172 196 0
174 197 0
174 197 0
174 197 0
172 195 0
174 197 0
173 197 0
176 198 0
174 198 0
174 198 0
172 196 0
174 197 0
174 197 0
173 197 0
174 197 0
172 196 0
176 198 0
174 198 0
171 195 0
173 196 0
173 196 0
170 193 0
174 198 0
172 196 0
171 195 0
170 194 0
174 197 0
172 196 0
171 195 0
173 196 0
173 196 0
174 197 0
172 196 0
171 195 0
174 197 0
174 196 0
173 196 0
171 195 0
171 195 0
171 195 0
171 194 0
171 195 0
171 195 0
171 195 0
173 196 0
172 195 0
170 194 0
174 198 0
170 194 0
172 195 0
173 197 0
172 195 0
171 195 0
172 195 0
174 197 0
174 197 0
170 194 0
173 197 0
172 195 0
169 193 0
169 192 0
170 193 0
172 195 0
170 195 0
170 193 0
174 197 0
171 195 0
169 193 0
171 196 0
174 197 0
167 191 0
171 194 0
173 196 0
174 197 0
171 195 0
172 195 0
174 197 0
171 195 0
173 196 0
170 193 0
172 195 0
173 196 0
171 194 0
172 196 0
171 195 0
174 197 0
172 195 0
172 196 0
171 195 0
173 197 0
171 196 0
173 196 0
172 195 0
174 197 0
172 196 0
172 195 0
171 195 0
170 194 0
171 195 0
174 196 0
173 196 0
172 196 0
173 197 0
173 196 0
172 195 0
172 196 0
173 196 0
172 195 0
174 197 0
171 195 0
174 197 0
171 195 0
173 197 0
174 197 0
173 196 0
173 196 0
171 195 0
171 195 0
175 198 0
172 195 0
172 196 0
173 197 0
173 196 0
173 196 0
173 197 0
173 196 0
175 198 0
173 196 0
172 196 0
173 196 0
170 194 0
175 198 0
172 196 0
173 197 0
172 196 0
171 195 0
173 197 0
173 196 0
173 197 0
172 197 0
175 198 0
172 196 0
173 196 0
174 197 0
173 196 0
174 197 0
171 194 0
174 197 0
174 198 0
174 197 0
175 198 0
174 197 0
173 197 0
175 198 0
173 196 0
174 198 0
174 197 0
174 198 0
174 197 0
174 198 0
175 198 0
176 199 0
173 197 0
175 198 0
173 197 0
174 197 0
173 196 0
176 198 0
175 198 0
174 198 0
174 198 0
174 198 0
176 198 0
174 197 0
172 196 0
172 195 0
174 197 0
175 198 0
175 198 0
175 198 0
173 197 0
175 198 0
175 198 0
173 196 0
174 198 0
175 198 0
175 198 0
173 197 0
175 198 0
174 197 0
176 199 0
173 197 0
175 198 0
175 198 0
174 197 0
177 199 0
174 197 0
173 196 0
174 197 0
173 197 0
175 198 0
173 196 0
174 197 0
174 197 0
174 197 0
174 198 0
175 198 0
175 198 0
174 198 0
173 197 0
176 199 0
173 197 0
173 197 0
174 197 0
175 198 0
174 198 0
175 198 0
174 198 0
174 198 0
176 198 0
174 198 0
175 198 0
174 197 0
175 198 0
174 197 0
176 198 0
174 198 0
174 198 0
173 197 0
173 197 0
174 197 0
175 198 0
175 198 0
175 198 0
174 197 0
176 198 0
175 198 0
174 197 0
173 197 0
174 198 0
174 198 0
173 197 0
174 198 0
173 197 0
173 197 0
175 198 0
174 198 0
175 198 0
174 198 0
174 198 0
176 199 0
175 198 0
175 198 0
172 197 0
172 196 0
174 198 0
175 198 0
174 198 0
174 198 0
176 198 0
174 198 0
174 198 0
174 198 0
174 198 0
173 197 0
174 198 0
174 197 0
175 198 0
174 198 0
174 198 0
174 198 0
175 198 0
174 198 0
173 197 0
174 198 0
174 198 0
174 198 0
174 197 0
176 199 0
173 197 0
175 198 0
174 198 0
174 197 0
174 198 0
173 197 0
174 198 0
176 199 0
174 198 0
175 198 0
176 199 0
174 198 0
173 197 0
174 198 0
174 198 0
175 198 0
174 197 0
176 198 0
173 197 0
171 196 0
176 198 0
173 197 0
174 198 0
174 198 0
175 198 0
175 198 0
175 198 0
174 197 0
172 196 0
174 198 0
173 197 0
172 196 0
177 199 0
172 197 0
174 197 0
176 199 0
174 198 0
174 197 0
174 198 0
174 197 0
173 197 0
174 197 0
175 198 0
174 198 0
175 198 0
173 197 0
173 197 0
173 196 0
173 197 0
174 198 0
173 197 0
174 198 0
174 198 0
174 198 0
174 198 0
174 198 0
175 198 0
173 197 0
176 198 0
173 197 0
174 197 0
173 197 0
173 197 0
174 198 0
173 197 0
174 198 0
174 197 0
175 198 0
175 198 0
173 197 0
177 199 0
173 197 0
172 196 0
174 197 0
175 198 0
173 197 0
174 198 0
175 198 0
174 198 0
174 198 0
176 199 0
172 196 0
171 195 0
174 198 0
172 196 0
173 197 0
174 197 0
175 198 0
174 197 0
173 197 0
175 198 0
173 196 0
173 197 0
174 198 0
175 198 0
174 197 0
175 198 0
175 198 0
175 198 0
174 197 0
174 198 0
173 197 0
174 197 0
174 197 0
172 196 0
173 196 0
173 197 0
174 197 0
174 198 0
173 197 0
174 198 0
175 198 0
175 198 0
171 195 0
174 197 0
172 195 0
174 197 0
173 197 0
174 197 0
174 198 0
171 195 0
173 197 0
171 195 0
173 196 0
172 196 0
175 198 0
174 198 0
172 196 0
174 197 0
172 197 0
174 197 0
174 197 0
175 198 0
175 198 0
170 194 0
175 198 0
173 197 0
174 197 0
172 196 0
170 194 0
175 198 0
172 195 0
171 195 0
173 196 0
175 197 0
171 195 0
172 195 0
173 196 0
170 195 0
171 195 0
173 197 0
172 195 0
175 198 0
171 195 0
174 198 0
173 197 0
172 195 0
172 196 0
170 194 0
174 197 0
174 197 0
174 197 0
173 197 0
172 195 0
173 197 0
172 195 0
173 196 0
172 196 0
172 195 0
173 197 0
174 197 0
172 196 0
174 198 0
171 195 0
174 197 0
174 197 0
171 195 0
172 196 0
171 194 0
172 196 0
174 197 0
173 196 0
173 196 0
173 196 0
171 194 0
171 194 0
173 197 0
174 197 0
170 193 0
172 196 0
172 195 0
172 196 0
171 195 0
171 194 0
173 197 0
171 194 0
170 193 0
173 196 0
173 196 0
172 195 0
170 194 0
172 195 0
170 194 0
172 195 0
172 195 0
172 196 0
172 195 0
171 194 0
175 198 0
175 198 0
172 196 0
171 195 0
174 197 0
171 194 0
172 195 0
172 195 0
171 195 0
172 196 0
172 196 0
173 197 0
173 196 0
173 197 0
172 195 0
172 195 0
173 197 0
175 198 0
172 196 0
175 198 0
172 196 0
173 196 0
172 195 0
176 198 0
176 197 0
174 197 0
175 198 0
173 197 0
175 198 0
171 195 0
172 195 0
173 197 0
174 198 0
172 196 0
171 195 0
172 196 0
174 197 0
171 195 0
173 196 0
173 197 0
173 197 0
173 196 0
173 196 0
172 195 0
174 197 0
174 197 0
173 196 0
174 197 0
174 197 0
173 196 0
173 196 0
173 197 0
174 198 0
173 197 0
176 198 0
174 197 0
174 197 0
172 196 0
173 197 0
173 197 0
172 196 0
173 197 0
172 196 0
176 198 0
175 198 0
175 197 0
173 197 0
174 198 0
174 197 0
174 197 0
173 197 0
173 196 0
173 197 0
175 198 0
174 197 0
172 196 0
174 198 0
174 198 0
174 197 0
175 198 0
172 196 0
176 198 0
174 197 0
174 198 0
173 196 0
175 198 0
174 197 0
174 197 0
175 198 0
174 197 0
172 196 0
174 198 0
173 197 0
173 197 0
173 197 0
174 197 0
173 197 0
173 197 0
175 198 0
175 198 0
174 197 0
174 197 0
174 198 0
175 198 0
174 197 0
175 198 0
173 197 0
174 197 0
173 197 0
174 197 0
174 198 0
175 198 0
175 198 0
174 198 0
175 198 0
172 196 0
175 198 0
175 198 0
175 198 0
172 196 0
174 197 0
173 197 0
174 198 0
175 198 0
174 198 0
173 197 0
176 198 0
174 197 0
172 196 0
173 197 0
172 197 0
173 196 0
174 198 0
174 198 0
175 198 0
176 199 0
173 197 0
176 199 0
176 199 0
173 197 0
175 198 0
173 197 0
173 197 0
175 198 0
175 198 0
174 197 0
174 198 0
174 198 0
174 198 0
174 197 0
176 199 0
173 197 0
174 198 0
173 197 0
173 196 0
176 199 0
174 197 0
174 198 0
175 198 0
175 198 0
173 197 0
173 197 0
174 198 0
174 198 0
174 197 0
174 197 0
175 198 0
175 198 0
175 198 0
176 198 0
175 198 0
176 199 0
174 198 0
174 198 0
175 198 0
174 198 0
173 197 0
174 198 0
174 198 0
174 197 0
175 198 0
175 198 0
175 198 0
174 198 0
175 198 0
174 197 0
174 198 0
174 197 0
174 198 0
174 198 0
173 197 0
174 198 0
173 197 0
174 197 0
174 198 0
175 198 0
175 198 0
173 197 0
173 197 0
176 198 0
173 197 0
177 199 0
175 198 0
174 197 0
174 198 0
175 198 0
174 197 0
174 198 0
175 198 0
174 197 0
176 199 0
174 197 0
175 198 0
176 198 0
174 197 0
175 198 0
174 197 0
173 197 0
175 198 0
175 198 0
174 198 0
173 197 0
175 198 0
176 198 0
175 198 0
173 197 0
175 197 0
174 197 0
177 199 0
175 198 0
175 198 0
174 197 0
174 197 0
172 196 0
175 198 0
174 197 0
174 197 0
174 197 0
174 197 0
176 198 0
174 198 0
174 197 0
174 198 0
174 198 0
176 198 0
175 198 0
174 198 0
174 197 0
175 198 0
172 196 0
174 198 0
174 197 0
175 198 0
175 198 0
175 198 0
173 197 0
174 198 0
174 197 0
176 199 0
173 197 0
173 197 0
174 197 0
173 196 0
173 197 0
173 197 0
174 197 0
173 197 0
175 198 0
175 198 0
173 197 0
173 197 0
173 197 0
174 198 0
175 198 0
174 197 0
175 198 0
173 197 0
173 197 0
173 197 0
175 198 0
174 198 0
172 196 0
173 197 0
175 198 0
174 198 0
174 197 0
174 197 0
173 196 0
173 196 0
174 198 0
174 197 0
174 198 0
174 197 0
174 197 0
174 197 0
174 197 0
175 198 0
173 197 0
172 196 0
173 197 0
176 199 0
173 197 0
174 197 0
173 197 0
173 197 0
173 197 0
174 198 0
172 195 0
175 198 0
172 196 0
173 197 0
175 198 0
174 197 0
175 198 0
174 198 0
172 196 0
172 195 0
174 197 0
174 197 0
173 197 0
174 197 0
175 198 0
174 197 0
171 195 0
171 196 0
171 195 0
174 198 0
172 196 0
173 196 0
174 197 0
172 196 0
175 198 0
173 196 0
173 197 0
171 194 0
173 196 0
173 196 0
173 197 0
172 196 0
170 194 0
171 195 0
171 196 0
173 196 0
173 196 0
170 195 0
169 194 0
173 196 0
172 196 0
168 192 0
170 193 0
175 197 0
171 195 0
170 194 0
172 195 0
174 198 0
175 198 0
170 193 0
171 195 0
172 196 0
172 195 0
172 196 0
172 196 0
172 196 0
175 198 0
173 197 0
174 198 0
173 196 0
174 198 0
172 196 0
173 196 0
176 198 0
172 196 0
174 197 0
172 196 0
174 197 0
167 191 0
170 194 0
171 196 0
171 195 0
170 193 0
170 194 0
174 197 0
171 194 0
174 197 0
173 196 0
173 197 0
171 195 0
172 196 0
170 194 0
175 198 0
170 193 0
173 196 0
175 198 0
171 195 0
171 195 0
171 195 0
172 195 0
171 194 0
171 195 0
172 196 0
173 197 0
169 192 0
174 197 0
174 197 0
172 195 0
171 195 0
171 194 0
172 195 0
170 194 0
172 196 0
173 196 0
172 196 0
172 196 0
173 196 0
172 195 0
173 197 0
172 196 0
173 196 0
174 197 0
171 196 0
174 197 0
172 196 0
171 195 0
174 197 0
174 197 0
172 196 0
172 196 0
174 197 0
173 196 0
172 195 0
170 195 0
171 195 0
174 197 0
174 197 0
175 198 0
174 198 0
174 197 0
173 196 0
174 197 0
173 196 0
172 195 0
173 197 0
171 195 0
173 196 0
173 197 0
170 194 0
173 197 0
171 196 0
173 197 0
175 198 0
175 198 0
173 197 0
173 197 0
173 197 0
173 196 0
172 196 0
174 198 0
174 197 0
173 195 0
173 197 0
173 197 0
173 196 0
176 199 0
173 197 0
172 196 0
174 197 0
173 196 0
173 197 0
173 196 0
174 198 0
174 198 0
173 197 0
174 197 0
175 198 0
173 197 0
174 197 0
172 196 0
174 198 0
176 198 0
174 197 0
174 197 0
175 198 0
173 197 0
172 196 0
174 198 0
175 198 0
173 197 0
172 196 0
175 198 0
175 198 0
175 198 0
172 196 0
174 197 0
174 198 0
174 197 0
174 198 0
174 198 0
174 197 0
173 197 0
174 197 0
174 197 0
173 197 0
173 197 0
176 198 0
175 198 0
174 197 0
174 198 0
175 198 0
174 197 0
173 197 0
174 198 0
174 198 0
174 197 0
172 196 0
173 197 0
175 198 0
175 198 0
175 198 0
172 196 0
174 198 0
173 197 0
174 197 0
172 196 0
175 198 0
176 199 0
173 197 0
175 198 0
173 197 0
173 197 0
175 198 0
175 198 0
174 197 0
175 198 0
176 199 0
173 197 0
175 198 0
173 197 0
176 198 0
173 197 0
174 198 0
175 198 0
172 197 0
175 198 0
175 198 0
174 197 0
174 197 0
172 196 0
176 199 0
176 198 0
174 197 0
174 197 0
173 197 0
174 197 0
174 197 0
173 197 0
175 198 0
174 198 0
175 198 0
173 197 0
176 198 0
173 196 0
176 199 0
174 198 0
174 198 0
176 199 0
174 197 0
175 198 0
174 198 0
173 197 0
174 197 0
175 198 0
173 197 0
174 197 0
173 197 0
174 198 0
175 198 0
175 198 0
174 198 0
176 198 0
173 197 0
173 197 0
173 197 0
174 198 0
174 198 0
174 198 0
175 198 0
173 197 0
175 198 0
174 197 0
174 197 0
174 197 0
175 198 0
175 198 0
174 197 0
174 198 0
174 197 0
175 198 0
173 197 0
174 197 0
175 198 0
174 198 0
174 198 0
177 199 0
174 198 0
174 198 0
175 198 0
174 198 0
174 198 0
174 197 0
175 198 0
173 197 0
176 199 0
176 198 0
175 198 0
174 198 0
174 198 0
174 197 0
175 198 0
173 197 0
173 197 0
173 197 0
174 198 0
175 198 0
173 197 0
175 198 0
173 197 0
174 198 0
172 197 0
173 197 0
173 197 0
174 197 0
176 198 0
173 197 0
172 197 0
174 198 0
175 198 0
174 197 0
173 197 0
174 198 0
173 197 0
176 199 0
174 198 0
174 198 0
175 198 0
176 198 0
173 197 0
174 198 0
173 197 0
174 198 0
175 198 0
173 197 0
172 196 0
175 198 0
173 197 0
174 197 0
175 198 0
174 198 0
175 198 0
175 198 0
176 198 0
175 198 0
176 199 0
173 197 0
171 195 0
174 198 0
174 197 0
172 196 0
175 198 0
175 197 0
175 198 0
175 198 0
175 198 0
175 198 0
175 197 0
174 198 0
174 197 0
175 198 0
175 198 0
173 197 0
175 198 0
172 196 0
176 199 0
174 198 0
174 197 0
172 196 0
174 198 0
175 198 0
174 197 0
173 197 0
173 197 0
173 197 0
175 198 0
174 197 0
173 197 0
174 197 0
174 197 0
174 198 0
173 196 0
171 195 0
173 197 0
171 196 0
172 196 0
174 198 0
173 197 0
173 197 0
170 194 0
174 197 0
175 197 0
173 197 0
174 197 0
175 198 0
173 197 0
174 197 0
170 193 0
173 197 0
173 196 0
175 198 0
173 196 0
174 197 0
175 198 0
170 194 0
173 197 0
173 196 0
172 196 0
172 195 0
171 195 0
173 196 0
174 197 0
173 197 0
174 197 0
174 197 0
176 198 0
174 197 0
173 197 0
174 197 0
172 195 0
173 197 0
170 194 0
168 192 0
171 194 0
171 195 0
174 197 0
171 194 0
171 195 0
170 194 0
171 194 0
173 196 0
172 196 0
173 197 0
170 193 0
171 195 0
174 197 0
170 194 0
174 197 0
171 195 0
172 195 0
173 195 0
174 198 0
168 191 0
173 196 0
173 196 0
172 195 0
172 196 0
172 196 0
172 195 0
173 196 0
173 196 0
172 196 0
172 195 0
172 195 0
173 196 0
170 194 0
172 194 0
172 196 0
171 195 0
171 194 0
174 197 0
172 196 0
169 193 0
169 194 0
174 197 0
172 195 0
171 196 0
168 192 0
171 195 0
170 195 0
173 197 0
171 195 0
171 195 0
170 194 0
172 195 0
173 196 0
173 197 0
173 197 0
171 195 0
175 198 0
171 195 0
171 194 0
170 194 0
171 194 0
173 197 0
171 194 0
173 196 0
172 196 0
174 197 0
173 196 0
174 197 0
172 196 0
173 197 0
170 194 0
172 196 0
174 198 0
172 195 0
172 195 0
171 195 0
174 197 0
171 194 0
174 197 0
174 197 0
174 197 0
172 196 0
174 197 0
172 195 0
173 196 0
174 197 0
173 197 0
173 197 0
174 197 0
173 197 0
172 196 0
174 197 0
173 197 0
173 196 0
172 195 0
174 197 0
169 193 0
173 197 0
173 196 0
174 197 0
171 195 0
175 197 0
174 197 0
173 197 0
172 195 0
174 197 0
174 197 0
174 197 0
174 197 0
173 196 0
174 197 0
173 197 0
172 197 0
172 196 0
173 196 0
173 196 0
175 198 0
173 197 0
173 196 0
175 198 0
173 196 0
175 198 0
172 196 0
173 197 0
171 195 0
176 198 0
174 198 0
173 195 0
175 198 0
174 198 0
175 198 0
174 197 0
174 197 0
171 196 0
173 196 0
173 197 0
174 197 0
173 197 0
171 195 0
173 197 0
174 198 0
174 197 0
174 197 0
173 196 0
174 198 0
173 197 0
174 197 0
174 198 0
173 197 0
176 199 0
173 197 0
175 198 0
175 198 0
173 197 0
173 197 0
173 196 0
173 197 0
172 196 0
174 198 0
174 197 0
173 196 0
173 196 0
174 197 0
175 198 0
174 198 0
174 197 0
173 197 0
175 198 0
175 198 0
175 198 0
172 195 0
174 197 0
174 198 0
174 197 0
172 196 0
174 198 0
174 197 0
174 197 0
175 198 0
172 196 0
174 198 0
175 198 0
173 197 0
174 198 0
174 197 0
174 198 0
173 197 0
172 197 0
173 197 0
176 198 0
174 198 0
175 198 0
174 198 0
175 198 0
173 197 0
173 197 0
175 198 0
176 199 0
175 198 0
174 198 0
173 197 0
175 198 0
175 198 0
174 197 0
175 198 0
174 198 0
175 198 0
174 197 0
173 197 0
175 198 0
175 198 0
174 197 0
175 198 0
174 198 0
174 197 0
175 198 0
174 198 0
175 198 0
173 197 0
173 197 0
174 198 0
175 198 0
175 198 0
173 197 0
172 196 0
174 198 0
172 196 0
175 198 0
175 198 0
175 198 0
174 198 0
174 198 0
176 199 0
173 197 0
175 198 0
173 196 0
175 198 0
173 197 0
173 197 0
174 197 0
175 198 0
174 198 0
175 198 0
173 197 0
176 199 0
175 198 0
174 197 0
173 197 0
176 198 0
174 198 0
173 197 0
173 197 0
175 198 0
173 197 0
174 197 0
174 198 0
174 198 0
177 199 0
175 198 0
173 197 0
174 198 0
175 198 0
173 197 0
173 197 0
174 198 0
175 198 0
175 198 0
174 197 0
174 198 0
174 197 0
173 197 0
174 197 0
174 197 0
174 198 0
175 198 0
174 198 0
173 197 0
173 197 0
175 198 0
174 197 0
173 197 0
174 197 0
175 198 0
175 198 0
174 198 0
174 198 0
175 198 0
174 198 0
176 199 0
174 198 0
173 197 0
174 198 0
175 198 0
174 197 0
175 198 0
175 198 0
173 197 0
174 198 0
177 199 0
173 197 0
174 198 0
175 198 0
173 197 0
172 197 0
174 197 0
173 196 0
173 196 0
173 197 0
174 198 0
176 199 0
176 198 0
174 197 0
173 197 0
173 197 0
173 196 0
175 198 0
173 197 0
174 197 0
174 197 0
174 198 0
174 197 0
171 195 0
174 198 0
175 198 0
173 197 0
175 198 0
173 197 0
174 197 0
172 196 0
175 198 0
173 197 0
175 198 0
172 197 0
173 197 0
175 198 0
174 198 0
173 196 0
173 197 0
174 198 0
173 197 0
174 198 0
172 196 0
174 198 0
175 198 0
174 197 0
177 199 0
175 198 0
173 197 0
174 198 0
174 197 0
175 197 0
174 198 0
172 196 0
175 198 0
174 197 0
174 197 0
175 198 0
171 195 0
172 197 0
172 196 0
172 196 0
175 198 0
173 197 0
172 195 0
173 197 0
174 197 0
174 197 0
172 196 0
174 197 0
172 195 0
174 197 0
175 198 0
175 198 0
171 195 0
173 197 0
173 196 0
172 195 0
173 197 0
174 197 0
172 196 0
174 197 0
173 197 0
175 198 0
173 196 0
172 196 0
173 196 0
175 197 0
172 197 0
172 195 0
174 197 0
172 195 0
172 196 0
174 197 0
171 195 0
172 195 0
172 196 0
173 197 0
171 195 0
173 196 0
171 194 0
173 197 0
172 196 0
172 194 0
171 195 0
172 196 0
171 194 0
172 195 0
173 196 0
171 194 0
172 196 0
173 196 0
172 196 0
170 193 0
173 196 0
174 197 0
173 196 0
173 196 0
173 196 0
171 195 0
169 193 0
168 192 0
171 195 0
174 197 0
173 196 0
172 196 0
171 195 0
172 196 0
171 195 0
173 196 0
173 196 0
172 196 0
172 195 0
172 194 0
173 196 0
172 196 0
173 196 0
173 196 0
172 196 0
173 196 0
175 198 0
173 197 0
170 194 0
170 194 0
169 194 0
174 197 0
174 197 0
166 190 0
173 196 0
173 197 0
173 196 0
172 196 0
174 196 0
173 197 0
171 195 0
173 196 0
171 195 0
174 197 0
171 195 0
173 196 0
171 195 0
172 196 0
172 196 0
174 197 0
171 195 0
168 192 0
170 194 0
172 196 0
173 196 0
171 195 0
174 197 0
173 197 0
174 198 0
173 197 0
173 197 0
175 198 0
173 196 0
173 197 0
173 196 0
173 197 0
174 198 0
171 195 0
173 197 0
172 196 0
173 196 0
171 195 0
172 196 0
174 197 0
172 196 0
174 197 0
172 196 0
169 193 0
174 197 0
175 198 0
174 197 0
175 198 0
172 196 0
173 196 0
173 197 0
173 196 0
174 198 0
174 198 0
172 196 0
174 197 0
174 197 0
174 198 0
173 197 0
172 196 0
173 196 0
173 196 0
170 194 0
174 197 0
174 197 0
172 195 0
174 198 0
175 198 0
174 197 0
173 197 0
173 197 0
173 197 0
172 195 0
172 196 0
175 198 0
173 197 0
174 197 0
175 197 0
173 196 0
175 198 0
175 197 0
174 198 0
173 197 0
174 197 0
174 197 0
175 198 0
173 197 0
173 196 0
173 197 0
173 197 0
174 198 0
171 195 0
175 198 0
174 198 0
174 198 0
175 197 0
174 197 0
174 198 0
174 198 0
173 196 0
173 197 0
174 198 0
173 196 0
174 198 0
174 197 0
173 197 0
173 197 0
173 197 0
173 197 0
175 198 0
173 197 0
173 197 0
172 196 0
174 197 0
173 197 0
175 198 0
175 198 0
174 197 0
173 197 0
175 198 0
173 196 0
174 197 0
175 198 0
175 198 0
173 197 0
176 198 0
174 198 0
175 197 0
175 198 0
174 197 0
173 197 0
174 198 0
173 197 0
175 198 0
173 197 0
173 197 0
174 198 0
174 197 0
173 197 0
174 198 0
175 198 0
174 197 0
173 197 0
174 197 0
173 196 0
176 199 0
174 198 0
176 198 0
171 196 0
172 196 0
174 197 0
175 198 0
174 198 0
175 198 0
174 198 0
174 198 0
174 197 0
174 198 0
173 197 0
174 198 0
172 196 0
175 198 0
173 197 0
173 197 0
174 197 0
174 197 0
175 198 0
173 197 0
174 198 0
176 199 0
173 197 0
175 198 0
174 197 0
175 198 0
174 197 0
174 198 0
175 198 0
176 199 0
175 198 0
173 197 0
175 198 0
174 198 0
174 198 0
173 197 0
175 198 0
174 197 0
175 198 0
173 197 0
175 198 0
173 197 0
172 197 0
175 198 0
174 197 0
175 198 0
174 198 0
175 198 0
174 197 0
175 198 0
173 197 0
175 198 0
173 197 0
176 199 0
174 198 0
175 198 0
172 197 0
175 198 0
175 198 0
174 198 0
176 199 0
174 198 0
175 198 0
172 197 0
175 198 0
176 198 0
174 198 0
175 198 0
174 197 0
173 197 0
174 197 0
176 198 0
174 198 0
176 198 0
172 197 0
175 198 0
176 199 0
174 198 0
174 198 0
173 197 0
174 197 0
176 198 0
174 197 0
174 198 0
175 198 0
175 198 0
174 197 0
174 198 0
174 198 0
173 197 0
175 198 0
174 197 0
175 198 0
174 197 0
177 199 0
174 197 0
174 197 0
173 197 0
175 198 0
174 198 0
173 197 0
173 197 0
171 196 0
173 197 0
175 198 0
174 198 0
175 198 0
175 198 0
175 198 0
175 198 0
175 198 0
173 197 0
175 198 0
174 198 0
174 198 0
175 198 0
175 198 0
173 197 0
174 198 0
174 198 0
176 198 0
175 198 0
176 198 0
173 196 0
175 198 0
175 198 0
173 197 0
174 197 0
174 197 0
173 197 0
174 197 0
174 197 0
173 197 0
173 197 0
173 197 0
175 198 0
175 198 0
172 196 0
174 198 0
175 198 0
173 197 0
176 198 0
174 198 0
172 196 0
174 197 0
174 197 0
173 197 0
175 198 0
173 197 0
174 198 0
172 196 0
174 198 0
175 198 0
173 197 0
173 197 0
174 197 0
176 199 0
174 197 0
173 197 0
174 197 0
173 196 0
174 198 0
172 196 0
172 196 0
174 197 0
173 197 0
175 198 0
174 197 0
175 198 0
171 195 0
174 197 0
175 197 0
173 197 0
173 197 0
174 198 0
173 196 0
176 198 0
174 197 0
172 195 0
173 197 0
172 196 0
172 196 0
173 197 0
174 198 0
173 197 0
172 196 0
173 196 0
174 198 0
173 196 0
174 197 0
173 196 0
173 197 0
174 198 0
173 196 0
173 197 0
173 197 0
174 197 0
174 196 0
172 196 0
171 195 0
173 197 0
173 196 0
174 197 0
173 197 0
174 197 0
171 195 0
174 197 0
172 195 0
172 195 0
174 197 0
172 196 0
171 195 0
172 195 0
172 196 0
173 197 0
168 191 0
173 197 0
172 196 0
173 196 0
174 197 0
172 195 0
173 196 0
173 197 0
174 197 0
171 195 0
172 196 0
173 197 0
172 195 0
173 196 0
172 196 0
171 196 0
171 195 0
171 195 0
172 196 0
175 198 0
174 197 0
172 196 0
171 194 0
172 195 0
175 198 0
173 196 0
174 198 0
170 194 0
171 195 0
174 198 0
174 197 0
172 196 0
171 195 0
170 194 0
171 194 0
170 195 0
174 197 0
172 195 0
173 196 0
173 196 0
172 195 0
174 197 0
173 196 0
170 194 0
171 194 0
171 195 0
173 196 0
174 197 0
171 194 0
171 195 0
175 198 0
170 194 0
173 197 0
172 195 0
174 197 0
174 197 0
172 196 0
174 198 0
173 196 0
171 195 0
174 197 0
174 198 0
171 195 0
172 196 0
175 198 0
170 195 0
174 196 0
172 196 0
174 197 0
173 196 0
174 198 0
172 195 0
174 198 0
171 195 0
172 195 0
173 196 0
172 196 0
172 195 0
172 196 0
174 198 0
174 197 0
174 197 0
174 197 0
173 197 0
173 197 0
172 196 0
173 197 0
173 197 0
173 196 0
174 198 0
174 198 0
172 196 0
175 198 0
173 197 0
173 197 0
173 196 0
175 198 0
173 197 0
173 197 0
173 196 0
173 197 0
173 196 0
172 195 0
173 196 0
174 198 0
176 198 0
174 197 0
175 198 0
173 196 0
175 198 0
173 196 0
174 197 0
173 197 0
174 197 0
175 198 0
175 198 0
174 197 0
172 196 0
174 197 0
175 198 0
173 197 0
173 196 0
174 197 0
173 197 0
174 197 0
174 198 0
174 197 0
172 196 0
173 197 0
174 197 0
173 197 0
174 198 0
174 198 0
173 197 0
173 197 0
174 198 0
174 198 0
173 197 0
173 197 0
173 197 0
174 197 0
174 198 0
174 198 0
174 198 0
176 199 0
174 198 0
174 198 0
176 198 0
174 198 0
173 197 0
173 196 0
174 197 0
174 198 0
175 198 0
175 197 0
175 198 0
174 197 0
175 198 0
173 197 0
174 197 0
174 198 0
175 198 0
173 196 0
175 198 0
174 197 0
174 197 0
174 197 0
173 197 0
175 198 0
175 198 0
173 197 0
175 198 0
175 198 0
174 198 0
175 198 0
174 197 0
174 197 0
174 197 0
174 198 0
175 198 0
174 197 0
175 198 0
175 198 0
174 197 0
174 198 0
173 197 0
174 197 0
174 198 0
175 198 0
174 198 0
175 198 0
173 197 0
174 198 0
175 198 0
174 197 0
174 197 0
174 198 0
174 197 0
174 197 0
174 198 0
174 198 0
175 198 0
176 199 0
174 198 0
174 197 0
175 198 0
175 198 0
174 198 0
174 197 0
175 198 0
174 198 0
173 197 0
174 197 0
174 198 0
173 197 0
174 198 0
174 198 0
175 198 0
174 197 0
175 198 0
175 198 0
174 198 0
174 198 0
173 197 0
174 198 0
174 198 0
173 197 0
174 198 0
175 198 0
174 198 0
175 198 0
174 198 0
174 198 0
174 197 0
174 197 0
175 198 0
174 198 0
173 197 0
175 198 0
175 198 0
176 199 0
173 197 0
172 197 0
175 198 0
175 198 0
174 197 0
176 199 0
175 198 0
174 198 0
176 198 0
175 198 0
173 196 0
175 198 0
174 197 0
174 198 0
174 198 0
176 199 0
174 197 0
174 197 0
174 197 0
175 198 0
174 198 0
173 197 0
174 198 0
173 197 0
174 198 0
175 198 0
173 197 0
174 198 0
173 197 0
175 198 0
175 198 0
175 198 0
173 197 0
175 198 0
174 198 0
175 198 0
173 197 0
174 198 0
174 197 0
176 198 0
173 197 0
173 196 0
173 197 0
175 198 0
175 198 0
174 197 0
174 198 0
175 198 0
176 199 0
175 198 0
174 198 0
173 196 0
172 196 0
174 197 0
175 198 0
174 198 0
173 197 0
174 197 0
173 197 0
174 197 0
175 197 0
175 198 0
173 197 0
172 196 0
174 198 0
173 197 0
174 197 0
174 198 0
174 197 0
173 197 0
174 198 0
174 198 0
172 197 0
174 198 0
174 198 0
174 198 0
172 196 0
173 197 0
174 198 0
173 197 0
175 198 0
174 197 0
172 196 0
175 198 0
174 198 0
173 196 0
176 198 0
174 197 0
173 197 0
173 196 0
173 197 0
174 197 0
173 197 0
174 197 0
174 197 0
177 199 0
176 199 0
174 196 0
174 198 0
174 198 0
173 197 0
174 198 0
174 197 0
173 197 0
174 198 0
173 197 0
175 198 0
174 197 0
175 198 0
174 198 0
170 194 0
173 197 0
175 198 0
175 198 0
175 198 0
173 197 0
174 197 0
174 197 0
173 197 0
173 196 0
174 197 0
173 196 0
172 195 0
173 197 0
176 198 0
174 197 0
174 197 0
175 198 0
174 197 0
171 195 0
173 196 0
175 198 0
173 197 0
172 196 0
173 197 0
174 197 0
176 198 0
173 197 0
174 198 0
173 197 0
172 195 0
174 198 0
172 195 0
172 196 0
174 198 0
172 196 0
174 197 0
173 197 0
175 198 0
173 196 0
172 196 0
173 196 0
173 197 0
176 198 0
173 196 0
173 196 0
173 196 0
172 195 0
171 195 0
174 198 0
172 196 0
171 194 0
174 197 0
174 197 0
171 195 0
173 196 0
172 196 0
175 198 0
173 195 0
171 194 0
174 197 0
176 198 0
171 195 0
172 195 0
172 196 0
173 196 0
174 197 0
173 196 0
174 198 0
172 196 0
173 197 0
173 197 0
170 193 0
172 195 0
174 197 0
171 195 0
172 196 0
171 195 0
174 197 0
172 196 0
174 197 0
171 195 0
173 197 0
172 195 0
173 196 0
170 194 0
171 194 0
173 197 0
173 196 0
171 196 0
176 198 0
172 195 0
174 197 0
173 197 0
171 194 0
175 198 0
175 198 0
172 196 0
173 196 0
176 198 0
171 195 0
173 196 0
173 196 0
172 196 0
175 198 0
171 196 0
175 198 0
173 197 0
173 197 0
172 196 0
171 195 0
171 196 0
172 195 0
174 197 0
174 197 0
172 196 0
172 196 0
171 195 0
172 196 0
173 197 0
174 198 0
174 197 0
172 195 0
172 195 0
174 197 0
172 196 0
174 197 0
175 197 0
172 196 0
174 197 0
173 197 0
173 197 0
174 197 0
173 197 0
175 198 0
174 197 0
172 196 0
174 197 0
173 196 0
175 198 0
172 196 0
175 198 0
175 198 0
173 197 0
173 197 0
172 196 0
174 197 0
174 198 0
173 196 0
174 198 0
172 195 0
175 198 0
173 197 0
173 196 0
173 197 0
174 197 0
173 196 0
172 196 0
171 195 0
172 196 0
172 196 0
174 197 0
175 198 0
172 195 0
174 197 0
174 198 0
174 198 0
174 197 0
173 196 0
174 197 0
173 197 0
173 196 0
175 198 0
174 197 0
172 196 0
175 198 0
171 195 0
175 198 0
173 197 0
173 197 0
174 197 0
172 197 0
174 197 0
174 197 0
175 198 0
174 197 0
176 198 0
173 197 0
174 198 0
172 196 0
173 196 0
175 198 0
174 197 0
173 196 0
172 196 0
174 197 0
175 198 0
176 199 0
173 197 0
174 197 0
175 198 0
176 199 0
173 196 0
173 197 0
174 198 0
174 198 0
173 196 0
175 197 0
174 198 0
175 198 0
176 199 0
173 197 0
173 197 0
175 198 0
175 198 0
175 198 0
174 198 0
173 197 0
173 197 0
174 197 0
175 198 0
174 197 0
174 198 0
175 197 0
173 197 0
174 198 0
172 197 0
174 198 0
173 197 0
174 197 0
173 197 0
175 198 0
171 196 0
173 197 0
173 196 0
175 198 0
174 198 0
173 197 0
175 198 0
174 198 0
174 198 0
173 197 0
173 197 0
176 199 0
174 197 0
176 198 0
173 197 0
174 198 0
174 198 0
174 197 0
174 198 0
174 198 0
173 197 0
174 198 0
175 198 0
176 199 0
174 198 0
174 198 0
174 198 0
175 198 0
174 197 0
176 199 0
174 197 0
175 198 0
175 198 0
174 198 0
174 198 0
174 198 0
174 198 0
175 198 0
174 197 0
174 197 0
175 198 0
173 197 0
174 198 0
175 198 0
174 197 0
174 197 0
175 198 0
174 197 0
175 198 0
175 198 0
174 197 0
174 198 0
175 198 0
176 199 0
174 198 0
174 197 0
174 198 0
175 198 0
176 198 0
175 198 0
175 198 0
175 198 0
175 198 0
173 197 0
174 197 0
174 198 0
174 197 0
174 198 0
175 198 0
176 199 0
176 198 0
174 198 0
175 198 0
174 198 0
174 197 0
175 198 0
174 198 0
175 198 0
175 198 0
174 198 0
174 198 0
175 198 0
174 197 0
174 198 0
175 198 0
175 198 0
174 198 0
174 198 0
175 198 0
174 198 0
176 199 0
173 197 0
174 197 0
174 198 0
176 199 0
175 198 0
175 198 0
174 198 0
174 198 0
173 197 0
173 197 0
174 197 0
173 197 0
173 197 0
173 197 0
174 198 0
175 198 0
174 197 0
175 198 0
176 199 0
174 197 0
175 198 0
175 198 0
174 197 0
174 198 0
175 198 0
174 198 0
173 196 0
174 198 0
176 199 0
174 198 0
174 197 0
172 196 0
174 198 0
174 198 0
175 198 0
177 199 0
174 198 0
175 198 0
173 197 0
174 197 0
175 198 0
173 196 0
174 198 0
176 198 0
174 198 0
175 198 0
174 198 0
173 197 0
174 197 0
174 197 0
175 198 0
174 197 0
174 198 0
174 197 0
174 198 0
173 196 0
173 197 0
174 198 0
174 198 0
174 198 0
173 197 0
174 197 0
173 197 0
175 198 0
176 199 0
174 198 0
172 196 0
174 198 0
174 197 0
174 197 0
173 197 0
173 197 0
171 195 0
175 198 0
174 197 0
171 195 0
172 196 0
173 197 0
173 197 0
172 196 0
174 197 0
173 196 0
173 197 0
174 198 0
175 198 0
174 197 0
174 197 0
175 198 0
175 198 0
174 197 0
173 197 0
175 198 0
173 197 0
174 198 0
175 197 0
175 198 0
172 196 0
172 196 0
172 196 0
171 195 0
172 196 0
174 198 0
173 197 0
172 196 0
173 196 0
172 195 0
176 198 0
172 195 0
175 198 0
174 198 0
174 197 0
172 196 0
174 198 0
173 197 0
174 198 0
168 192 0
172 195 0
174 197 0
172 195 0
173 197 0
173 196 0
174 197 0
173 196 0
173 196 0
174 198 0
172 196 0
173 196 0
174 197 0
173 196 0
173 196 0
174 197 0
172 194 0
172 195 0
173 196 0
173 196 0
173 197 0
171 194 0
173 197 0
174 197 0
170 195 0
173 197 0
171 194 0
172 196 0
169 192 0
174 197 0
173 197 0
174 197 0
173 197 0
172 196 0
171 195 0
170 194 0
168 192 0
172 195 0
173 196 0
174 197 0
173 197 0
175 198 0
172 195 0
173 197 0
173 197 0
172 194 0
169 194 0
174 197 0
172 195 0
171 194 0
174 196 0
174 197 0
173 197 0
169 194 0
171 195 0
175 198 0
173 197 0
173 196 0
173 196 0
174 197 0
173 197 0
173 196 0
175 198 0
175 198 0
176 199 0
172 196 0
172 195 0
170 194 0
173 197 0
173 196 0
173 196 0
173 197 0
172 196 0
174 197 0
173 196 0
176 198 0
172 196 0
170 193 0
175 198 0
174 198 0
174 198 0
174 197 0
173 196 0
173 196 0
174 197 0
173 196 0
175 198 0
174 198 0
175 198 0
172 195 0
174 197 0
173 197 0
173 196 0
174 197 0
174 196 0
174 197 0
175 198 0
173 196 0
174 198 0
172 196 0
171 195 0
172 196 0
173 196 0
173 197 0
173 197 0
173 196 0
173 197 0
171 195 0
173 197 0
173 197 0
172 195 0
172 196 0
170 194 0
174 198 0
173 197 0
174 198 0
175 198 0
173 196 0
173 196 0
173 197 0
174 197 0
174 197 0
175 198 0
173 196 0
174 197 0
175 198 0
174 198 0
175 198 0
175 198 0
174 197 0
174 197 0
174 197 0
176 199 0
174 197 0
173 197 0
173 197 0
175 198 0
173 197 0
172 195 0
174 198 0
174 197 0
175 198 0
175 198 0
175 198 0
172 196 0
175 198 0
173 197 0
173 197 0
175 198 0
174 197 0
173 197 0
175 198 0
173 197 0
175 198 0
172 196 0
174 198 0
174 196 0
172 195 0
175 198 0
174 198 0
173 196 0
173 196 0
174 197 0
173 196 0
174 198 0
174 197 0
175 198 0
172 196 0
173 197 0
174 198 0
173 197 0
174 197 0
174 197 0
174 198 0
174 197 0
175 198 0
173 197 0
175 198 0
174 197 0
174 197 0
173 197 0
174 198 0
174 197 0
174 198 0
173 197 0
174 197 0
175 197 0
175 198 0
174 197 0
175 198 0
175 198 0
174 197 0
173 197 0
174 197 0
175 198 0
175 198 0
173 197 0
174 197 0
174 198 0
175 198 0
175 198 0
174 198 0
175 198 0
174 198 0
173 197 0
174 198 0
174 197 0
176 199 0
176 198 0
176 198 0
174 197 0
174 197 0
173 197 0
175 198 0
174 197 0
173 197 0
176 199 0
175 198 0
175 198 0
174 198 0
175 198 0
174 197 0
174 198 0
175 198 0
174 198 0
175 198 0
174 198 0
174 197 0
174 197 0
175 198 0
174 198 0
174 197 0
174 198 0
175 198 0
174 198 0
175 198 0
172 196 0
173 197 0
175 198 0
174 197 0
174 197 0
174 197 0
172 197 0
175 198 0
175 198 0
173 197 0
175 198 0
175 198 0
176 198 0
174 197 0
174 198 0
175 198 0
175 198 0
174 198 0
173 197 0
175 198 0
172 196 0
174 198 0
174 197 0
174 198 0
173 197 0
174 198 0
175 198 0
175 198 0
174 197 0
172 197 0
176 198 0
174 198 0
172 196 0
173 197 0
176 198 0
172 196 0
173 197 0
173 197 0
175 198 0
174 197 0
175 198 0
175 198 0
174 198 0
174 198 0
174 197 0
173 197 0
173 197 0
173 197 0
173 197 0
174 198 0
175 198 0
175 198 0
174 198 0
174 197 0
174 198 0
174 198 0
174 197 0
174 198 0
177 199 0
173 197 0
173 197 0
174 198 0
175 198 0
174 197 0
174 197 0
176 198 0
174 198 0
175 198 0
175 198 0
174 198 0
173 197 0
173 197 0
174 197 0
176 199 0
175 198 0
174 197 0
174 197 0
173 197 0
175 198 0
174 197 0
174 198 0
175 198 0
174 198 0
176 198 0
173 197 0
174 198 0
174 198 0
174 197 0
174 198 0
173 197 0
173 197 0
174 197 0
175 198 0
173 197 0
174 197 0
174 197 0
175 198 0
175 198 0
173 197 0
174 198 0
174 197 0
174 198 0
175 198 0
174 197 0
173 197 0
174 198 0
173 196 0
175 198 0
172 196 0
174 198 0
174 198 0
176 198 0
175 198 0
173 197 0
174 197 0
175 198 0
173 197 0
174 197 0
175 198 0
174 198 0
174 197 0
173 197 0
175 198 0
175 198 0
173 197 0
173 196 0
173 197 0
176 199 0
174 197 0
175 198 0
173 197 0
174 197 0
172 196 0
175 198 0
176 198 0
174 197 0
173 196 0
173 197 0
172 196 0
172 195 0
174 197 0
174 197 0
173 197 0
173 197 0
173 197 0
174 198 0
173 197 0
173 196 0
172 196 0
175 197 0
175 197 0
174 197 0
171 195 0
173 197 0
173 196 0
172 196 0
175 198 0
175 198 0
171 195 0
174 197 0
173 196 0
171 195 0
173 197 0
172 196 0
174 197 0
174 197 0
171 195 0
172 194 0
172 196 0
171 195 0
172 196 0
172 195 0
169 193 0
173 197 0
172 195 0
171 195 0
174 197 0
172 196 0
172 196 0
174 197 0
173 197 0
174 198 0
172 196 0
174 197 0
173 196 0
173 196 0
173 197 0
174 197 0
173 197 0
171 195 0
171 195 0
173 196 0
172 195 0
172 195 0
172 195 0
172 194 0
169 193 0
176 198 0
173 196 0
172 196 0
175 198 0
172 195 0
174 197 0
173 196 0
172 196 0
173 196 0
173 196 0
174 196 0
171 195 0
172 196 0
172 195 0
171 195 0
173 197 0
171 196 0
173 196 0
171 195 0
171 195 0
173 196 0
171 195 0
174 197 0
174 197 0
172 195 0
172 196 0
171 195 0
173 196 0
175 198 0
173 197 0
174 197 0
173 197 0
172 196 0
173 196 0
175 198 0
170 194 0
173 196 0
174 197 0
174 197 0
175 198 0
174 197 0
175 197 0
172 196 0
171 194 0
175 198 0
172 196 0
172 196 0
172 196 0
171 194 0
173 197 0
175 198 0
173 197 0
176 198 0
174 197 0
174 198 0
172 196 0
173 197 0
175 198 0
175 197 0
174 198 0
172 196 0
172 196 0
173 197 0
173 197 0
172 196 0
173 196 0
175 198 0
175 198 0
173 196 0
172 196 0
173 196 0
173 196 0
173 197 0
173 196 0
173 197 0
172 195 0
175 198 0
175 198 0
176 198 0
174 197 0
173 197 0
174 197 0
174 198 0
172 196 0
173 197 0
173 197 0
173 196 0
173 197 0
173 197 0
172 196 0
174 198 0
173 197 0
173 197 0
174 197 0
174 197 0
173 197 0
174 198 0
174 198 0
173 196 0
174 197 0
174 198 0
174 198 0
175 198 0
174 198 0
173 197 0
175 198 0
174 198 0
173 197 0
173 197 0
173 197 0
173 197 0
172 197 0
173 196 0
174 197 0
173 196 0
172 195 0
174 198 0
172 195 0
173 197 0
174 197 0
173 197 0
175 198 0
176 199 0
174 197 0
176 199 0
174 198 0
174 198 0
173 196 0
175 198 0
175 198 0
175 198 0
173 197 0
175 198 0
173 197 0
175 198 0
176 199 0
173 196 0
175 198 0
174 198 0
172 196 0
172 197 0
176 198 0
175 198 0
174 198 0
175 198 0
175 197 0
173 197 0
173 197 0
175 198 0
175 198 0
174 197 0
174 198 0
173 197 0
174 198 0
176 199 0
173 197 0
173 197 0
175 198 0
176 198 0
174 197 0
174 198 0
176 199 0
174 197 0
173 197 0
173 197 0
175 198 0
174 198 0
174 198 0
176 199 0
175 198 0
174 198 0
173 197 0
175 198 0
173 197 0
176 199 0
176 198 0
173 197 0
174 198 0
174 198 0
174 198 0
175 198 0
173 197 0
174 198 0
175 198 0
176 198 0
175 198 0
175 198 0
173 197 0
175 198 0
175 198 0
176 199 0
173 197 0
174 198 0
173 197 0
173 197 0
175 198 0
175 198 0
173 197 0
174 198 0
175 198 0
175 198 0
175 198 0
175 198 0
174 198 0
174 197 0
175 198 0
174 197 0
175 198 0
175 198 0
174 198 0
174 198 0
175 198 0
174 198 0
173 197 0
176 198 0
173 197 0
175 198 0
175 198 0
174 197 0
175 198 0
174 198 0
174 198 0
173 197 0
173 197 0
175 198 0
174 198 0
174 198 0
172 197 0
173 197 0
175 198 0
174 197 0
174 198 0
172 196 0
174 197 0
175 198 0
174 197 0
174 198 0
175 198 0
175 198 0
175 198 0
175 198 0
172 196 0
174 197 0
175 198 0
174 197 0
175 198 0
175 198 0
174 197 0
173 197 0
175 198 0
175 198 0
175 198 0
174 198 0
176 199 0
173 197 0
174 197 0
174 197 0
173 197 0
174 198 0
175 198 0
175 198 0
175 198 0
175 198 0
175 198 0
175 198 0
174 197 0
175 198 0
175 198 0
175 198 0
175 198 0
175 198 0
175 198 0
174 197 0
175 198 0
173 197 0
174 198 0
175 198 0
173 197 0
176 198 0
173 197 0
174 197 0
175 198 0
175 198 0
172 196 0
174 197 0
173 197 0
174 197 0
172 196 0
173 197 0
173 197 0
174 198 0
175 198 0
173 197 0
175 198 0
176 199 0
173 197 0
176 198 0
174 198 0
173 197 0
175 198 0
174 197 0
176 198 0
171 195 0
174 197 0
174 198 0
173 197 0
174 198 0
173 197 0
175 198 0
174 197 0
172 196 0
173 197 0
175 198 0
174 197 0
173 197 0
174 197 0
173 197 0
174 198 0
171 195 0
175 198 0
172 196 0
174 197 0
175 198 0
172 196 0
171 196 0
174 197 0
173 197 0
174 197 0
172 196 0
174 197 0
175 198 0
173 197 0
174 197 0
173 196 0
173 197 0
174 197 0
174 197 0
172 196 0
173 197 0
175 198 0
173 197 0
172 195 0
174 197 0
173 197 0
175 198 0
174 198 0
174 197 0
175 198 0
176 198 0
171 194 0
175 198 0
172 196 0
173 196 0
171 194 0
171 196 0
174 197 0
174 197 0
171 195 0
173 197 0
172 196 0
174 197 0
172 196 0
174 197 0
174 198 0
173 196 0
171 194 0
171 195 0
174 197 0
175 198 0
174 197 0
169 193 0
172 196 0
174 197 0
174 197 0
173 197 0
174 197 0
173 197 0
174 197 0
171 195 0
173 197 0
173 196 0
173 196 0
173 197 0
174 197 0
174 198 0
169 193 0
172 196 0
173 197 0
174 197 0
175 198 0
174 197 0
171 194 0
172 195 0
173 195 0
172 195 0
173 196 0
173 197 0
169 194 0
173 197 0
173 197 0
173 196 0
172 196 0
174 197 0
172 196 0
170 195 0
173 196 0
174 197 0
171 195 0
168 192 0
172 195 0
171 195 0
174 198 0
172 196 0
171 195 0
173 197 0
174 196 0
173 196 0
174 197 0
172 196 0
172 196 0
175 198 0
173 197 0
174 197 0
174 197 0
173 196 0
173 196 0
172 196 0
173 196 0
173 196 0
176 198 0
174 197 0
170 194 0
174 197 0
171 195 0
173 196 0
173 197 0
171 194 0
174 198 0
175 198 0
172 197 0
174 197 0
173 197 0
172 196 0
173 196 0
173 196 0
174 197 0
173 197 0
173 196 0
174 197 0
173 197 0
173 197 0
173 196 0
173 196 0
172 196 0
174 197 0
173 197 0
174 198 0
173 196 0
174 197 0
173 197 0
175 198 0
172 196 0
174 197 0
174 197 0
174 198 0
174 197 0
173 197 0
176 198 0
172 195 0
171 195 0
175 197 0
174 197 0
173 197 0
173 196 0
174 197 0
172 195 0
174 198 0
174 197 0
173 197 0
171 194 0
175 198 0
175 198 0
175 198 0
174 198 0
172 196 0
174 197 0
174 197 0
174 197 0
173 197 0
174 197 0
173 196 0
173 197 0
171 195 0
173 197 0
174 197 0
174 198 0
171 195 0
174 197 0
175 198 0
172 196 0
174 198 0
176 198 0
174 197 0
174 196 0
173 196 0
173 197 0
174 198 0
175 198 0
174 198 0
174 198 0
173 196 0
174 197 0
174 198 0
176 198 0
174 197 0
173 197 0
173 197 0
174 197 0
174 198 0
173 197 0
174 198 0
174 197 0
174 197 0
174 198 0
174 197 0
174 197 0
173 197 0
173 197 0
171 195 0
175 198 0
174 197 0
174 197 0
175 198 0
176 199 0
174 198 0
173 197 0
173 197 0
175 198 0
174 198 0
173 197 0
172 196 0
175 198 0
171 195 0
176 198 0
175 198 0
172 196 0
176 199 0
177 199 0
175 198 0
173 197 0
174 198 0
173 197 0
174 198 0
173 197 0
175 198 0
175 198 0
174 198 0
177 199 0
175 198 0
173 197 0
176 199 0
175 198 0
174 198 0
174 198 0
174 197 0
175 198 0
174 198 0
176 198 0
174 197 0
174 197 0
175 198 0
174 197 0
175 198 0
174 197 0
174 197 0
173 197 0
173 197 0
173 196 0
174 198 0
173 197 0
173 196 0
174 197 0
174 198 0
175 198 0
172 196 0
174 198 0
175 198 0
174 198 0
173 197 0
174 197 0
175 198 0
176 199 0
175 198 0
174 198 0
173 197 0
174 198 0
174 198 0
175 198 0
174 198 0
175 198 0
174 197 0
175 198 0
174 198 0
175 198 0
175 198 0
174 198 0
173 197 0
174 198 0
174 198 0
173 197 0
174 198 0
172 197 0
174 198 0
174 198 0
174 198 0
173 197 0
175 198 0
175 198 0
174 197 0
175 198 0
175 198 0
173 197 0
174 197 0
173 197 0
174 198 0
175 198 0
175 198 0
175 198 0
175 198 0
175 198 0
175 198 0
175 198 0
174 198 0
173 197 0
175 198 0
172 196 0
171 196 0
175 198 0
173 197 0
175 198 0
173 197 0
173 197 0
175 198 0
174 198 0
173 197 0
173 197 0
174 197 0
173 197 0
175 198 0
175 198 0
175 198 0
174 198 0
175 198 0
176 199 0
175 198 0
175 198 0
174 197 0
174 198 0
175 198 0
174 198 0
174 198 0
174 198 0
174 197 0
175 198 0
175 198 0
175 198 0
175 198 0
174 198 0
173 197 0
175 198 0
174 198 0
175 198 0
174 197 0
174 198 0
175 198 0
173 197 0
172 196 0
174 197 0
174 198 0
174 198 0
175 198 0
173 197 0
176 199 0
173 197 0
173 197 0
175 198 0
175 198 0
175 198 0
174 197 0
172 196 0
173 197 0
174 197 0
174 198 0
174 198 0
173 197 0
174 198 0
175 198 0
173 197 0
173 197 0
175 198 0
174 198 0
175 198 0
174 197 0
171 194 0
174 197 0
173 197 0
174 198 0
174 197 0
174 198 0
171 196 0
169 193 0
173 197 0
173 196 0
174 198 0
174 197 0
175 198 0
174 197 0
173 197 0
172 197 0
175 198 0
173 197 0
173 197 0
171 195 0
173 197 0
174 198 0
172 195 0
172 196 0
173 196 0
175 198 0
175 198 0
175 198 0
174 197 0
173 196 0
175 198 0
173 196 0
174 197 0
175 198 0
174 198 0
173 197 0
175 198 0
173 197 0
173 197 0
173 196 0
172 196 0
174 197 0
175 198 0
174 197 0
175 197 0
172 196 0
175 197 0
172 196 0
173 197 0
173 197 0
172 196 0
175 198 0
173 197 0
171 195 0
175 198 0
174 197 0
173 197 0
173 196 0
174 197 0
171 195 0
171 195 0
171 195 0
175 198 0
173 197 0
174 197 0
172 195 0
174 197 0
173 197 0
172 196 0
174 197 0
173 196 0
174 197 0
172 196 0
170 194 0
173 196 0
171 196 0
174 197 0
173 197 0
172 196 0
173 196 0
172 196 0
173 196 0
173 197 0
170 193 0
175 198 0
173 197 0
171 195 0
172 195 0
173 196 0
173 196 0
174 197 0
171 194 0
174 196 0
174 197 0
172 195 0
173 196 0
173 196 0
172 196 0
174 198 0
171 195 0
171 195 0
174 197 0
172 196 0
172 196 0
173 197 0
174 197 0
172 195 0
173 196 0
172 195 0
171 195 0
169 193 0
172 195 0
173 197 0
171 194 0
174 197 0
171 195 0
171 195 0
173 196 0
171 196 0
174 197 0
173 196 0
171 195 0
171 194 0
172 197 0
171 195 0
174 197 0
172 196 0
173 196 0
172 196 0
171 194 0
173 195 0
175 198 0
173 196 0
172 196 0
175 198 0
172 196 0
172 195 0
172 195 0
173 197 0
173 196 0
172 196 0
173 197 0
174 198 0
174 197 0
172 195 0
173 197 0
173 195 0
173 197 0
174 197 0
172 196 0
174 197 0
172 196 0
174 197 0
174 197 0
175 198 0
174 197 0
174 197 0
173 197 0
171 195 0
173 196 0
174 197 0
174 197 0
174 198 0
175 198 0
172 196 0
172 196 0
173 196 0
173 197 0
173 196 0
172 196 0
175 198 0
171 195 0
175 198 0
174 197 0
174 197 0
174 197 0
173 197 0
172 196 0
173 197 0
174 197 0
173 197 0
173 197 0
175 198 0
173 197 0
172 196 0
173 196 0
172 196 0
175 198 0
173 196 0
172 196 0
172 195 0
176 199 0
174 197 0
173 197 0
173 196 0
174 197 0
175 198 0
176 199 0
174 197 0
174 198 0
174 198 0
175 198 0
173 196 0
176 198 0
175 198 0
174 198 0
174 197 0
172 196 0
171 194 0
173 197 0
175 198 0
174 198 0
173 196 0
173 197 0
175 197 0
173 197 0
174 197 0
173 197 0
172 196 0
173 197 0
175 198 0
175 198 0
172 196 0
174 198 0
173 197 0
174 198 0
175 198 0
175 198 0
175 198 0
175 198 0
173 196 0
175 198 0
175 198 0
172 197 0
174 198 0
174 198 0
173 197 0
173 197 0
173 197 0
175 198 0
174 198 0
174 198 0
174 197 0
174 197 0
176 199 0
174 198 0
173 197 0
172 196 0
172 196 0
174 198 0
174 198 0
172 196 0
174 197 0
175 198 0
174 198 0
174 198 0
175 198 0
174 197 0
174 198 0
175 198 0
175 198 0
175 198 0
173 197 0
174 197 0
176 198 0
174 197 0
174 198 0
172 196 0
173 197 0
174 197 0
174 197 0
174 197 0
175 198 0
173 197 0
174 197 0
175 198 0
175 198 0
175 198 0
174 197 0
174 198 0
174 198 0
174 198 0
175 198 0
174 197 0
174 198 0
173 197 0
171 196 0
174 198 0
175 198 0
176 199 0
173 197 0
174 198 0
175 198 0
174 198 0
174 198 0
174 197 0
174 197 0
173 197 0
175 198 0
174 197 0
174 198 0
175 198 0
173 197 0
176 199 0
173 197 0
174 198 0
175 198 0
174 198 0
174 197 0
174 197 0
175 198 0
176 199 0
176 199 0
177 199 0
175 198 0
175 197 0
173 197 0
174 198 0
176 199 0
174 197 0
175 198 0
173 196 0
173 197 0
175 198 0
173 197 0
174 198 0
174 197 0
175 198 0
174 197 0
175 198 0
176 198 0
175 198 0
175 198 0
175 198 0
174 198 0
175 198 0
174 198 0
173 197 0
175 198 0
174 198 0
174 198 0
174 198 0
175 198 0
175 198 0
172 196 0
174 197 0
176 199 0
174 198 0
175 198 0
175 198 0
175 198 0
176 199 0
176 199 0
174 198 0
174 197 0
174 198 0
175 198 0
175 198 0
174 198 0
174 198 0
175 198 0
176 199 0
173 197 0
175 198 0
176 199 0
174 197 0
176 199 0
175 198 0
175 198 0
175 198 0
174 198 0
175 198 0
173 197 0
174 198 0
175 198 0
173 197 0
175 198 0
174 197 0
175 198 0
175 198 0
174 197 0
174 197 0
176 199 0
175 198 0
173 197 0
174 198 0
175 198 0
174 198 0
175 198 0
175 198 0
173 197 0
174 197 0
174 197 0
173 197 0
174 198 0
174 197 0
174 197 0
173 197 0
174 197 0
173 197 0
175 198 0
173 196 0
172 196 0
174 198 0
174 198 0
174 198 0
176 199 0
172 197 0
173 197 0
173 197 0
174 197 0
172 196 0
175 198 0
174 197 0
173 197 0
175 198 0
175 198 0
174 198 0
174 197 0
173 197 0
174 198 0
174 198 0
174 197 0
173 197 0
175 198 0
173 197 0
173 196 0
174 198 0
174 198 0
173 197 0
174 198 0
172 196 0
172 195 0
175 198 0
175 198 0
171 195 0
174 197 0
171 195 0
174 197 0
171 196 0
173 196 0
173 196 0
175 198 0
174 197 0
173 196 0
173 197 0
172 195 0
172 196 0
176 198 0
172 196 0
175 198 0
171 195 0
172 196 0
173 197 0
174 197 0
176 199 0
171 195 0
173 196 0
173 196 0
174 198 0
172 197 0
173 196 0
173 196 0
172 196 0
173 196 0
176 199 0
168 192 0
174 197 0
174 197 0
173 196 0
172 196 0
173 196 0
175 198 0
175 198 0
173 196 0
171 195 0
173 197 0
172 196 0
172 195 0
172 196 0
173 197 0
170 195 0
172 195 0
172 196 0
172 196 0
173 197 0
172 196 0
172 195 0
170 194 0
171 195 0
171 195 0
173 196 0
172 195 0
172 195 0
172 195 0
174 198 0
173 196 0
172 196 0
171 195 0
171 195 0
174 197 0
173 197 0
173 195 0
172 196 0
174 197 0
172 196 0
168 192 0
173 197 0
174 198 0
173 196 0
172 195 0
174 196 0
170 194 0
171 195 0
171 196 0
172 196 0
172 196 0
172 195 0
173 196 0
175 198 0
172 196 0
173 196 0
171 194 0
175 197 0
172 195 0
174 198 0
171 195 0
171 194 0
170 194 0
172 196 0
172 195 0
172 196 0
172 196 0
173 197 0
172 196 0
173 196 0
173 197 0
169 193 0
175 198 0
173 196 0
174 197 0
172 196 0
173 196 0
175 198 0
173 197 0
172 195 0
173 196 0
173 197 0
171 194 0
170 194 0
173 196 0
171 195 0
174 197 0
172 195 0
172 196 0
175 198 0
174 197 0
170 194 0
172 196 0
173 196 0
172 196 0
172 195 0
173 196 0
172 196 0
175 198 0
176 198 0
174 197 0
174 197 0
172 196 0
175 197 0
174 197 0
175 198 0
173 196 0
173 197 0
172 195 0
175 198 0
173 197 0
172 195 0
175 198 0
174 197 0
173 196 0
174 198 0
172 196 0
174 198 0
175 198 0
172 196 0
174 197 0
173 197 0
174 198 0
172 196 0
174 198 0
175 198 0
174 198 0
174 197 0
174 197 0
175 198 0
173 196 0
175 198 0
175 198 0
175 198 0
175 198 0
173 196 0
173 197 0
174 197 0
173 197 0
175 198 0
175 198 0
175 198 0
173 197 0
175 198 0
174 197 0
173 196 0
174 197 0
176 198 0
173 197 0
175 198 0
174 197 0
173 196 0
173 197 0
173 197 0
173 196 0
176 198 0
172 196 0
174 197 0
174 197 0
176 199 0
175 198 0
176 199 0
175 198 0
172 196 0
176 198 0
172 196 0
175 198 0
173 196 0
173 196 0
173 197 0
176 199 0
176 199 0
174 198 0
174 197 0
175 198 0
174 198 0
173 197 0
175 198 0
172 196 0
174 198 0
175 198 0
174 197 0
175 198 0
174 197 0
173 197 0
174 198 0
174 197 0
174 197 0
173 197 0
174 197 0
176 199 0
176 198 0
175 198 0
173 197 0
174 197 0
174 197 0
173 197 0
173 197 0
174 198 0
173 197 0
174 197 0
174 198 0
175 198 0
174 197 0
175 198 0
174 197 0
176 199 0
172 196 0
174 198 0
173 197 0
175 198 0
173 197 0
174 197 0
173 196 0
175 198 0
175 198 0
174 197 0
175 198 0
174 198 0
175 198 0
175 198 0
173 197 0
173 197 0
175 198 0
175 198 0
173 197 0
174 198 0
175 198 0
173 197 0
175 198 0
174 197 0
175 198 0
173 197 0
175 198 0
173 197 0
174 197 0
174 197 0
174 197 0
175 198 0
174 198 0
174 198 0
176 198 0
173 197 0
174 198 0
174 198 0
173 197 0
174 197 0
175 198 0
174 198 0
175 198 0
175 198 0
174 197 0
173 197 0
175 198 0
174 197 0
174 197 0
174 198 0
172 196 0
174 197 0
175 198 0
172 196 0
175 198 0
175 198 0
176 199 0
174 197 0
176 198 0
174 197 0
173 197 0
173 197 0
174 198 0
175 198 0
173 197 0
174 198 0
174 198 0
173 197 0
173 197 0
176 198 0
173 197 0
174 197 0
174 197 0
175 198 0
174 197 0
174 198 0
175 198 0
176 199 0
174 197 0
174 198 0
174 198 0
175 198 0
174 198 0
174 197 0
175 198 0
174 198 0
173 196 0
175 198 0
174 198 0
172 197 0
175 198 0
175 197 0
174 197 0
174 198 0
174 197 0
173 197 0
173 197 0
173 197 0
172 196 0
173 197 0
173 197 0
175 198 0
175 198 0
174 198 0
172 196 0
174 197 0
174 198 0
175 198 0
175 198 0
173 197 0
174 198 0
173 197 0
174 197 0
175 198 0
176 199 0
174 197 0
173 197 0
174 197 0
171 196 0
175 198 0
174 198 0
173 197 0
174 198 0
176 199 0
174 197 0
174 197 0
174 197 0
174 198 0
174 198 0
173 197 0
174 197 0
173 196 0
174 197 0
174 197 0
175 198 0
173 197 0
172 197 0
174 197 0
173 197 0
174 197 0
174 197 0
173 197 0
175 198 0
175 198 0
174 197 0
174 198 0
174 197 0
174 198 0
175 198 0
173 197 0
173 196 0
176 199 0
170 195 0
173 197 0
175 198 0
171 196 0
173 196 0
174 197 0
174 197 0
174 197 0
169 193 0
175 198 0
172 195 0
174 198 0
173 197 0
174 197 0
176 199 0
174 197 0
175 198 0
175 198 0
174 198 0
174 197 0
174 197 0
171 194 0
175 198 0
174 197 0
173 197 0
174 197 0
174 198 0
171 195 0
171 194 0
173 196 0
173 197 0
172 196 0
176 198 0
173 197 0
174 197 0
172 195 0
171 195 0
174 198 0
173 197 0
171 195 0
173 196 0
171 195 0
173 197 0
172 195 0
173 196 0
174 198 0
169 193 0
174 197 0
173 197 0
173 196 0
172 196 0
171 195 0
174 197 0
173 197 0
175 198 0
174 197 0
171 195 0
174 198 0
171 195 0
173 197 0
172 196 0
174 197 0
172 195 0
174 197 0
170 193 0
174 197 0
175 198 0
169 193 0
173 196 0
171 195 0
175 198 0
172 196 0
168 192 0
171 195 0
172 195 0
171 195 0
174 197 0
174 197 0
172 196 0
176 199 0
172 195 0
173 196 0
171 194 0
171 195 0
175 198 0
172 196 0
174 196 0
173 196 0
175 198 0
174 197 0
172 194 0
173 197 0
173 196 0
172 196 0
174 197 0
173 197 0
172 196 0
173 197 0
174 196 0
172 197 0
173 196 0
170 193 0
173 196 0
174 197 0
173 197 0
175 198 0
173 197 0
172 196 0
171 195 0
172 195 0
175 198 0
174 198 0
173 197 0
173 196 0
173 196 0
173 197 0
174 197 0
176 198 0
172 196 0
173 197 0
175 198 0
172 196 0
172 195 0
173 197 0
172 196 0
173 197 0
171 196 0
173 196 0
172 196 0
176 199 0
175 198 0
175 197 0
174 197 0
172 196 0
172 195 0
173 196 0
173 196 0
174 197 0
174 197 0
174 197 0
174 197 0
174 197 0
175 198 0
174 197 0
172 196 0
174 197 0
173 196 0
174 197 0
173 197 0
173 196 0
173 196 0
174 197 0
173 197 0
172 196 0
172 196 0
175 198 0
173 197 0
172 196 0
174 198 0
172 196 0
174 198 0
174 197 0
173 197 0
175 198 0
173 197 0
174 197 0
173 197 0
174 198 0
174 196 0
175 197 0
174 198 0
175 198 0
175 198 0
174 197 0
176 199 0
174 196 0
173 196 0
174 197 0
174 197 0
174 197 0
175 198 0
173 197 0
174 197 0
174 196 0
172 196 0
174 198 0
175 198 0
173 197 0
174 198 0
173 197 0
174 198 0
174 197 0
173 197 0
173 197 0
174 197 0
174 197 0
175 198 0
173 196 0
175 198 0
175 197 0
173 197 0
174 197 0
175 198 0
174 197 0
173 197 0
174 198 0
174 198 0
174 197 0
175 198 0
175 198 0
174 197 0
175 198 0
174 197 0
174 197 0
174 198 0
174 198 0
174 198 0
175 198 0
173 197 0
174 198 0
174 198 0
175 198 0
174 197 0
173 197 0
175 198 0
174 197 0
175 198 0
174 198 0
174 198 0
173 197 0
173 197 0
174 197 0
174 198 0
174 196 0
173 197 0
175 198 0
173 197 0
173 196 0
172 196 0
174 197 0
173 197 0
174 198 0
174 197 0
175 198 0
174 198 0
175 198 0
174 197 0
176 199 0
175 198 0
175 198 0
175 198 0
176 199 0
174 198 0
175 198 0
174 197 0
173 197 0
174 197 0
174 197 0
174 198 0
174 198 0
174 197 0
173 197 0
174 198 0
175 197 0
175 198 0
173 197 0
173 197 0
175 198 0
173 197 0
174 198 0
175 198 0
173 197 0
174 198 0
174 198 0
175 198 0
175 198 0
175 198 0
175 198 0
176 199 0
174 197 0
175 198 0
175 198 0
174 198 0
174 197 0
174 198 0
175 198 0
172 197 0
175 198 0
174 198 0
175 198 0
175 198 0
174 198 0
175 198 0
173 197 0
174 197 0
174 197 0
173 197 0
175 198 0
174 197 0
175 198 0
174 198 0
174 198 0
174 198 0
175 198 0
173 197 0
176 199 0
175 198 0
174 197 0
175 198 0
175 198 0
174 197 0
173 197 0
174 198 0
175 198 0
173 197 0
174 198 0
175 198 0
174 198 0
175 198 0
174 198 0
173 197 0
175 198 0
174 197 0
175 198 0
172 197 0
175 198 0
174 198 0
175 198 0
173 197 0
174 198 0
174 198 0
175 198 0
173 197 0
173 197 0
175 198 0
174 198 0
174 197 0
172 196 0
174 198 0
175 198 0
173 197 0
175 198 0
174 197 0
175 198 0
175 198 0
175 198 0
173 197 0
174 198 0
174 197 0
174 197 0
175 198 0
176 198 0
174 197 0
174 198 0
173 196 0
175 198 0
174 198 0
174 197 0
176 199 0
174 198 0
175 198 0
174 198 0
173 197 0
174 197 0
174 197 0
173 197 0
173 197 0
174 198 0
172 197 0
174 198 0
173 197 0
174 197 0
174 197 0
173 197 0
174 198 0
174 197 0
174 197 0
175 198 0
175 198 0
174 197 0
175 198 0
174 198 0
175 198 0
173 197 0
174 197 0
175 198 0
174 197 0
174 198 0
174 197 0
174 198 0
175 198 0
175 198 0
174 198 0
171 195 0
174 197 0
175 198 0
173 197 0
173 197 0
175 198 0
174 197 0
173 197 0
174 198 0
174 198 0
174 197 0
174 197 0
173 197 0
171 196 0
175 198 0
175 198 0
175 198 0
174 197 0
173 197 0
172 196 0
174 198 0
174 197 0
172 195 0
173 197 0
173 196 0
175 198 0
174 197 0
175 198 0
173 197 0
173 197 0
174 197 0
170 195 0
172 196 0
172 195 0
173 196 0
173 197 0
175 198 0
172 196 0
174 197 0
171 195 0
174 198 0
171 195 0
173 196 0
173 197 0
172 195 0
172 196 0
173 197 0
173 196 0
172 196 0
171 195 0
174 198 0
173 196 0
173 197 0
173 197 0
172 196 0
174 197 0
173 197 0
172 196 0
172 195 0
173 197 0
171 195 0
173 197 0
173 197 0
172 195 0
174 196 0
171 195 0
173 197 0
173 197 0
173 196 0
171 195 0
171 195 0
173 196 0
171 195 0
173 196 0
173 197 0
171 195 0
174 197 0
172 195 0
173 196 0
171 194 0
171 195 0
172 196 0
173 197 0
174 197 0
173 197 0
172 196 0
173 196 0
174 197 0
174 197 0
174 198 0
174 197 0
174 197 0
174 197 0
173 197 0
172 196 0
174 197 0
172 196 0
172 196 0
175 198 0
174 197 0
172 195 0
174 197 0
170 194 0
170 194 0
174 198 0
174 197 0
172 195 0
175 198 0
173 195 0
172 196 0
172 196 0
173 197 0
173 197 0
172 196 0
171 195 0
172 196 0
173 196 0
173 197 0
173 197 0
175 197 0
175 198 0
174 197 0
172 195 0
173 197 0
173 197 0
170 194 0
174 198 0
174 197 0
174 197 0
172 196 0
173 196 0
172 196 0
170 194 0
175 198 0
174 197 0
171 195 0
174 197 0
174 197 0
173 196 0
173 197 0
172 196 0
172 195 0
172 195 0
175 198 0
173 196 0
173 197 0
173 196 0
174 197 0
173 197 0
173 197 0
174 197 0
174 197 0
175 198 0
171 195 0
173 197 0
174 197 0
173 196 0
173 197 0
172 196 0
174 197 0
171 195 0
176 198 0
173 197 0
173 197 0
173 196 0
175 198 0
174 197 0
172 195 0
174 197 0
173 196 0
173 197 0
174 197 0
174 198 0
175 198 0
174 197 0
172 196 0
173 197 0
175 198 0
175 198 0
172 196 0
173 197 0
174 197 0
174 197 0
174 197 0
174 197 0
176 199 0
172 196 0
174 198 0
176 199 0
174 198 0
172 197 0
176 198 0
173 197 0
175 198 0
174 198 0
175 198 0
174 197 0
174 197 0
174 198 0
175 198 0
174 198 0
174 197 0
177 199 0
172 197 0
174 198 0
174 197 0
171 195 0
174 198 0
174 198 0
173 197 0
175 198 0
172 195 0
174 197 0
175 198 0
172 196 0
174 198 0
175 198 0
175 198 0
174 198 0
173 197 0
174 198 0
173 197 0
174 197 0
174 197 0
174 198 0
174 198 0
174 198 0
175 198 0
174 198 0
175 198 0
173 196 0
174 198 0
174 198 0
173 197 0
174 197 0
174 198 0
175 198 0
174 198 0
174 198 0
174 198 0
174 198 0
174 198 0
173 197 0
173 197 0
175 198 0
173 197 0
174 198 0
174 198 0
174 198 0
175 198 0
175 198 0
175 198 0
175 198 0
173 197 0
175 198 0
175 198 0
174 197 0
175 198 0
174 197 0
173 197 0
174 198 0
172 196 0
174 198 0
173 197 0
173 197 0
173 197 0
175 198 0
174 198 0
175 198 0
174 198 0
173 197 0
174 198 0
173 197 0
175 198 0
173 197 0
177 199 0
174 198 0
174 198 0
175 198 0
173 197 0
175 198 0
175 198 0
174 197 0
175 198 0
173 197 0
173 197 0
174 198 0
173 197 0
175 198 0
174 198 0
174 198 0
174 197 0
175 198 0
175 198 0
174 198 0
174 198 0
175 198 0
174 198 0
175 198 0
174 198 0
174 198 0
174 198 0
175 198 0
174 197 0
175 198 0
175 198 0
172 197 0
174 197 0
174 198 0
174 198 0
174 198 0
173 197 0
174 198 0
171 195 0
173 197 0
174 198 0
174 198 0
175 198 0
174 198 0
173 197 0
175 198 0
174 198 0
176 199 0
174 197 0
174 197 0
174 198 0
173 197 0
174 197 0
175 198 0
175 198 0
174 198 0
174 197 0
173 197 0
175 198 0
173 197 0
176 198 0
171 195 0
173 197 0
176 198 0
174 198 0
174 197 0
175 198 0
174 198 0
175 198 0
173 197 0
174 198 0
172 196 0
174 198 0
174 198 0
175 198 0
174 197 0
174 197 0
173 197 0
172 197 0
173 197 0
173 197 0
173 197 0
173 197 0
175 198 0
174 198 0
174 198 0
173 197 0
175 198 0
174 198 0
174 198 0
174 198 0
175 198 0
173 197 0
176 199 0
174 198 0
174 198 0
173 197 0
176 199 0
175 198 0
174 198 0
174 197 0
174 198 0
174 197 0
174 197 0
173 197 0
175 198 0
174 197 0
175 198 0
174 198 0
174 198 0
173 197 0
172 196 0
174 197 0
175 198 0
172 196 0
175 198 0
175 198 0
174 198 0
175 198 0
176 198 0
175 198 0
173 197 0
175 198 0
174 197 0
175 198 0
176 198 0
173 197 0
174 198 0
174 197 0
175 198 0
173 197 0
173 196 0
173 197 0
174 197 0
172 197 0
174 198 0
175 198 0
174 198 0
173 197 0
172 197 0
176 199 0
173 196 0
172 195 0
175 198 0
174 197 0
174 198 0
175 198 0
172 196 0
171 195 0
174 197 0
174 197 0
173 197 0
173 197 0
172 195 0
173 197 0
175 198 0
172 197 0
174 198 0
173 197 0
174 197 0
173 196 0
174 198 0
174 198 0
172 195 0
174 197 0
172 196 0
173 197 0
171 195 0
173 196 0
172 196 0
174 197 0
174 197 0
174 198 0
173 197 0
173 197 0
171 195 0
174 197 0
171 194 0
170 194 0
174 197 0
175 198 0
173 196 0
172 196 0
175 198 0
175 198 0
173 197 0
170 194 0
173 196 0
172 195 0
174 198 0
173 197 0
171 195 0
170 194 0
173 197 0
169 193 0
172 196 0
172 195 0
172 196 0
173 197 0
175 198 0
174 197 0
169 193 0
171 194 0
172 195 0
173 196 0
173 196 0
171 194 0
174 198 0
175 198 0
170 194 0
171 194 0
171 194 0
174 197 0
173 197 0
173 196 0
174 197 0
173 196 0
174 197 0
173 197 0
171 195 0
174 198 0
174 197 0
175 198 0
174 197 0
173 197 0
175 198 0
173 196 0
174 197 0
175 198 0
172 196 0
172 196 0
174 197 0
172 196 0
174 196 0
174 197 0
173 197 0
175 198 0
172 196 0
172 195 0
173 196 0
174 198 0
170 194 0
175 198 0
171 195 0
173 196 0
173 196 0
174 197 0
171 195 0
175 198 0
171 195 0
173 196 0
170 195 0
177 199 0
172 196 0
173 196 0
175 198 0
173 197 0
174 197 0
175 198 0
173 196 0
173 196 0
174 198 0
173 197 0
173 196 0
172 196 0
172 196 0
175 197 0
175 198 0
174 197 0
174 197 0
174 198 0
172 197 0
173 197 0
173 197 0
173 197 0
173 197 0
174 197 0
173 197 0
174 197 0
175 198 0
175 198 0
173 196 0
176 198 0
174 197 0
172 196 0
175 197 0
173 196 0
174 198 0
172 196 0
174 197 0
175 198 0
173 197 0
174 197 0
175 198 0
173 196 0
174 198 0
175 198 0
173 196 0
173 197 0
173 196 0
171 195 0
173 196 0
174 197 0
171 194 0
175 198 0
174 198 0
172 196 0
174 197 0
173 196 0
173 197 0
174 197 0
172 196 0
174 197 0
173 197 0
174 197 0
176 199 0
175 198 0
174 197 0
174 198 0
175 198 0
174 197 0
175 198 0
172 196 0
174 198 0
174 198 0
173 196 0
173 197 0
173 197 0
175 198 0
173 197 0
176 198 0
172 197 0
174 198 0
175 198 0
175 198 0
174 198 0
173 197 0
175 198 0
173 196 0
174 198 0
174 197 0
175 198 0
175 198 0
174 197 0
174 197 0
175 198 0
174 198 0
174 197 0
174 197 0
173 197 0
174 197 0
175 198 0
174 198 0
175 198 0
173 197 0
175 198 0
175 198 0
174 197 0
175 198 0
174 198 0
176 198 0
173 197 0
174 198 0
174 198 0
173 197 0
175 198 0
175 198 0
175 198 0
174 197 0
174 198 0
174 197 0
174 197 0
173 197 0
173 197 0
175 198 0
174 198 0
174 198 0
175 198 0
174 198 0
172 196 0
175 198 0
175 198 0
175 198 0
175 198 0
176 198 0
175 198 0
173 197 0
176 199 0
175 198 0
172 197 0
173 197 0
174 197 0
174 197 0
174 198 0
175 198 0
173 197 0
173 197 0
175 198 0
174 198 0
174 198 0
173 197 0
174 198 0
174 198 0
174 198 0
174 198 0
176 199 0
173 197 0
173 197 0
176 198 0
174 198 0
176 199 0
174 198 0
176 199 0
175 198 0
176 198 0
175 198 0
174 197 0
175 198 0
174 198 0
175 198 0
174 198 0
175 198 0
173 197 0
175 198 0
175 198 0
174 197 0
175 198 0
174 197 0
175 198 0
174 197 0
173 197 0
174 198 0
175 198 0
174 197 0
175 198 0
175 198 0
174 197 0
174 197 0
173 197 0
174 198 0
174 197 0
175 198 0
174 198 0
174 198 0
174 198 0
173 197 0
175 198 0
176 199 0
174 198 0
173 197 0
172 195 0
174 198 0
172 196 0
174 197 0
174 198 0
175 198 0
174 198 0
174 198 0
173 197 0
173 197 0
174 197 0
175 198 0
173 197 0
174 197 0
176 198 0
174 198 0
175 198 0
174 197 0
175 198 0
174 198 0
174 198 0
174 198 0
174 198 0
174 198 0
176 199 0
174 198 0
174 198 0
172 196 0
175 198 0
175 198 0
173 197 0
175 198 0
174 198 0
175 198 0
176 199 0
175 198 0
173 197 0
175 198 0
176 198 0
173 197 0
175 198 0
174 198 0
173 197 0
177 199 0
173 197 0
175 198 0
173 196 0
174 197 0
175 198 0
174 198 0
173 196 0
172 196 0
174 197 0
173 197 0
174 198 0
174 197 0
173 197 0
174 198 0
174 197 0
173 197 0
176 198 0
174 198 0
173 197 0
175 198 0
173 197 0
175 198 0
175 198 0
175 198 0
174 197 0
175 198 0
172 196 0
173 197 0
174 197 0
174 198 0
172 197 0
173 197 0
176 199 0
175 198 0
174 197 0
173 197 0
174 198 0
175 198 0
176 199 0
173 197 0
174 197 0
174 197 0
176 198 0
172 196 0
173 196 0
174 197 0
173 196 0
174 197 0
175 198 0
172 195 0
177 199 0
173 196 0
176 199 0
171 196 0
173 197 0
175 198 0
173 197 0
174 198 0
174 197 0
173 197 0
172 196 0
175 198 0
172 195 0
174 198 0
173 197 0
174 198 0
175 198 0
174 197 0
173 197 0
175 198 0
175 197 0
173 196 0
174 198 0
172 195 0
171 194 0
171 195 0
174 198 0
172 195 0
173 197 0
172 196 0
174 196 0
172 195 0
173 196 0
172 195 0
174 197 0
172 196 0
172 196 0
174 197 0
170 194 0
173 196 0
173 196 0
171 195 0
173 196 0
172 196 0
174 198 0
172 196 0
174 198 0
175 198 0
171 195 0
174 196 0
173 196 0
173 196 0
174 197 0
174 197 0
173 196 0
173 197 0
174 198 0
174 196 0
173 196 0
175 198 0
173 197 0
172 195 0
173 196 0
171 195 0
174 197 0
173 196 0
173 197 0
173 197 0
172 195 0
173 196 0
172 196 0
173 197 0
174 197 0
173 196 0
175 198 0
174 197 0
173 197 0
174 198 0
171 195 0
174 197 0
175 197 0
174 197 0
173 196 0
173 196 0
169 193 0
168 192 0
172 195 0
173 197 0
175 198 0
175 198 0
173 197 0
171 194 0
175 198 0
170 194 0
173 196 0
175 197 0
174 197 0
173 197 0
173 196 0
173 197 0
171 195 0
171 195 0
172 197 0
172 196 0
175 198 0
171 195 0
172 196 0
172 196 0
172 197 0
173 196 0
175 198 0
176 199 0
174 198 0
172 196 0
173 197 0
173 196 0
174 197 0
173 196 0
174 197 0
173 196 0
174 198 0
174 197 0
175 198 0
173 197 0
173 197 0
173 197 0
174 197 0
172 196 0
174 197 0
173 197 0
173 197 0
175 198 0
174 198 0
174 197 0
175 198 0
173 196 0
173 197 0
173 197 0
173 197 0
173 196 0
174 197 0
174 197 0
176 199 0
176 199 0
173 197 0
172 196 0
174 197 0
173 196 0
174 198 0
174 197 0
171 196 0
172 196 0
173 197 0
174 197 0
173 196 0
176 198 0
175 197 0
175 198 0
174 196 0
174 198 0
174 198 0
173 197 0
175 198 0
175 198 0
175 198 0
171 195 0
172 196 0
172 196 0
175 198 0
173 197 0
176 199 0
173 197 0
174 197 0
173 196 0
174 197 0
173 197 0
173 196 0
174 197 0
173 197 0
174 198 0
174 197 0
174 197 0
173 196 0
174 198 0
173 197 0
174 197 0
174 197 0
174 198 0
175 198 0
173 196 0
174 198 0
174 198 0
174 198 0
174 198 0
174 197 0
174 197 0
176 199 0
173 196 0
176 199 0
173 197 0
174 198 0
175 198 0
174 197 0
174 197 0
174 197 0
174 198 0
174 197 0
173 197 0
175 198 0
175 198 0
175 198 0
171 195 0
175 198 0
173 197 0
174 197 0
174 197 0
174 197 0
173 197 0
173 197 0
173 197 0
174 198 0
175 198 0
174 198 0
174 197 0
173 197 0
175 198 0
175 198 0
174 197 0
174 197 0
174 197 0
175 198 0
173 197 0
173 197 0
174 197 0
175 198 0
174 198 0
174 197 0
171 196 0
174 197 0
174 197 0
174 197 0
174 197 0
175 198 0
174 198 0
175 198 0
173 197 0
174 198 0
173 197 0
174 198 0
174 198 0
174 198 0
174 197 0
175 198 0
174 198 0
175 198 0
174 198 0
173 197 0
175 198 0
175 198 0
174 197 0
174 198 0
174 197 0
173 197 0
174 198 0
172 196 0
175 198 0
175 198 0
176 198 0
175 198 0
174 198 0
173 197 0
175 198 0
175 198 0
175 198 0
174 198 0
174 198 0
175 198 0
174 198 0
173 197 0
175 198 0
176 198 0
173 197 0
174 197 0
173 197 0
174 198 0
173 197 0
175 198 0
173 197 0
174 198 0
175 198 0
174 197 0
173 197 0
172 197 0
175 198 0
173 197 0
174 198 0
174 198 0
174 198 0
174 197 0
173 197 0
174 198 0
174 198 0
173 197 0
175 198 0
174 198 0
174 198 0
174 198 0
174 198 0
174 198 0
175 198 0
174 198 0
174 198 0
173 197 0
174 198 0
173 197 0
174 198 0
174 197 0
175 198 0
175 198 0
175 198 0
174 197 0
173 197 0
173 197 0
175 198 0
176 199 0
174 198 0
174 197 0
173 197 0
175 198 0
174 197 0
174 197 0
174 197 0
174 198 0
173 197 0
175 198 0
175 198 0
175 198 0
174 198 0
174 198 0
175 198 0
172 197 0
172 196 0
174 197 0
173 197 0
172 196 0
175 198 0
174 198 0
174 197 0
174 197 0
175 198 0
174 198 0
174 197 0
173 197 0
173 197 0
175 198 0
173 197 0
176 198 0
174 197 0
174 198 0
175 198 0
173 197 0
174 197 0
174 197 0
172 196 0
175 198 0
174 198 0
175 198 0
173 197 0
175 198 0
174 197 0
174 198 0
174 198 0
174 198 0
173 197 0
173 197 0
173 197 0
176 199 0
172 196 0
173 197 0
174 198 0
175 198 0
173 197 0
174 197 0
173 197 0
172 196 0
175 198 0
175 198 0
176 198 0
172 196 0
175 198 0
175 198 0
174 197 0
174 197 0
174 197 0
175 198 0
172 196 0
174 197 0
174 198 0
173 196 0
174 197 0
173 197 0
175 198 0
172 196 0
173 196 0
171 195 0
174 198 0
173 196 0
173 197 0
170 194 0
173 197 0
172 196 0
174 197 0
172 195 0
173 197 0
174 198 0
172 196 0
174 197 0
172 196 0
174 197 0
174 197 0
174 198 0
172 196 0
175 198 0
172 195 0
176 198 0
171 195 0
173 196 0
174 197 0
171 195 0
173 197 0
170 194 0
173 196 0
172 196 0
173 197 0
174 198 0
174 198 0
172 195 0
172 196 0
173 196 0
173 196 0
172 195 0
173 196 0
172 196 0
174 197 0
173 197 0
175 198 0
174 198 0
170 194 0
174 197 0
176 198 0
174 197 0
170 193 0
170 194 0
174 198 0
174 197 0
171 195 0
168 192 0
172 196 0
171 195 0
170 194 0
175 198 0
171 195 0
173 197 0
173 196 0
171 195 0
172 196 0
171 194 0
173 196 0
175 198 0
175 198 0
171 195 0
173 197 0
174 197 0
172 196 0
175 198 0
172 196 0
174 198 0
172 196 0
175 198 0
173 196 0
172 194 0
174 197 0
174 197 0
172 195 0
172 196 0
173 197 0
172 195 0
173 197 0
172 196 0
174 198 0
171 195 0
173 197 0
174 197 0
170 194 0
176 198 0
175 198 0
173 196 0
170 193 0
173 197 0
174 197 0
171 195 0
174 198 0
173 196 0
171 194 0
172 195 0
171 195 0
173 196 0
171 194 0
173 196 0
174 197 0
171 195 0
174 197 0
173 197 0
173 197 0
174 198 0
172 195 0
174 198 0
173 197 0
173 197 0
172 195 0
174 197 0
172 196 0
173 196 0
173 196 0
171 194 0
171 195 0
174 197 0
172 196 0
174 198 0
172 197 0
174 197 0
173 196 0
174 197 0
175 197 0
174 197 0
173 197 0
172 196 0
175 198 0
172 196 0
175 198 0
173 197 0
174 197 0
174 197 0
175 198 0
173 197 0
173 196 0
175 198 0
177 199 0
173 197 0
174 197 0
174 197 0
174 198 0
175 198 0
171 195 0
174 197 0
172 196 0
174 197 0
173 197 0
172 196 0
173 197 0
173 197 0
174 198 0
174 197 0
173 197 0
175 198 0
174 198 0
173 197 0
174 197 0
171 196 0
176 198 0
174 197 0
176 198 0
174 197 0
171 195 0
173 197 0
175 198 0
174 197 0
174 198 0
174 197 0
173 197 0
172 196 0
173 196 0
173 197 0
173 196 0
175 198 0
176 199 0
173 197 0
173 197 0
173 197 0
174 198 0
173 197 0
174 197 0
174 198 0
173 197 0
175 198 0
173 197 0
173 197 0
173 197 0
174 197 0
172 196 0
173 196 0
174 197 0
176 199 0
175 198 0
172 197 0
172 196 0
175 198 0
174 197 0
173 197 0
173 197 0
173 197 0
174 198 0
175 198 0
174 198 0
173 197 0
172 197 0
175 198 0
173 197 0
174 197 0
173 197 0
173 197 0
175 198 0
174 198 0
174 197 0
176 199 0
174 198 0
173 196 0
174 198 0
174 198 0
175 198 0
174 197 0
176 198 0
174 198 0
174 197 0
174 198 0
172 196 0
174 198 0
174 198 0
173 197 0
177 199 0
175 198 0
175 198 0
174 197 0
173 197 0
175 198 0
174 198 0
177 199 0
174 198 0
174 198 0
174 198 0
175 198 0
174 198 0
174 197 0
174 197 0
175 198 0
176 199 0
176 199 0
173 197 0
174 198 0
173 197 0
174 198 0
175 198 0
174 197 0
175 198 0
174 197 0
174 198 0
176 199 0
175 198 0
173 197 0
174 197 0
173 197 0
174 198 0
175 198 0
175 198 0
173 197 0
174 197 0
173 197 0
174 198 0
174 198 0
174 197 0
175 198 0
173 197 0
175 198 0
174 198 0
174 198 0
173 197 0
174 198 0
174 198 0
174 198 0
175 198 0
173 197 0
174 198 0
175 198 0
175 198 0
173 197 0
174 198 0
173 197 0
174 197 0
174 198 0
173 197 0
175 198 0
174 198 0
174 198 0
175 198 0
174 197 0
175 198 0
175 198 0
175 198 0
173 197 0
174 197 0
175 198 0
174 198 0
174 198 0
174 198 0
175 198 0
175 198 0
174 198 0
173 197 0
175 198 0
174 198 0
175 198 0
173 196 0
173 197 0
175 198 0
174 198 0
174 198 0
175 198 0
174 197 0
175 198 0
177 199 0
176 198 0
174 198 0
174 198 0
174 198 0
174 197 0
174 197 0
175 198 0
173 197 0
175 198 0
174 197 0
173 197 0
175 198 0
175 198 0
175 198 0
174 197 0
175 198 0
174 197 0
172 196 0
173 197 0
174 197 0
174 198 0
171 196 0
174 197 0
174 197 0
172 196 0
174 198 0
175 198 0
174 198 0
175 198 0
173 196 0
174 197 0
174 197 0
174 197 0
173 197 0
173 197 0
175 198 0
173 196 0
172 196 0
174 197 0
175 198 0
174 197 0
174 198 0
174 197 0
174 197 0
174 197 0
175 198 0
172 197 0
174 198 0
172 196 0
173 196 0
174 198 0
174 197 0
173 197 0
173 197 0
175 198 0
174 197 0
175 198 0
173 197 0
172 196 0
174 198 0
173 197 0
176 198 0
173 197 0
173 197 0
175 198 0
175 198 0
174 198 0
174 197 0
174 197 0
173 196 0
174 197 0
174 198 0
174 198 0
173 196 0
173 197 0
175 198 0
173 197 0
175 197 0
172 196 0
174 197 0
174 197 0
175 198 0
174 198 0
174 197 0
174 198 0
170 195 0
174 197 0
174 197 0
175 198 0
173 197 0
170 194 0
172 195 0
174 197 0
173 197 0
173 196 0
171 194 0
174 197 0
173 197 0
174 197 0
174 197 0
172 196 0
174 198 0
174 197 0
174 197 0
171 195 0
171 195 0
174 198 0
173 197 0
172 196 0
174 198 0
175 198 0
173 196 0
173 197 0
174 197 0
173 196 0
173 197 0
172 196 0
174 198 0
173 197 0
171 195 0
174 197 0
174 198 0
172 196 0
173 197 0
173 197 0
173 196 0
174 197 0
169 194 0
172 196 0
172 195 0
173 197 0
174 197 0
173 197 0
172 197 0
173 197 0
172 196 0
174 197 0
174 197 0
175 197 0
171 194 0
174 197 0
174 197 0
173 196 0
172 196 0
174 197 0
173 197 0
173 196 0
172 196 0
175 198 0
175 198 0
173 196 0
171 195 0
172 196 0
174 197 0
174 197 0
173 196 0
173 196 0
174 197 0
174 197 0
174 198 0
174 197 0
171 195 0
171 195 0
172 196 0
171 195 0
172 196 0
172 196 0
173 196 0
173 196 0
172 196 0
172 196 0
172 196 0
172 195 0
173 197 0
173 196 0
171 196 0
174 197 0
174 197 0
170 194 0
173 196 0
172 196 0
171 195 0
172 195 0
174 197 0
172 196 0
173 196 0
172 196 0
169 193 0
173 197 0
172 195 0
174 197 0
173 197 0
173 196 0
173 197 0
173 197 0
173 196 0
174 197 0
175 198 0
175 198 0
175 198 0
174 197 0
173 197 0
173 197 0
172 196 0
173 197 0
175 198 0
173 197 0
171 195 0
173 197 0
172 196 0
175 198 0
176 198 0
173 197 0
173 197 0
173 196 0
175 198 0
173 197 0
174 197 0
171 195 0
175 198 0
173 197 0
173 197 0
173 197 0
174 197 0
175 198 0
172 196 0
175 198 0
173 196 0
174 198 0
173 197 0
174 197 0
174 197 0
173 197 0
174 198 0
174 198 0
176 199 0
174 197 0
175 198 0
174 198 0
175 198 0
172 196 0
174 198 0
174 198 0
173 197 0
174 197 0
174 198 0
174 198 0
173 197 0
174 197 0
172 196 0
174 198 0
176 199 0
174 198 0
174 198 0
172 196 0
173 197 0
175 198 0
174 197 0
174 197 0
176 199 0
172 196 0
175 198 0
175 198 0
174 197 0
175 198 0
173 197 0
175 198 0
175 198 0
176 199 0
172 196 0
175 198 0
175 198 0
173 197 0
175 198 0
174 198 0
174 198 0
174 198 0
173 197 0
175 198 0
175 198 0
174 197 0
174 197 0
174 197 0
174 197 0
176 198 0
174 197 0
173 197 0
174 198 0
175 198 0
173 197 0
173 197 0
176 198 0
174 197 0
173 197 0
173 196 0
173 196 0
173 197 0
175 198 0
174 198 0
175 198 0
173 197 0
175 198 0
174 197 0
174 197 0
175 198 0
175 198 0
174 197 0
175 198 0
174 197 0
175 198 0
175 198 0
173 197 0
173 197 0
174 198 0
174 197 0
175 198 0
175 198 0
175 198 0
174 197 0
175 198 0
174 198 0
173 197 0
173 197 0
175 198 0
174 198 0
175 198 0
174 198 0
175 198 0
174 197 0
173 197 0
176 199 0
174 198 0
175 198 0
173 197 0
174 198 0
174 198 0
173 197 0
175 198 0
173 197 0
174 197 0
173 197 0
175 198 0
174 197 0
174 197 0
175 198 0
174 197 0
173 197 0
174 197 0
174 198 0
175 198 0
174 198 0
174 198 0
174 197 0
173 197 0
176 198 0
173 197 0
173 197 0
174 197 0
175 198 0
175 198 0
176 199 0
174 198 0
173 197 0
175 198 0
175 198 0
174 197 0
174 197 0
173 197 0
176 199 0
175 198 0
174 198 0
175 198 0
173 197 0
175 198 0
172 197 0
174 198 0
174 198 0
175 198 0
173 197 0
175 198 0
174 198 0
174 198 0
175 198 0
173 196 0
174 197 0
174 198 0
174 197 0
175 198 0
176 198 0
172 197 0
173 197 0
174 198 0
173 197 0
173 197 0
174 198 0
174 198 0
173 197 0
175 198 0
175 198 0
175 198 0
175 198 0
174 197 0
175 198 0
174 198 0
173 197 0
174 197 0
176 199 0
174 198 0
175 198 0
174 198 0
174 197 0
175 198 0
175 198 0
173 197 0
175 198 0
173 197 0
174 198 0
173 197 0
173 197 0
175 198 0
174 197 0
174 198 0
173 197 0
174 198 0
175 198 0
174 197 0
174 198 0
174 198 0
175 198 0
173 197 0
175 198 0
175 198 0
173 197 0
175 198 0
174 197 0
173 197 0
173 197 0
172 196 0
174 197 0
174 197 0
173 196 0
174 197 0
174 198 0
174 198 0
173 197 0
175 198 0
172 196 0
173 197 0
172 196 0
172 195 0
174 197 0
174 198 0
174 197 0
174 197 0
175 198 0
173 196 0
175 198 0
174 197 0
175 198 0
175 198 0
174 198 0
175 198 0
172 197 0
174 197 0
175 198 0
172 196 0
173 197 0
174 198 0
173 197 0
173 197 0
174 198 0
174 197 0
173 197 0
172 197 0
173 196 0
174 197 0
175 198 0
173 196 0
174 198 0
173 196 0
175 198 0
174 197 0
172 195 0
174 197 0
172 195 0
172 195 0
172 196 0
175 198 0
174 197 0
174 197 0
175 198 0
172 196 0
175 198 0
173 197 0
173 196 0
173 197 0
174 197 0
172 196 0
172 196 0
175 198 0
174 197 0
173 196 0
174 197 0
174 197 0
174 197 0
172 195 0
175 198 0
174 197 0
172 197 0
173 196 0
174 197 0
175 197 0
171 195 0
172 196 0
172 196 0
172 196 0
174 198 0
171 195 0
172 195 0
171 194 0
173 197 0
172 196 0
172 196 0
171 195 0
173 197 0
173 196 0
174 198 0
175 198 0
172 196 0
173 197 0
171 194 0
172 196 0
174 197 0
171 194 0
172 196 0
171 193 0
173 196 0
174 197 0
175 198 0
172 196 0
173 197 0
173 197 0
172 196 0
173 197 0
172 196 0
172 195 0
172 195 0
172 196 0
174 197 0
172 195 0
172 196 0
172 196 0
172 196 0
174 197 0
172 196 0
173 197 0
173 195 0
174 197 0
175 198 0
172 196 0
173 196 0
173 197 0
174 198 0
175 198 0
173 196 0
175 198 0
174 198 0
174 197 0
172 196 0
173 196 0
172 196 0
175 197 0
172 196 0
173 197 0
172 195 0
174 198 0
172 196 0
173 196 0
173 195 0
172 196 0
173 196 0
173 196 0
173 197 0
172 197 0
172 196 0
171 195 0
173 197 0
174 197 0
174 196 0
174 197 0
173 197 0
173 197 0
175 198 0
171 195 0
173 197 0
174 197 0
173 196 0
173 197 0
172 196 0
174 197 0
173 196 0
171 195 0
173 197 0
173 197 0
172 195 0
175 198 0
175 198 0
172 196 0
172 196 0
174 197 0
174 198 0
174 196 0
175 198 0
173 196 0
174 198 0
175 198 0
174 198 0
172 196 0
173 197 0
173 197 0
174 197 0
173 197 0
174 197 0
173 197 0
174 197 0
172 196 0
174 198 0
172 196 0
174 197 0
173 196 0
175 198 0
173 196 0
172 196 0
175 198 0
173 197 0
172 196 0
175 198 0
173 197 0
175 198 0
175 198 0
173 197 0
174 197 0
173 197 0
176 198 0
175 198 0
172 196 0
174 197 0
171 196 0
174 197 0
175 198 0
173 197 0
174 198 0
174 197 0
175 198 0
175 198 0
175 198 0
175 198 0
176 198 0
174 197 0
176 199 0
175 198 0
174 197 0
174 198 0
175 198 0
173 196 0
174 197 0
175 198 0
173 196 0
172 196 0
175 198 0
173 197 0
174 198 0
174 198 0
173 197 0
174 197 0
174 197 0
173 196 0
172 195 0
174 197 0
174 198 0
173 197 0
174 197 0
175 198 0
174 197 0
175 198 0
172 196 0
174 198 0
174 198 0
174 198 0
175 198 0
173 197 0
173 197 0
173 197 0
174 198 0
175 198 0
172 196 0
173 197 0
173 197 0
174 198 0
174 198 0
174 197 0
173 197 0
175 198 0
174 198 0
173 197 0
174 198 0
176 198 0
173 197 0
174 197 0
174 197 0
175 198 0
174 197 0
174 198 0
174 197 0
174 198 0
174 198 0
175 198 0
175 198 0
175 198 0
174 197 0
174 197 0
174 198 0
173 197 0
174 197 0
173 197 0
175 198 0
174 198 0
173 197 0
174 197 0
172 196 0
175 198 0
174 197 0
175 198 0
174 197 0
174 197 0
174 198 0
173 197 0
173 197 0
174 198 0
174 198 0
174 198 0
176 199 0
173 197 0
173 197 0
174 197 0
174 197 0
174 198 0
175 198 0
175 198 0
172 196 0
175 198 0
176 198 0
177 199 0
174 197 0
174 198 0
174 198 0
173 197 0
174 198 0
177 199 0
176 199 0
175 198 0
174 198 0
173 197 0
174 198 0
174 197 0
172 197 0
174 198 0
174 197 0
174 198 0
173 197 0
173 197 0
173 197 0
174 197 0
174 197 0
174 197 0
175 198 0
174 198 0
173 197 0
175 198 0
173 197 0
175 198 0
173 197 0
174 198 0
174 198 0
175 198 0
176 198 0
173 197 0
174 198 0
174 197 0
173 197 0
174 198 0
174 198 0
175 198 0
173 197 0
174 198 0
174 198 0
173 197 0
172 196 0
174 197 0
174 197 0
174 198 0
175 198 0
175 198 0
174 197 0
174 198 0
174 197 0
174 198 0
175 198 0
174 198 0
174 198 0
174 197 0
174 198 0
175 198 0
173 197 0
174 198 0
174 198 0
174 197 0
174 198 0
174 198 0
174 198 0
174 197 0
175 198 0
175 198 0
174 198 0
174 198 0
174 198 0
173 197 0
174 198 0
174 198 0
174 197 0
174 197 0
175 197 0
174 197 0
175 198 0
171 196 0
174 197 0
174 198 0
174 198 0
176 198 0
174 198 0
173 197 0
174 198 0
174 197 0
173 197 0
173 196 0
175 198 0
174 197 0
172 196 0
173 197 0
174 197 0
174 198 0
176 199 0
174 198 0
174 197 0
173 197 0
173 197 0
176 199 0
174 197 0
172 196 0
175 198 0
174 197 0
172 195 0
174 198 0
174 198 0
171 195 0
173 197 0
174 198 0
174 198 0
174 197 0
175 198 0
174 197 0
171 194 0
171 195 0
174 198 0
173 197 0
174 197 0
173 197 0
173 197 0
173 197 0
174 197 0
174 198 0
174 198 0
173 197 0
173 197 0
171 194 0
173 197 0
173 196 0
171 196 0
172 196 0
171 195 0
174 197 0
172 196 0
173 196 0
175 198 0
174 197 0
172 196 0
173 196 0
173 197 0
173 197 0
175 198 0
172 195 0
173 197 0
175 198 0
171 194 0
176 199 0
171 195 0
172 195 0
172 196 0
173 197 0
170 194 0
171 195 0
173 196 0
173 197 0
170 194 0
174 197 0
174 197 0
173 197 0
175 198 0
172 195 0
174 197 0
173 197 0
175 198 0
173 197 0
175 198 0
174 197 0
171 195 0
171 194 0
174 197 0
174 197 0
172 196 0
171 195 0
173 197 0
172 195 0
171 195 0
172 196 0
171 194 0
176 199 0
172 196 0
173 197 0
170 194 0
174 197 0
174 197 0
174 197 0
176 199 0
172 195 0
175 198 0
172 195 0
172 195 0
172 196 0
171 195 0
173 197 0
172 196 0
172 196 0
172 195 0
172 196 0
173 196 0
175 198 0
174 196 0
175 198 0
171 195 0
174 197 0
171 195 0
173 197 0
175 198 0
172 195 0
172 195 0
173 196 0
173 197 0
170 194 0
172 196 0
173 196 0
172 195 0
173 196 0
174 197 0
173 196 0
173 197 0
172 197 0
171 195 0
175 198 0
172 195 0
172 196 0
175 197 0
172 196 0
172 195 0
174 198 0
172 196 0
174 197 0
174 197 0
176 199 0
173 197 0
173 197 0
176 198 0
173 197 0
173 197 0
174 196 0
174 197 0
172 196 0
175 198 0
173 196 0
171 194 0
173 197 0
174 197 0
174 197 0
175 198 0
173 197 0
173 197 0
174 197 0
173 197 0
174 198 0
173 197 0
174 197 0
173 197 0
174 197 0
172 196 0
173 197 0
175 198 0
173 196 0
173 197 0
172 195 0
173 197 0
176 199 0
173 197 0
174 197 0
175 198 0
174 197 0
174 197 0
174 198 0
174 198 0
176 199 0
173 197 0
173 197 0
173 196 0
174 198 0
174 197 0
173 196 0
174 197 0
172 195 0
175 198 0
172 196 0
175 198 0
173 197 0
175 198 0
174 198 0
174 198 0
175 198 0
174 197 0
175 198 0
171 195 0
173 197 0
174 198 0
172 196 0
173 197 0
173 197 0
173 197 0
175 198 0
174 198 0
174 197 0
174 198 0
175 198 0
175 198 0
175 198 0
174 198 0
175 198 0
172 196 0
173 197 0
174 198 0
173 197 0
175 197 0
175 198 0
173 197 0
175 198 0
174 197 0
175 198 0
174 197 0
174 198 0
175 198 0
174 198 0
173 197 0
174 197 0
174 197 0
174 198 0
175 198 0
174 197 0
175 198 0
175 198 0
173 197 0
172 196 0
176 199 0
174 197 0
174 198 0
174 198 0
174 198 0
174 198 0
173 197 0
175 198 0
174 197 0
174 197 0
174 198 0
175 198 0
173 196 0
173 197 0
174 197 0
175 198 0
176 199 0
174 198 0
175 198 0
174 197 0
175 198 0
173 197 0
173 197 0
174 198 0
173 197 0
172 196 0
174 197 0
173 197 0
174 198 0
174 197 0
176 198 0
176 199 0
173 197 0
173 197 0
173 197 0
175 198 0
175 198 0
175 198 0
174 198 0
175 198 0
175 198 0
173 197 0
175 198 0
174 198 0
173 197 0
175 198 0
174 197 0
175 198 0
175 198 0
174 198 0
175 198 0
174 198 0
175 198 0
175 198 0
175 198 0
175 198 0
175 198 0
175 198 0
175 198 0
175 198 0
174 198 0
177 199 0
175 198 0
174 198 0
175 198 0
175 198 0
174 198 0
176 199 0
174 198 0
173 197 0
174 198 0
174 198 0
176 199 0
175 198 0
174 197 0
173 197 0
173 197 0
175 198 0
175 198 0
175 198 0
174 198 0
174 198 0
175 198 0
175 198 0
174 197 0
174 198 0
174 198 0
174 198 0
174 198 0
173 197 0
174 198 0
175 198 0
175 198 0
175 198 0
174 197 0
177 199 0
175 198 0
174 197 0
175 198 0
173 197 0
175 198 0
173 197 0
173 197 0
175 198 0
174 198 0
174 198 0
174 198 0
174 198 0
174 197 0
175 198 0
174 197 0
174 197 0
174 198 0
173 197 0
175 198 0
174 198 0
173 196 0
175 198 0
174 197 0
173 197 0
175 198 0
175 198 0
175 198 0
175 198 0
173 197 0
175 198 0
174 198 0
175 198 0
173 197 0
174 198 0
175 198 0
174 198 0
176 199 0
174 197 0
176 198 0
174 197 0
174 198 0
174 197 0
173 196 0
173 197 0
174 197 0
174 197 0
174 197 0
175 198 0
173 197 0
172 196 0
174 197 0
174 197 0
174 198 0
174 198 0
175 198 0
173 197 0
174 197 0
173 196 0
174 197 0
175 198 0
174 197 0
176 199 0
174 198 0
176 199 0
173 196 0
172 196 0
173 197 0
177 199 0
173 197 0
174 197 0
174 197 0
174 197 0
173 196 0
173 196 0
172 196 0
174 197 0
175 198 0
174 197 0
172 196 0
174 198 0
175 198 0
173 196 0
174 197 0
172 196 0
173 197 0
174 198 0
175 198 0
175 198 0
174 198 0
172 196 0
175 198 0
172 196 0
174 197 0
172 196 0
174 198 0
172 196 0
174 198 0
173 196 0
173 197 0
173 196 0
173 197 0
173 196 0
172 196 0
174 197 0
172 196 0
175 198 0
174 197 0
174 197 0
171 194 0
172 196 0
172 195 0
174 197 0
173 197 0
172 196 0
173 197 0
174 198 0
173 197 0
175 198 0
173 197 0
173 196 0
172 195 0
172 195 0
172 195 0
172 196 0
174 198 0
173 196 0
172 196 0
174 198 0
173 197 0
172 195 0
173 197 0
172 196 0
173 197 0
172 195 0
173 197 0
171 194 0
171 195 0
174 197 0
172 196 0
171 195 0
174 198 0
171 195 0
171 195 0
174 197 0
173 197 0
173 197 0
171 195 0
174 198 0
172 196 0
174 198 0
173 197 0
173 196 0
173 197 0
173 197 0
172 195 0
173 196 0
173 196 0
173 197 0
174 197 0
171 195 0
172 195 0
172 196 0
172 196 0
174 197 0
175 198 0
169 193 0
172 196 0
175 198 0
173 196 0
172 196 0
175 197 0
173 197 0
174 197 0
173 196 0
173 197 0
173 197 0
173 197 0
173 196 0
172 196 0
174 196 0
173 196 0
172 195 0
173 197 0
173 197 0
173 196 0
172 195 0
171 195 0
174 196 0
174 197 0
173 196 0
173 197 0
171 195 0
173 196 0
174 196 0
175 198 0
173 197 0
171 194 0
170 193 0
175 198 0
174 197 0
175 198 0
174 197 0
172 196 0
172 195 0
175 198 0
174 197 0
176 198 0
173 197 0
175 197 0
175 198 0
173 196 0
173 196 0
175 198 0
174 198 0
175 198 0
175 198 0
173 197 0
172 196 0
175 198 0
173 197 0
173 196 0
172 196 0
172 195 0
173 196 0
172 197 0
172 196 0
175 198 0
174 197 0
175 198 0
173 196 0
174 198 0
175 198 0
174 198 0
173 197 0
173 197 0
175 198 0
173 197 0
175 198 0
174 197 0
174 197 0
173 196 0
174 197 0
172 197 0
174 197 0
174 197 0
174 198 0
174 197 0
172 196 0
173 197 0
173 197 0
174 197 0
174 197 0
174 197 0
174 197 0
172 196 0
174 198 0
174 198 0
173 197 0
174 197 0
174 197 0
174 197 0
174 197 0
173 196 0
172 196 0
172 196 0
175 198 0
175 198 0
174 197 0
173 197 0
174 197 0
174 197 0
174 198 0
175 198 0
175 198 0
173 197 0
173 197 0
174 198 0
174 198 0
174 198 0
175 198 0
176 198 0
173 197 0
174 198 0
175 198 0
172 196 0
175 198 0
172 196 0
176 199 0
172 197 0
174 198 0
175 198 0
175 198 0
174 198 0
175 198 0
174 197 0
174 198 0
174 197 0
174 198 0
176 199 0
173 197 0
173 197 0
172 196 0
174 198 0
175 198 0
176 198 0
173 197 0
174 198 0
174 198 0
174 197 0
173 197 0
174 198 0
173 197 0
175 198 0
174 198 0
174 198 0
177 199 0
176 198 0
174 198 0
175 198 0
174 198 0
174 198 0
174 198 0
174 198 0
173 196 0
173 196 0
173 197 0
174 198 0
175 198 0
175 198 0
174 198 0
173 197 0
175 198 0
174 198 0
173 197 0
175 198 0
175 198 0
174 197 0
175 198 0
176 199 0
174 197 0
175 198 0
176 198 0
173 197 0
175 198 0
175 198 0
175 198 0
173 197 0
174 197 0
175 198 0
174 198 0
175 198 0
173 197 0
173 197 0
175 198 0
173 197 0
174 198 0
174 198 0
174 198 0
174 198 0
174 198 0
172 197 0
173 197 0
175 198 0
174 198 0
174 198 0
175 198 0
175 198 0
175 198 0
174 198 0
174 198 0
174 198 0
174 197 0
175 198 0
174 198 0
175 198 0
176 198 0
176 198 0
175 198 0
174 198 0
176 199 0
173 197 0
174 198 0
174 198 0
173 197 0
173 197 0
175 198 0
174 197 0
176 198 0
173 197 0
174 197 0
174 197 0
175 198 0
174 197 0
171 196 0
175 198 0
176 198 0
173 196 0
174 198 0
175 198 0
176 199 0
175 198 0
175 198 0
173 197 0
175 198 0
172 197 0
175 198 0
176 198 0
175 198 0
175 198 0
176 198 0
175 198 0
174 197 0
172 196 0
176 198 0
176 199 0
175 198 0
174 198 0
173 197 0
175 198 0
175 198 0
173 197 0
175 198 0
175 198 0
175 198 0
174 197 0
174 197 0
175 198 0
175 198 0
174 198 0
174 198 0
173 197 0
174 198 0
174 197 0
174 198 0
173 196 0
173 197 0
174 198 0
172 197 0
174 197 0
173 196 0
176 198 0
172 196 0
174 198 0
175 198 0
175 198 0
173 196 0
173 197 0
172 196 0
171 195 0
175 198 0
175 198 0
175 198 0
174 197 0
175 197 0
175 198 0
174 197 0
173 196 0
173 197 0
173 197 0
175 198 0
174 198 0
175 198 0
174 197 0
173 196 0
174 197 0
173 197 0
174 197 0
174 197 0
173 197 0
174 198 0
174 197 0
175 198 0
172 196 0
174 197 0
173 197 0
173 197 0
174 197 0
173 197 0
174 197 0
173 196 0
173 197 0
173 197 0
173 197 0
175 198 0
172 196 0
173 196 0
173 197 0
174 198 0
172 196 0
171 195 0
173 197 0
176 198 0
174 197 0
173 197 0
174 198 0
174 197 0
171 195 0
171 194 0
173 197 0
172 195 0
173 197 0
172 196 0
172 196 0
172 196 0
174 197 0
175 198 0
172 196 0
175 198 0
174 198 0
174 197 0
173 197 0
173 197 0
172 196 0
173 197 0
174 197 0
172 196 0
174 197 0
172 196 0
172 196 0
173 197 0
174 197 0
174 197 0
172 196 0
172 196 0
174 197 0
174 198 0
172 196 0
172 196 0
173 197 0
173 196 0
173 196 0
170 193 0
172 196 0
173 196 0
175 198 0
177 199 0
174 198 0
173 196 0
172 196 0
172 196 0
174 197 0
175 197 0
173 196 0
172 196 0
173 197 0
172 196 0
171 195 0
173 197 0
174 198 0
171 195 0
172 196 0
172 196 0
174 198 0
174 197 0
174 198 0
172 196 0
174 197 0
174 197 0
174 197 0
174 197 0
172 196 0
172 195 0
174 197 0
172 195 0
173 197 0
175 198 0
172 196 0
175 198 0
174 197 0
173 196 0
175 198 0
172 196 0
175 198 0
172 196 0
174 197 0
173 196 0
173 197 0
174 198 0
175 197 0
170 194 0
172 195 0
174 197 0
174 197 0
174 197 0
173 197 0
174 197 0
174 197 0
169 192 0
174 198 0
174 197 0
174 198 0
173 196 0
172 196 0
174 197 0
175 198 0
173 196 0
174 197 0
173 196 0
174 198 0
173 196 0
173 197 0
172 196 0
174 197 0
173 197 0
175 198 0
174 197 0
173 197 0
171 194 0
173 196 0
173 197 0
174 198 0
174 198 0
173 197 0
173 197 0
177 198 0
173 197 0
173 196 0
173 196 0
173 196 0
176 199 0
174 197 0
173 197 0
174 198 0
175 198 0
173 197 0
173 196 0
174 198 0
174 197 0
174 198 0
174 197 0
173 196 0
174 198 0
171 194 0
174 197 0
174 198 0
174 197 0
172 196 0
175 198 0
174 198 0
174 198 0
173 196 0
174 197 0
174 198 0
173 197 0
174 197 0
174 197 0
175 198 0
173 197 0
174 197 0
173 197 0
174 197 0
172 196 0
173 197 0
174 197 0
173 196 0
169 194 0
173 197 0
174 197 0
174 197 0
174 197 0
175 198 0
174 197 0
176 198 0
173 197 0
174 198 0
174 198 0
173 196 0
174 198 0
176 198 0
174 198 0
174 197 0
173 196 0
174 197 0
172 195 0
174 197 0
175 197 0
173 197 0
174 198 0
176 199 0
176 198 0
174 198 0
174 197 0
174 197 0
174 197 0
173 197 0
174 197 0
173 197 0
174 198 0
175 197 0
175 198 0
172 195 0
174 197 0
174 197 0
174 197 0
173 197 0
173 197 0
174 197 0
173 197 0
174 197 0
174 197 0
175 198 0
174 198 0
174 198 0
173 197 0
176 199 0
175 198 0
174 198 0
175 198 0
174 197 0
174 198 0
174 197 0
176 198 0
174 198 0
173 197 0
175 198 0
174 198 0
176 199 0
174 197 0
174 198 0
175 198 0
173 196 0
174 197 0
173 197 0
174 197 0
172 197 0
176 199 0
174 198 0
175 198 0
176 198 0
175 198 0
175 198 0
175 198 0
174 197 0
174 197 0
174 197 0
174 197 0
174 197 0
174 198 0
174 197 0
174 197 0
174 197 0
175 198 0
176 198 0
174 198 0
177 199 0
175 198 0
173 197 0
176 198 0
174 197 0
174 198 0
174 198 0
174 197 0
176 199 0
175 198 0
173 197 0
173 197 0
174 198 0
174 198 0
176 198 0
174 198 0
175 198 0
175 198 0
173 197 0
174 198 0
174 198 0
174 197 0
174 197 0
175 198 0
174 197 0
176 199 0
175 198 0
174 198 0
175 198 0
175 198 0
174 198 0
174 197 0
174 198 0
172 196 0
173 197 0
176 198 0
173 197 0
175 198 0
172 196 0
174 198 0
174 198 0
174 197 0
173 197 0
175 198 0
175 198 0
173 197 0
174 198 0
175 198 0
175 198 0
173 197 0
174 198 0
174 198 0
173 196 0
174 197 0
174 198 0
174 198 0
175 198 0
173 196 0
176 199 0
174 198 0
174 198 0
174 198 0
174 197 0
173 197 0
174 197 0
173 197 0
173 197 0
174 198 0
175 198 0
174 197 0
173 197 0
175 198 0
174 198 0
174 197 0
174 198 0
175 198 0
175 198 0
175 198 0
174 198 0
174 197 0
174 198 0
175 198 0
173 197 0
175 198 0
173 196 0
172 196 0
173 197 0
176 199 0
173 197 0
174 197 0
173 197 0
172 196 0
174 197 0
174 197 0
173 197 0
174 198 0
175 198 0
174 198 0
175 198 0
173 197 0
174 197 0
174 197 0
173 197 0
174 197 0
173 196 0
174 197 0
172 196 0
175 198 0
174 198 0
172 196 0
174 198 0
176 198 0
176 199 0
173 197 0
175 198 0
174 197 0
173 197 0
174 198 0
176 198 0
173 197 0
173 197 0
172 196 0
173 196 0
174 198 0
175 197 0
173 197 0
172 195 0
173 196 0
174 198 0
174 197 0
174 197 0
173 196 0
172 196 0
174 197 0
174 197 0
174 196 0
173 196 0
173 197 0
174 197 0
174 197 0
173 197 0
173 196 0
174 197 0
175 198 0
172 196 0
173 197 0
169 194 0
173 196 0
174 198 0
174 197 0
175 198 0
172 196 0
173 197 0
173 196 0
173 197 0
174 197 0
171 195 0
174 198 0
175 198 0
174 197 0
176 198 0
172 196 0
175 198 0
175 198 0
172 195 0
176 199 0
174 197 0
174 197 0
171 195 0
173 197 0
172 196 0
173 197 0
175 198 0
175 197 0
173 197 0
172 195 0
169 194 0
173 196 0
174 198 0
172 196 0
174 198 0
172 196 0
173 196 0
173 197 0
173 196 0
173 196 0
173 196 0
172 197 0
170 193 0
172 196 0
173 196 0
172 196 0
172 195 0
174 197 0
172 195 0
173 195 0
171 195 0
172 195 0
173 197 0
172 196 0
174 197 0
173 196 0
172 196 0
173 196 0
173 196 0
174 198 0
174 198 0
172 195 0
172 195 0
175 198 0
175 198 0
172 196 0
173 197 0
173 197 0
172 196 0
173 196 0
175 198 0
172 196 0
174 197 0
174 197 0
172 195 0
172 196 0
172 195 0
173 196 0
173 197 0
171 194 0
175 197 0
174 198 0
173 197 0
172 195 0
174 197 0
172 195 0
172 196 0
173 196 0
170 195 0
171 195 0
172 195 0
177 199 0
171 196 0
172 195 0
172 196 0
172 196 0
173 196 0
175 197 0
173 197 0
173 196 0
173 196 0
173 197 0
174 197 0
175 198 0
174 197 0
174 197 0
173 196 0
173 197 0
170 194 0
175 198 0
172 196 0
173 197 0
172 196 0
173 197 0
173 197 0
173 197 0
173 197 0
173 196 0
174 197 0
175 198 0
172 196 0
173 197 0
174 198 0
174 198 0
174 197 0
172 195 0
173 197 0
174 197 0
173 197 0
173 196 0
174 197 0
172 196 0
175 198 0
175 198 0
174 197 0
174 197 0
172 195 0
174 198 0
174 198 0
175 198 0
174 197 0
173 197 0
175 198 0
174 197 0
173 197 0
174 198 0
174 197 0
173 197 0
174 198 0
174 197 0
174 197 0
175 198 0
172 196 0
174 197 0
172 195 0
175 198 0
173 197 0
173 195 0
174 197 0
175 198 0
175 197 0
175 198 0
172 196 0
175 198 0
174 197 0
174 198 0
174 198 0
174 197 0
174 198 0
173 196 0
173 197 0
172 196 0
174 198 0
174 198 0
174 197 0
174 197 0
176 199 0
173 197 0
174 197 0
173 197 0
175 198 0
175 198 0
174 197 0
174 197 0
175 198 0
175 198 0
175 198 0
172 196 0
175 198 0
173 197 0
175 198 0
173 196 0
173 196 0
176 199 0
175 198 0
172 196 0
176 198 0
173 197 0
175 198 0
174 197 0
172 196 0
174 197 0
174 197 0
176 199 0
174 198 0
173 197 0
175 198 0
175 198 0
175 198 0
172 197 0
173 197 0
175 198 0
174 197 0
176 198 0
175 198 0
174 198 0
173 196 0
175 198 0
174 198 0
174 197 0
174 198 0
175 198 0
175 198 0
174 198 0
174 198 0
173 196 0
175 198 0
174 198 0
174 197 0
174 198 0
174 198 0
173 197 0
174 198 0
172 196 0
172 197 0
174 198 0
175 198 0
174 198 0
174 197 0
175 198 0
175 198 0
174 198 0
173 197 0
175 197 0
175 198 0
174 198 0
175 198 0
175 198 0
173 197 0
174 198 0
173 197 0
174 197 0
175 198 0
174 197 0
175 198 0
174 197 0
176 199 0
174 198 0
175 198 0
173 196 0
174 198 0
173 197 0
174 197 0
175 198 0
175 198 0
173 197 0
176 199 0
175 198 0
176 198 0
175 198 0
175 198 0
174 198 0
173 197 0
175 198 0
175 198 0
176 199 0
174 198 0
174 198 0
173 197 0
174 197 0
174 197 0
174 198 0
174 198 0
175 198 0
175 198 0
175 198 0
176 199 0
175 198 0
173 197 0
175 198 0
175 198 0
175 198 0
174 198 0
175 198 0
175 198 0
175 198 0
174 198 0
175 198 0
175 198 0
174 198 0
175 198 0
174 198 0
175 198 0
175 198 0
174 197 0
174 198 0
174 198 0
173 196 0
174 197 0
174 198 0
175 198 0
174 198 0
175 198 0
174 197 0
174 197 0
175 197 0
176 199 0
176 199 0
175 198 0
175 198 0
175 198 0
175 198 0
174 198 0
172 196 0
173 197 0
174 197 0
176 199 0
175 198 0
175 198 0
175 198 0
175 198 0
174 197 0
173 197 0
173 197 0
174 198 0
175 198 0
175 198 0
175 198 0
174 197 0
174 197 0
174 198 0
175 198 0
174 198 0
173 197 0
173 197 0
174 198 0
173 197 0
175 198 0
172 196 0
175 198 0
174 197 0
174 197 0
175 198 0
172 196 0
172 196 0
176 198 0
175 198 0
174 198 0
175 198 0
174 197 0
174 197 0
172 196 0
173 197 0
174 198 0
173 197 0
174 197 0
173 197 0
173 196 0
174 197 0
175 198 0
173 196 0
176 199 0
173 197 0
173 197 0
172 196 0
173 197 0
172 196 0
176 199 0
174 198 0
176 199 0
175 198 0
173 197 0
174 198 0
175 198 0
172 197 0
174 197 0
173 197 0
174 197 0
173 196 0
174 198 0
174 198 0
173 197 0
174 197 0
174 198 0
174 197 0
173 197 0
174 197 0
173 196 0
173 197 0
172 196 0
172 196 0
174 197 0
173 196 0
175 198 0
172 196 0
174 197 0
175 198 0
173 196 0
171 195 0
174 198 0
174 197 0
172 196 0
175 198 0
173 197 0
175 198 0
172 196 0
175 198 0
173 197 0
170 195 0
174 198 0
173 197 0
173 197 0
174 198 0
171 195 0
174 197 0
173 196 0
172 196 0
172 196 0
172 196 0
170 194 0
171 195 0
171 195 0
175 198 0
172 196 0
173 197 0
171 195 0
173 197 0
173 197 0
174 197 0
173 197 0
173 197 0
173 197 0
174 197 0
174 198 0
173 197 0
174 197 0
174 197 0
174 197 0
174 197 0
172 196 0
172 195 0
173 197 0
172 196 0
174 197 0
175 198 0
173 197 0
173 196 0
172 195 0
173 196 0
173 197 0
173 196 0
173 197 0
172 195 0
172 196 0
173 197 0
173 197 0
173 197 0
174 198 0
172 196 0
174 197 0
171 195 0
172 196 0
175 198 0
174 197 0
173 197 0
173 197 0
172 196 0
174 197 0
174 197 0
174 198 0
173 197 0
174 197 0
173 196 0
172 196 0
172 196 0
173 196 0
173 197 0
172 196 0
169 194 0
172 196 0
174 198 0
173 196 0
175 198 0
172 195 0
172 195 0
174 198 0
175 198 0
173 197 0
175 197 0
174 196 0
172 196 0
171 195 0
172 196 0
172 195 0
173 196 0
174 197 0
174 198 0
171 194 0
173 197 0
173 196 0
173 196 0
173 196 0
174 197 0
174 197 0
174 197 0
174 197 0
174 197 0
174 197 0
173 197 0
174 197 0
175 198 0
174 198 0
174 197 0
175 198 0
173 197 0
174 198 0
174 197 0
175 198 0
174 197 0
172 197 0
173 196 0
173 197 0
173 196 0
175 197 0
173 196 0
172 195 0
173 197 0
173 197 0
172 196 0
175 198 0
175 198 0
174 197 0
175 197 0
173 197 0
174 198 0
173 196 0
173 196 0
174 197 0
174 197 0
171 195 0
175 198 0
174 198 0
174 197 0
173 197 0
171 195 0
172 195 0
175 198 0
175 198 0
173 196 0
174 197 0
174 198 0
174 198 0
173 197 0
175 198 0
174 197 0
174 197 0
172 196 0
174 198 0
174 198 0
173 196 0
173 197 0
174 198 0
174 197 0
173 197 0
174 198 0
173 197 0
174 197 0
173 197 0
174 197 0
175 198 0
174 197 0
175 198 0
174 197 0
174 197 0
174 198 0
175 198 0
175 198 0
174 198 0
175 198 0
173 197 0
173 197 0
174 198 0
175 198 0
172 196 0
174 197 0
173 197 0
173 197 0
173 195 0
175 198 0
175 198 0
175 198 0
175 198 0
171 195 0
174 198 0
175 198 0
175 198 0
173 197 0
174 197 0
174 197 0
174 197 0
176 199 0
173 197 0
175 198 0
175 198 0
174 197 0
175 198 0
175 198 0
176 199 0
172 197 0
174 197 0
173 197 0
174 197 0
173 197 0
174 197 0
174 197 0
172 196 0
173 197 0
175 198 0
175 198 0
175 198 0
174 197 0
174 198 0
176 199 0
173 197 0
174 198 0
174 198 0
173 197 0
174 197 0
173 196 0
174 198 0
175 198 0
174 197 0
175 198 0
175 198 0
174 198 0
174 197 0
175 198 0
175 198 0
174 197 0
175 198 0
173 197 0
175 198 0
175 198 0
174 198 0
174 197 0
172 197 0
175 198 0
175 198 0
174 197 0
173 197 0
175 198 0
174 198 0
173 197 0
175 198 0
173 197 0
175 198 0
173 197 0
176 199 0
172 197 0
175 198 0
175 198 0
174 197 0
178 200 0
174 198 0
174 198 0
172 197 0
174 197 0
173 197 0
174 198 0
175 198 0
174 198 0
174 198 0
174 197 0
175 198 0
173 197 0
175 198 0
175 198 0
174 198 0
176 198 0
174 198 0
175 198 0
174 197 0
174 197 0
173 197 0
173 197 0
174 197 0
176 198 0
173 197 0
174 198 0
174 198 0
174 197 0
174 198 0
175 198 0
175 198 0
173 197 0
174 198 0
173 197 0
174 197 0
176 199 0
173 197 0
175 198 0
173 196 0
175 198 0
175 198 0
174 198 0
174 198 0
173 197 0
175 198 0
175 198 0
174 197 0
175 198 0
173 197 0
173 197 0
174 198 0
174 197 0
173 197 0
175 198 0
172 197 0
174 197 0
174 198 0
173 197 0
174 198 0
173 196 0
174 198 0
174 197 0
176 199 0
174 198 0
175 198 0
176 198 0
174 197 0
173 197 0
173 197 0
174 198 0
173 197 0
175 198 0
172 196 0
175 198 0
173 197 0
174 197 0
173 197 0
174 198 0
172 196 0
175 198 0
173 197 0
174 198 0
173 197 0
173 197 0
173 197 0
173 197 0
175 198 0
175 197 0
173 197 0
178 199 0
176 199 0
174 198 0
174 197 0
176 199 0
174 198 0
172 196 0
175 198 0
173 197 0
173 197 0
175 198 0
174 197 0
173 197 0
172 196 0
174 198 0
172 196 0
173 197 0
174 197 0
173 197 0
172 196 0
174 197 0
175 198 0
173 197 0
175 198 0
174 197 0
173 196 0
173 196 0
175 198 0
174 197 0
171 196 0
172 196 0
173 197 0
172 196 0
174 198 0
174 197 0
172 196 0
174 197 0
174 197 0
175 198 0
176 198 0
173 197 0
174 197 0
170 193 0
173 196 0
173 197 0
173 196 0
172 196 0
172 196 0
175 198 0
175 198 0
174 198 0
174 197 0
173 197 0
173 197 0
172 196 0
174 197 0
173 196 0
175 198 0
173 197 0
171 195 0
175 198 0
175 198 0
174 197 0
174 197 0
175 198 0
173 195 0
173 195 0
173 197 0
171 194 0
171 195 0
173 197 0
173 196 0
174 197 0
172 195 0
172 195 0
173 196 0
174 198 0
173 196 0
173 197 0
170 194 0
174 196 0
174 198 0
175 198 0
172 196 0
172 196 0
174 197 0
176 199 0
173 196 0
173 196 0
171 195 0
171 195 0
171 195 0
173 196 0
174 197 0
174 198 0
171 194 0
171 194 0
172 196 0
175 197 0
174 197 0
172 196 0
172 196 0
174 197 0
175 198 0
171 195 0
172 196 0
174 198 0
172 195 0
174 197 0
172 196 0
174 197 0
174 198 0
175 198 0
173 196 0
174 197 0
174 197 0
173 197 0
174 197 0
173 197 0
171 195 0
171 195 0
175 198 0
174 198 0
171 195 0
174 197 0
174 197 0
172 196 0
174 198 0
175 198 0
172 196 0
174 197 0
171 194 0
171 195 0
173 196 0
174 197 0
174 197 0
173 197 0
171 195 0
174 197 0
173 197 0
174 196 0
172 195 0
173 196 0
172 196 0
174 198 0
174 198 0
173 197 0
173 197 0
171 194 0
173 196 0
174 197 0
173 197 0
174 197 0
173 196 0
171 195 0
176 198 0
173 197 0
173 197 0
174 198 0
174 197 0
174 197 0
174 197 0
174 197 0
174 197 0
174 198 0
174 198 0
174 197 0
174 197 0
175 198 0
173 197 0
174 197 0
174 197 0
173 197 0
172 196 0
176 197 0
174 197 0
172 196 0
173 197 0
173 197 0
175 198 0
175 198 0
173 197 0
173 197 0
176 198 0
174 197 0
175 198 0
174 197 0
174 197 0
174 198 0
174 197 0
172 196 0
172 195 0
174 197 0
171 195 0
175 198 0
174 197 0
173 197 0
175 198 0
173 197 0
173 197 0
173 197 0
175 198 0
173 197 0
173 197 0
175 198 0
173 197 0
173 197 0
173 197 0
173 197 0
174 198 0
175 198 0
174 197 0
174 198 0
173 197 0
174 197 0
174 197 0
175 198 0
173 197 0
173 197 0
174 197 0
172 197 0
174 197 0
175 198 0
172 196 0
172 197 0
174 198 0
173 197 0
173 197 0
175 198 0
172 196 0
174 198 0
174 197 0
174 197 0
176 199 0
175 198 0
174 198 0
174 197 0
175 198 0
174 198 0
175 198 0
173 197 0
173 197 0
174 198 0
174 197 0
173 197 0
175 198 0
173 196 0
174 197 0
175 198 0
173 197 0
173 197 0
174 197 0
175 198 0
173 197 0
174 197 0
175 198 0
173 197 0
176 198 0
173 197 0
175 198 0
174 198 0
174 197 0
174 198 0
174 197 0
174 198 0
175 198 0
174 198 0
174 197 0
175 198 0
174 197 0
175 198 0
174 197 0
175 198 0
175 198 0
175 198 0
174 197 0
173 197 0
174 197 0
174 197 0
173 197 0
174 197 0
174 197 0
173 197 0
173 197 0
175 198 0
173 197 0
175 198 0
175 198 0
174 198 0
174 198 0
175 198 0
175 198 0
173 197 0
175 198 0
174 198 0
174 198 0
174 197 0
174 198 0
175 198 0
176 198 0
176 199 0
173 197 0
175 198 0
176 199 0
173 197 0
174 198 0
173 197 0
175 198 0
174 198 0
174 198 0
176 199 0
175 198 0
173 197 0
175 198 0
174 198 0
173 197 0
175 198 0
173 197 0
175 198 0
172 197 0
174 198 0
175 198 0
174 198 0
173 196 0
174 197 0
174 197 0
174 197 0
173 197 0
174 198 0
175 198 0
174 198 0
172 196 0
174 198 0
174 198 0
173 197 0
175 198 0
174 197 0
174 198 0
175 198 0
175 198 0
174 198 0
174 198 0
174 198 0
174 198 0
175 198 0
173 197 0
174 197 0
175 198 0
175 198 0
174 197 0
174 198 0
173 196 0
175 198 0
175 198 0
174 198 0
174 197 0
173 197 0
176 198 0
174 197 0
174 197 0
175 198 0
173 197 0
173 197 0
174 198 0
174 198 0
174 198 0
175 198 0
174 198 0
174 197 0
176 198 0
173 197 0
176 198 0
175 198 0
175 198 0
174 197 0
174 198 0
175 198 0
173 197 0
174 198 0
174 198 0
174 198 0
175 198 0
175 198 0
173 196 0
171 195 0
174 198 0
174 198 0
175 198 0
172 197 0
173 196 0
174 197 0
174 197 0
172 197 0
175 198 0
175 198 0
173 197 0
173 197 0
173 197 0
172 196 0
174 198 0
175 198 0
175 198 0
174 197 0
175 198 0
173 196 0
174 198 0
173 197 0
173 197 0
175 198 0
175 198 0
172 196 0
174 197 0
174 197 0
174 198 0
174 198 0
174 198 0
175 198 0
173 197 0
174 197 0
175 198 0
175 198 0
173 196 0
175 198 0
174 198 0
174 198 0
174 198 0
174 197 0
175 198 0
173 196 0
174 197 0
174 198 0
173 197 0
174 198 0
172 196 0
173 197 0
173 196 0
174 197 0
174 198 0
175 198 0
173 196 0
175 198 0
174 197 0
174 197 0
174 197 0
176 199 0
174 197 0
175 198 0
175 198 0
174 198 0
171 195 0
173 196 0
174 197 0
172 195 0
173 197 0
173 197 0
174 198 0
175 198 0
173 196 0
175 198 0
171 195 0
175 198 0
174 197 0
171 195 0
174 197 0
173 197 0
174 197 0
175 198 0
173 197 0
173 196 0
173 196 0
174 197 0
172 196 0
173 197 0
174 197 0
173 197 0
172 196 0
174 198 0
174 197 0
174 197 0
172 196 0
173 196 0
172 196 0
172 196 0
175 198 0
172 196 0
174 197 0
175 198 0
172 195 0
174 197 0
172 196 0
172 195 0
174 197 0
174 196 0
173 197 0
172 196 0
170 193 0
170 193 0
173 197 0
173 197 0
172 196 0
174 197 0
174 197 0
175 198 0
172 196 0
174 197 0
172 196 0
173 197 0
171 195 0
173 196 0
171 195 0
174 197 0
174 197 0
173 196 0
173 197 0
172 196 0
173 197 0
174 197 0
173 196 0
174 197 0
173 197 0
171 195 0
174 197 0
172 196 0
171 195 0
173 196 0
173 197 0
174 197 0
176 198 0
171 195 0
173 196 0
172 195 0
172 196 0
173 196 0
174 197 0
172 196 0
174 197 0
173 197 0
173 197 0
175 198 0
170 195 0
173 197 0
174 197 0
172 196 0
172 196 0
173 197 0
174 197 0
173 197 0
173 197 0
174 197 0
173 196 0
173 197 0
174 198 0
175 198 0
175 198 0
170 193 0
173 196 0
173 197 0
171 195 0
171 195 0
176 199 0
172 196 0
173 197 0
173 197 0
175 198 0
174 197 0
173 196 0
172 196 0
174 197 0
172 196 0
174 198 0
174 197 0
173 197 0
173 197 0
174 197 0
173 197 0
174 197 0
173 197 0
173 196 0
174 197 0
174 198 0
174 198 0
172 196 0
176 199 0
173 197 0
173 196 0
174 198 0
174 197 0
173 197 0
174 197 0
175 198 0
174 197 0
176 198 0
174 198 0
175 198 0
174 198 0
174 198 0
172 195 0
175 198 0
173 197 0
174 198 0
173 196 0
175 197 0
175 198 0
174 198 0
175 198 0
174 197 0
175 198 0
173 197 0
173 196 0
174 198 0
174 197 0
175 198 0
174 198 0
174 198 0
175 198 0
174 197 0
174 198 0
174 198 0
175 198 0
173 197 0
174 197 0
174 197 0
175 198 0
175 198 0
174 198 0
173 197 0
175 198 0
173 197 0
174 198 0
174 197 0
172 197 0
173 197 0
174 198 0
176 198 0
174 197 0
173 197 0
174 197 0
174 198 0
174 198 0
172 197 0
174 197 0
175 198 0
175 198 0
173 197 0
175 198 0
175 198 0
175 198 0
175 198 0
172 196 0
172 196 0
174 198 0
174 197 0
175 198 0
173 197 0
172 196 0
173 197 0
173 197 0
174 197 0
174 198 0
175 198 0
171 196 0
176 198 0
174 198 0
175 198 0
175 198 0
175 198 0
173 197 0
175 198 0
174 197 0
175 198 0
172 196 0
174 198 0
175 198 0
174 198 0
173 197 0
173 197 0
174 197 0
175 198 0
173 197 0
174 197 0
174 198 0
173 197 0
174 198 0
174 197 0
175 198 0
175 198 0
174 197 0
173 197 0
173 197 0
174 198 0
174 198 0
174 198 0
174 197 0
174 198 0
176 199 0
176 199 0
174 198 0
173 197 0
173 197 0
174 198 0
174 198 0
175 198 0
175 198 0
174 198 0
172 197 0
176 199 0
174 198 0
174 198 0
174 198 0
174 198 0
174 198 0
174 198 0
175 198 0
174 198 0
174 197 0
174 198 0
174 197 0
174 198 0
173 197 0
173 197 0
175 198 0
173 197 0
175 198 0
174 198 0
173 197 0
175 198 0
175 198 0
176 199 0
174 198 0
175 198 0
172 196 0
173 197 0
174 198 0
174 197 0
174 198 0
172 196 0
173 197 0
175 198 0
173 197 0
174 197 0
175 198 0
175 198 0
175 198 0
175 198 0
174 198 0
174 197 0
174 197 0
174 197 0
174 198 0
175 198 0
173 197 0
174 197 0
175 198 0
174 198 0
173 197 0
174 198 0
175 198 0
174 197 0
174 197 0
175 198 0
174 197 0
175 198 0
175 197 0
175 198 0
175 198 0
173 197 0
174 198 0
175 198 0
174 198 0
173 197 0
173 197 0
176 199 0
173 197 0
175 198 0
175 198 0
175 198 0
173 197 0
174 197 0
176 198 0
174 197 0
174 198 0
174 197 0
173 197 0
174 197 0
174 197 0
174 197 0
174 198 0
175 198 0
175 198 0
172 196 0
175 198 0
175 198 0
174 198 0
176 198 0
174 197 0
175 198 0
174 197 0
173 197 0
173 197 0
176 199 0
175 198 0
172 197 0
175 198 0
173 197 0
173 197 0
174 197 0
175 198 0
174 197 0
173 196 0
173 197 0
174 198 0
176 198 0
175 198 0
174 197 0
173 197 0
177 199 0
175 198 0
173 197 0
173 197 0
173 197 0
174 197 0
175 198 0
175 198 0
175 198 0
174 197 0
174 197 0
174 197 0
174 197 0
174 197 0
177 199 0
173 197 0
174 197 0
175 198 0
174 197 0
173 197 0
172 196 0
173 197 0
173 197 0
173 197 0
175 198 0
174 197 0
172 196 0
174 197 0
173 196 0
172 196 0
175 197 0
173 197 0
175 197 0
172 196 0
173 196 0
172 197 0
174 197 0
173 197 0
175 197 0
174 198 0
173 197 0
174 197 0
174 197 0
172 196 0
174 197 0
174 197 0
174 197 0
174 198 0
173 196 0
173 197 0
171 195 0
175 197 0
174 198 0
174 196 0
173 196 0
174 197 0
174 198 0
175 198 0
174 197 0
174 198 0
175 198 0
173 196 0
172 196 0
173 197 0
173 196 0
173 196 0
176 198 0
172 196 0
173 196 0
174 198 0
172 196 0
174 197 0
173 197 0
174 197 0
170 194 0
173 196 0
173 197 0
173 196 0
173 197 0
174 197 0
171 195 0
175 198 0
172 196 0
172 196 0
171 195 0
174 197 0
174 197 0
173 196 0
174 197 0
172 196 0
171 195 0
173 197 0
173 197 0
173 197 0
176 199 0
174 198 0
171 195 0
174 197 0
173 197 0
172 195 0
174 197 0
174 197 0
171 196 0
172 195 0
173 196 0
174 197 0
173 196 0
174 198 0
173 197 0
175 198 0
176 198 0
174 197 0
173 197 0
171 195 0
174 197 0
175 198 0
171 195 0
174 197 0
173 197 0
171 195 0
172 196 0
175 198 0
171 195 0
172 196 0
173 196 0
174 197 0
174 197 0
172 196 0
172 196 0
173 197 0
176 198 0
174 197 0
173 196 0
173 197 0
172 195 0
174 197 0
170 193 0
173 197 0
172 196 0
174 198 0
176 198 0
173 197 0
173 197 0
173 197 0
175 198 0
172 196 0
172 195 0
174 197 0
173 196 0
175 198 0
174 198 0
171 196 0
173 196 0
174 198 0
173 197 0
173 197 0
173 196 0
173 197 0
172 197 0
173 197 0
173 196 0
174 198 0
174 198 0
176 199 0
171 195 0
173 197 0
172 196 0
173 197 0
173 197 0
174 197 0
173 197 0
175 198 0
173 197 0
173 196 0
173 197 0
172 195 0
173 196 0
174 197 0
173 196 0
174 197 0
174 197 0
173 197 0
173 196 0
174 198 0
175 198 0
175 198 0
171 195 0
174 197 0
175 198 0
176 199 0
176 199 0
176 198 0
173 196 0
175 198 0
174 197 0
173 197 0
173 197 0
174 198 0
175 198 0
175 198 0
174 198 0
175 198 0
173 197 0
174 197 0
173 197 0
174 198 0
173 197 0
173 196 0
175 198 0
174 198 0
174 198 0
173 197 0
173 197 0
174 198 0
173 197 0
173 197 0
173 197 0
176 198 0
173 197 0
174 198 0
174 197 0
173 197 0
174 198 0
175 198 0
174 198 0
174 197 0
174 197 0
174 198 0
172 196 0
175 198 0
175 198 0
173 197 0
173 197 0
175 198 0
175 198 0
174 197 0
174 197 0
174 197 0
174 197 0
173 196 0
174 197 0
174 197 0
173 197 0
174 198 0
174 198 0
174 197 0
174 197 0
173 197 0
175 198 0
173 197 0
173 197 0
173 197 0
174 198 0
174 198 0
175 198 0
174 198 0
174 197 0
174 197 0
175 198 0
174 198 0
175 198 0
174 197 0
173 197 0
173 197 0
175 198 0
174 198 0
176 198 0
174 197 0
174 198 0
174 197 0
175 198 0
174 198 0
173 197 0
173 197 0
176 199 0
174 198 0
175 198 0
175 198 0
175 198 0
175 198 0
176 198 0
175 198 0
175 198 0
174 198 0
174 198 0
174 197 0
173 197 0
175 198 0
175 198 0
173 197 0
174 198 0
173 197 0
174 198 0
174 197 0
173 197 0
174 198 0
174 198 0
173 197 0
175 198 0
175 198 0
175 198 0
173 197 0
175 198 0
174 197 0
173 197 0
175 198 0
173 197 0
174 197 0
174 198 0
174 198 0
173 197 0
174 197 0
175 198 0
176 198 0
173 197 0
174 198 0
175 198 0
174 198 0
175 198 0
174 197 0
173 197 0
175 198 0
175 198 0
175 198 0
173 197 0
174 198 0
175 198 0
173 197 0
174 198 0
175 198 0
174 197 0
175 198 0
174 197 0
177 199 0
173 197 0
174 198 0
172 197 0
173 197 0
174 198 0
173 197 0
175 198 0
174 198 0
175 198 0
174 198 0
173 197 0
175 198 0
174 197 0
174 197 0
173 197 0
174 198 0
175 198 0
175 198 0
174 198 0
174 198 0
173 197 0
174 197 0
176 199 0
173 196 0
174 198 0
173 197 0
175 198 0
175 197 0
174 197 0
174 197 0
173 197 0
173 197 0
174 198 0
174 198 0
173 197 0
176 199 0
174 198 0
176 198 0
175 198 0
174 198 0
174 197 0
174 198 0
172 196 0
174 197 0
174 198 0
173 197 0
175 198 0
175 198 0
174 197 0
174 198 0
172 196 0
171 195 0
175 198 0
174 197 0
175 198 0
175 198 0
173 197 0
174 197 0
173 197 0
172 197 0
174 197 0
174 198 0
175 198 0
175 198 0
174 198 0
175 198 0
175 198 0
173 197 0
173 197 0
173 197 0
175 198 0
174 197 0
175 198 0
174 198 0
172 196 0
174 197 0
175 198 0
174 198 0
174 197 0
171 195 0
175 198 0
172 197 0
176 198 0
173 197 0
174 197 0
173 196 0
173 197 0
170 194 0
174 197 0
171 195 0
174 197 0
172 196 0
173 197 0
174 197 0
174 197 0
173 197 0
173 196 0
175 198 0
172 195 0
174 198 0
171 195 0
174 197 0
172 196 0
172 196 0
174 197 0
172 196 0
172 197 0
175 198 0
173 197 0
172 196 0
173 196 0
174 197 0
174 197 0
175 198 0
174 197 0
173 197 0
172 197 0
174 197 0
173 197 0
173 196 0
174 197 0
174 197 0
173 197 0
173 197 0
173 197 0
173 196 0
173 197 0
172 196 0
176 199 0
174 197 0
174 197 0
172 196 0
173 196 0
173 197 0
174 197 0
171 195 0
173 196 0
170 193 0
172 196 0
174 198 0
175 197 0
175 198 0
173 197 0
174 197 0
174 197 0
172 196 0
170 194 0
174 197 0
174 197 0
171 195 0
175 198 0
175 197 0
173 196 0
174 197 0
170 194 0
173 196 0
173 197 0
173 196 0
173 196 0
173 196 0
175 198 0
174 197 0
173 197 0
174 197 0
174 197 0
174 197 0
171 194 0
174 197 0
175 198 0
173 197 0
177 199 0
173 197 0
174 198 0
170 194 0
173 197 0
174 197 0
174 197 0
174 197 0
175 198 0
172 196 0
172 196 0
171 195 0
173 196 0
173 197 0
174 198 0
172 195 0
173 196 0
174 197 0
173 197 0
173 197 0
174 197 0
173 197 0
174 198 0
174 197 0
175 197 0
172 195 0
174 197 0
173 197 0
174 198 0
175 198 0
171 194 0
174 197 0
172 196 0
173 197 0
173 196 0
174 197 0
172 196 0
172 196 0
173 196 0
173 196 0
173 197 0
175 198 0
173 197 0
172 195 0
173 197 0
172 196 0
175 198 0
173 196 0
173 197 0
173 196 0
173 196 0
174 196 0
173 197 0
174 197 0
176 198 0
175 198 0
173 197 0
174 197 0
173 197 0
175 198 0
173 196 0
173 197 0
174 197 0
173 197 0
174 197 0
174 198 0
174 197 0
174 197 0
175 197 0
173 196 0
173 197 0
174 197 0
175 198 0
174 197 0
172 196 0
172 195 0
173 197 0
174 197 0
173 197 0
175 198 0
174 198 0
176 198 0
175 198 0
174 197 0
174 197 0
173 196 0
174 197 0
175 198 0
176 199 0
175 198 0
175 198 0
172 196 0
173 196 0
171 195 0
173 197 0
174 197 0
175 198 0
172 197 0
175 198 0
173 196 0
174 198 0
172 195 0
175 198 0
173 197 0
175 198 0
172 196 0
173 196 0
176 198 0
174 197 0
173 197 0
175 198 0
173 197 0
173 197 0
174 197 0
174 198 0
175 198 0
176 198 0
174 197 0
173 197 0
173 197 0
174 197 0
173 197 0
174 198 0
174 198 0
174 198 0
175 198 0
175 198 0
175 198 0
175 198 0
174 197 0
174 197 0
175 198 0
174 197 0
175 198 0
174 198 0
175 198 0
173 197 0
175 198 0
176 199 0
175 198 0
173 197 0
173 197 0
176 198 0
176 198 0
174 198 0
175 198 0
174 198 0
174 197 0
174 197 0
175 198 0
174 198 0
174 198 0
174 198 0
172 196 0
175 198 0
173 197 0
175 198 0
174 197 0
174 198 0
174 197 0
173 197 0
174 197 0
175 198 0
174 198 0
175 198 0
175 198 0
175 198 0
174 197 0
175 198 0
174 198 0
175 198 0
173 197 0
176 199 0
175 198 0
173 197 0
175 198 0
174 198 0
175 198 0
175 198 0
174 198 0
172 197 0
173 197 0
176 199 0
175 198 0
174 197 0
174 198 0
175 198 0
174 197 0
177 199 0
175 198 0
175 198 0
175 198 0
173 196 0
173 196 0
176 198 0
174 198 0
175 198 0
176 199 0
171 196 0
174 198 0
174 198 0
174 197 0
175 198 0
174 197 0
176 199 0
174 198 0
174 198 0
173 196 0
176 198 0
174 197 0
175 198 0
174 198 0
175 198 0
174 198 0
174 197 0
175 198 0
174 198 0
174 198 0
173 197 0
174 198 0
173 197 0
173 197 0
173 197 0
173 197 0
174 198 0
175 198 0
173 196 0
174 197 0
176 198 0
175 198 0
174 198 0
175 198 0
171 195 0
174 198 0
173 197 0
174 198 0
174 198 0
173 197 0
174 198 0
175 198 0
175 198 0
174 197 0
175 198 0
174 198 0
173 197 0
173 197 0
174 198 0
174 197 0
176 198 0
175 198 0
174 198 0
175 198 0
174 198 0
174 198 0
173 197 0
173 197 0
174 197 0
175 198 0
175 198 0
172 196 0
173 197 0
176 198 0
175 198 0
174 198 0
172 196 0
175 198 0
175 198 0
174 198 0
175 198 0
174 198 0
175 198 0
174 198 0
174 198 0
172 196 0
175 198 0
177 199 0
173 197 0
174 198 0
174 198 0
174 197 0
174 197 0
173 197 0
176 199 0
175 198 0
173 197 0
175 198 0
174 198 0
175 198 0
175 198 0
175 198 0
173 197 0
172 196 0
174 198 0
175 198 0
175 198 0
175 198 0
176 199 0
172 196 0
173 196 0
174 197 0
173 197 0
176 199 0
175 198 0
173 197 0
172 196 0
174 197 0
173 197 0
173 197 0
175 198 0
174 198 0
174 198 0
173 197 0
173 196 0
173 197 0
175 198 0
172 197 0
174 198 0
174 197 0
174 198 0
172 196 0
174 197 0
175 198 0
174 197 0
175 198 0
174 198 0
173 197 0
173 196 0
175 198 0
175 198 0
174 197 0
175 198 0
174 197 0
172 196 0
174 198 0
173 197 0
172 196 0
174 197 0
174 197 0
176 198 0
174 198 0
174 197 0
173 197 0
173 197 0
173 197 0
174 198 0
174 197 0
173 196 0
171 195 0
173 197 0
173 196 0
171 195 0
175 198 0
173 196 0
173 197 0
173 197 0
173 197 0
174 198 0
172 196 0
173 196 0
175 198 0
172 195 0
170 195 0
172 196 0
174 197 0
173 197 0
175 198 0
173 196 0
173 196 0
173 196 0
173 197 0
175 198 0
175 198 0
171 194 0
173 196 0
173 196 0
172 196 0
174 196 0
173 196 0
172 195 0
174 196 0
173 197 0
170 194 0
171 195 0
175 198 0
176 199 0
174 197 0
171 194 0
174 197 0
173 197 0
172 196 0
175 198 0
174 198 0
174 197 0
173 197 0
176 199 0
173 196 0
173 197 0
175 198 0
171 195 0
173 197 0
174 197 0
172 196 0
175 198 0
171 195 0
173 197 0
174 197 0
172 196 0
174 197 0
173 197 0
175 198 0
173 197 0
174 197 0
172 196 0
173 197 0
173 196 0
173 197 0
174 197 0
174 197 0
172 196 0
173 197 0
171 194 0
172 196 0
173 196 0
173 197 0
174 197 0
174 198 0
173 196 0
171 195 0
174 197 0
175 198 0
173 197 0
171 195 0
169 194 0
175 198 0
174 197 0
174 197 0
172 196 0
175 198 0
174 197 0
174 197 0
175 198 0
172 196 0
173 197 0
174 197 0
172 195 0
174 197 0
174 197 0
174 197 0
174 198 0
173 196 0
173 197 0
172 196 0
173 196 0
173 197 0
172 196 0
173 196 0
174 197 0
174 198 0
174 197 0
174 197 0
172 196 0
173 197 0
174 197 0
176 198 0
173 197 0
175 198 0
173 197 0
175 197 0
173 197 0
174 197 0
173 196 0
173 197 0
173 197 0
172 195 0
173 196 0
173 196 0
174 198 0
175 198 0
174 197 0
175 198 0
173 197 0
172 196 0
174 197 0
174 198 0
171 196 0
174 197 0
175 198 0
174 197 0
175 198 0
174 197 0
175 198 0
173 197 0
173 197 0
175 198 0
174 198 0
174 198 0
174 198 0
173 197 0
175 198 0
174 197 0
173 196 0
176 198 0
174 197 0
175 198 0
175 198 0
175 198 0
176 199 0
175 198 0
174 197 0
173 197 0
174 197 0
175 198 0
174 197 0
176 199 0
174 198 0
174 197 0
174 198 0
173 197 0
175 198 0
175 198 0
174 198 0
173 197 0
173 196 0
175 198 0
174 198 0
175 198 0
175 198 0
172 196 0
174 197 0
172 197 0
174 198 0
175 198 0
174 197 0
175 198 0
176 198 0
175 198 0
173 197 0
172 197 0
174 198 0
176 198 0
174 198 0
173 197 0
175 198 0
176 198 0
173 197 0
173 197 0
175 198 0
175 198 0
173 196 0
175 198 0
174 198 0
173 197 0
175 198 0
175 198 0
175 198 0
174 198 0
176 199 0
173 197 0
174 198 0
174 198 0
175 198 0
173 196 0
174 197 0
175 198 0
174 197 0
174 197 0
174 197 0
176 199 0
175 198 0
174 198 0
173 197 0
173 197 0
174 198 0
174 198 0
172 196 0
175 198 0
174 198 0
174 198 0
175 198 0
174 197 0
174 198 0
174 198 0
174 197 0
175 198 0
174 198 0
175 198 0
173 197 0
173 197 0
174 198 0
173 197 0
174 198 0
174 197 0
174 197 0
175 198 0
173 197 0
173 197 0
173 197 0
174 198 0
173 197 0
177 199 0
175 198 0
172 196 0
175 198 0
173 197 0
173 197 0
175 198 0
173 197 0
175 198 0
173 197 0
175 198 0
175 198 0
173 197 0
174 197 0
173 197 0
175 198 0
175 198 0
174 197 0
176 198 0
176 199 0
174 197 0
174 198 0
175 198 0
174 198 0
174 198 0
174 197 0
175 198 0
175 198 0
173 197 0
175 198 0
174 198 0
175 198 0
173 197 0
174 197 0
175 198 0
174 197 0
173 196 0
174 198 0
174 198 0
174 197 0
174 198 0
175 198 0
176 199 0
174 197 0
173 197 0
175 198 0
176 199 0
173 197 0
175 198 0
174 198 0
175 198 0
173 197 0
174 197 0
174 198 0
175 198 0
175 198 0
173 197 0
175 198 0
174 198 0
176 199 0
175 198 0
173 196 0
175 198 0
174 197 0
175 198 0
174 198 0
173 197 0
173 197 0
174 197 0
174 197 0
174 197 0
175 198 0
174 198 0
174 198 0
174 198 0
174 197 0
174 198 0
173 197 0
175 198 0
173 197 0
174 198 0
174 198 0
175 198 0
174 197 0
173 197 0
174 198 0
175 198 0
174 197 0
173 197 0
173 197 0
175 198 0
173 197 0
174 197 0
173 197 0
176 199 0
172 197 0
173 197 0
174 198 0
175 198 0
174 197 0
175 198 0
173 197 0
177 199 0
174 197 0
176 199 0
174 198 0
173 197 0
173 197 0
175 198 0
173 197 0
174 197 0
174 197 0
175 198 0
174 198 0
173 196 0
175 198 0
174 198 0
174 197 0
173 196 0
175 198 0
174 197 0
174 197 0
173 196 0
173 197 0
174 198 0
175 198 0
171 195 0
173 197 0
174 197 0
173 197 0
173 197 0
174 197 0
174 197 0
173 197 0
174 197 0
174 197 0
173 196 0
173 197 0
174 198 0
175 198 0
173 196 0
173 197 0
174 198 0
173 197 0
173 197 0
172 196 0
174 197 0
173 196 0
176 199 0
174 197 0
173 197 0
174 198 0
174 197 0
173 197 0
173 197 0
174 196 0
171 195 0
173 197 0
175 198 0
174 197 0
173 196 0
174 198 0
174 197 0
173 197 0
172 196 0
176 198 0
173 197 0
174 197 0
174 197 0
172 196 0
172 196 0
175 198 0
173 197 0
172 196 0
174 197 0
173 197 0
175 197 0
173 196 0
173 197 0
173 197 0
174 196 0
174 197 0
172 195 0
174 197 0
173 197 0
173 196 0
175 198 0
173 195 0
171 195 0
173 196 0
174 197 0
172 196 0
172 196 0
175 198 0
172 195 0
174 197 0
172 195 0
175 197 0
172 195 0
170 194 0
171 195 0
173 196 0
169 193 0
174 197 0
173 197 0
173 197 0
172 195 0
175 198 0
173 196 0
175 198 0
175 198 0
173 197 0
173 197 0
172 196 0
174 198 0
173 197 0
174 197 0
173 196 0
173 196 0
174 198 0
174 197 0
172 197 0
172 196 0
174 198 0
174 197 0
174 197 0
175 198 0
175 198 0
173 197 0
173 196 0
173 197 0
172 196 0
173 197 0
175 198 0
173 196 0
173 197 0
171 195 0
171 195 0
173 196 0
173 197 0
173 197 0
174 197 0
175 197 0
173 197 0
174 197 0
174 198 0
174 198 0
174 197 0
172 196 0
174 196 0
174 197 0
175 198 0
173 197 0
173 196 0
173 196 0
174 198 0
172 196 0
174 196 0
174 198 0
174 197 0
174 197 0
173 197 0
175 198 0
174 197 0
174 197 0
175 198 0
174 198 0
172 196 0
175 198 0
173 197 0
174 197 0
171 195 0
174 197 0
176 198 0
173 197 0
175 198 0
175 198 0
175 198 0
175 198 0
175 198 0
173 197 0
173 197 0
175 198 0
174 198 0
174 197 0
174 197 0
173 197 0
175 198 0
174 197 0
175 198 0
172 196 0
174 198 0
174 197 0
174 198 0
176 198 0
173 197 0
174 197 0
175 198 0
173 197 0
173 197 0
173 196 0
172 197 0
174 197 0
175 198 0
172 196 0
174 197 0
175 198 0
172 196 0
174 197 0
173 196 0
173 197 0
173 196 0
174 197 0
174 198 0
175 198 0
174 198 0
173 196 0
174 197 0
174 198 0
174 198 0
174 198 0
173 196 0
173 196 0
175 198 0
176 199 0
174 198 0
175 198 0
175 198 0
176 198 0
173 196 0
174 197 0
174 198 0
176 199 0
174 198 0
173 196 0
175 198 0
174 198 0
172 196 0
174 197 0
174 198 0
176 199 0
174 198 0
174 197 0
175 198 0
175 198 0
174 197 0
175 198 0
174 197 0
174 198 0
173 197 0
174 197 0
173 197 0
174 198 0
173 197 0
172 196 0
174 198 0
174 198 0
173 197 0
174 197 0
173 197 0
173 197 0
175 198 0
175 198 0
175 198 0
175 198 0
175 198 0
173 197 0
172 196 0
174 197 0
176 199 0
174 198 0
171 195 0
173 197 0
173 197 0
173 197 0
176 198 0
175 198 0
174 198 0
175 198 0
173 197 0
172 196 0
173 197 0
174 198 0
175 198 0
175 198 0
174 197 0
175 198 0
173 197 0
175 198 0
176 198 0
173 197 0
173 197 0
175 198 0
175 198 0
174 198 0
175 198 0
174 198 0
175 198 0
177 199 0
174 198 0
175 198 0
175 198 0
173 197 0
175 198 0
174 198 0
175 198 0
174 197 0
175 198 0
174 198 0
173 197 0
174 197 0
175 198 0
174 198 0
175 198 0
174 198 0
175 198 0
174 197 0
175 198 0
173 197 0
175 198 0
176 198 0
173 197 0
175 198 0
173 197 0
175 198 0
174 197 0
174 198 0
174 197 0
174 198 0
174 197 0
173 197 0
173 197 0
173 197 0
173 197 0
176 198 0
175 198 0
175 198 0
175 198 0
174 198 0
175 198 0
174 198 0
172 196 0
175 198 0
174 198 0
173 196 0
173 197 0
174 198 0
174 197 0
172 196 0
175 198 0
174 198 0
174 197 0
173 197 0
173 197 0
174 197 0
173 197 0
174 197 0
173 197 0
174 198 0
175 198 0
173 197 0
174 198 0
173 197 0
173 197 0
175 198 0
175 198 0
175 198 0
175 198 0
172 196 0
172 196 0
174 197 0
173 196 0
173 197 0
174 198 0
173 196 0
173 197 0
174 197 0
173 197 0
173 197 0
176 199 0
174 197 0
173 197 0
173 197 0
175 198 0
173 196 0
173 196 0
175 198 0
174 198 0
175 198 0
174 198 0
174 197 0
175 198 0
175 198 0
175 198 0
174 198 0
175 198 0
175 198 0
176 199 0
173 196 0
175 198 0
173 197 0
175 198 0
175 198 0
175 197 0
174 198 0
174 197 0
174 198 0
174 198 0
174 197 0
172 196 0
174 197 0
175 198 0
174 197 0
170 195 0
173 197 0
174 198 0
176 198 0
173 197 0
174 197 0
174 198 0
173 197 0
172 196 0
174 197 0
174 197 0
175 197 0
173 196 0
173 197 0
174 198 0
172 196 0
173 197 0
174 197 0
174 197 0
173 197 0
174 198 0
172 196 0
174 198 0
172 196 0
174 197 0
175 198 0
174 197 0
173 197 0
175 198 0
174 198 0
172 196 0
172 196 0
174 197 0
172 196 0
174 197 0
174 197 0
172 196 0
174 197 0
172 196 0
171 195 0
173 197 0
171 195 0
174 197 0
171 195 0
174 197 0
175 198 0
175 198 0
173 196 0
174 197 0
174 197 0
173 197 0
173 196 0
171 195 0
174 197 0
174 198 0
175 198 0
173 197 0
174 196 0
176 199 0
171 195 0
172 195 0
170 193 0
172 196 0
174 197 0
175 198 0
173 197 0
173 195 0
171 195 0
173 197 0
174 198 0
171 194 0
175 198 0
173 197 0
174 198 0
174 197 0
171 195 0
173 196 0
173 196 0
173 196 0
173 197 0
171 195 0
173 195 0
173 197 0
173 197 0
173 196 0
174 197 0
173 197 0
173 197 0
171 195 0
174 197 0
173 196 0
176 199 0
174 198 0
172 196 0
175 198 0
175 198 0
174 197 0
172 196 0
174 197 0
174 197 0
172 196 0
171 196 0
175 198 0
173 197 0
175 198 0
174 197 0
173 197 0
175 198 0
174 197 0
174 197 0
174 196 0
173 196 0
173 196 0
174 197 0
174 198 0
173 197 0
171 195 0
175 198 0
173 197 0
173 197 0
174 197 0
173 196 0
174 197 0
173 197 0
173 197 0
174 197 0
174 197 0
172 196 0
177 199 0
172 195 0
174 197 0
173 196 0
174 198 0
175 198 0
174 197 0
173 197 0
174 197 0
173 197 0
174 198 0
175 198 0
172 196 0
173 196 0
174 198 0
173 197 0
175 198 0
176 198 0
172 196 0
172 196 0
172 195 0
176 199 0
175 198 0
172 195 0
173 196 0
174 198 0
175 198 0
174 197 0
174 197 0
175 198 0
172 196 0
174 198 0
174 197 0
174 197 0
174 198 0
175 198 0
174 197 0
174 197 0
174 198 0
173 197 0
174 198 0
175 197 0
173 197 0
173 197 0
174 198 0
175 198 0
173 197 0
173 197 0
172 196 0
174 197 0
174 198 0
173 197 0
175 198 0
173 197 0
174 198 0
175 198 0
173 197 0
175 198 0
173 197 0
174 197 0
173 197 0
175 198 0
173 197 0
174 198 0
174 198 0
175 198 0
174 197 0
175 198 0
173 196 0
173 197 0
174 197 0
175 198 0
172 196 0
173 197 0
175 198 0
174 197 0
172 196 0
172 197 0
174 197 0
174 197 0
174 198 0
175 198 0
175 197 0
175 198 0
176 198 0
175 198 0
175 198 0
174 197 0
173 197 0
174 198 0
173 197 0
174 198 0
175 198 0
175 198 0
173 197 0
173 197 0
173 196 0
173 197 0
173 197 0
173 197 0
174 198 0
174 198 0
173 197 0
174 197 0
172 197 0
175 198 0
174 196 0
174 197 0
173 197 0
173 197 0
173 197 0
174 198 0
174 197 0
176 198 0
175 198 0
175 198 0
175 198 0
174 197 0
173 197 0
175 198 0
175 198 0
173 197 0
175 198 0
176 198 0
176 198 0
175 198 0
175 198 0
172 196 0
173 197 0
174 198 0
173 197 0
175 198 0
174 197 0
174 198 0
174 197 0
174 198 0
174 198 0
174 198 0
175 198 0
174 198 0
174 198 0
175 198 0
174 198 0
175 198 0
175 198 0
174 197 0
174 198 0
174 198 0
173 197 0
174 198 0
174 197 0
174 198 0
174 198 0
174 197 0
174 198 0
175 198 0
176 199 0
174 197 0
174 198 0
173 197 0
174 197 0
174 198 0
173 197 0
176 199 0
175 198 0
176 198 0
173 197 0
174 197 0
173 197 0
173 197 0
175 198 0
174 198 0
173 197 0
174 198 0
174 197 0
174 198 0
175 198 0
174 197 0
173 197 0
174 197 0
175 198 0
175 198 0
175 198 0
175 198 0
174 198 0
173 197 0
175 198 0
171 195 0
174 198 0
174 198 0
175 198 0
174 198 0
174 197 0
174 197 0
175 197 0
175 198 0
176 198 0
173 197 0
173 197 0
173 197 0
174 197 0
175 198 0
175 198 0
173 197 0
174 198 0
173 197 0
174 198 0
175 198 0
174 197 0
174 197 0
175 198 0
173 197 0
175 198 0
173 197 0
174 198 0
172 197 0
174 197 0
175 198 0
172 196 0
173 197 0
174 197 0
172 196 0
176 199 0
175 198 0
174 197 0
174 197 0
174 197 0
175 197 0
174 198 0
174 198 0
175 198 0
173 197 0
176 198 0
175 198 0
173 197 0
176 199 0
172 196 0
173 197 0
172 196 0
175 198 0
174 198 0
175 198 0
173 197 0
175 198 0
173 197 0
173 197 0
174 198 0
176 198 0
174 197 0
174 198 0
174 197 0
175 198 0
175 198 0
173 196 0
176 198 0
173 197 0
172 197 0
173 197 0
174 198 0
174 197 0
174 198 0
173 197 0
173 197 0
175 198 0
174 198 0
174 198 0
176 199 0
174 197 0
173 196 0
172 196 0
174 197 0
172 196 0
175 198 0
174 197 0
173 197 0
175 198 0
174 197 0
173 197 0
175 198 0
174 197 0
175 198 0
175 198 0
173 197 0
175 198 0
172 195 0
173 196 0
175 198 0
174 198 0
175 198 0
175 198 0
174 197 0
172 196 0
174 198 0
173 197 0
174 198 0
172 196 0
175 198 0
173 196 0
174 198 0
175 198 0
173 196 0
175 198 0
173 196 0
172 196 0
172 196 0
175 198 0
173 196 0
172 196 0
172 196 0
173 197 0
173 197 0
172 196 0
173 197 0
173 197 0
172 196 0
172 195 0
174 197 0
172 196 0
172 195 0
175 198 0
175 198 0
173 196 0
174 197 0
173 196 0
172 196 0
173 197 0
176 198 0
175 198 0
174 198 0
173 197 0
174 197 0
174 198 0
175 197 0
174 197 0
174 197 0
170 193 0
173 197 0
174 197 0
176 199 0
171 195 0
175 198 0
171 195 0
175 198 0
173 197 0
172 195 0
175 198 0
172 195 0
173 196 0
174 197 0
173 197 0
173 196 0
172 196 0
171 195 0
173 197 0
176 199 0
171 194 0
173 196 0
173 197 0
171 195 0
174 197 0
175 198 0
175 198 0
174 198 0
175 198 0
175 198 0
173 197 0
172 196 0
174 197 0
173 196 0
171 195 0
173 197 0
174 197 0
172 196 0
172 195 0
173 197 0
174 197 0
174 198 0
173 196 0
174 197 0
174 197 0
174 197 0
174 197 0
173 197 0
175 198 0
173 196 0
172 194 0
174 197 0
173 197 0
173 197 0
172 196 0
174 197 0
173 197 0
173 196 0
173 197 0
173 196 0
173 196 0
173 196 0
175 197 0
173 197 0
175 198 0
172 196 0
175 197 0
173 196 0
172 196 0
174 197 0
174 197 0
176 198 0
175 198 0
175 197 0
174 197 0
172 196 0
174 198 0
171 195 0
174 197 0
174 198 0
173 196 0
174 198 0
175 198 0
174 197 0
173 197 0
174 197 0
175 197 0
174 197 0
172 196 0
173 197 0
174 197 0
173 197 0
174 198 0
174 197 0
173 196 0
174 198 0
171 196 0
174 197 0
173 197 0
173 197 0
174 197 0
174 198 0
173 197 0
174 197 0
174 197 0
175 198 0
174 197 0
175 198 0
174 198 0
173 197 0
174 197 0
173 197 0
173 197 0
174 198 0
176 198 0
174 197 0
174 197 0
174 197 0
175 198 0
175 198 0
175 198 0
173 196 0
174 197 0
174 197 0
174 197 0
173 197 0
174 198 0
173 197 0
173 196 0
175 197 0
177 199 0
172 197 0
174 198 0
171 195 0
174 197 0
174 198 0
174 198 0
174 197 0
174 198 0
174 197 0
174 197 0
174 198 0
174 198 0
173 197 0
175 198 0
174 197 0
175 198 0
173 197 0
173 197 0
174 197 0
173 197 0
173 197 0
175 198 0
175 198 0
173 197 0
174 197 0
175 198 0
175 198 0
174 198 0
173 197 0
173 197 0
175 198 0
176 199 0
173 197 0
172 196 0
173 197 0
174 197 0
176 199 0
174 198 0
175 198 0
174 198 0
173 197 0
173 197 0
174 198 0
174 197 0
175 198 0
175 198 0
174 198 0
175 198 0
174 197 0
173 197 0
175 198 0
174 197 0
173 197 0
174 198 0
174 198 0
173 197 0
173 197 0
173 197 0
173 197 0
173 197 0
172 196 0
173 197 0
174 197 0
173 197 0
174 198 0
174 198 0
176 199 0
175 198 0
174 198 0
173 197 0
174 198 0
174 198 0
174 197 0
174 198 0
175 198 0
175 198 0
175 198 0
175 198 0
174 198 0
175 198 0
175 198 0
174 198 0
175 198 0
174 198 0
175 198 0
175 198 0
176 199 0
174 198 0
174 198 0
174 198 0
173 197 0
175 198 0
174 197 0
173 197 0
173 197 0
175 198 0
172 197 0
174 197 0
174 198 0
175 198 0
173 197 0
174 198 0
173 197 0
174 197 0
174 198 0
172 197 0
174 197 0
174 198 0
174 198 0
175 198 0
174 198 0
173 197 0
172 196 0
174 198 0
174 197 0
174 198 0
175 198 0
174 197 0
173 197 0
172 197 0
175 198 0
174 198 0
174 198 0
173 197 0
173 197 0
174 198 0
174 198 0
176 198 0
173 196 0
175 198 0
175 198 0
175 198 0
174 198 0
173 197 0
174 198 0
174 198 0
174 198 0
175 198 0
174 197 0
176 199 0
173 197 0
177 199 0
175 198 0
174 197 0
174 198 0
175 198 0
174 197 0
173 197 0
175 198 0
175 198 0
175 198 0
175 198 0
174 198 0
173 197 0
175 198 0
173 196 0
176 199 0
175 198 0
175 198 0
173 197 0
174 198 0
175 198 0
174 198 0
175 198 0
176 199 0
174 197 0
174 198 0
174 197 0
174 197 0
174 197 0
174 198 0
175 198 0
174 197 0
171 196 0
175 198 0
174 197 0
173 197 0
173 197 0
174 198 0
173 197 0
174 197 0
174 197 0
172 196 0
174 197 0
173 197 0
175 198 0
173 197 0
174 197 0
175 198 0
175 198 0
170 195 0
174 198 0
174 197 0
174 198 0
174 198 0
172 196 0
174 197 0
174 197 0
173 197 0
171 195 0
174 197 0
174 196 0
174 197 0
175 198 0
174 197 0
175 198 0
174 198 0
172 196 0
173 197 0
175 198 0
174 197 0
172 197 0
175 198 0
174 198 0
174 198 0
172 195 0
173 196 0
173 197 0
174 197 0
173 197 0
174 197 0
171 195 0
176 198 0
172 196 0
172 195 0
172 196 0
172 196 0
175 198 0
176 198 0
175 198 0
175 198 0
172 195 0
172 196 0
172 196 0
174 198 0
170 194 0
172 196 0
172 196 0
173 196 0
173 197 0
174 197 0
174 198 0
175 198 0
172 196 0
171 195 0
175 198 0
173 196 0
174 197 0
173 197 0
172 196 0
174 197 0
172 196 0
174 197 0
171 194 0
172 196 0
174 197 0
175 198 0
176 198 0
175 197 0
174 197 0
173 197 0
170 194 0
172 197 0
173 196 0
173 196 0
174 197 0
172 196 0
173 197 0
171 195 0
174 198 0
173 196 0
173 197 0
172 196 0
172 196 0
173 196 0
173 197 0
172 196 0
173 197 0
173 197 0
173 197 0
175 198 0
174 197 0
171 195 0
175 198 0
174 197 0
171 195 0
173 197 0
174 197 0
175 197 0
174 198 0
172 196 0
175 198 0
175 198 0
173 197 0
174 197 0
172 196 0
174 197 0
172 196 0
172 196 0
171 195 0
173 196 0
172 196 0
174 197 0
173 197 0
174 197 0
172 195 0
173 196 0
172 196 0
173 196 0
173 197 0
174 196 0
173 197 0
172 195 0
171 195 0
173 196 0
174 197 0
175 198 0
174 198 0
174 197 0
173 196 0
173 197 0
172 196 0
173 196 0
172 196 0
173 196 0
173 197 0
173 196 0
173 196 0
174 197 0
174 197 0
174 197 0
174 197 0
172 196 0
173 196 0
174 198 0
172 196 0
174 197 0
173 197 0
174 197 0
172 196 0
173 197 0
173 197 0
174 198 0
173 196 0
175 198 0
173 197 0
172 196 0
174 198 0
174 197 0
174 198 0
174 198 0
174 197 0
174 197 0
174 198 0
175 198 0
176 199 0
175 198 0
174 197 0
173 197 0
171 195 0
175 198 0
174 197 0
174 197 0
173 196 0
173 197 0
173 197 0
175 198 0
173 196 0
174 197 0
174 198 0
175 198 0
174 197 0
174 198 0
173 196 0
176 198 0
174 197 0
174 197 0
172 196 0
176 199 0
172 196 0
174 197 0
174 198 0
174 198 0
173 197 0
174 197 0
174 198 0
174 198 0
176 199 0
174 197 0
175 198 0
173 197 0
174 198 0
173 197 0
176 198 0
175 198 0
174 198 0
174 198 0
174 197 0
175 198 0
174 197 0
174 197 0
175 198 0
173 197 0
171 196 0
173 197 0
173 197 0
175 198 0
173 197 0
174 198 0
174 198 0
174 198 0
174 198 0
173 196 0
173 197 0
172 197 0
173 197 0
172 196 0
174 197 0
174 197 0
174 197 0
173 197 0
173 197 0
172 196 0
173 196 0
176 199 0
173 197 0
175 198 0
174 198 0
172 196 0
173 197 0
173 197 0
174 197 0
174 197 0
175 198 0
173 197 0
174 198 0
174 198 0
175 198 0
175 198 0
173 197 0
175 198 0
174 198 0
171 195 0
176 198 0
175 198 0
173 197 0
174 198 0
173 197 0
174 198 0
174 197 0
174 198 0
174 197 0
174 198 0
175 198 0
171 196 0
173 197 0
175 198 0
175 198 0
175 198 0
174 198 0
173 196 0
174 198 0
174 198 0
172 196 0
173 197 0
174 198 0
174 197 0
174 197 0
174 197 0
174 198 0
175 198 0
176 198 0
174 197 0
175 198 0
174 197 0
175 198 0
174 198 0
175 198 0
174 197 0
174 198 0
174 198 0
175 198 0
174 198 0
175 198 0
175 198 0
176 199 0
174 197 0
175 198 0
173 197 0
174 198 0
175 198 0
176 199 0
173 197 0
175 198 0
174 198 0
175 198 0
174 198 0
175 198 0
173 197 0
175 198 0
172 196 0
175 198 0
174 197 0
176 199 0
175 198 0
174 197 0
175 198 0
174 197 0
174 198 0
176 199 0
172 196 0
175 198 0
175 198 0
173 197 0
174 197 0
174 197 0
175 198 0
174 198 0
175 198 0
174 198 0
175 198 0
174 197 0
175 198 0
175 198 0
175 198 0
175 198 0
175 198 0
175 198 0
175 198 0
170 195 0
174 197 0
174 197 0
174 198 0
175 198 0
173 197 0
173 197 0
174 198 0
175 198 0
173 197 0
173 197 0
174 198 0
176 199 0
175 198 0
174 198 0
175 198 0
174 197 0
174 198 0
173 197 0
174 198 0
173 197 0
173 197 0
175 198 0
174 197 0
174 197 0
175 198 0
173 197 0
174 197 0
174 197 0
176 198 0
176 199 0
173 197 0
175 198 0
175 198 0
175 198 0
175 198 0
176 199 0
175 198 0
173 197 0
175 198 0
174 197 0
173 196 0
173 197 0
174 198 0
174 198 0
175 198 0
174 198 0
174 197 0
175 198 0
173 197 0
174 197 0
173 196 0
175 198 0
174 198 0
173 197 0
174 198 0
175 198 0
174 198 0
172 196 0
173 196 0
176 198 0
174 197 0
175 198 0
173 197 0
172 196 0
174 197 0
173 197 0
174 197 0
174 197 0
174 197 0
174 197 0
174 198 0
174 197 0
174 198 0
176 198 0
175 198 0
176 199 0
172 195 0
173 197 0
175 197 0
174 198 0
172 195 0
173 197 0
174 197 0
173 197 0
175 198 0
175 198 0
174 197 0
175 197 0
174 197 0
173 197 0
173 197 0
174 198 0
173 197 0
173 196 0
175 198 0
176 198 0
174 197 0
175 197 0
175 198 0
174 198 0
172 196 0
174 197 0
173 197 0
174 197 0
173 197 0
173 196 0
175 198 0
175 198 0
173 196 0
174 197 0
172 196 0
174 197 0
172 196 0
173 196 0
173 197 0
173 197 0
173 196 0
174 198 0
172 196 0
174 197 0
174 198 0
172 195 0
173 197 0
173 196 0
174 197 0
172 195 0
171 195 0
173 197 0
173 196 0
173 196 0
172 196 0
173 196 0
171 194 0
173 195 0
173 197 0
173 197 0
174 198 0
174 198 0
175 198 0
175 198 0
173 197 0
173 197 0
173 197 0
173 196 0
172 196 0
175 197 0
177 199 0
174 198 0
174 197 0
173 197 0
173 197 0
172 196 0
173 197 0
172 195 0
172 196 0
174 198 0
174 198 0
173 196 0
174 198 0
174 198 0
172 196 0
171 195 0
171 195 0
172 196 0
174 197 0
174 197 0
172 196 0
174 197 0
174 197 0
174 197 0
172 196 0
174 197 0
175 197 0
175 198 0
174 197 0
173 197 0
172 196 0
173 197 0
174 197 0
171 195 0
175 197 0
175 198 0
171 195 0
173 196 0
174 198 0
175 198 0
174 198 0
174 198 0
174 197 0
176 198 0
173 197 0
171 195 0
174 197 0
174 197 0
173 197 0
173 196 0
172 196 0
173 197 0
174 197 0
172 195 0
174 198 0
170 195 0
172 196 0
173 196 0
172 196 0
175 198 0
174 197 0
173 197 0
173 196 0
172 196 0
175 197 0
173 197 0
175 198 0
174 197 0
173 197 0
172 196 0
174 197 0
172 196 0
173 197 0
174 198 0
172 196 0
173 197 0
173 197 0
173 196 0
174 197 0
174 197 0
174 198 0
176 198 0
173 197 0
172 196 0
175 198 0
174 198 0
174 197 0
174 197 0
174 197 0
173 196 0
174 198 0
174 197 0
172 196 0
174 197 0
174 197 0
174 198 0
174 197 0
175 198 0
174 197 0
176 198 0
174 198 0
173 197 0
173 197 0
175 198 0
175 198 0
174 198 0
173 197 0
176 198 0
173 197 0
171 195 0
173 197 0
175 198 0
175 198 0
174 197 0
173 197 0
174 197 0
175 198 0
175 198 0
174 198 0
175 198 0
173 196 0
174 197 0
175 198 0
176 199 0
174 198 0
175 198 0
174 197 0
172 196 0
173 197 0
172 196 0
173 197 0
175 198 0
173 197 0
175 198 0
173 196 0
173 197 0
175 198 0
175 198 0
174 197 0
174 198 0
175 198 0
173 197 0
176 199 0
175 198 0
174 198 0
175 198 0
173 197 0
175 197 0
173 197 0
175 198 0
174 198 0
174 198 0
173 197 0
173 197 0
174 198 0
175 198 0
174 197 0
174 198 0
175 198 0
174 198 0
173 197 0
174 197 0
173 197 0
173 197 0
174 198 0
174 198 0
174 198 0
175 198 0
174 198 0
173 197 0
175 198 0
177 199 0
174 198 0
175 198 0
174 197 0
174 197 0
175 198 0
174 197 0
173 197 0
173 197 0
174 198 0
173 197 0
174 197 0
173 197 0
174 197 0
177 199 0
173 197 0
175 198 0
173 197 0
174 198 0
174 198 0
175 198 0
174 198 0
174 198 0
175 198 0
174 198 0
174 198 0
175 198 0
174 197 0
173 197 0
174 198 0
174 198 0
175 198 0
176 199 0
173 197 0
174 197 0
172 196 0
175 198 0
174 197 0
175 198 0
175 198 0
175 198 0
175 198 0
173 197 0
174 198 0
174 198 0
174 198 0
173 197 0
172 196 0
173 197 0
174 198 0
176 198 0
174 198 0
174 198 0
175 198 0
173 197 0
174 198 0
174 197 0
174 197 0
174 198 0
174 198 0
174 197 0
173 197 0
176 198 0
175 198 0
174 198 0
174 198 0
174 198 0
174 197 0
174 197 0
175 198 0
175 198 0
175 198 0
174 197 0
174 197 0
175 198 0
175 198 0
174 197 0
175 198 0
172 197 0
174 197 0
176 198 0
174 198 0
172 196 0
173 196 0
175 198 0
173 197 0
175 198 0
175 198 0
175 198 0
174 197 0
174 198 0
175 198 0
174 198 0
175 198 0
173 197 0
175 198 0
174 198 0
173 196 0
174 198 0
175 198 0
172 196 0
173 197 0
174 197 0
173 197 0
174 197 0
173 197 0
173 197 0
173 197 0
176 199 0
173 197 0
174 198 0
175 198 0
174 197 0
174 198 0
174 197 0
174 198 0
176 199 0
175 198 0
174 197 0
175 198 0
173 197 0
173 197 0
175 198 0
173 197 0
174 198 0
175 198 0
172 196 0
174 197 0
172 196 0
175 198 0
172 197 0
174 198 0
174 198 0
171 195 0
173 197 0
174 198 0
173 197 0
175 198 0
174 197 0
174 197 0
176 198 0
175 198 0
174 198 0
174 198 0
174 198 0
174 198 0
175 198 0
175 198 0
173 197 0
174 198 0
174 198 0
175 198 0
173 197 0
173 197 0
174 197 0
174 198 0
174 198 0
173 196 0
172 196 0
174 197 0
173 197 0
172 196 0
176 198 0
172 196 0
170 194 0
172 196 0
175 198 0
172 196 0
172 196 0
173 197 0
175 198 0
174 197 0
174 197 0
174 197 0
173 197 0
175 198 0
172 196 0
175 198 0
173 197 0
172 196 0
175 198 0
174 198 0
173 197 0
174 197 0
173 196 0
174 197 0
173 197 0
172 195 0
173 197 0
175 198 0
174 198 0
174 197 0
172 196 0
173 196 0
171 195 0
172 196 0
172 196 0
173 196 0
172 196 0
174 198 0
171 195 0
175 198 0
174 197 0
173 197 0
175 198 0
173 197 0
173 197 0
174 197 0
175 198 0
174 197 0
171 196 0
174 198 0
172 196 0
172 195 0
174 198 0
172 195 0
171 195 0
173 197 0
174 197 0
173 197 0
173 197 0
171 195 0
174 198 0
175 198 0
174 197 0
173 197 0
174 198 0
174 197 0
171 195 0
174 198 0
175 198 0
173 196 0
173 197 0
172 196 0
175 198 0
175 198 0
174 197 0
173 197 0
172 196 0
175 198 0
176 199 0
173 195 0
173 197 0
175 198 0
173 197 0
171 194 0
174 197 0
171 195 0
173 196 0
173 196 0
174 197 0
173 197 0
174 197 0
173 197 0
174 197 0
173 196 0
175 198 0
173 197 0
175 198 0
173 197 0
173 197 0
174 197 0
173 196 0
173 196 0
173 196 0
172 196 0
174 198 0
172 196 0
174 198 0
173 196 0
175 197 0
173 197 0
173 196 0
175 198 0
172 195 0
175 198 0
174 198 0
172 195 0
174 197 0
173 196 0
173 197 0
173 197 0
171 195 0
174 198 0
174 198 0
172 196 0
173 196 0
175 198 0
170 194 0
174 197 0
173 197 0
175 198 0
175 198 0
173 196 0
174 197 0
174 198 0
176 199 0
173 196 0
175 198 0
172 196 0
173 197 0
175 198 0
172 196 0
175 198 0
174 198 0
174 197 0
176 198 0
175 198 0
175 198 0
174 197 0
173 197 0
176 199 0
173 196 0
173 197 0
173 196 0
175 198 0
174 198 0
173 197 0
172 196 0
174 198 0
174 198 0
173 196 0
173 197 0
175 198 0
174 197 0
176 198 0
174 198 0
175 198 0
175 198 0
175 197 0
173 197 0
174 198 0
174 197 0
173 197 0
175 198 0
174 197 0
174 197 0
172 196 0
174 198 0
174 197 0
174 197 0
175 198 0
174 197 0
174 197 0
175 198 0
174 197 0
175 198 0
173 196 0
175 198 0
173 196 0
174 198 0
174 197 0
176 199 0
173 197 0
174 197 0
174 197 0
174 197 0
174 197 0
175 198 0
176 198 0
174 197 0
173 197 0
173 196 0
174 197 0
174 198 0
174 197 0
173 197 0
175 198 0
174 198 0
173 197 0
175 197 0
173 197 0
174 198 0
172 196 0
173 197 0
175 197 0
175 198 0
173 197 0
174 197 0
174 198 0
173 197 0
173 197 0
172 196 0
175 198 0
173 197 0
173 197 0
173 197 0
173 197 0
175 198 0
174 198 0
174 197 0
175 198 0
174 198 0
175 198 0
175 198 0
174 198 0
173 197 0
174 198 0
174 198 0
173 197 0
174 198 0
174 198 0
174 198 0
174 198 0
175 198 0
175 198 0
174 198 0
172 196 0
174 198 0
176 199 0
174 198 0
174 198 0
173 197 0
174 198 0
175 198 0
173 197 0
174 198 0
174 198 0
175 198 0
175 198 0
173 197 0
174 198 0
175 198 0
174 197 0
173 197 0
175 198 0
173 197 0
173 197 0
174 198 0
175 198 0
172 196 0
175 198 0
176 199 0
175 198 0
173 197 0
175 198 0
175 198 0
174 197 0
174 198 0
175 198 0
175 198 0
175 198 0
173 197 0
173 197 0
174 197 0
175 198 0
174 198 0
176 199 0
175 198 0
175 198 0
174 197 0
176 199 0
175 198 0
175 198 0
173 197 0
174 198 0
173 197 0
173 197 0
175 198 0
174 197 0
173 197 0
175 198 0
174 198 0
175 198 0
174 197 0
175 198 0
173 197 0
175 198 0
173 197 0
174 198 0
173 197 0
173 197 0
174 198 0
174 198 0
174 198 0
173 197 0
175 198 0
174 198 0
174 197 0
174 198 0
174 198 0
174 197 0
174 198 0
173 197 0
175 198 0
175 198 0
173 197 0
174 197 0
175 198 0
173 197 0
174 198 0
174 198 0
174 198 0
174 198 0
175 198 0
174 198 0
175 198 0
176 198 0
173 197 0
174 197 0
173 197 0
172 197 0
173 197 0
172 197 0
172 196 0
174 198 0
175 198 0
174 198 0
175 198 0
172 196 0
173 197 0
175 198 0
173 197 0
174 197 0
175 198 0
176 199 0
174 198 0
174 197 0
174 198 0
174 197 0
174 198 0
173 197 0
175 198 0
173 197 0
174 197 0
173 197 0
174 197 0
171 195 0
175 198 0
174 197 0
174 197 0
174 197 0
176 199 0
175 198 0
173 197 0
172 196 0
176 198 0
173 197 0
173 197 0
173 197 0
174 197 0
173 196 0
176 199 0
174 198 0
174 197 0
173 197 0
173 197 0
174 197 0
174 198 0
174 197 0
176 199 0
176 199 0
173 197 0
174 198 0
175 198 0
174 197 0
174 197 0
174 197 0
174 198 0
175 198 0
174 197 0
173 196 0
174 198 0
174 197 0
173 196 0
173 197 0
174 197 0
175 198 0
175 198 0
173 197 0
174 197 0
173 197 0
173 197 0
174 198 0
173 197 0
173 197 0
175 198 0
174 198 0
174 198 0
174 197 0
173 197 0
173 196 0
173 196 0
175 198 0
174 197 0
172 196 0
174 197 0
172 196 0
174 197 0
173 197 0
173 197 0
174 198 0
174 198 0
175 198 0
175 198 0
175 198 0
174 197 0
172 195 0
174 197 0
174 197 0
171 195 0
173 197 0
173 197 0
175 198 0
174 197 0
173 196 0
173 196 0
175 198 0
173 196 0
174 197 0
172 196 0
171 195 0
176 198 0
174 197 0
175 198 0
173 197 0
174 197 0
174 197 0
174 198 0
174 197 0
174 197 0
170 194 0
173 196 0
172 196 0
175 198 0
172 196 0
174 197 0
174 198 0
173 196 0
174 198 0
173 197 0
174 197 0
174 198 0
169 193 0
174 197 0
175 198 0
173 197 0
175 198 0
173 197 0
174 197 0
173 196 0
173 196 0
173 197 0
172 196 0
174 196 0
176 198 0
173 197 0
172 196 0
173 197 0
173 196 0
170 194 0
174 198 0
173 197 0
173 196 0
173 197 0
175 198 0
175 198 0
173 196 0
175 198 0
173 197 0
175 198 0
175 198 0
173 196 0
174 197 0
172 196 0
173 197 0
173 197 0
174 197 0
173 197 0
174 197 0
173 197 0
174 198 0
172 196 0
174 197 0
173 197 0
173 197 0
173 197 0
174 197 0
176 198 0
172 196 0
174 197 0
175 197 0
171 195 0
173 197 0
174 197 0
175 198 0
173 197 0
173 197 0
174 197 0
173 197 0
175 198 0
175 198 0
173 197 0
174 197 0
173 196 0
174 197 0
174 197 0
173 196 0
174 197 0
174 198 0
174 197 0
174 197 0
174 197 0
175 198 0
173 197 0
174 197 0
170 194 0
172 196 0
174 198 0
173 196 0
175 198 0
175 198 0
174 197 0
173 196 0
173 197 0
175 198 0
174 197 0
172 195 0
174 198 0
173 197 0
173 197 0
172 197 0
175 198 0
174 197 0
174 197 0
175 198 0
173 197 0
174 198 0
174 197 0
174 197 0
173 196 0
174 198 0
173 197 0
174 197 0
174 197 0
174 198 0
175 198 0
176 199 0
174 198 0
172 196 0
173 197 0
174 197 0
175 198 0
175 198 0
174 198 0
173 197 0
174 198 0
173 197 0
173 197 0
173 197 0
173 197 0
172 196 0
172 196 0
173 197 0
175 198 0
175 198 0
174 198 0
174 197 0
174 198 0
175 198 0
173 197 0
175 198 0
175 198 0
174 197 0
173 197 0
174 197 0
174 197 0
173 196 0
173 197 0
174 198 0
173 197 0
174 197 0
174 197 0
175 198 0
173 197 0
174 198 0
173 197 0
175 198 0
175 198 0
175 198 0
172 197 0
174 198 0
175 198 0
174 197 0
174 197 0
174 198 0
174 198 0
175 198 0
174 198 0
174 198 0
173 197 0
174 198 0
174 198 0
174 197 0
174 198 0
174 198 0
173 197 0
174 198 0
175 198 0
175 198 0
174 197 0
174 198 0
175 198 0
174 198 0
175 198 0
175 198 0
176 199 0
174 197 0
174 198 0
175 198 0
174 198 0
174 198 0
175 198 0
176 199 0
174 197 0
174 197 0
174 198 0
175 198 0
174 198 0
174 197 0
174 197 0
175 198 0
175 198 0
175 198 0
173 197 0
175 198 0
173 197 0
175 198 0
176 199 0
175 198 0
173 197 0
175 198 0
175 198 0
175 198 0
174 198 0
174 197 0
175 198 0
174 198 0
173 197 0
172 197 0
172 197 0
175 198 0
174 197 0
174 198 0
175 198 0
175 198 0
174 197 0
174 197 0
175 198 0
175 198 0
172 196 0
173 197 0
174 198 0
175 198 0
174 198 0
173 197 0
174 198 0
175 198 0
174 198 0
175 198 0
176 198 0
175 198 0
174 198 0
174 198 0
175 198 0
174 198 0
175 198 0
175 198 0
173 197 0
173 197 0
175 198 0
174 198 0
174 197 0
174 198 0
174 198 0
172 196 0
174 197 0
175 198 0
173 197 0
174 198 0
174 198 0
175 198 0
174 197 0
172 197 0
174 198 0
175 198 0
173 197 0
175 198 0
175 198 0
173 196 0
175 198 0
174 198 0
174 198 0
172 197 0
174 197 0
174 198 0
175 198 0
175 198 0
174 197 0
176 199 0
176 198 0
172 197 0
175 197 0
174 197 0
174 198 0
174 197 0
174 198 0
175 198 0
174 198 0
174 198 0
174 197 0
174 198 0
173 197 0
173 197 0
172 196 0
175 198 0
174 198 0
173 197 0
175 198 0
174 198 0
176 199 0
175 198 0
174 197 0
175 198 0
174 197 0
175 198 0
176 199 0
175 198 0
175 198 0
174 198 0
173 197 0
173 197 0
172 196 0
176 198 0
173 196 0
173 197 0
174 198 0
174 197 0
174 198 0
173 197 0
172 195 0
176 198 0
174 198 0
174 197 0
174 198 0
175 198 0
173 196 0
172 197 0
174 198 0
175 198 0
176 198 0
177 199 0
174 197 0
175 198 0
171 196 0
173 197 0
173 197 0
173 197 0
175 198 0
173 197 0
173 197 0
174 197 0
175 198 0
174 198 0
173 197 0
173 197 0
173 197 0
175 198 0
171 195 0
175 198 0
173 197 0
172 195 0
173 197 0
175 198 0
175 198 0
174 197 0
173 196 0
174 198 0
173 196 0
173 197 0
174 198 0
174 198 0
171 195 0
174 197 0
175 198 0
172 196 0
173 196 0
174 197 0
173 196 0
173 196 0
174 197 0
173 197 0
172 195 0
171 195 0
173 197 0
175 198 0
173 197 0
173 197 0
172 195 0
174 198 0
172 195 0
173 197 0
173 196 0
173 196 0
174 197 0
175 198 0
174 197 0
173 196 0
171 195 0
173 196 0
174 198 0
174 197 0
171 195 0
173 197 0
173 197 0
173 196 0
173 196 0
174 197 0
173 197 0
175 198 0
173 196 0
174 198 0
173 197 0
173 197 0
173 197 0
176 199 0
174 198 0
174 197 0
172 196 0
174 197 0
174 198 0
172 196 0
173 196 0
174 198 0
173 197 0
174 197 0
174 197 0
173 197 0
174 197 0
174 197 0
174 197 0
171 196 0
174 198 0
173 196 0
173 197 0
171 195 0
175 198 0
174 197 0
171 195 0
174 197 0
173 196 0
174 197 0
173 197 0
172 196 0
175 198 0
175 197 0
174 197 0
176 199 0
173 197 0
174 198 0
172 196 0
174 198 0
173 197 0
172 196 0
172 196 0
175 197 0
173 196 0
171 196 0
175 198 0
174 198 0
173 196 0
172 196 0
174 197 0
171 196 0
174 197 0
176 198 0
172 196 0
174 197 0
171 195 0
175 198 0
176 198 0
175 198 0
173 197 0
172 195 0
173 197 0
174 197 0
174 197 0
172 196 0
174 196 0
172 195 0
175 198 0
174 198 0
174 197 0
173 196 0
175 198 0
174 197 0
173 197 0
174 197 0
175 198 0
173 197 0
171 196 0
173 196 0
175 198 0
172 195 0
175 198 0
174 197 0
172 196 0
172 195 0
174 198 0
176 199 0
175 198 0
175 198 0
175 198 0
172 196 0
174 198 0
175 198 0
174 197 0
174 197 0
173 196 0
175 198 0
174 198 0
175 198 0
173 196 0
173 197 0
174 197 0
174 197 0
173 197 0
173 197 0
174 196 0
174 197 0
173 197 0
175 198 0
173 197 0
174 197 0
173 197 0
174 198 0
175 198 0
175 198 0
173 197 0
173 197 0
174 197 0
174 197 0
172 196 0
175 198 0
174 197 0
173 197 0
174 197 0
173 197 0
173 197 0
176 199 0
174 197 0
174 197 0
174 197 0
174 197 0
174 198 0
174 197 0
175 198 0
173 197 0
174 198 0
175 198 0
173 197 0
175 198 0
174 198 0
174 198 0
173 196 0
172 196 0
175 198 0
174 197 0
174 197 0
175 198 0
176 199 0
174 198 0
175 198 0
174 198 0
173 197 0
172 197 0
174 197 0
173 197 0
174 198 0
175 198 0
174 198 0
173 197 0
174 198 0
174 198 0
175 198 0
174 198 0
176 198 0
173 197 0
174 197 0
174 197 0
174 198 0
175 198 0
173 197 0
173 197 0
175 198 0
175 198 0
174 197 0
174 198 0
175 198 0
174 198 0
174 198 0
174 198 0
175 197 0
175 198 0
175 198 0
174 198 0
173 196 0
174 197 0
172 197 0
173 197 0
172 196 0
174 198 0
174 197 0
174 198 0
173 197 0
175 198 0
172 197 0
172 196 0
174 198 0
174 197 0
176 199 0
175 198 0
173 197 0
175 198 0
176 198 0
175 198 0
174 198 0
175 198 0
175 198 0
176 198 0
173 197 0
174 197 0
174 198 0
175 198 0
174 198 0
174 198 0
174 197 0
174 198 0
174 197 0
174 197 0
174 198 0
175 198 0
173 197 0
173 197 0
174 197 0
175 198 0
175 198 0
174 198 0
174 198 0
173 197 0
176 199 0
175 198 0
174 197 0
174 198 0
174 197 0
173 197 0
174 198 0
173 197 0
175 198 0
175 198 0
174 197 0
175 198 0
173 197 0
175 198 0
174 198 0
174 198 0
175 198 0
175 198 0
174 197 0
173 197 0
174 198 0
175 198 0
176 199 0
174 197 0
173 197 0
175 198 0
174 197 0
176 199 0
174 198 0
173 197 0
173 197 0
173 197 0
175 198 0
175 198 0
175 198 0
173 197 0
175 198 0
175 198 0
174 198 0
173 197 0
174 198 0
175 198 0
175 198 0
174 198 0
175 198 0
174 198 0
173 197 0
175 198 0
175 198 0
174 197 0
172 196 0
174 198 0
174 197 0
173 197 0
174 197 0
174 198 0
172 196 0
175 198 0
175 198 0
173 196 0
175 198 0
174 198 0
172 197 0
174 197 0
175 198 0
175 198 0
174 197 0
173 197 0
174 198 0
172 196 0
175 197 0
174 197 0
175 198 0
175 198 0
174 198 0
174 197 0
172 196 0
173 197 0
175 198 0
174 197 0
174 197 0
173 197 0
173 197 0
172 196 0
173 197 0
173 196 0
174 198 0
172 196 0
175 198 0
172 195 0
174 198 0
175 198 0
173 197 0
175 198 0
175 198 0
174 197 0
175 198 0
175 198 0
173 197 0
174 198 0
175 198 0
174 197 0
174 198 0
174 198 0
173 197 0
173 197 0
174 198 0
173 197 0
174 197 0
175 198 0
173 197 0
174 198 0
174 197 0
171 195 0
173 197 0
172 196 0
174 198 0
174 197 0
173 197 0
172 196 0
175 198 0
174 198 0
174 198 0
174 197 0
174 198 0
172 196 0
174 197 0
173 196 0
173 196 0
172 196 0
173 197 0
173 196 0
175 198 0
172 195 0
173 197 0
173 197 0
175 198 0
173 197 0
172 196 0
174 197 0
171 195 0
173 197 0
175 198 0
174 197 0
171 195 0
174 197 0
174 197 0
173 197 0
174 197 0
175 198 0
171 195 0
173 197 0
172 196 0
173 197 0
174 198 0
174 198 0
172 196 0
172 195 0
174 197 0
173 197 0
172 195 0
176 199 0
172 196 0
174 197 0
175 198 0
172 195 0
173 197 0
174 197 0
174 197 0
173 196 0
176 198 0
174 197 0
174 198 0
174 197 0
173 197 0
176 198 0
173 197 0
172 195 0
173 196 0
171 195 0
173 196 0
173 196 0
173 197 0
175 198 0
174 197 0
174 197 0
175 197 0
172 196 0
174 197 0
172 196 0
173 196 0
173 197 0
172 196 0
174 197 0
173 196 0
174 198 0
172 196 0
172 196 0
174 197 0
171 195 0
174 198 0
174 197 0
175 198 0
173 197 0
174 197 0
174 197 0
174 197 0
173 196 0
174 197 0
172 196 0
175 198 0
171 195 0
176 198 0
175 198 0
171 195 0
175 198 0
174 197 0
174 197 0
174 197 0
174 197 0
174 198 0
173 197 0
174 197 0
176 199 0
174 197 0
174 198 0
174 197 0
174 197 0
174 197 0
174 197 0
173 197 0
175 198 0
174 197 0
173 197 0
175 198 0
174 198 0
173 197 0
175 198 0
175 198 0
174 198 0
173 197 0
173 197 0
173 197 0
175 198 0
173 197 0
175 198 0
174 198 0
173 196 0
173 197 0
172 195 0
175 198 0
174 198 0
175 197 0
175 198 0
173 197 0
173 197 0
174 198 0
175 198 0
176 199 0
173 196 0
172 197 0
174 198 0
174 198 0
174 197 0
174 198 0
173 197 0
174 198 0
175 198 0
175 198 0
174 197 0
175 198 0
174 197 0
174 197 0
174 197 0
175 198 0
175 198 0
174 198 0
173 197 0
173 197 0
172 196 0
175 198 0
175 198 0
173 197 0
175 198 0
173 196 0
175 198 0
172 196 0
173 197 0
174 198 0
173 197 0
174 197 0
173 197 0
174 197 0
173 196 0
175 198 0
175 198 0
176 198 0
174 197 0
171 195 0
173 197 0
174 198 0
175 198 0
173 197 0
173 197 0
174 197 0
174 198 0
176 199 0
176 199 0
172 196 0
173 197 0
174 197 0
173 196 0
174 197 0
174 198 0
172 196 0
174 197 0
175 198 0
174 198 0
176 198 0
174 198 0
173 197 0
176 199 0
175 198 0
173 197 0
175 198 0
173 197 0
173 197 0
174 198 0
175 198 0
174 198 0
175 198 0
175 198 0
173 197 0
174 197 0
174 198 0
175 198 0
175 198 0
172 196 0
175 198 0
174 197 0
174 198 0
174 197 0
175 198 0
175 198 0
174 198 0
173 197 0
174 197 0
174 198 0
175 198 0
175 198 0
176 199 0
175 198 0
175 198 0
174 198 0
174 197 0
173 197 0
174 198 0
172 196 0
175 198 0
174 198 0
175 198 0
174 197 0
173 197 0
173 197 0
174 197 0
175 198 0
174 198 0
175 198 0
175 198 0
175 198 0
174 197 0
174 198 0
175 198 0
175 198 0
175 198 0
173 197 0
174 198 0
175 198 0
173 197 0
174 198 0
175 198 0
175 198 0
172 196 0
173 197 0
174 197 0
173 197 0
175 198 0
175 198 0
174 197 0
174 198 0
174 198 0
175 198 0
175 198 0
175 198 0
175 198 0
173 197 0
173 197 0
175 198 0
176 198 0
173 197 0
174 198 0
174 197 0
175 198 0
173 197 0
173 197 0
173 197 0
174 198 0
174 197 0
175 198 0
174 198 0
174 197 0
173 197 0
175 198 0
174 198 0
174 198 0
174 197 0
174 197 0
173 197 0
174 198 0
174 198 0
175 198 0
174 198 0
173 197 0
174 198 0
174 198 0
173 197 0
174 198 0
175 198 0
175 198 0
174 198 0
173 197 0
174 198 0
174 198 0
173 197 0
175 198 0
175 198 0
174 197 0
174 197 0
174 197 0
173 197 0
175 198 0
175 198 0
174 197 0
173 197 0
173 197 0
172 196 0
175 198 0
174 198 0
174 198 0
172 196 0
175 198 0
173 196 0
176 199 0
176 199 0
174 198 0
173 197 0
174 198 0
175 198 0
173 197 0
176 198 0
175 198 0
173 197 0
173 197 0
174 197 0
173 197 0
173 197 0
174 198 0
174 197 0
174 197 0
173 197 0
175 198 0
174 197 0
173 197 0
176 199 0
173 197 0
173 197 0
174 198 0
173 197 0
174 197 0
174 198 0
173 197 0
173 196 0
174 197 0
173 196 0
175 198 0
174 198 0
173 197 0
173 197 0
173 197 0
173 197 0
172 196 0
172 196 0
172 196 0
174 198 0
174 197 0
175 198 0
174 197 0
176 198 0
173 197 0
173 197 0
175 198 0
175 198 0
173 197 0
176 199 0
174 197 0
174 198 0
175 198 0
173 197 0
175 198 0
172 196 0
175 198 0
172 196 0
173 197 0
173 197 0
174 197 0
173 197 0
175 198 0
172 196 0
174 197 0
172 196 0
174 197 0
175 198 0
174 197 0
172 196 0
172 196 0
175 198 0
174 198 0
173 197 0
174 197 0
173 197 0
172 196 0
173 196 0
172 196 0
174 197 0
174 197 0
172 197 0
176 198 0
175 198 0
175 198 0
173 197 0
173 196 0
173 196 0
173 197 0
172 197 0
171 195 0
173 197 0
173 197 0
176 198 0
174 197 0
175 198 0
174 198 0
171 195 0
172 196 0
171 195 0
172 196 0
172 196 0
170 194 0
173 197 0
173 197 0
173 196 0
173 197 0
173 196 0
172 196 0
173 197 0
174 197 0
177 199 0
173 197 0
173 197 0
172 195 0
174 197 0
174 197 0
174 197 0
174 197 0
173 196 0
176 199 0
174 197 0
174 197 0
172 195 0
173 197 0
175 198 0
173 196 0
175 198 0
173 196 0
175 198 0
173 196 0
174 197 0
173 196 0
175 198 0
172 196 0
172 196 0
173 196 0
172 196 0
173 197 0
174 197 0
173 197 0
171 194 0
173 197 0
173 196 0
168 192 0
174 197 0
172 196 0
173 196 0
173 197 0
175 198 0
172 195 0
173 197 0
173 196 0
174 196 0
173 196 0
173 197 0
173 197 0
173 197 0
173 197 0
174 197 0
173 197 0
175 198 0
174 197 0
175 198 0
174 197 0
174 198 0
175 198 0
173 197 0
175 197 0
175 198 0
175 198 0
175 198 0
174 198 0
173 196 0
174 198 0
176 199 0
173 197 0
173 197 0
172 196 0
173 195 0
173 196 0
173 197 0
174 197 0
174 196 0
173 197 0
173 196 0
170 194 0
172 195 0
172 196 0
174 197 0
175 198 0
175 197 0
174 197 0
174 198 0
174 198 0
174 197 0
176 199 0
174 197 0
170 194 0
171 195 0
174 198 0
174 197 0
174 197 0
171 196 0
174 197 0
174 198 0
173 197 0
171 195 0
175 198 0
173 197 0
174 198 0
175 198 0
173 197 0
175 198 0
174 197 0
176 198 0
173 196 0
176 198 0
173 197 0
174 197 0
175 198 0
173 197 0
175 198 0
175 198 0
172 196 0
176 198 0
175 198 0
173 196 0
177 199 0
175 198 0
173 197 0
175 198 0
174 197 0
175 198 0
174 197 0
174 197 0
174 197 0
174 198 0
174 198 0
174 197 0
173 197 0
174 197 0
175 198 0
174 198 0
172 196 0
173 197 0
175 198 0
172 196 0
175 198 0
174 197 0
175 198 0
174 198 0
173 196 0
175 198 0
173 197 0
175 198 0
173 197 0
174 197 0
175 198 0
175 198 0
173 197 0
174 197 0
175 198 0
175 198 0
173 197 0
174 197 0
173 197 0
172 196 0
174 198 0
173 197 0
174 197 0
174 198 0
175 198 0
174 197 0
173 197 0
174 198 0
172 196 0
175 198 0
174 198 0
175 198 0
175 198 0
173 197 0
176 198 0
174 197 0
174 197 0
174 197 0
174 197 0
176 199 0
173 197 0
174 198 0
174 197 0
173 197 0
175 198 0
174 197 0
173 197 0
174 198 0
175 198 0
174 198 0
174 198 0
175 198 0
173 197 0
173 197 0
174 197 0
175 198 0
174 197 0
175 198 0
175 198 0
174 198 0
174 198 0
174 198 0
175 198 0
173 197 0
175 198 0
174 198 0
175 198 0
174 198 0
174 198 0
174 197 0
174 198 0
174 198 0
173 197 0
175 198 0
174 197 0
173 197 0
177 199 0
174 198 0
176 199 0
173 197 0
175 198 0
174 198 0
175 198 0
174 197 0
173 197 0
174 198 0
174 198 0
174 198 0
175 198 0
174 197 0
174 198 0
176 198 0
176 198 0
174 197 0
173 197 0
175 198 0
174 198 0
175 198 0
175 198 0
175 198 0
175 198 0
174 198 0
174 198 0
174 198 0
176 199 0
175 198 0
174 197 0
175 198 0
174 197 0
174 197 0
175 198 0
173 197 0
173 197 0
173 197 0
174 198 0
175 198 0
175 198 0
173 197 0
173 197 0
173 196 0
174 198 0
174 198 0
175 198 0
175 198 0
175 198 0
174 198 0
173 197 0
174 198 0
175 198 0
174 198 0
175 198 0
174 198 0
174 198 0
176 198 0
173 197 0
175 198 0
175 198 0
173 197 0
173 197 0
175 198 0
172 196 0
175 198 0
174 198 0
174 197 0
175 198 0
172 196 0
172 196 0
175 198 0
175 198 0
174 198 0
173 197 0
175 198 0
173 197 0
174 198 0
171 195 0
173 197 0
173 197 0
173 197 0
173 197 0
174 198 0
175 198 0
174 197 0
176 198 0
174 197 0
175 198 0
174 197 0
175 198 0
174 198 0
174 197 0
175 198 0
174 198 0
174 197 0
174 198 0
175 198 0
174 198 0
174 198 0
174 198 0
176 199 0
175 198 0
174 197 0
174 197 0
174 197 0
173 197 0
173 197 0
177 199 0
174 198 0
175 198 0
174 198 0
176 199 0
174 197 0
173 197 0
174 198 0
176 198 0
174 198 0
175 198 0
174 198 0
174 197 0
172 196 0
174 197 0
171 195 0
173 197 0
174 198 0
174 198 0
174 198 0
173 197 0
175 198 0
174 197 0
173 196 0
173 197 0
174 197 0
174 197 0
174 198 0
174 197 0
174 197 0
175 198 0
173 196 0
174 198 0
172 196 0
174 197 0
173 197 0
174 197 0
174 197 0
174 197 0
173 197 0
172 195 0
174 198 0
175 198 0
175 198 0
174 197 0
174 197 0
171 195 0
174 198 0
173 197 0
172 196 0
172 197 0
174 198 0
172 196 0
171 195 0
172 196 0
173 197 0
174 198 0
173 196 0
174 197 0
173 197 0
175 198 0
173 197 0
172 196 0
172 196 0
175 198 0
173 196 0
173 196 0
172 196 0
171 196 0
172 196 0
174 198 0
175 198 0
173 197 0
173 197 0
172 197 0
175 198 0
174 197 0
173 197 0
174 197 0
172 196 0
173 197 0
172 196 0
176 199 0
175 198 0
174 196 0
174 197 0
172 196 0
172 196 0
173 197 0
174 197 0
174 198 0
173 197 0
174 197 0
172 197 0
173 196 0
174 198 0
174 197 0
174 197 0
173 197 0
172 196 0
172 196 0
174 198 0
174 197 0
173 197 0
170 194 0
172 196 0
174 197 0
174 197 0
174 197 0
171 195 0
173 197 0
173 197 0
174 197 0
174 197 0
174 198 0
170 194 0
174 197 0
174 197 0
174 197 0
173 196 0
174 197 0
172 197 0
174 198 0
172 196 0
174 197 0
174 197 0
172 196 0
173 196 0
174 198 0
174 198 0
175 198 0
176 199 0
173 197 0
173 197 0
173 196 0
175 197 0
171 195 0
173 197 0
172 196 0
173 197 0
175 198 0
174 197 0
176 198 0
174 197 0
173 197 0
174 198 0
173 197 0
173 197 0
174 197 0
173 196 0
174 197 0
174 198 0
173 196 0
173 197 0
172 196 0
172 196 0
174 197 0
174 197 0
175 198 0
174 196 0
173 197 0
174 198 0
175 198 0
172 196 0
173 197 0
173 197 0
175 198 0
174 197 0
172 195 0
174 197 0
172 196 0
176 198 0
174 198 0
171 195 0
173 197 0
173 197 0
173 196 0
175 198 0
173 197 0
173 196 0
176 199 0
173 196 0
174 197 0
173 197 0
174 197 0
173 196 0
175 198 0
174 197 0
175 198 0
173 197 0
173 196 0
173 197 0
173 197 0
174 197 0
174 198 0
174 198 0
174 197 0
174 197 0
172 196 0
173 196 0
175 198 0
174 197 0
175 197 0
174 198 0
173 197 0
173 197 0
173 196 0
175 198 0
173 197 0
173 197 0
175 198 0
173 196 0
174 198 0
176 198 0
175 198 0
174 198 0
176 198 0
174 198 0
175 198 0
174 197 0
173 196 0
176 199 0
175 198 0
175 198 0
173 197 0
175 198 0
174 198 0
175 198 0
173 197 0
176 199 0
173 196 0
175 198 0
174 197 0
173 197 0
174 197 0
175 198 0
175 198 0
175 198 0
175 198 0
173 197 0
174 197 0
174 198 0
175 197 0
175 198 0
175 198 0
174 197 0
171 196 0
175 198 0
173 197 0
176 199 0
174 198 0
173 197 0
174 198 0
174 198 0
173 197 0
175 198 0
174 198 0
173 197 0
174 198 0
173 197 0
173 196 0
174 197 0
175 198 0
173 197 0
172 195 0
175 198 0
174 198 0
173 197 0
173 197 0
175 198 0
175 198 0
175 198 0
176 199 0
175 198 0
174 198 0
174 198 0
174 198 0
174 198 0
174 198 0
173 197 0
175 198 0
175 198 0
173 197 0
175 198 0
175 198 0
175 198 0
175 198 0
174 197 0
175 198 0
173 197 0
174 198 0
173 197 0
173 197 0
174 198 0
173 197 0
176 198 0
172 197 0
176 199 0
174 198 0
174 198 0
175 198 0
175 198 0
175 198 0
175 198 0
174 198 0
175 198 0
174 198 0
175 198 0
174 198 0
175 198 0
175 198 0
175 198 0
175 198 0
174 198 0
174 197 0
175 198 0
175 198 0
175 198 0
174 197 0
175 198 0
174 197 0
175 198 0
174 198 0
175 198 0
174 198 0
174 197 0
175 198 0
173 197 0
174 197 0
173 197 0
174 197 0
173 196 0
175 198 0
174 197 0
176 199 0
175 198 0
174 198 0
174 197 0
175 198 0
174 197 0
173 197 0
173 197 0
175 198 0
173 197 0
173 197 0
174 198 0
174 198 0
174 198 0
172 195 0
175 198 0
174 198 0
175 198 0
173 197 0
175 198 0
175 198 0
174 198 0
175 198 0
174 198 0
174 198 0
175 198 0
174 198 0
175 198 0
175 198 0
175 198 0
176 199 0
175 198 0
176 198 0
174 197 0
174 198 0
175 198 0
174 197 0
174 198 0
174 198 0
174 197 0
172 196 0
176 199 0
173 197 0
173 197 0
175 198 0
174 198 0
173 197 0
174 198 0
174 197 0
173 196 0
174 198 0
176 199 0
176 198 0
175 198 0
174 197 0
175 198 0
175 198 0
173 197 0
175 198 0
174 198 0
173 197 0
173 197 0
174 197 0
174 197 0
176 199 0
174 197 0
174 198 0
174 197 0
175 198 0
174 198 0
174 198 0
174 197 0
173 196 0
174 197 0
175 198 0
173 197 0
173 197 0
174 197 0
174 197 0
175 198 0
174 198 0
174 198 0
174 197 0
173 197 0
176 199 0
173 197 0
173 197 0
174 198 0
175 198 0
173 197 0
174 198 0
174 198 0
172 196 0
173 197 0
174 197 0
174 198 0
172 197 0
172 196 0
175 198 0
173 197 0
174 198 0
172 195 0
174 197 0
173 196 0
173 197 0
172 196 0
175 198 0
173 197 0
174 197 0
174 197 0
175 198 0
174 197 0
173 197 0
174 197 0
174 197 0
174 197 0
174 198 0
174 198 0
174 198 0
174 197 0
174 197 0
175 198 0
174 198 0
173 197 0
170 194 0
174 197 0
174 197 0
173 196 0
174 197 0
173 197 0
175 198 0
173 196 0
172 196 0
173 197 0
169 193 0
172 196 0
173 196 0
174 197 0
174 198 0
173 197 0
174 198 0
173 197 0
175 198 0
172 196 0
176 199 0
172 195 0
173 196 0
174 197 0
175 197 0
173 196 0
175 198 0
174 197 0
174 198 0
171 195 0
174 197 0
173 197 0
174 197 0
171 194 0
175 198 0
172 195 0
174 197 0
173 196 0
173 197 0
173 196 0
173 196 0
172 197 0
173 197 0
176 199 0
172 196 0
175 198 0
170 194 0
176 198 0
172 196 0
172 196 0
173 196 0
175 198 0
174 197 0
174 198 0
173 197 0
175 198 0
174 198 0
173 196 0
174 197 0
173 197 0
174 197 0
173 196 0
176 199 0
173 196 0
171 195 0
174 197 0
173 196 0
173 196 0
174 198 0
174 197 0
175 198 0
174 197 0
174 198 0
175 198 0
174 197 0
174 198 0
174 197 0
172 195 0
173 197 0
175 198 0
176 199 0
173 197 0
173 197 0
173 196 0
173 197 0
174 198 0
175 198 0
172 196 0
173 196 0
173 197 0
174 198 0
174 198 0
174 197 0
174 198 0
174 198 0
174 197 0
174 198 0
175 198 0
175 198 0
174 197 0
174 197 0
172 196 0
172 196 0
175 198 0
174 197 0
175 198 0
175 198 0
173 197 0
172 196 0
174 198 0
175 198 0
172 195 0
174 198 0
175 198 0
174 198 0
175 198 0
173 197 0
174 197 0
174 197 0
174 197 0
173 197 0
173 197 0
175 198 0
172 195 0
173 197 0
174 197 0
173 196 0
172 196 0
173 196 0
175 198 0
173 196 0
172 197 0
174 198 0
173 197 0
174 198 0
173 197 0
175 198 0
174 198 0
172 197 0
174 197 0
174 198 0
172 196 0
173 197 0
175 198 0
175 198 0
172 196 0
175 197 0
173 197 0
171 195 0
174 197 0
174 197 0
172 196 0
174 197 0
172 196 0
174 198 0
173 195 0
174 197 0
176 199 0
174 198 0
173 197 0
173 196 0
175 198 0
173 197 0
175 198 0
174 197 0
173 197 0
176 199 0
173 197 0
174 198 0
177 199 0
175 198 0
173 197 0
175 198 0
176 198 0
173 196 0
173 197 0
173 197 0
174 197 0
176 198 0
174 197 0
173 196 0
174 198 0
173 196 0
176 199 0
174 197 0
174 197 0
174 197 0
174 198 0
174 198 0
174 197 0
173 197 0
174 198 0
174 198 0
174 198 0
174 198 0
176 199 0
175 198 0
174 198 0
175 198 0
174 198 0
174 198 0
173 197 0
175 198 0
173 197 0
173 197 0
175 198 0
173 197 0
173 197 0
173 197 0
174 198 0
172 196 0
175 198 0
173 197 0
175 198 0
175 198 0
175 198 0
174 198 0
173 196 0
174 197 0
172 197 0
175 198 0
175 198 0
176 199 0
174 198 0
174 198 0
172 197 0
175 198 0
173 197 0
173 197 0
174 197 0
174 198 0
174 198 0
175 198 0
174 198 0
174 198 0
174 198 0
174 198 0
174 197 0
173 197 0
176 198 0
174 198 0
174 198 0
174 198 0
173 197 0
175 198 0
173 197 0
175 198 0
176 199 0
174 197 0
176 198 0
176 198 0
175 198 0
174 197 0
175 198 0
174 198 0
174 198 0
174 197 0
174 198 0
175 198 0
175 198 0
173 197 0
173 197 0
174 198 0
177 199 0
173 197 0
175 198 0
175 198 0
175 198 0
174 198 0
174 198 0
175 198 0
173 197 0
174 198 0
175 198 0
175 198 0
173 197 0
174 198 0
175 198 0
175 198 0
175 198 0
173 197 0
174 198 0
175 198 0
175 198 0
175 198 0
174 197 0
174 197 0
173 197 0
174 198 0
174 198 0
174 197 0
174 198 0
176 199 0
175 198 0
175 198 0
174 197 0
174 198 0
174 198 0
175 198 0
174 198 0
175 198 0
173 197 0
174 197 0
173 197 0
173 197 0
173 197 0
173 197 0
175 198 0
175 198 0
175 198 0
172 196 0
176 199 0
174 197 0
174 198 0
174 197 0
177 199 0
173 197 0
175 198 0
176 198 0
175 198 0
175 198 0
174 198 0
172 196 0
176 199 0
174 198 0
175 198 0
175 198 0
175 198 0
176 198 0
175 198 0
175 198 0
174 198 0
175 198 0
175 198 0
173 197 0
173 197 0
175 198 0
174 197 0
174 197 0
175 198 0
175 198 0
174 198 0
173 197 0
175 198 0
175 198 0
173 196 0
175 198 0
173 196 0
172 196 0
172 196 0
174 197 0
174 198 0
173 197 0
175 198 0
172 196 0
173 197 0
174 197 0
174 197 0
173 197 0
175 197 0
174 198 0
173 197 0
173 197 0
174 198 0
173 197 0
173 196 0
173 196 0
174 198 0
174 198 0
174 197 0
175 198 0
174 197 0
173 197 0
174 197 0
172 196 0
172 196 0
174 198 0
176 199 0
174 198 0
175 198 0
175 198 0
174 197 0
172 196 0
175 198 0
173 196 0
173 197 0
174 198 0
176 199 0
176 198 0
174 197 0
172 197 0
172 196 0
173 197 0
174 197 0
175 198 0
175 198 0
174 197 0
173 197 0
173 197 0
172 196 0
171 195 0
174 197 0
174 198 0
174 197 0
173 197 0
172 196 0
171 195 0
173 197 0
172 196 0
171 195 0
174 197 0
175 197 0
176 198 0
174 197 0
174 197 0
174 197 0
172 196 0
174 197 0
174 197 0
175 198 0
171 195 0
173 196 0
172 196 0
174 198 0
174 197 0
174 198 0
173 197 0
172 196 0
172 196 0
174 197 0
174 197 0
174 196 0
174 198 0
176 199 0
172 196 0
172 196 0
173 197 0
174 197 0
174 197 0
174 197 0
174 198 0
173 197 0
174 198 0
175 198 0
175 198 0
174 198 0
172 196 0
173 196 0
175 198 0
174 197 0
173 197 0
174 197 0
174 197 0
173 196 0
174 197 0
173 197 0
172 195 0
173 197 0
173 197 0
173 196 0
173 196 0
176 198 0
172 196 0
172 195 0
175 198 0
173 197 0
173 196 0
174 197 0
172 197 0
174 197 0
172 196 0
173 197 0
175 198 0
173 197 0
174 197 0
175 198 0
175 197 0
175 198 0
174 197 0
175 198 0
173 196 0
172 196 0
173 197 0
170 194 0
173 197 0
174 198 0
175 198 0
172 196 0
174 197 0
173 196 0
174 197 0
173 197 0
175 198 0
172 196 0
173 197 0
174 197 0
174 197 0
175 198 0
174 198 0
173 197 0
173 196 0
173 197 0
175 198 0
173 196 0
175 198 0
174 197 0
172 195 0
174 197 0
175 198 0
174 197 0
176 198 0
174 197 0
174 197 0
175 198 0
175 198 0
174 197 0
174 197 0
174 197 0
175 198 0
174 198 0
174 197 0
173 197 0
172 196 0
174 197 0
173 197 0
175 198 0
172 196 0
173 197 0
173 197 0
175 198 0
175 198 0
174 197 0
175 198 0
174 197 0
173 196 0
174 198 0
173 197 0
175 198 0
173 196 0
174 197 0
174 197 0
174 198 0
174 197 0
173 196 0
175 198 0
174 198 0
173 197 0
175 198 0
174 197 0
173 197 0
175 198 0
172 196 0
176 199 0
173 197 0
174 197 0
174 197 0
173 197 0
175 198 0
174 198 0
174 198 0
175 198 0
172 196 0
175 198 0
173 197 0
173 197 0
174 197 0
174 197 0
175 198 0
176 198 0
173 197 0
175 198 0
174 198 0
172 196 0
172 196 0
174 198 0
174 197 0
175 198 0
173 197 0
172 196 0
173 197 0
174 198 0
173 197 0
174 198 0
173 197 0
174 198 0
175 198 0
174 197 0
173 197 0
175 198 0
174 197 0
173 197 0
174 197 0
174 197 0
173 197 0
175 198 0
174 198 0
173 197 0
176 198 0
175 198 0
174 198 0
174 198 0
174 198 0
174 197 0
172 196 0
173 197 0
174 198 0
172 196 0
175 198 0
173 197 0
175 198 0
174 198 0
175 198 0
177 199 0
175 198 0
173 196 0
173 197 0
175 198 0
175 198 0
174 197 0
176 199 0
174 197 0
176 199 0
175 198 0
174 198 0
174 198 0
174 198 0
175 198 0
176 198 0
174 197 0
174 198 0
176 198 0
175 198 0
173 197 0
174 198 0
173 197 0
175 198 0
175 198 0
174 198 0
173 197 0
174 197 0
171 196 0
174 197 0
174 198 0
174 198 0
175 198 0
173 197 0
174 198 0
174 197 0
172 197 0
173 197 0
175 198 0
173 197 0
176 199 0
173 197 0
174 198 0
175 198 0
175 198 0
174 198 0
175 198 0
175 198 0
173 197 0
174 198 0
174 198 0
175 198 0
173 197 0
174 197 0
173 197 0
175 198 0
174 198 0
172 196 0
175 198 0
174 198 0
174 198 0
174 197 0
177 199 0
175 198 0
172 197 0
173 197 0
175 198 0
174 198 0
175 198 0
174 198 0
173 197 0
175 198 0
173 197 0
174 198 0
175 198 0
176 198 0
172 196 0
174 198 0
174 197 0
174 198 0
174 197 0
176 199 0
173 197 0
176 199 0
175 198 0
176 199 0
174 198 0
174 198 0
174 197 0
173 197 0
174 198 0
174 197 0
172 196 0
175 198 0
175 198 0
174 197 0
174 198 0
175 198 0
174 198 0
173 197 0
175 198 0
175 198 0
175 198 0
174 198 0
174 198 0
175 198 0
174 197 0
174 197 0
173 197 0
174 197 0
174 197 0
172 196 0
174 198 0
173 197 0
173 196 0
173 196 0
173 196 0
174 197 0
175 198 0
173 197 0
175 198 0
174 198 0
174 197 0
175 198 0
174 198 0
173 197 0
172 197 0
172 196 0
174 197 0
174 197 0
175 198 0
175 198 0
176 199 0
174 198 0
175 198 0
175 198 0
175 198 0
175 198 0
174 197 0
170 195 0
173 197 0
172 196 0
174 197 0
172 195 0
173 197 0
173 196 0
173 197 0
172 196 0
174 197 0
175 198 0
175 198 0
174 197 0
175 198 0
175 198 0
175 198 0
173 197 0
174 198 0
175 198 0
173 197 0
174 198 0
174 198 0
174 197 0
174 197 0
173 196 0
174 197 0
173 197 0
175 198 0
174 198 0
173 196 0
175 198 0
175 198 0
175 198 0
173 197 0
174 197 0
175 198 0
174 197 0
173 196 0
172 196 0
172 196 0
175 198 0
172 196 0
172 196 0
175 198 0
173 197 0
172 195 0
174 198 0
173 196 0
171 194 0
172 196 0
171 195 0
174 197 0
173 197 0
173 197 0
174 197 0
174 198 0
174 197 0
172 195 0
174 197 0
174 197 0
174 197 0
171 195 0
175 198 0
173 196 0
173 196 0
173 196 0
174 197 0
174 198 0
172 196 0
175 198 0
174 198 0
174 198 0
173 196 0
173 197 0
173 197 0
172 197 0
173 197 0
171 195 0
175 198 0
172 196 0
171 195 0
173 196 0
173 197 0
173 197 0
173 197 0
174 197 0
171 196 0
172 195 0
174 198 0
175 198 0
175 198 0
173 197 0
174 197 0
174 198 0
172 197 0
174 198 0
173 197 0
173 197 0
173 197 0
173 197 0
172 195 0
175 198 0
175 198 0
172 196 0
175 198 0
175 198 0
173 196 0
174 197 0
174 197 0
173 197 0
173 197 0
173 197 0
174 198 0
174 198 0
172 196 0
174 197 0
172 195 0
174 197 0
174 197 0
173 197 0
172 196 0
171 196 0
172 196 0
175 198 0
174 197 0
175 198 0
173 196 0
172 196 0
174 198 0
174 198 0
173 196 0
173 197 0
173 196 0
172 196 0
175 198 0
173 197 0
173 196 0
173 196 0
172 196 0
172 196 0
174 198 0
176 198 0
174 197 0
176 199 0
172 196 0
174 198 0
173 197 0
172 196 0
175 198 0
174 197 0
173 196 0
173 197 0
173 197 0
175 198 0
175 198 0
174 197 0
172 196 0
172 196 0
173 197 0
174 198 0
175 198 0
173 196 0
174 197 0
174 198 0
174 197 0
172 196 0
175 198 0
175 198 0
173 196 0
174 197 0
173 197 0
173 197 0
174 197 0
176 199 0
174 198 0
174 197 0
175 198 0
173 197 0
174 197 0
176 198 0
175 198 0
173 197 0
175 198 0
173 196 0
173 196 0
174 196 0
175 198 0
175 198 0
173 196 0
173 197 0
174 198 0
174 197 0
174 198 0
174 198 0
172 196 0
174 198 0
175 198 0
175 198 0
174 198 0
173 197 0
174 197 0
173 197 0
173 197 0
173 197 0
175 198 0
175 198 0
172 196 0
173 197 0
174 198 0
174 197 0
175 198 0
174 197 0
175 198 0
175 198 0
174 198 0
174 198 0
175 198 0
174 197 0
175 198 0
172 196 0
175 197 0
173 197 0
175 198 0
174 198 0
174 197 0
173 197 0
173 197 0
174 198 0
174 198 0
175 198 0
175 198 0
175 198 0
172 196 0
173 196 0
174 197 0
174 198 0
174 197 0
173 197 0
174 197 0
176 199 0
172 196 0
173 197 0
174 198 0
175 198 0
175 198 0
175 198 0
175 198 0
173 197 0
174 197 0
175 198 0
175 198 0
174 198 0
174 197 0
174 198 0
174 198 0
174 198 0
174 197 0
174 198 0
176 199 0
174 198 0
173 197 0
174 198 0
175 198 0
174 197 0
175 198 0
175 198 0
174 197 0
173 197 0
173 197 0
172 197 0
176 198 0
174 198 0
175 198 0
173 197 0
174 197 0
175 198 0
173 196 0
174 198 0
175 198 0
175 198 0
176 199 0
174 197 0
175 198 0
173 197 0
173 197 0
174 198 0
175 198 0
173 197 0
173 197 0
175 198 0
174 198 0
174 198 0
173 197 0
173 197 0
175 198 0
174 198 0
173 197 0
175 198 0
174 197 0
174 198 0
174 198 0
174 197 0
175 198 0
173 197 0
174 197 0
174 197 0
175 198 0
175 197 0
175 198 0
173 197 0
174 197 0
175 198 0
172 197 0
174 197 0
175 198 0
175 198 0
175 198 0
174 198 0
175 198 0
173 197 0
174 198 0
173 197 0
175 198 0
174 198 0
174 198 0
175 198 0
175 198 0
174 198 0
175 198 0
175 198 0
175 198 0
174 198 0
175 198 0
173 197 0
175 198 0
174 198 0
176 199 0
176 198 0
175 198 0
172 196 0
172 196 0
175 198 0
172 196 0
174 197 0
174 197 0
174 198 0
175 198 0
172 196 0
174 198 0
174 198 0
174 198 0
175 198 0
175 198 0
174 197 0
174 198 0
175 198 0
173 197 0
173 197 0
174 197 0
174 198 0
175 198 0
175 198 0
175 198 0
172 197 0
172 196 0
172 196 0
173 197 0
175 198 0
174 198 0
176 198 0
174 197 0
175 198 0
174 197 0
173 197 0
173 197 0
174 197 0
175 198 0
174 198 0
173 197 0
174 198 0
172 196 0
174 197 0
173 197 0
173 197 0
174 198 0
173 197 0
175 198 0
174 198 0
174 197 0
172 196 0
175 198 0
173 196 0
171 195 0
174 197 0
174 197 0
173 196 0
173 197 0
175 198 0
174 198 0
172 196 0
175 198 0
175 198 0
174 197 0
171 195 0
176 198 0
175 198 0
174 197 0
173 197 0
173 197 0
176 199 0
174 197 0
175 198 0
174 197 0
173 197 0
173 197 0
173 197 0
173 196 0
173 197 0
175 198 0
173 197 0
172 196 0
174 198 0
174 197 0
175 198 0
174 197 0
174 197 0
173 197 0
173 197 0
174 197 0
173 197 0
174 197 0
174 197 0
174 197 0
176 199 0
172 196 0
172 196 0
174 198 0
173 197 0
173 196 0
172 196 0
173 196 0
171 194 0
171 195 0
175 198 0
173 197 0
174 197 0
173 197 0
174 197 0
174 198 0
175 198 0
173 196 0
172 195 0
174 197 0
174 197 0
172 195 0
174 197 0
174 198 0
172 196 0
173 197 0
173 197 0
175 198 0
173 196 0
176 198 0
174 197 0
171 196 0
174 197 0
173 197 0
172 196 0
172 196 0
176 198 0
172 196 0
172 196 0
174 197 0
171 194 0
173 197 0
172 196 0
171 195 0
172 196 0
173 196 0
174 198 0
172 195 0
175 198 0
172 196 0
175 198 0
174 198 0
170 194 0
175 198 0
173 197 0
172 196 0
173 197 0
175 198 0
174 197 0
174 198 0
174 198 0
173 197 0
171 194 0
173 197 0
173 197 0
175 198 0
170 194 0
174 197 0
175 198 0
174 197 0
175 198 0
172 196 0
173 196 0
173 196 0
174 197 0
173 197 0
172 196 0
173 196 0
173 197 0
175 198 0
175 198 0
174 197 0
172 196 0
171 194 0
176 198 0
174 198 0
175 198 0
175 198 0
174 197 0
171 195 0
173 196 0
173 197 0
173 196 0
175 198 0
174 197 0
175 198 0
172 196 0
174 197 0
174 197 0
175 198 0
174 197 0
173 197 0
174 197 0
173 197 0
172 196 0
174 198 0
172 196 0
174 197 0
175 198 0
174 197 0
174 197 0
174 197 0
173 197 0
172 195 0
174 198 0
173 197 0
173 197 0
173 197 0
174 198 0
172 196 0
174 197 0
174 197 0
174 197 0
174 197 0
174 197 0
172 196 0
174 198 0
173 197 0
170 194 0
172 196 0
173 197 0
172 195 0
174 197 0
174 197 0
175 198 0
173 197 0
175 198 0
172 196 0
175 198 0
174 197 0
175 198 0
174 198 0
174 198 0
176 199 0
175 198 0
175 198 0
172 196 0
175 198 0
174 197 0
174 197 0
174 197 0
174 197 0
174 198 0
175 198 0
175 198 0
174 197 0
174 197 0
173 197 0
175 198 0
172 197 0
174 197 0
174 197 0
175 198 0
174 198 0
174 198 0
174 197 0
174 198 0
173 197 0
173 197 0
175 198 0
174 197 0
177 199 0
172 196 0
175 198 0
172 196 0
173 197 0
175 198 0
174 198 0
176 199 0
176 199 0
174 198 0
173 197 0
173 197 0
173 197 0
174 198 0
173 197 0
174 197 0
173 197 0
176 199 0
172 197 0
173 197 0
174 197 0
174 197 0
175 198 0
173 197 0
173 197 0
174 198 0
175 198 0
174 197 0
174 197 0
176 198 0
174 198 0
174 197 0
174 197 0
174 198 0
174 198 0
175 198 0
173 196 0
175 198 0
175 198 0
174 197 0
176 199 0
174 197 0
174 198 0
175 198 0
174 198 0
175 198 0
173 197 0
174 198 0
173 197 0
173 197 0
175 198 0
173 197 0
174 197 0
173 197 0
174 197 0
174 198 0
175 198 0
172 196 0
174 198 0
175 198 0
174 198 0
175 198 0
176 199 0
175 198 0
173 197 0
175 198 0
176 199 0
174 197 0
174 198 0
173 197 0
175 198 0
175 198 0
174 197 0
175 198 0
171 196 0
173 197 0
173 197 0
174 198 0
175 198 0
173 197 0
174 198 0
175 198 0
175 198 0
174 198 0
175 198 0
175 198 0
174 197 0
173 197 0
174 197 0
175 198 0
173 197 0
174 198 0
175 198 0
175 198 0
176 199 0
175 198 0
174 198 0
173 197 0
174 198 0
173 197 0
175 198 0
175 198 0
174 198 0
176 199 0
174 198 0
174 197 0
173 197 0
174 197 0
176 199 0
175 198 0
175 198 0
174 197 0
172 197 0
176 198 0
174 198 0
173 197 0
173 197 0
173 197 0
175 198 0
175 198 0
175 198 0
173 197 0
173 196 0
173 197 0
174 198 0
174 198 0
176 198 0
175 198 0
175 198 0
174 197 0
175 198 0
174 197 0
174 197 0
174 197 0
175 198 0
175 198 0
173 197 0
174 197 0
172 196 0
175 198 0
174 197 0
176 198 0
173 197 0
176 199 0
174 198 0
174 197 0
175 198 0
174 197 0
174 197 0
174 197 0
175 198 0
173 197 0
173 197 0
175 198 0
173 197 0
175 198 0
174 197 0
173 197 0
174 198 0
174 197 0
175 198 0
174 198 0
173 197 0
174 198 0
172 196 0
173 197 0
173 197 0
174 197 0
174 198 0
173 197 0
174 198 0
173 196 0
175 198 0
174 197 0
175 198 0
174 198 0
175 198 0
173 197 0
175 198 0
174 198 0
175 198 0
173 197 0
175 198 0
174 197 0
174 197 0
175 198 0
173 197 0
174 198 0
176 199 0
174 197 0
172 196 0
174 197 0
174 198 0
172 196 0
172 196 0
173 197 0
175 198 0
174 198 0
171 196 0
173 197 0
174 198 0
174 198 0
174 198 0
173 197 0
173 196 0
174 198 0
174 198 0
175 198 0
172 196 0
173 197 0
173 196 0
174 198 0
171 195 0
175 198 0
172 196 0
172 196 0
174 198 0
172 195 0
172 196 0
174 196 0
174 197 0
175 198 0
173 196 0
176 198 0
175 198 0
174 197 0
172 196 0
174 196 0
174 197 0
174 198 0
175 198 0
175 198 0
176 198 0
174 197 0
174 197 0
174 197 0
176 198 0
172 196 0
173 197 0
173 196 0
173 196 0
172 196 0
175 198 0
174 197 0
172 197 0
176 199 0
174 197 0
174 198 0
172 196 0
172 195 0
173 196 0
174 197 0
173 197 0
174 198 0
175 198 0
172 196 0
173 197 0
173 196 0
172 196 0
174 197 0
174 197 0
175 198 0
172 196 0
173 196 0
174 197 0
174 197 0
175 198 0
173 197 0
174 197 0
175 198 0
174 197 0
173 197 0
173 197 0
174 197 0
174 198 0
173 197 0
173 197 0
172 196 0
175 198 0
175 198 0
173 197 0
175 198 0
172 196 0
171 195 0
176 198 0
173 196 0
172 196 0
173 196 0
173 197 0
174 198 0
175 198 0
172 195 0
173 196 0
175 198 0
171 195 0
174 197 0
174 197 0
174 198 0
174 197 0
172 196 0
172 196 0
172 196 0
173 197 0
173 197 0
174 198 0
174 197 0
173 197 0
173 196 0
174 197 0
174 198 0
174 197 0
173 197 0
172 195 0
173 196 0
174 197 0
173 196 0
174 198 0
174 197 0
174 198 0
175 198 0
174 197 0
175 198 0
173 197 0
173 197 0
176 199 0
174 197 0
175 198 0
172 196 0
173 197 0
175 198 0
174 197 0
172 195 0
175 198 0
174 198 0
175 198 0
173 197 0
173 196 0
172 196 0
175 198 0
173 197 0
173 196 0
174 198 0
173 197 0
174 198 0
173 197 0
174 197 0
172 196 0
175 198 0
174 198 0
173 197 0
174 197 0
174 197 0
173 197 0
176 198 0
173 197 0
174 197 0
174 198 0
174 197 0
174 197 0
174 197 0
174 197 0
173 197 0
175 198 0
173 197 0
174 197 0
174 198 0
176 199 0
174 197 0
174 197 0
174 197 0
173 197 0
175 198 0
175 198 0
172 196 0
173 197 0
175 198 0
173 197 0
172 196 0
174 197 0
173 197 0
174 197 0
175 198 0
174 197 0
174 198 0
173 196 0
175 198 0
173 197 0
174 198 0
175 198 0
174 198 0
173 197 0
174 198 0
174 198 0
175 198 0
174 197 0
173 197 0
175 198 0
175 198 0
174 198 0
173 197 0
174 197 0
174 197 0
173 197 0
176 198 0
175 198 0
174 197 0
176 198 0
173 197 0
173 196 0
172 196 0
176 199 0
173 197 0
175 198 0
175 198 0
175 198 0
174 197 0
173 197 0
173 197 0
174 197 0
174 197 0
174 198 0
173 196 0
174 197 0
173 197 0
174 198 0
175 198 0
174 197 0
175 198 0
174 198 0
171 196 0
172 197 0
175 198 0
175 198 0
174 198 0
174 197 0
175 198 0
175 198 0
174 198 0
174 198 0
175 198 0
172 196 0
175 198 0
174 197 0
174 198 0
172 196 0
174 197 0
175 198 0
174 197 0
175 198 0
174 198 0
173 197 0
174 197 0
175 198 0
172 196 0
173 197 0
175 198 0
175 198 0
176 198 0
175 198 0
174 198 0
173 197 0
174 197 0
173 196 0
176 199 0
175 198 0
173 197 0
175 198 0
173 197 0
173 197 0
176 198 0
174 198 0
176 198 0
175 198 0
174 198 0
175 198 0
174 198 0
175 198 0
173 197 0
174 197 0
175 198 0
177 199 0
173 197 0
175 198 0
174 198 0
174 198 0
173 197 0
175 198 0
176 198 0
175 198 0
174 198 0
174 197 0
174 197 0
175 198 0
174 198 0
175 198 0
173 197 0
175 198 0
175 198 0
174 198 0
173 196 0
174 198 0
175 198 0
174 198 0
176 199 0
174 198 0
174 198 0
173 197 0
174 197 0
173 197 0
175 198 0
175 198 0
175 198 0
173 196 0
176 198 0
175 198 0
174 198 0
174 197 0
173 197 0
176 198 0
175 198 0
174 198 0
173 197 0
173 197 0
174 198 0
173 197 0
174 197 0
173 197 0
175 198 0
174 198 0
174 198 0
175 198 0
174 198 0
174 197 0
174 198 0
175 198 0
173 197 0
174 197 0
173 197 0
175 198 0
173 197 0
174 198 0
173 197 0
174 197 0
174 197 0
171 196 0
171 196 0
174 198 0
174 197 0
174 197 0
174 197 0
172 196 0
175 198 0
173 197 0
173 197 0
175 198 0
177 199 0
173 197 0
173 197 0
173 197 0
173 197 0
175 198 0
174 197 0
174 197 0
174 198 0
174 197 0
174 198 0
174 198 0
175 198 0
173 197 0
177 199 0
174 197 0
174 197 0
173 197 0
174 198 0
173 197 0
173 197 0
175 198 0
174 198 0
173 197 0
176 199 0
174 198 0
174 197 0
174 197 0
174 197 0
172 196 0
175 197 0
173 197 0
175 197 0
174 198 0
173 197 0
174 197 0
175 198 0
176 198 0
173 197 0
173 197 0
173 197 0
173 197 0
174 198 0
174 198 0
174 198 0
173 197 0
174 198 0
174 198 0
173 197 0
173 197 0
174 198 0
173 197 0
173 197 0
175 198 0
172 196 0
172 196 0
172 197 0
175 198 0
172 196 0
173 197 0
173 197 0
174 197 0
173 197 0
174 198 0
173 196 0
175 198 0
175 198 0
174 198 0
173 197 0
171 195 0
175 198 0
174 198 0
174 198 0
173 197 0
176 199 0
173 196 0
174 198 0
174 197 0
174 198 0
172 195 0
173 197 0
172 195 0
174 197 0
174 197 0
172 195 0
173 197 0
173 197 0
173 197 0
172 196 0
175 198 0
173 197 0
173 196 0
173 197 0
171 195 0
173 197 0
174 198 0
173 197 0
172 196 0
171 193 0
174 197 0
172 195 0
174 197 0
175 198 0
174 197 0
174 197 0
175 198 0
174 198 0
173 197 0
174 197 0
172 196 0
173 196 0
174 198 0
172 196 0
172 196 0
172 196 0
172 196 0
175 198 0
172 196 0
172 196 0
173 197 0
175 198 0
173 197 0
173 196 0
172 195 0
171 195 0
172 195 0
173 196 0
173 196 0
171 195 0
175 197 0
172 197 0
173 196 0
172 196 0
173 197 0
172 196 0
171 195 0
172 196 0
172 195 0
173 197 0
175 198 0
175 198 0
174 198 0
170 195 0
175 198 0
169 193 0
174 197 0
173 197 0
174 197 0
173 196 0
170 194 0
174 197 0
172 195 0
175 198 0
175 198 0
173 197 0
172 196 0
170 194 0
173 197 0
173 196 0
174 197 0
170 194 0
175 198 0
173 196 0
173 196 0
173 197 0
170 194 0
175 198 0
171 195 0
173 197 0
173 197 0
174 198 0
174 198 0
175 198 0
174 197 0
174 198 0
175 198 0
174 198 0
174 198 0
172 196 0
171 195 0
175 198 0
174 197 0
174 197 0
172 196 0
173 196 0
173 197 0
174 198 0
175 198 0
173 197 0
174 197 0
174 197 0
174 198 0
174 197 0
174 198 0
175 198 0
173 197 0
175 198 0
175 198 0
173 197 0
175 198 0
175 197 0
174 198 0
175 198 0
176 199 0
175 198 0
174 196 0
174 197 0
172 196 0
175 198 0
174 198 0
173 196 0
175 198 0
173 197 0
173 197 0
173 196 0
174 197 0
174 197 0
174 197 0
173 196 0
172 196 0
173 196 0
173 197 0
174 198 0
173 196 0
173 196 0
173 197 0
174 197 0
174 197 0
174 198 0
172 196 0
174 198 0
171 196 0
174 198 0
175 198 0
174 198 0
174 197 0
175 198 0
173 196 0
175 198 0
173 197 0
175 198 0
173 197 0
174 197 0
175 198 0
174 197 0
175 198 0
177 199 0
174 198 0
174 197 0
175 198 0
173 197 0
173 197 0
173 197 0
174 197 0
174 197 0
175 198 0
175 198 0
174 197 0
173 196 0
174 198 0
174 197 0
176 198 0
176 199 0
173 197 0
174 197 0
174 197 0
175 198 0
173 197 0
174 197 0
174 198 0
172 196 0
175 198 0
174 198 0
174 198 0
174 198 0
174 198 0
173 197 0
172 197 0
172 196 0
175 198 0
174 197 0
174 197 0
174 197 0
174 198 0
175 198 0
175 198 0
174 197 0
174 197 0
175 198 0
174 198 0
175 198 0
174 198 0
175 198 0
173 197 0
174 198 0
174 198 0
175 198 0
175 198 0
175 198 0
172 196 0
175 198 0
175 198 0
174 198 0
173 197 0
176 199 0
174 197 0
175 198 0
173 197 0
174 197 0
175 198 0
174 198 0
175 198 0
175 198 0
174 198 0
174 198 0
176 199 0
175 198 0
175 198 0
174 197 0
175 198 0
176 199 0
175 198 0
175 198 0
174 197 0
174 197 0
175 198 0
172 196 0
173 197 0
174 198 0
172 197 0
174 198 0
174 197 0
172 196 0
174 198 0
174 198 0
174 197 0
173 197 0
175 198 0
173 197 0
174 197 0
174 197 0
173 197 0
174 197 0
174 197 0
173 197 0
172 197 0
174 197 0
176 199 0
174 197 0
173 197 0
174 198 0
175 198 0
174 198 0
175 198 0
174 197 0
175 198 0
175 198 0
174 198 0
174 198 0
173 197 0
174 198 0
174 197 0
174 198 0
175 198 0
173 197 0
174 198 0
174 198 0
173 197 0
174 197 0
174 198 0
174 197 0
175 198 0
176 199 0
174 198 0
174 197 0
173 197 0
174 198 0
174 198 0
173 197 0
175 198 0
175 198 0
173 197 0
173 197 0
172 196 0
175 198 0
173 197 0
174 198 0
174 198 0
175 198 0
175 198 0
173 197 0
175 198 0
174 197 0
175 198 0
174 197 0
175 198 0
173 197 0
174 197 0
176 198 0
175 198 0
173 197 0
175 198 0
174 198 0
172 197 0
173 197 0
175 198 0
174 197 0
175 198 0
173 197 0
174 198 0
175 198 0
175 198 0
175 198 0
176 199 0
174 198 0
174 198 0
172 196 0
174 198 0
174 197 0
175 198 0
175 198 0
173 196 0
175 198 0
173 197 0
175 198 0
173 197 0
172 196 0
175 198 0
173 197 0
173 197 0
174 197 0
174 198 0
174 198 0
173 197 0
174 197 0
174 198 0
173 197 0
174 198 0
173 197 0
175 198 0
173 197 0
174 198 0
174 197 0
174 198 0
175 198 0
174 198 0
173 197 0
173 197 0
173 197 0
175 198 0
174 197 0
175 198 0
172 196 0
173 196 0
175 198 0
174 198 0
175 198 0
173 197 0
174 197 0
173 197 0
173 197 0
174 197 0
173 196 0
175 198 0
175 198 0
176 199 0
174 197 0
175 198 0
172 196 0
174 197 0
175 198 0
173 196 0
173 197 0
172 195 0
174 197 0
175 198 0
174 197 0
174 197 0
174 197 0
175 198 0
175 198 0
172 196 0
173 196 0
173 197 0
173 196 0
175 198 0
174 197 0
174 197 0
175 198 0
173 197 0
174 197 0
173 197 0
173 197 0
173 197 0
173 197 0
174 198 0
173 196 0
172 196 0
175 197 0
174 197 0
172 195 0
172 196 0
173 197 0
172 196 0
172 196 0
173 197 0
172 195 0
173 196 0
173 197 0
174 197 0
173 196 0
173 197 0
173 197 0
173 197 0
174 197 0
171 195 0
173 196 0
172 196 0
174 198 0
175 198 0
174 197 0
174 198 0
175 198 0
172 196 0
172 197 0
172 196 0
173 197 0
172 196 0
174 197 0
171 195 0
172 196 0
175 198 0
175 198 0
173 197 0
172 196 0
173 196 0
175 198 0
175 198 0
172 196 0
174 197 0
174 197 0
174 198 0
174 197 0
174 198 0
174 197 0
175 198 0
173 196 0
173 197 0
175 198 0
173 197 0
174 197 0
174 197 0
170 194 0
175 198 0
174 198 0
174 198 0
175 198 0
174 198 0
175 198 0
173 197 0
175 198 0
171 195 0
172 196 0
175 197 0
174 198 0
173 197 0
174 197 0
172 196 0
173 196 0
175 198 0
174 197 0
176 198 0
173 197 0
173 197 0
174 196 0
174 196 0
173 197 0
172 196 0
173 197 0
174 197 0
175 198 0
172 196 0
173 197 0
174 197 0
176 199 0
174 197 0
173 197 0
174 198 0
172 196 0
175 198 0
174 198 0
173 197 0
173 196 0
174 197 0
173 197 0
175 198 0
174 197 0
174 198 0
173 197 0
175 198 0
175 198 0
173 197 0
173 197 0
173 197 0
173 197 0
175 198 0
175 198 0
170 194 0
176 199 0
174 197 0
175 198 0
173 196 0
173 197 0
172 196 0
173 197 0
173 196 0
172 196 0
174 198 0
175 198 0
175 198 0
176 198 0
175 198 0
175 198 0
175 198 0
173 197 0
174 198 0
173 196 0
173 197 0
175 198 0
172 196 0
174 197 0
173 197 0
174 197 0
175 197 0
174 197 0
173 197 0
173 197 0
173 197 0
173 197 0
174 197 0
171 195 0
175 198 0
173 197 0
173 197 0
174 197 0
173 197 0
174 198 0
174 197 0
175 198 0
175 198 0
175 198 0
173 197 0
174 197 0
175 198 0
174 197 0
172 196 0
175 198 0
172 196 0
174 197 0
175 198 0
173 196 0
174 198 0
175 198 0
174 198 0
172 197 0
175 198 0
175 198 0
174 198 0
175 198 0
175 198 0
175 198 0
174 197 0
175 198 0
175 198 0
175 198 0
174 197 0
175 197 0
174 197 0
173 197 0
174 197 0
174 198 0
174 197 0
173 197 0
174 198 0
175 198 0
174 197 0
172 196 0
171 195 0
175 198 0
173 197 0
173 197 0
176 198 0
174 198 0
173 197 0
174 197 0
173 197 0
175 198 0
173 197 0
174 197 0
176 198 0
174 197 0
173 197 0
175 198 0
174 198 0
175 198 0
175 197 0
173 197 0
175 198 0
175 198 0
173 196 0
176 198 0
174 198 0
