P3
200 112
255
220 235 255
220 235 255
220 235 255
220 235 255
220 235 255
220 235 255
220 235 255
220 235 255
220 235 255
220 235 255
220 235 255
220 235 255
220 235 255
220 235 255
220 235 255
220 235 255
220 235 255
220 235 255
220 235 255
220 235 255
220 235 255
220 235 255
220 235 255
220 235 255
220 235 255
220 235 255
220 235 255
220 235 255
220 235 255
220 235 255
220 235 255
220 235 255
220 235 255
220 235 255
220 235 255
220 235 255
220 235 255
220 235 255
220 235 255
220 235 255
220 235 255
220 235 255
220 235 255
220 235 255
220 235 255
220 235 255
220 235 255
220 235 255
220 235 255
220 235 255
220 235 255
220 235 255
220 235 255
220 235 255
220 235 255
220 235 255
220 235 255
220 235 255
220 235 255
220 235 255
220 235 255
220 235 255
220 235 255
220 235 255
220 235 255
220 235 255
220 235 255
220 235 255
220 235 255
220 235 255
220 235 255
220 235 255
220 235 255
220 235 255
220 235 255
220 235 255
220 235 255
220 235 255
220 235 255
220 235 255
220 235 255
220 235 255
220 235 255
220 235 255
220 235 255
220 235 255
220 235 255
220 235 255
220 235 255
220 235 255
220 235 255
220 235 255
220 235 255
220 235 255
220 235 255
220 235 255
220 235 255
220 235 255
220 235 255
220 235 255
220 235 255
220 235 255
220 235 255
220 235 255
220 235 255
220 235 255
220 235 255
220 235 255
220 235 255
220 235 255
220 235 255
220 235 255
220 235 255
220 235 255
220 235 255
220 235 255
220 235 255
220 235 255
220 235 255
220 235 255
220 235 255
220 235 255
220 235 255
220 235 255
220 235 255
220 235 255
220 235 255
220 235 255
220 235 255
220 235 255
220 235 255
220 235 255
220 235 255
220 235 255
220 235 255
220 235 255
220 235 255
220 235 255
220 235 255
220 235 255
220 235 255
220 235 255
220 235 255
220 235 255
220 235 255
220 235 255
220 235 255
220 235 255
220 235 255
220 235 255
220 235 255
220 235 255
220 235 255
220 235 255
220 235 255
220 235 255
220 235 255
220 235 255
220 235 255
220 235 255
220 235 255
220 235 255
220 235 255
220 235 255
220 235 255
220 235 255
220 235 255
220 235 255
220 235 255
220 235 255
220 235 255
220 235 255
220 235 255
220 235 255
220 235 255
220 235 255
220 235 255
220 235 255
220 235 255
220 235 255
220 235 255
220 235 255
220 235 255
220 235 255
220 235 255
220 235 255
220 235 255
220 235 255
220 235 255
220 235 255
220 235 255
220 235 255
220 235 255
220 235 255
220 235 255
220 235 255
220 235 255
220 235 255
220 235 255
220 235 255
220 235 255
220 235 255
220 235 255
220 235 255
220 235 255
220 235 255
220 235 255
220 235 255
220 235 255
220 235 255
220 235 255
220 235 255
220 235 255
220 235 255
220 235 255
220 235 255
220 235 255
220 235 255
220 235 255
220 235 255
220 235 255
220 235 255
220 235 255
220 235 255
220 235 255
220 235 255
220 235 255
220 235 255
220 235 255
220 235 255
220 235 255
220 235 255
220 235 255
220 235 255
220 235 255
220 235 255
220 235 255
220 235 255
220 235 255
220 235 255
220 235 255
220 235 255
220 235 255
220 235 255
220 235 255
220 235 255
220 235 255
220 235 255
220 235 255
220 235 255
220 235 255
220 235 255
220 235 255
220 235 255
220 235 255
220 235 255
220 235 255
220 235 255
220 235 255
220 235 255
220 235 255
220 235 255
220 235 255
220 235 255
220 235 255
220 235 255
220 235 255
220 235 255
220 235 255
220 235 255
220 235 255
220 235 255
220 235 255
220 235 255
220 235 255
220 235 255
220 235 255
220 235 255
220 235 255
220 235 255
220 235 255
220 235 255
220 235 255
220 235 255
220 235 255
220 235 255
220 235 255
220 235 255
220 235 255
220 235 255
220 235 255
220 235 255
220 235 255
220 235 255
220 235 255
220 235 255
220 235 255
220 235 255
220 235 255
220 235 255
220 235 255
220 235 255
220 235 255
220 235 255
220 235 255
220 235 255
220 235 255
220 235 255
220 235 255
220 235 255
220 235 255
220 235 255
220 235 255
220 235 255
220 235 255
220 235 255
220 235 255
220 235 255
220 235 255
220 235 255
220 235 255
220 235 255
220 235 255
220 235 255
220 235 255
220 235 255
220 235 255
220 235 255
220 235 255
220 235 255
220 235 255
220 235 255
220 235 255
220 235 255
220 235 255
220 235 255
220 235 255
220 235 255
220 235 255
220 235 255
220 235 255
220 235 255
220 235 255
220 235 255
220 235 255
220 235 255
220 235 255
220 235 255
220 235 255
220 235 255
220 235 255
220 235 255
220 235 255
220 235 255
220 235 255
220 235 255
220 235 255
220 235 255
220 235 255
220 235 255
220 235 255
220 235 255
220 235 255
220 235 255
220 235 255
220 235 255
220 235 255
220 235 255
220 235 255
220 235 255
220 235 255
220 235 255
220 235 255
220 235 255
220 235 255
220 235 255
220 235 255
220 235 255
220 235 255
220 235 255
220 235 255
220 235 255
220 235 255
220 235 255
220 235 255
220 235 255
220 235 255
220 235 255
220 235 255
220 235 255
221 235 255
220 235 255
220 235 255
220 235 255
220 235 255
220 235 255
220 235 255
221 235 255
220 235 255
221 235 255
221 235 255
221 235 255
221 235 255
221 235 255
221 235 255
221 235 255
221 235 255
221 235 255
221 235 255
221 235 255
221 235 255
221 235 255
221 235 255
221 235 255
221 235 255
221 235 255
221 235 255
221 235 255
221 235 255
221 235 255
221 235 255
221 235 255
221 235 255
221 235 255
221 235 255
221 235 255
221 235 255
221 235 255
221 235 255
221 235 255
221 235 255
221 235 255
220 235 255
221 235 255
221 235 255
221 235 255
220 235 255
221 235 255
221 235 255
221 235 255
221 235 255
221 235 255
221 235 255
221 235 255
221 235 255
221 235 255
221 235 255
221 235 255
221 235 255
221 235 255
221 235 255
221 235 255
221 235 255
221 235 255
221 235 255
221 235 255
221 235 255
221 235 255
221 235 255
221 235 255
220 235 255
221 235 255
221 235 255
221 235 255
220 235 255
220 235 255
221 235 255
221 235 255
221 235 255
221 235 255
221 235 255
221 235 255
220 235 255
221 235 255
221 235 255
221 235 255
220 235 255
220 235 255
221 235 255
221 235 255
221 235 255
221 235 255
220 235 255
221 235 255
221 235 255
221 235 255
221 235 255
221 235 255
221 235 255
221 235 255
221 235 255
221 235 255
221 235 255
221 235 255
221 235 255
221 235 255
221 235 255
221 235 255
221 235 255
221 235 255
221 235 255
221 235 255
221 235 255
221 235 255
221 235 255
221 235 255
221 235 255
221 235 255
221 235 255
221 235 255
221 235 255
221 235 255
221 235 255
221 235 255
220 235 255
221 235 255
221 235 255
221 235 255
220 235 255
221 235 255
220 235 255
220 235 255
220 235 255
221 235 255
221 235 255
221 235 255
221 235 255
221 235 255
221 235 255
221 235 255
221 235 255
221 235 255
221 235 255
221 235 255
221 235 255
221 235 255
221 235 255
221 235 255
221 235 255
221 235 255
221 235 255
221 235 255
221 235 255
220 235 255
221 235 255
221 235 255
221 235 255
221 235 255
221 235 255
221 235 255
221 235 255
221 235 255
221 235 255
221 235 255
221 235 255
221 235 255
221 235 255
221 235 255
221 235 255
221 235 255
221 235 255
221 235 255
221 235 255
221 235 255
221 235 255
220 235 255
221 235 255
221 235 255
221 235 255
221 235 255
221 235 255
221 235 255
221 235 255
221 235 255
221 235 255
221 235 255
221 235 255
221 235 255
221 235 255
221 235 255
221 235 255
221 235 255
221 235 255
221 235 255
221 235 255
221 235 255
221 235 255
221 235 255
221 235 255
221 235 255
221 235 255
221 235 255
221 235 255
221 235 255
221 235 255
221 235 255
221 235 255
221 235 255
221 235 255
221 235 255
221 235 255
221 235 255
221 235 255
221 235 255
221 235 255
221 235 255
221 235 255
221 235 255
221 235 255
221 235 255
221 235 255
221 235 255
221 235 255
221 235 255
221 235 255
221 235 255
221 235 255
221 235 255
221 235 255
221 235 255
221 235 255
221 235 255
221 235 255
221 235 255
221 235 255
221 235 255
221 235 255
221 235 255
221 235 255
221 235 255
221 235 255
221 235 255
221 235 255
221 235 255
221 235 255
221 235 255
221 235 255
221 235 255
221 235 255
221 235 255
221 235 255
221 235 255
221 235 255
221 235 255
221 235 255
221 235 255
221 235 255
221 235 255
221 235 255
221 235 255
221 235 255
221 235 255
221 235 255
221 235 255
221 235 255
221 235 255
221 235 255
221 235 255
221 235 255
221 235 255
221 235 255
221 235 255
221 235 255
221 235 255
221 235 255
221 235 255
221 235 255
221 235 255
221 235 255
221 235 255
221 235 255
221 235 255
221 235 255
221 235 255
221 235 255
221 235 255
221 235 255
221 235 255
221 235 255
221 235 255
221 235 255
221 235 255
221 235 255
221 235 255
221 235 255
221 235 255
221 235 255
221 235 255
221 235 255
221 235 255
221 235 255
221 235 255
221 235 255
221 235 255
221 235 255
221 235 255
221 235 255
221 235 255
221 235 255
221 235 255
221 235 255
221 235 255
221 235 255
221 235 255
221 235 255
221 235 255
221 235 255
221 235 255
221 235 255
221 235 255
221 235 255
221 235 255
221 235 255
221 235 255
221 235 255
221 235 255
221 235 255
221 235 255
221 235 255
221 235 255
221 235 255
221 235 255
221 235 255
221 235 255
221 235 255
221 235 255
221 235 255
221 235 255
221 235 255
221 235 255
221 235 255
221 235 255
221 235 255
221 235 255
221 235 255
221 235 255
221 235 255
221 235 255
221 235 255
221 235 255
221 235 255
221 235 255
221 235 255
221 235 255
221 235 255
221 235 255
221 235 255
221 235 255
221 235 255
221 235 255
221 235 255
221 235 255
221 235 255
221 235 255
221 235 255
221 235 255
221 235 255
221 235 255
221 235 255
221 235 255
221 235 255
221 235 255
221 235 255
221 235 255
221 235 255
221 235 255
221 235 255
221 235 255
221 235 255
221 235 255
221 235 255
221 235 255
221 235 255
221 235 255
221 235 255
221 235 255
221 235 255
221 235 255
221 235 255
221 235 255
221 235 255
221 235 255
221 235 255
221 235 255
221 235 255
221 235 255
221 235 255
221 235 255
221 235 255
221 235 255
221 235 255
221 235 255
221 235 255
221 235 255
221 235 255
221 235 255
221 235 255
221 235 255
221 235 255
221 235 255
221 235 255
221 235 255
221 235 255
221 235 255
221 235 255
221 235 255
221 235 255
221 235 255
221 235 255
221 235 255
221 235 255
221 235 255
221 235 255
221 235 255
221 235 255
221 235 255
221 235 255
221 235 255
221 235 255
221 235 255
221 235 255
221 235 255
221 235 255
221 235 255
221 235 255
221 235 255
221 235 255
221 235 255
221 235 255
221 235 255
221 235 255
221 235 255
221 235 255
221 235 255
221 235 255
221 235 255
221 235 255
221 235 255
221 235 255
221 235 255
221 235 255
221 235 255
221 235 255
221 235 255
221 235 255
221 235 255
221 235 255
221 235 255
221 235 255
221 235 255
221 235 255
221 235 255
221 235 255
221 235 255
221 235 255
221 235 255
221 235 255
221 235 255
221 235 255
221 235 255
221 235 255
221 235 255
221 235 255
221 235 255
221 235 255
221 235 255
221 235 255
221 235 255
221 235 255
221 235 255
221 235 255
221 235 255
221 235 255
221 235 255
221 235 255
221 235 255
221 235 255
221 235 255
221 235 255
221 235 255
221 235 255
221 235 255
221 235 255
221 235 255
221 235 255
221 235 255
221 235 255
221 235 255
221 235 255
221 235 255
221 235 255
221 235 255
221 235 255
221 235 255
221 235 255
221 235 255
221 235 255
221 235 255
221 235 255
221 235 255
221 235 255
221 235 255
221 235 255
221 235 255
221 235 255
221 235 255
221 235 255
221 235 255
221 235 255
221 235 255
221 235 255
221 235 255
221 235 255
221 235 255
221 235 255
221 235 255
221 235 255
221 235 255
221 235 255
221 235 255
221 235 255
221 235 255
221 235 255
221 235 255
221 235 255
221 235 255
221 235 255
221 235 255
221 235 255
221 235 255
221 235 255
221 235 255
221 235 255
221 235 255
221 235 255
221 235 255
221 235 255
221 235 255
221 235 255
221 235 255
221 235 255
221 235 255
221 235 255
221 235 255
221 235 255
221 235 255
221 235 255
221 235 255
221 235 255
221 235 255
221 235 255
221 235 255
221 235 255
221 235 255
221 235 255
221 235 255
221 235 255
221 235 255
221 235 255
221 235 255
221 235 255
221 235 255
221 235 255
221 235 255
221 235 255
221 235 255
221 235 255
221 235 255
221 235 255
221 235 255
221 235 255
221 235 255
221 235 255
221 235 255
221 235 255
221 235 255
221 235 255
221 235 255
221 235 255
221 235 255
221 235 255
221 235 255
221 235 255
221 235 255
221 235 255
221 235 255
221 235 255
221 235 255
221 235 255
221 235 255
221 235 255
221 235 255
221 235 255
221 235 255
221 235 255
221 235 255
221 235 255
221 235 255
221 235 255
221 235 255
221 235 255
221 235 255
221 235 255
221 235 255
221 235 255
221 235 255
221 235 255
221 235 255
221 235 255
221 235 255
221 235 255
221 235 255
221 235 255
221 235 255
221 235 255
221 235 255
221 235 255
221 235 255
221 235 255
221 235 255
221 235 255
221 235 255
221 235 255
221 235 255
221 235 255
221 235 255
221 235 255
221 235 255
221 235 255
221 235 255
221 235 255
221 235 255
221 235 255
221 235 255
221 235 255
221 235 255
221 235 255
221 235 255
221 235 255
221 235 255
221 235 255
221 235 255
221 235 255
221 235 255
221 235 255
221 235 255
221 235 255
221 235 255
221 235 255
221 235 255
221 235 255
221 235 255
221 235 255
221 235 255
221 235 255
221 235 255
221 235 255
221 235 255
221 235 255
221 235 255
221 235 255
221 235 255
221 235 255
221 235 255
221 235 255
221 235 255
221 235 255
221 235 255
221 235 255
221 235 255
221 235 255
221 235 255
221 235 255
221 235 255
221 235 255
221 235 255
221 235 255
221 235 255
221 235 255
221 235 255
221 235 255
221 235 255
221 235 255
221 235 255
221 235 255
221 235 255
221 235 255
221 235 255
221 235 255
221 235 255
221 235 255
221 235 255
221 235 255
221 235 255
221 235 255
221 235 255
221 235 255
221 235 255
221 235 255
221 235 255
221 235 255
221 235 255
221 235 255
221 235 255
221 235 255
221 235 255
221 235 255
221 235 255
221 235 255
221 235 255
221 235 255
221 235 255
221 235 255
221 235 255
221 235 255
221 235 255
221 235 255
221 235 255
221 235 255
221 235 255
221 235 255
221 235 255
221 235 255
221 235 255
221 235 255
221 235 255
221 235 255
221 235 255
221 235 255
221 235 255
221 235 255
221 235 255
221 235 255
221 235 255
221 235 255
221 235 255
221 235 255
221 235 255
221 235 255
221 235 255
221 235 255
221 235 255
221 235 255
221 235 255
221 235 255
221 235 255
221 235 255
221 235 255
221 235 255
221 235 255
221 235 255
221 235 255
221 235 255
221 235 255
221 235 255
221 235 255
221 235 255
221 235 255
221 235 255
221 235 255
221 235 255
221 235 255
221 235 255
221 235 255
221 235 255
221 235 255
221 235 255
221 235 255
221 235 255
221 235 255
221 235 255
221 235 255
221 235 255
221 235 255
221 235 255
221 235 255
221 235 255
221 235 255
221 235 255
221 235 255
221 235 255
221 235 255
221 235 255
221 235 255
221 235 255
221 235 255
221 235 255
221 235 255
221 235 255
221 235 255
221 235 255
221 235 255
221 235 255
221 235 255
221 235 255
221 235 255
221 235 255
221 235 255
221 235 255
221 235 255
221 235 255
221 235 255
221 235 255
221 235 255
221 235 255
221 235 255
221 235 255
221 235 255
221 235 255
221 235 255
221 235 255
221 235 255
221 235 255
221 235 255
221 235 255
221 235 255
221 235 255
221 235 255
221 235 255
221 235 255
221 235 255
221 235 255
221 235 255
221 235 255
221 235 255
221 235 255
221 235 255
221 235 255
221 235 255
221 235 255
221 235 255
221 235 255
221 235 255
221 235 255
221 235 255
221 235 255
221 235 255
221 235 255
221 235 255
221 235 255
221 235 255
221 235 255
221 235 255
221 235 255
221 235 255
221 235 255
221 235 255
221 235 255
221 235 255
221 235 255
221 235 255
221 235 255
221 235 255
221 235 255
221 235 255
221 235 255
221 235 255
221 235 255
221 235 255
221 235 255
221 235 255
221 235 255
221 235 255
221 235 255
221 235 255
221 235 255
221 235 255
221 235 255
221 235 255
221 235 255
221 235 255
221 235 255
221 235 255
221 235 255
221 235 255
221 235 255
221 235 255
221 235 255
221 235 255
221 235 255
221 235 255
221 235 255
221 235 255
221 235 255
221 235 255
221 235 255
221 235 255
221 235 255
221 235 255
221 235 255
221 235 255
221 235 255
221 235 255
221 235 255
221 235 255
221 235 255
221 235 255
221 235 255
221 235 255
221 235 255
221 235 255
221 235 255
221 235 255
221 235 255
221 235 255
221 235 255
221 235 255
221 235 255
221 235 255
221 235 255
221 235 255
221 235 255
221 235 255
221 235 255
221 235 255
221 235 255
221 235 255
221 235 255
221 235 255
221 235 255
221 235 255
221 235 255
221 235 255
221 235 255
221 235 255
221 235 255
221 235 255
221 235 255
221 235 255
221 235 255
221 235 255
221 235 255
221 235 255
221 235 255
221 235 255
221 235 255
221 235 255
221 235 255
221 235 255
221 235 255
221 235 255
221 235 255
221 235 255
221 235 255
221 235 255
221 235 255
221 235 255
221 235 255
221 235 255
221 235 255
221 235 255
221 235 255
221 235 255
221 235 255
221 235 255
221 235 255
221 235 255
221 235 255
221 235 255
221 235 255
221 235 255
221 235 255
221 235 255
221 235 255
221 235 255
221 235 255
221 235 255
221 235 255
221 235 255
221 235 255
221 235 255
221 235 255
221 235 255
221 235 255
221 235 255
221 235 255
221 235 255
221 235 255
221 235 255
221 235 255
221 235 255
221 235 255
221 235 255
221 235 255
221 235 255
221 235 255
221 235 255
221 235 255
221 235 255
221 235 255
221 235 255
221 235 255
221 235 255
221 235 255
221 235 255
221 235 255
221 235 255
221 235 255
221 235 255
221 235 255
221 235 255
221 235 255
221 235 255
221 235 255
221 235 255
221 235 255
221 235 255
221 235 255
221 235 255
221 235 255
221 235 255
221 235 255
221 235 255
221 235 255
221 235 255
221 235 255
221 235 255
221 235 255
221 235 255
221 235 255
221 235 255
221 235 255
221 235 255
221 235 255
221 235 255
221 235 255
221 235 255
221 235 255
221 235 255
221 235 255
221 235 255
221 235 255
221 235 255
221 235 255
221 235 255
221 235 255
221 235 255
221 235 255
221 235 255
221 235 255
221 235 255
221 235 255
221 235 255
221 235 255
221 235 255
221 235 255
221 235 255
221 235 255
221 235 255
221 235 255
221 235 255
221 235 255
221 235 255
221 235 255
221 235 255
221 235 255
221 235 255
221 235 255
221 235 255
221 235 255
221 235 255
221 235 255
221 235 255
221 235 255
221 235 255
221 235 255
221 235 255
221 235 255
221 235 255
221 235 255
221 235 255
221 235 255
221 235 255
221 235 255
221 235 255
221 235 255
221 235 255
221 235 255
221 235 255
221 235 255
221 235 255
221 235 255
221 235 255
221 235 255
221 235 255
221 235 255
221 235 255
221 235 255
221 235 255
221 235 255
221 235 255
221 235 255
221 235 255
221 235 255
221 235 255
221 235 255
221 235 255
221 235 255
221 235 255
221 235 255
221 235 255
221 235 255
221 235 255
221 235 255
221 235 255
221 235 255
221 235 255
221 235 255
221 235 255
221 235 255
221 235 255
221 235 255
221 235 255
221 235 255
221 235 255
221 235 255
221 235 255
221 235 255
221 235 255
221 235 255
221 235 255
221 235 255
221 235 255
221 235 255
221 235 255
221 235 255
221 235 255
221 235 255
221 235 255
221 235 255
221 235 255
221 235 255
221 235 255
221 235 255
221 235 255
221 235 255
221 235 255
221 235 255
221 235 255
221 235 255
221 235 255
221 235 255
221 235 255
221 235 255
221 235 255
221 235 255
221 235 255
221 235 255
221 235 255
221 235 255
221 235 255
221 235 255
221 235 255
221 235 255
221 235 255
221 235 255
221 235 255
221 235 255
221 235 255
221 235 255
221 235 255
221 235 255
221 235 255
221 235 255
221 235 255
221 235 255
221 235 255
221 235 255
221 235 255
221 235 255
221 235 255
221 235 255
221 235 255
221 235 255
221 235 255
221 235 255
221 235 255
221 235 255
221 235 255
221 235 255
221 235 255
221 235 255
221 235 255
221 235 255
221 235 255
221 235 255
221 235 255
221 235 255
221 235 255
221 235 255
221 235 255
221 235 255
221 235 255
221 235 255
221 235 255
221 235 255
221 235 255
221 235 255
221 235 255
221 235 255
221 236 255
221 236 255
221 236 255
221 236 255
221 236 255
221 236 255
221 236 255
221 236 255
221 236 255
221 236 255
221 236 255
221 236 255
221 236 255
221 236 255
221 236 255
221 236 255
221 236 255
221 236 255
221 236 255
221 236 255
221 236 255
221 236 255
221 236 255
221 236 255
221 236 255
221 236 255
221 236 255
221 236 255
221 236 255
221 236 255
221 236 255
221 236 255
221 236 255
221 236 255
221 236 255
221 235 255
221 236 255
221 236 255
221 236 255
221 236 255
221 236 255
221 236 255
221 236 255
221 235 255
221 236 255
221 236 255
221 236 255
221 236 255
221 236 255
221 236 255
221 236 255
221 236 255
221 236 255
221 236 255
221 236 255
221 236 255
221 236 255
221 236 255
221 235 255
221 236 255
221 236 255
221 236 255
221 235 255
221 236 255
221 236 255
221 236 255
221 236 255
221 236 255
221 236 255
221 236 255
221 236 255
221 236 255
221 236 255
221 236 255
221 235 255
221 236 255
221 236 255
221 236 255
221 236 255
115 96 80
221 236 255
221 236 255
221 236 255
221 236 255
221 236 255
120 98 80
221 236 255
221 236 255
221 236 255
221 236 255
221 236 255
221 236 255
221 235 255
221 236 255
221 236 255
221 236 255
211 230 255
221 236 255
221 236 255
142 158 181
221 235 255
221 236 255
221 235 255
221 236 255
221 236 255
221 236 255
221 236 255
221 236 255
221 236 255
221 236 255
221 236 255
221 236 255
221 236 255
221 236 255
221 236 255
221 236 255
221 235 255
221 235 255
221 236 255
221 236 255
221 236 255
221 236 255
221 236 255
221 236 255
221 236 255
221 236 255
221 236 255
179 179 181
221 236 255
221 236 255
175 177 181
177 178 181
221 235 255
221 236 255
183 181 181
180 180 181
221 236 255
221 236 255
221 236 255
221 236 255
221 235 255
221 236 255
221 236 255
221 236 255
221 236 255
221 236 255
221 236 255
221 236 255
221 236 255
221 236 255
221 235 255
221 236 255
221 236 255
221 236 255
221 236 255
221 236 255
221 236 255
221 236 255
221 236 255
221 235 255
221 236 255
221 236 255
221 236 255
221 236 255
221 236 255
221 236 255
221 236 255
221 236 255
221 236 255
221 236 255
221 236 255
221 235 255
221 235 255
221 236 255
221 236 255
221 235 255
221 236 255
221 236 255
221 236 255
221 235 255
221 235 255
221 236 255
221 236 255
221 236 255
221 236 255
221 236 255
221 236 255
221 236 255
221 236 255
221 236 255
221 236 255
221 236 255
221 236 255
221 236 255
221 236 255
221 236 255
221 236 255
221 236 255
221 236 255
221 236 255
221 236 255
221 236 255
221 236 255
221 236 255
221 236 255
221 236 255
221 236 255
221 236 255
221 236 255
221 236 255
221 236 255
221 236 255
221 236 255
221 236 255
221 236 255
221 236 255
221 236 255
221 236 255
221 236 255
221 236 255
221 236 255
221 236 255
221 236 255
221 236 255
221 236 255
221 236 255
221 236 255
221 236 255
221 236 255
221 236 255
221 236 255
221 236 255
221 236 255
221 236 255
221 236 255
221 236 255
221 236 255
221 236 255
221 236 255
221 236 255
221 236 255
221 236 255
221 236 255
221 236 255
221 236 255
221 236 255
221 236 255
221 236 255
221 236 255
221 236 255
221 236 255
221 236 255
221 236 255
221 236 255
221 236 255
221 236 255
221 236 255
221 236 255
221 236 255
221 236 255
221 236 255
221 236 255
221 236 255
221 236 255
221 236 255
221 236 255
221 236 255
221 236 255
221 236 255
221 236 255
221 236 255
221 236 255
221 236 255
221 236 255
221 236 255
221 236 255
120 97 80
132 102 80
121 98 80
125 99 80
121 98 80
116 96 80
125 99 80
116 96 80
116 96 80
130 101 80
122 98 80
118 97 80
115 96 80
221 236 255
221 236 255
221 236 255
214 232 255
0 0 0
211 230 255
207 227 255
198 223 255
0 0 0
0 0 0
0 0 0
200 224 255
199 223 255
132 154 181
0 0 0
133 154 181
0 0 0
205 227 255
221 236 255
221 236 255
221 236 255
221 236 255
221 236 255
221 236 255
221 236 255
221 236 255
221 236 255
221 236 255
221 236 255
221 236 255
221 236 255
221 236 255
181 180 181
181 180 181
181 180 181
175 177 181
173 176 181
172 176 181
168 174 181
172 176 181
167 173 181
171 175 181
171 175 181
172 176 181
174 176 181
173 176 181
173 176 181
176 178 181
221 236 255
175 177 181
221 236 255
221 236 255
221 236 255
221 236 255
221 236 255
221 236 255
221 236 255
221 236 255
221 236 255
221 236 255
221 236 255
221 236 255
221 236 255
221 236 255
221 236 255
221 236 255
221 236 255
221 236 255
221 236 255
221 236 255
221 236 255
221 236 255
221 236 255
221 236 255
221 236 255
221 236 255
221 236 255
221 236 255
221 236 255
221 236 255
221 236 255
221 236 255
221 236 255
221 236 255
221 236 255
221 236 255
221 236 255
221 236 255
221 236 255
221 236 255
221 236 255
221 236 255
221 236 255
221 236 255
221 236 255
221 236 255
221 236 255
221 236 255
221 236 255
221 236 255
221 236 255
221 236 255
221 236 255
221 236 255
221 236 255
221 236 255
221 236 255
221 236 255
221 236 255
221 236 255
221 236 255
221 236 255
221 236 255
221 236 255
221 236 255
221 236 255
221 236 255
221 236 255
221 236 255
221 236 255
221 236 255
221 236 255
221 236 255
221 236 255
221 236 255
221 236 255
221 236 255
221 236 255
221 236 255
221 236 255
221 236 255
221 236 255
221 236 255
221 236 255
221 236 255
221 236 255
221 236 255
221 236 255
221 236 255
221 236 255
221 236 255
221 236 255
221 236 255
221 236 255
221 236 255
221 236 255
221 236 255
221 236 255
221 236 255
221 236 255
221 236 255
221 236 255
221 236 255
221 236 255
221 236 255
221 236 255
221 236 255
221 236 255
221 236 255
221 236 255
221 236 255
221 236 255
221 236 255
221 236 255
221 236 255
221 236 255
221 236 255
221 236 255
221 236 255
221 236 255
221 236 255
221 236 255
221 236 255
221 236 255
221 236 255
221 236 255
221 236 255
221 236 255
221 236 255
221 236 255
221 236 255
221 236 255
221 236 255
221 236 255
221 236 255
221 236 255
117 96 80
139 105 80
120 97 80
120 97 80
115 96 80
121 98 80
117 96 80
132 102 80
124 99 80
131 101 80
132 102 80
0 0 0
118 97 80
115 96 80
122 98 80
122 98 80
0 0 0
202 225 255
76 60 158
73 59 158
71 58 158
84 63 158
76 60 158
132 153 181
140 157 181
144 159 181
135 155 181
139 157 181
0 0 0
137 156 181
198 223 255
137 156 181
0 0 0
133 154 181
212 230 255
221 236 255
221 236 255
221 236 255
221 236 255
221 236 255
221 236 255
221 236 255
221 236 255
221 236 255
221 236 255
174 177 181
173 176 181
167 173 181
166 173 181
169 174 181
164 172 181
165 172 181
164 172 181
167 173 181
163 171 181
164 172 181
166 173 181
163 171 181
165 172 181
166 172 181
165 172 181
169 174 181
171 175 181
167 173 181
170 175 181
176 178 181
180 180 181
221 236 255
221 236 255
221 236 255
221 236 255
221 236 255
221 236 255
221 236 255
221 236 255
221 236 255
221 236 255
221 236 255
221 236 255
221 236 255
221 236 255
221 236 255
221 236 255
221 236 255
221 236 255
221 236 255
221 236 255
221 236 255
221 236 255
221 236 255
221 236 255
221 236 255
221 236 255
221 236 255
221 236 255
221 236 255
221 236 255
221 236 255
221 236 255
221 236 255
221 236 255
221 236 255
221 236 255
221 236 255
221 236 255
221 236 255
221 236 255
221 236 255
221 236 255
221 236 255
221 236 255
221 236 255
221 236 255
221 236 255
221 236 255
221 236 255
221 236 255
221 236 255
221 236 255
221 236 255
221 236 255
221 236 255
221 236 255
221 236 255
221 236 255
222 236 255
222 236 255
222 236 255
222 236 255
221 236 255
222 236 255
221 236 255
222 236 255
222 236 255
221 236 255
222 236 255
221 236 255
222 236 255
222 236 255
222 236 255
222 236 255
222 236 255
222 236 255
222 236 255
222 236 255
222 236 255
221 236 255
222 236 255
222 236 255
222 236 255
222 236 255
221 236 255
222 236 255
222 236 255
222 236 255
222 236 255
222 236 255
222 236 255
221 236 255
222 236 255
222 236 255
222 236 255
222 236 255
222 236 255
222 236 255
222 236 255
222 236 255
222 236 255
222 236 255
222 236 255
222 236 255
222 236 255
222 236 255
222 236 255
222 236 255
222 236 255
222 236 255
222 236 255
222 236 255
222 236 255
222 236 255
222 236 255
222 236 255
222 236 255
222 236 255
222 236 255
222 236 255
222 236 255
222 236 255
222 236 255
222 236 255
222 236 255
222 236 255
222 236 255
222 236 255
222 236 255
222 236 255
222 236 255
132 102 80
76 63 56
121 98 80
118 97 80
125 100 80
139 105 80
120 97 80
125 99 80
129 101 80
130 101 80
114 95 80
133 103 80
116 96 80
120 98 80
119 97 80
139 157 181
78 61 158
204 226 255
73 59 158
76 60 158
0 0 0
137 156 181
128 151 181
0 0 0
187 217 255
140 157 181
0 0 0
134 154 181
0 0 0
136 155 181
0 0 0
144 159 181
132 153 181
138 156 181
138 156 181
129 152 181
133 154 181
209 229 255
132 153 181
222 236 255
222 236 255
222 236 255
222 236 255
222 236 255
178 178 181
176 178 181
173 176 181
167 173 181
166 173 181
166 173 181
163 171 181
162 171 181
163 171 181
162 171 181
163 171 181
162 170 181
162 171 181
159 169 181
159 169 181
161 170 181
162 171 181
160 170 181
163 171 181
163 171 181
163 171 181
166 173 181
167 173 181
169 174 181
172 176 181
172 176 181
172 175 181
179 179 181
185 182 181
222 236 255
222 236 255
222 236 255
222 236 255
222 236 255
222 236 255
222 236 255
221 236 255
222 236 255
222 236 255
222 236 255
222 236 255
222 236 255
222 236 255
222 236 255
222 236 255
221 236 255
222 236 255
222 236 255
222 236 255
222 236 255
222 236 255
222 236 255
222 236 255
222 236 255
222 236 255
222 236 255
222 236 255
222 236 255
222 236 255
222 236 255
222 236 255
222 236 255
222 236 255
222 236 255
222 236 255
222 236 255
222 236 255
222 236 255
222 236 255
222 236 255
222 236 255
222 236 255
222 236 255
222 236 255
222 236 255
222 236 255
222 236 255
222 236 255
221 236 255
222 236 255
222 236 255
222 236 255
222 236 255
222 236 255
222 236 255
222 236 255
222 236 255
222 236 255
222 236 255
222 236 255
222 236 255
222 236 255
222 236 255
222 236 255
222 236 255
222 236 255
222 236 255
222 236 255
222 236 255
222 236 255
222 236 255
222 236 255
222 236 255
222 236 255
222 236 255
222 236 255
222 236 255
222 236 255
222 236 255
222 236 255
222 236 255
222 236 255
222 236 255
222 236 255
222 236 255
222 236 255
222 236 255
222 236 255
222 236 255
222 236 255
222 236 255
222 236 255
222 236 255
222 236 255
222 236 255
222 236 255
222 236 255
222 236 255
222 236 255
222 236 255
222 236 255
222 236 255
222 236 255
222 236 255
222 236 255
222 236 255
222 236 255
222 236 255
222 236 255
222 236 255
222 236 255
222 236 255
222 236 255
222 236 255
222 236 255
222 236 255
222 236 255
222 236 255
222 236 255
222 236 255
222 236 255
222 236 255
222 236 255
222 236 255
136 103 80
121 98 80
130 101 80
141 105 80
121 98 80
118 97 80
141 106 80
124 99 80
59 26 14
139 105 80
123 99 80
134 103 80
137 104 80
115 96 80
117 96 80
131 102 80
130 152 181
209 229 255
201 225 255
0 0 0
80 62 158
134 154 181
0 0 0
141 158 181
130 152 181
134 154 181
132 153 181
132 153 181
0 0 0
133 154 181
0 0 0
0 0 0
0 0 0
0 0 0
186 217 255
0 0 0
0 0 0
128 151 181
0 0 0
137 156 181
128 151 181
0 0 0
222 236 255
222 236 255
176 178 181
175 177 181
169 174 181
170 175 181
165 172 181
166 173 181
164 172 181
161 170 181
161 170 181
160 170 181
159 169 181
159 169 181
158 169 181
158 169 181
156 168 181
158 169 181
158 169 181
159 169 181
157 168 181
159 169 181
160 170 181
160 170 181
161 170 181
161 170 181
162 171 181
163 171 181
164 172 181
165 172 181
169 174 181
170 175 181
174 176 181
183 181 181
222 236 255
222 236 255
222 236 255
222 236 255
222 236 255
222 236 255
222 236 255
222 236 255
222 236 255
222 236 255
222 236 255
222 236 255
222 236 255
222 236 255
222 236 255
222 236 255
222 236 255
222 236 255
222 236 255
222 236 255
222 236 255
222 236 255
222 236 255
222 236 255
222 236 255
222 236 255
222 236 255
222 236 255
222 236 255
222 236 255
222 236 255
222 236 255
222 236 255
222 236 255
222 236 255
222 236 255
222 236 255
222 236 255
222 236 255
222 236 255
222 236 255
222 236 255
222 236 255
222 236 255
222 236 255
222 236 255
222 236 255
222 236 255
222 236 255
222 236 255
222 236 255
222 236 255
222 236 255
222 236 255
222 236 255
222 236 255
222 236 255
222 236 255
222 236 255
222 236 255
222 236 255
222 236 255
222 236 255
222 236 255
222 236 255
222 236 255
222 236 255
222 236 255
222 236 255
222 236 255
222 236 255
222 236 255
222 236 255
222 236 255
222 236 255
222 236 255
222 236 255
222 236 255
222 236 255
222 236 255
222 236 255
222 236 255
222 236 255
222 236 255
222 236 255
222 236 255
222 236 255
222 236 255
222 236 255
222 236 255
222 236 255
222 236 255
222 236 255
222 236 255
222 236 255
222 236 255
222 236 255
222 236 255
222 236 255
222 236 255
222 236 255
222 236 255
222 236 255
222 236 255
222 236 255
222 236 255
222 236 255
222 236 255
222 236 255
222 236 255
222 236 255
222 236 255
222 236 255
222 236 255
222 236 255
222 236 255
222 236 255
222 236 255
222 236 255
222 236 255
222 236 255
222 236 255
222 236 255
222 236 255
119 97 80
117 96 80
137 104 80
118 97 80
114 95 80
115 96 80
133 102 80
0 0 0
84 69 57
125 99 80
119 97 80
128 100 80
119 97 80
124 99 80
150 163 181
208 228 255
129 152 181
133 154 181
139 157 181
128 151 181
53 42 112
145 160 181
0 0 0
132 153 181
0 0 0
138 156 181
143 159 181
0 0 0
151 164 181
141 27 48
0 0 0
157 28 48
0 0 0
153 28 48
56 7 30
157 28 48
0 0 0
190 219 255
146 161 181
134 154 181
142 159 181
0 0 0
178 179 181
170 174 181
168 174 181
169 174 181
165 172 181
163 171 181
162 171 181
161 170 181
159 169 181
159 169 181
157 169 181
157 168 181
156 168 181
156 168 181
156 168 181
156 168 181
156 168 181
155 167 181
155 167 181
154 167 181
155 168 181
156 168 181
156 168 181
156 168 181
158 169 181
160 170 181
160 170 181
160 170 181
162 171 181
164 172 181
163 171 181
165 172 181
171 175 181
174 176 181
173 176 181
222 236 255
184 182 181
222 236 255
222 236 255
222 236 255
222 236 255
222 236 255
222 236 255
222 236 255
222 236 255
222 236 255
222 236 255
222 236 255
222 236 255
222 236 255
222 236 255
222 236 255
222 236 255
222 236 255
222 236 255
222 236 255
222 236 255
222 236 255
222 236 255
222 236 255
222 236 255
222 236 255
222 236 255
222 236 255
222 236 255
222 236 255
222 236 255
222 236 255
222 236 255
222 236 255
222 236 255
222 236 255
222 236 255
222 236 255
222 236 255
222 236 255
222 236 255
222 236 255
222 236 255
222 236 255
222 236 255
222 236 255
222 236 255
222 236 255
222 236 255
222 236 255
222 236 255
222 236 255
222 236 255
222 236 255
222 236 255
222 236 255
222 236 255
222 236 255
222 236 255
222 236 255
222 236 255
222 236 255
222 236 255
222 236 255
222 236 255
222 236 255
222 236 255
222 236 255
222 236 255
222 236 255
222 236 255
222 236 255
222 236 255
222 236 255
222 236 255
222 236 255
222 236 255
222 236 255
222 236 255
222 236 255
222 236 255
222 236 255
222 236 255
222 236 255
222 236 255
222 236 255
222 236 255
222 236 255
222 236 255
222 236 255
222 236 255
222 236 255
222 236 255
222 236 255
222 236 255
222 236 255
222 236 255
222 236 255
222 236 255
222 236 255
222 236 255
222 236 255
222 236 255
222 236 255
222 236 255
222 236 255
222 236 255
222 236 255
222 236 255
222 236 255
222 236 255
222 236 255
222 236 255
222 236 255
222 236 255
222 236 255
222 236 255
222 236 255
222 236 255
222 236 255
114 95 80
133 102 80
141 105 80
137 104 80
117 96 80
130 101 80
133 102 80
89 70 57
126 100 80
116 96 80
0 0 0
132 102 80
123 98 80
121 98 80
217 233 255
118 97 80
140 157 181
0 0 0
129 152 181
132 153 181
150 163 181
0 0 0
128 151 181
83 68 57
186 216 255
99 74 57
149 162 181
0 0 0
141 158 181
148 162 181
130 152 181
106 20 34
153 28 48
143 27 48
157 28 48
134 26 48
0 0 0
156 28 48
134 26 48
99 19 34
129 152 181
140 157 181
0 0 0
173 176 181
175 177 181
167 173 181
166 173 181
163 171 181
161 170 181
160 170 181
160 170 181
158 169 181
157 168 181
157 168 181
155 167 181
155 167 181
155 167 181
155 167 181
154 167 181
153 166 181
154 167 181
154 167 181
154 167 181
154 167 181
154 167 181
155 167 181
155 167 181
155 167 181
156 168 181
157 168 181
158 169 181
160 170 181
161 170 181
161 170 181
162 171 181
163 171 181
168 173 181
168 174 181
172 176 181
175 177 181
222 236 255
222 236 255
222 236 255
222 236 255
222 236 255
222 236 255
222 236 255
222 236 255
222 236 255
222 236 255
222 236 255
222 236 255
222 236 255
222 236 255
222 236 255
222 236 255
222 236 255
222 236 255
222 236 255
222 236 255
222 236 255
222 236 255
222 236 255
222 236 255
222 236 255
222 236 255
222 236 255
222 236 255
222 236 255
222 236 255
222 236 255
222 236 255
222 236 255
222 236 255
222 236 255
222 236 255
222 236 255
222 236 255
222 236 255
222 236 255
222 236 255
222 236 255
222 236 255
222 236 255
222 236 255
222 236 255
222 236 255
222 236 255
222 236 255
222 236 255
222 236 255
222 236 255
222 236 255
222 236 255
222 236 255
222 236 255
222 236 255
222 236 255
222 236 255
222 236 255
222 236 255
222 236 255
222 236 255
222 236 255
222 236 255
222 236 255
222 236 255
222 236 255
222 236 255
222 236 255
222 236 255
222 236 255
222 236 255
222 236 255
222 236 255
222 236 255
222 236 255
222 236 255
222 236 255
222 236 255
222 236 255
222 236 255
222 236 255
222 236 255
222 236 255
222 236 255
222 236 255
222 236 255
222 236 255
222 236 255
222 236 255
222 236 255
222 236 255
222 236 255
222 236 255
222 236 255
222 236 255
222 236 255
222 236 255
222 236 255
222 236 255
222 236 255
222 236 255
222 236 255
222 236 255
222 236 255
222 236 255
222 236 255
222 236 255
222 236 255
222 236 255
222 236 255
222 236 255
222 236 255
222 236 255
222 236 255
222 236 255
222 236 255
222 236 255
222 236 255
129 101 80
114 95 80
116 96 80
136 104 80
70 62 53
119 97 80
81 1 16
125 100 80
115 96 80
138 104 80
140 105 80
122 98 80
132 102 80
135 103 80
139 157 181
129 152 181
128 151 181
142 158 181
131 153 181
88 73 72
137 156 181
0 0 0
115 80 122
131 153 181
133 154 181
143 159 181
139 157 181
130 152 181
132 153 181
0 0 0
132 153 181
181 214 255
133 154 181
162 29 48
137 27 48
134 26 48
0 0 0
163 29 48
139 157 181
134 26 48
0 0 0
175 177 181
174 176 181
170 175 181
167 173 181
165 172 181
164 172 181
163 171 181
161 170 181
159 169 181
158 169 181
157 168 181
156 168 181
156 168 181
154 167 181
154 167 181
154 167 181
153 167 181
153 166 181
153 166 181
152 166 181
152 166 181
153 166 181
153 166 181
153 166 181
153 167 181
154 167 181
154 167 181
154 167 181
155 167 181
156 168 181
157 168 181
158 169 181
160 170 181
161 170 181
162 171 181
164 172 181
165 172 181
166 173 181
171 175 181
172 176 181
175 177 181
183 181 181
222 236 255
222 236 255
222 236 255
222 236 255
222 236 255
222 236 255
222 236 255
222 236 255
222 236 255
222 236 255
222 236 255
222 236 255
222 236 255
222 236 255
222 236 255
222 236 255
222 236 255
222 236 255
222 236 255
222 236 255
222 236 255
222 236 255
222 236 255
222 236 255
222 236 255
222 236 255
222 236 255
222 236 255
222 236 255
222 236 255
222 236 255
222 236 255
222 236 255
222 236 255
222 236 255
222 236 255
222 236 255
222 236 255
222 236 255
222 236 255
222 236 255
222 236 255
222 236 255
222 236 255
222 236 255
222 236 255
222 236 255
222 236 255
222 236 255
222 236 255
222 236 255
222 236 255
222 236 255
222 236 255
222 236 255
222 236 255
222 236 255
222 236 255
222 236 255
222 236 255
222 236 255
222 236 255
222 236 255
222 236 255
222 236 255
222 236 255
222 236 255
222 236 255
222 236 255
222 236 255
222 236 255
222 236 255
222 236 255
222 236 255
222 236 255
222 236 255
222 236 255
222 236 255
222 236 255
222 236 255
222 236 255
222 236 255
222 236 255
222 236 255
222 236 255
222 236 255
222 236 255
222 236 255
222 236 255
222 236 255
222 236 255
222 236 255
222 236 255
222 236 255
222 236 255
222 236 255
222 236 255
222 236 255
222 236 255
222 236 255
222 236 255
222 236 255
222 236 255
222 236 255
222 236 255
222 236 255
222 236 255
222 236 255
222 236 255
222 236 255
222 236 255
222 236 255
222 236 255
222 236 255
222 236 255
222 236 255
82 68 57
130 101 80
63 68 43
138 104 80
121 98 80
136 104 80
117 96 80
106 88 75
127 100 80
127 100 80
132 102 80
123 99 80
129 101 80
120 97 80
131 102 80
210 229 255
203 225 255
80 70 72
0 0 0
0 0 0
142 158 181
132 153 181
128 151 181
142 159 181
0 0 0
151 164 181
129 152 181
0 0 0
182 214 255
181 214 255
131 153 181
115 20 34
152 164 181
139 27 48
149 162 181
0 0 0
147 28 48
149 28 48
144 27 48
143 27 48
160 29 48
178 179 181
172 175 181
171 175 181
166 173 181
167 173 181
163 171 181
161 170 181
161 170 181
159 169 181
158 169 181
156 168 181
156 168 181
155 167 181
154 167 181
153 166 181
153 166 181
153 166 181
152 166 181
152 166 181
152 166 181
151 166 181
151 166 181
152 166 181
152 166 181
152 166 181
153 166 181
153 166 181
153 166 181
153 166 181
154 167 181
155 167 181
155 167 181
157 168 181
157 168 181
159 169 181
161 170 181
162 171 181
162 171 181
166 173 181
165 172 181
170 174 181
171 175 181
178 179 181
180 180 181
222 236 255
222 236 255
222 236 255
222 236 255
222 236 255
222 236 255
222 236 255
222 236 255
222 236 255
222 236 255
222 236 255
222 236 255
222 236 255
222 236 255
222 236 255
222 236 255
222 236 255
222 236 255
222 236 255
222 236 255
222 236 255
222 236 255
222 236 255
222 236 255
222 236 255
222 236 255
222 236 255
222 236 255
222 236 255
222 236 255
222 236 255
222 236 255
222 236 255
222 236 255
222 236 255
222 236 255
222 236 255
222 236 255
222 236 255
222 236 255
222 236 255
222 236 255
222 236 255
222 236 255
222 236 255
222 236 255
222 236 255
222 236 255
222 236 255
222 236 255
222 236 255
222 236 255
222 236 255
222 236 255
222 236 255
222 236 255
222 236 255
222 236 255
222 236 255
222 236 255
222 236 255
222 236 255
222 236 255
222 236 255
222 236 255
222 236 255
222 236 255
222 236 255
222 236 255
222 236 255
222 236 255
222 236 255
222 236 255
222 236 255
222 236 255
222 236 255
222 236 255
222 236 255
222 236 255
222 236 255
222 236 255
222 236 255
222 236 255
222 236 255
222 236 255
222 236 255
222 236 255
222 236 255
222 236 255
222 236 255
222 236 255
222 236 255
222 236 255
222 236 255
222 236 255
222 236 255
222 236 255
222 236 255
222 236 255
222 236 255
222 236 255
222 236 255
222 236 255
222 236 255
222 236 255
222 236 255
222 236 255
222 236 255
222 236 255
222 236 255
222 236 255
222 236 255
222 236 255
222 236 255
131 102 80
120 97 80
88 70 57
128 100 80
139 105 80
120 97 80
116 96 80
87 70 57
117 96 80
123 99 80
133 103 80
135 103 80
129 101 80
132 102 80
215 232 255
136 155 181
133 154 181
0 0 0
0 0 0
73 44 32
194 221 255
130 152 181
128 151 181
138 156 181
145 160 181
131 153 181
146 160 181
131 153 181
183 215 255
142 158 181
0 0 0
0 0 0
130 152 181
140 157 181
138 156 181
137 156 181
152 164 181
147 161 181
137 27 48
0 0 0
152 28 48
0 0 0
171 175 181
170 175 181
166 173 181
166 173 181
163 171 181
161 170 181
160 170 181
160 170 181
158 169 181
157 168 181
156 168 181
155 167 181
154 167 181
153 167 181
153 166 181
152 166 181
152 166 181
152 166 181
152 166 181
151 166 181
151 166 181
151 166 181
151 166 181
151 166 181
151 166 181
152 166 181
152 166 181
152 166 181
153 166 181
154 167 181
154 167 181
155 167 181
156 168 181
156 168 181
158 169 181
159 169 181
160 170 181
162 171 181
165 172 181
165 172 181
168 174 181
169 174 181
171 175 181
176 177 181
222 236 255
222 236 255
222 236 255
222 236 255
222 236 255
222 236 255
222 236 255
222 236 255
222 236 255
222 236 255
222 236 255
222 236 255
222 236 255
222 236 255
222 236 255
222 236 255
222 236 255
222 236 255
222 236 255
222 236 255
222 236 255
222 236 255
222 236 255
222 236 255
222 236 255
222 236 255
222 236 255
222 236 255
222 236 255
222 236 255
222 236 255
222 236 255
222 236 255
222 236 255
222 236 255
222 236 255
222 236 255
222 236 255
222 236 255
222 236 255
222 236 255
222 236 255
222 236 255
222 236 255
222 236 255
222 236 255
222 236 255
222 236 255
222 236 255
222 236 255
222 236 255
222 236 255
222 236 255
222 236 255
222 236 255
222 236 255
222 236 255
222 236 255
222 236 255
222 236 255
222 236 255
222 236 255
222 236 255
222 236 255
222 236 255
222 236 255
222 236 255
222 236 255
222 236 255
222 236 255
222 236 255
222 236 255
222 236 255
222 236 255
222 236 255
222 236 255
222 236 255
222 236 255
222 236 255
222 236 255
222 236 255
222 236 255
222 236 255
222 236 255
222 236 255
222 236 255
222 236 255
222 236 255
222 236 255
222 236 255
222 236 255
222 236 255
222 236 255
222 236 255
222 236 255
222 236 255
222 236 255
222 236 255
222 236 255
222 236 255
222 236 255
222 236 255
222 236 255
222 236 255
222 236 255
222 236 255
222 236 255
222 236 255
222 236 255
222 236 255
222 236 255
222 236 255
222 236 255
126 100 80
133 102 80
115 96 80
122 98 80
124 99 80
117 96 80
90 71 57
125 99 80
81 67 57
127 100 80
132 102 80
124 99 80
116 96 80
129 101 80
216 232 255
212 231 255
53 42 112
128 151 181
124 103 101
0 0 0
0 0 0
151 163 181
140 157 181
136 155 181
142 159 181
141 158 181
129 151 181
146 161 181
136 155 181
134 154 181
98 74 57
91 71 57
130 152 181
182 215 255
129 152 181
137 156 181
0 0 0
140 158 181
0 0 0
146 161 181
0 0 0
179 179 181
175 177 181
169 174 181
168 173 181
166 173 181
164 172 181
162 171 181
161 170 181
159 169 181
158 169 181
157 168 181
156 168 181
156 168 181
155 167 181
154 167 181
153 166 181
153 166 181
152 166 181
152 166 181
151 166 181
151 166 181
151 165 181
151 165 181
151 165 181
151 165 181
151 165 181
151 166 181
152 166 181
152 166 181
152 166 181
153 166 181
153 167 181
154 167 181
154 167 181
155 167 181
156 168 181
158 169 181
158 169 181
160 170 181
161 170 181
162 171 181
164 171 181
165 172 181
168 173 181
169 174 181
171 175 181
178 179 181
180 180 181
222 236 255
222 236 255
222 236 255
222 236 255
222 236 255
222 236 255
222 236 255
222 236 255
222 236 255
222 236 255
222 236 255
222 236 255
222 236 255
222 236 255
222 236 255
222 236 255
222 236 255
222 236 255
222 236 255
222 236 255
222 236 255
222 236 255
222 236 255
222 236 255
222 236 255
222 236 255
222 236 255
222 236 255
222 236 255
222 236 255
222 236 255
222 236 255
222 236 255
222 236 255
222 236 255
222 236 255
222 236 255
222 236 255
222 236 255
222 236 255
222 236 255
222 236 255
222 236 255
222 236 255
222 236 255
222 236 255
222 236 255
222 236 255
222 236 255
222 236 255
222 236 255
222 236 255
222 236 255
222 236 255
222 236 255
222 236 255
222 236 255
222 236 255
222 236 255
222 236 255
222 236 255
222 236 255
222 236 255
222 236 255
222 236 255
222 236 255
222 236 255
222 236 255
222 236 255
222 236 255
222 236 255
222 236 255
222 236 255
222 236 255
222 236 255
222 236 255
222 236 255
222 236 255
222 236 255
222 236 255
222 236 255
222 236 255
222 236 255
222 236 255
222 236 255
222 236 255
222 236 255
222 236 255
222 236 255
222 236 255
222 236 255
222 236 255
222 236 255
222 236 255
222 236 255
222 236 255
222 236 255
222 236 255
222 236 255
222 236 255
222 236 255
222 236 255
222 236 255
222 236 255
222 236 255
222 236 255
222 236 255
222 236 255
222 236 255
222 236 255
222 236 255
121 98 80
29 21 38
120 98 80
111 72 70
6 80 65
122 98 80
118 97 80
98 74 57
118 97 80
118 97 80
88 70 57
123 99 80
29 21 23
126 100 80
136 155 181
132 153 181
115 99 101
134 107 101
136 108 101
0 0 0
113 151 155
129 152 181
0 0 0
190 218 255
132 153 181
134 154 181
0 0 0
130 152 181
142 158 181
185 216 255
91 71 57
0 0 0
0 0 0
0 0 0
97 73 57
0 0 0
0 0 0
95 73 57
134 154 181
180 180 181
177 178 181
175 177 181
170 175 181
168 174 181
166 173 181
165 172 181
162 171 181
162 171 181
159 169 181
159 169 181
158 169 181
157 168 181
156 168 181
155 167 181
154 167 181
154 167 181
153 166 181
152 166 181
152 166 181
152 166 181
151 166 181
151 166 181
151 166 181
151 165 181
151 165 181
151 165 181
151 165 181
151 166 181
152 166 181
152 166 181
152 166 181
153 166 181
153 166 181
154 167 181
154 167 181
155 167 181
156 168 181
156 168 181
158 169 181
158 169 181
160 170 181
161 170 181
163 171 181
165 172 181
166 173 181
168 174 181
170 175 181
172 176 181
175 177 181
222 236 255
222 236 255
222 236 255
222 236 255
222 236 255
222 236 255
222 236 255
222 236 255
222 236 255
222 236 255
222 236 255
222 236 255
222 236 255
222 236 255
222 236 255
222 236 255
222 236 255
222 236 255
222 236 255
222 236 255
222 236 255
222 236 255
222 236 255
222 236 255
222 236 255
222 236 255
222 236 255
222 236 255
222 236 255
222 236 255
222 236 255
222 236 255
222 236 255
222 236 255
222 236 255
222 236 255
222 236 255
222 236 255
222 236 255
222 236 255
222 236 255
222 236 255
222 236 255
222 236 255
222 236 255
223 236 255
223 236 255
223 236 255
222 236 255
222 236 255
223 236 255
223 236 255
223 236 255
222 236 255
223 236 255
223 236 255
223 236 255
222 236 255
223 236 255
223 236 255
223 236 255
222 236 255
223 236 255
222 236 255
223 236 255
222 236 255
223 236 255
223 236 255
223 236 255
223 236 255
223 236 255
222 236 255
223 236 255
223 236 255
223 236 255
223 236 255
223 236 255
223 236 255
223 236 255
223 236 255
223 236 255
223 236 255
223 236 255
223 236 255
223 236 255
223 236 255
223 236 255
223 236 255
223 236 255
223 236 255
223 236 255
223 236 255
223 236 255
223 236 255
223 236 255
223 236 255
223 236 255
223 236 255
223 236 255
223 236 255
223 236 255
223 236 255
223 236 255
223 236 255
223 236 255
223 236 255
223 236 255
223 236 255
223 236 255
223 236 255
223 236 255
119 97 80
115 96 80
125 99 80
127 100 80
129 101 80
123 99 80
0 0 0
119 97 80
135 103 80
133 102 80
118 97 80
139 105 80
121 98 80
132 153 181
212 231 255
132 153 181
83 71 72
117 100 101
132 153 181
142 158 181
132 153 181
137 156 181
132 153 181
191 219 255
0 0 0
130 152 181
89 70 57
131 153 181
142 158 181
0 0 0
141 158 181
0 0 0
137 156 181
0 0 0
146 161 181
139 157 181
185 216 255
153 164 181
143 159 181
175 177 181
176 178 181
170 175 181
169 174 181
168 174 181
165 172 181
163 171 181
162 170 181
161 170 181
160 170 181
159 169 181
157 168 181
157 168 181
156 168 181
155 167 181
154 167 181
154 167 181
153 166 181
153 166 181
153 166 181
152 166 181
152 166 181
151 166 181
151 166 181
151 166 181
151 166 181
151 166 181
151 166 181
151 166 181
152 166 181
152 166 181
152 166 181
153 166 181
153 166 181
154 167 181
155 167 181
155 167 181
156 168 181
156 168 181
157 168 181
158 169 181
159 169 181
161 170 181
162 171 181
164 172 181
165 172 181
167 173 181
168 174 181
172 175 181
175 177 181
176 178 181
223 236 255
223 236 255
223 236 255
223 236 255
223 236 255
223 236 255
223 236 255
223 236 255
223 236 255
223 236 255
223 236 255
223 236 255
223 236 255
223 236 255
223 236 255
223 236 255
223 236 255
223 236 255
223 236 255
223 236 255
223 236 255
223 236 255
223 236 255
222 236 255
223 236 255
223 236 255
223 236 255
223 236 255
223 236 255
223 236 255
223 236 255
223 236 255
223 236 255
223 236 255
223 236 255
223 236 255
223 236 255
223 236 255
223 236 255
223 236 255
222 236 255
223 236 255
223 236 255
223 236 255
223 236 255
223 236 255
223 236 255
223 236 255
223 236 255
223 236 255
223 236 255
223 236 255
223 236 255
223 236 255
223 236 255
223 236 255
223 236 255
223 236 255
223 236 255
223 236 255
223 236 255
223 236 255
223 236 255
223 236 255
223 236 255
223 236 255
223 236 255
223 236 255
223 236 255
223 236 255
223 236 255
223 236 255
223 236 255
223 236 255
223 236 255
223 236 255
223 236 255
223 236 255
223 236 255
223 236 255
223 236 255
223 236 255
223 236 255
223 236 255
223 236 255
223 236 255
223 236 255
223 236 255
223 236 255
223 236 255
223 236 255
223 236 255
223 236 255
223 236 255
223 236 255
223 236 255
223 236 255
223 236 255
223 236 255
223 236 255
223 236 255
223 236 255
223 236 255
223 236 255
223 236 255
223 236 255
223 236 255
223 236 255
223 236 255
138 104 80
94 39 21
130 101 80
88 70 57
84 69 57
132 102 80
132 102 80
118 97 80
124 99 80
127 100 80
137 104 80
85 69 57
57 54 53
217 233 255
216 233 255
40 52 144
0 0 0
120 101 101
136 107 101
135 155 181
137 156 181
140 157 181
196 222 255
130 152 181
131 153 181
142 158 181
136 155 181
0 0 0
136 156 181
140 158 181
130 152 181
147 161 181
131 153 181
0 0 0
137 156 181
133 154 181
135 155 181
101 75 122
59 45 112
182 181 181
176 178 181
171 175 181
170 174 181
168 174 181
167 173 181
165 172 181
163 171 181
162 171 181
161 170 181
159 169 181
158 169 181
157 168 181
157 168 181
156 168 181
155 167 181
155 167 181
154 167 181
153 167 181
153 167 181
153 166 181
152 166 181
152 166 181
152 166 181
152 166 181
152 166 181
152 166 181
152 166 181
152 166 181
152 166 181
152 166 181
152 166 181
153 166 181
153 166 181
154 167 181
154 167 181
155 167 181
155 167 181
156 168 181
156 168 181
158 169 181
159 169 181
160 170 181
161 170 181
162 171 181
163 171 181
165 172 181
167 173 181
167 173 181
170 175 181
172 176 181
176 178 181
182 181 181
223 236 255
223 236 255
223 236 255
223 236 255
223 236 255
223 236 255
223 236 255
223 236 255
223 236 255
223 236 255
223 236 255
223 236 255
223 236 255
223 236 255
223 236 255
223 236 255
223 236 255
223 236 255
223 236 255
223 236 255
223 236 255
223 236 255
223 236 255
223 236 255
223 236 255
223 236 255
223 236 255
223 236 255
223 236 255
223 236 255
223 236 255
223 236 255
223 236 255
223 236 255
223 236 255
223 236 255
223 236 255
223 236 255
223 236 255
223 236 255
223 236 255
223 236 255
223 236 255
223 236 255
223 236 255
223 236 255
223 236 255
223 236 255
223 236 255
223 236 255
223 236 255
223 236 255
223 236 255
223 236 255
223 236 255
223 236 255
223 236 255
223 236 255
223 236 255
223 236 255
223 236 255
223 236 255
223 236 255
223 236 255
223 236 255
223 236 255
223 236 255
223 236 255
223 236 255
223 236 255
223 236 255
223 236 255
223 236 255
223 236 255
223 236 255
223 236 255
223 236 255
223 236 255
223 236 255
223 236 255
223 236 255
223 236 255
223 236 255
223 236 255
223 236 255
223 236 255
223 236 255
223 236 255
223 236 255
223 236 255
223 236 255
223 236 255
223 236 255
223 236 255
223 236 255
223 236 255
223 236 255
223 236 255
223 236 255
223 236 255
223 236 255
223 236 255
223 236 255
223 236 255
223 236 255
223 236 255
223 236 255
223 236 255
223 236 255
122 98 80
124 99 80
120 97 80
125 99 80
119 97 80
133 103 80
127 100 80
134 103 80
140 105 80
125 100 80
131 102 80
131 102 80
217 233 255
131 153 181
0 0 0
206 227 255
77 45 32
0 0 0
139 157 181
132 153 181
0 0 0
0 0 0
129 152 181
196 222 255
0 0 0
134 154 181
0 0 0
143 159 181
0 0 0
135 155 181
0 0 0
0 0 0
0 0 0
0 0 0
148 162 181
0 0 0
0 0 0
180 180 181
179 179 181
174 177 181
170 175 181
169 174 181
168 173 181
165 172 181
164 172 181
163 171 181
161 170 181
160 170 181
159 169 181
159 169 181
158 169 181
157 168 181
157 168 181
155 167 181
155 167 181
154 167 181
154 167 181
153 167 181
154 167 181
153 166 181
153 166 181
153 166 181
152 166 181
152 166 181
152 166 181
152 166 181
152 166 181
153 166 181
153 166 181
153 166 181
153 166 181
153 166 181
155 167 181
155 167 181
155 167 181
155 167 181
156 168 181
157 168 181
158 169 181
158 169 181
159 169 181
161 170 181
162 171 181
162 171 181
164 171 181
166 173 181
168 174 181
169 174 181
171 175 181
175 177 181
177 178 181
180 180 181
223 236 255
223 236 255
223 236 255
223 236 255
223 236 255
223 236 255
223 236 255
223 236 255
223 236 255
223 236 255
223 236 255
223 236 255
223 236 255
223 236 255
223 236 255
223 236 255
223 236 255
223 236 255
223 236 255
223 236 255
223 236 255
223 236 255
223 236 255
223 236 255
223 236 255
223 236 255
223 236 255
223 236 255
223 236 255
223 236 255
223 236 255
223 236 255
223 236 255
223 236 255
223 236 255
223 236 255
223 236 255
223 236 255
223 236 255
223 236 255
223 236 255
223 236 255
223 236 255
223 236 255
223 236 255
223 236 255
223 236 255
223 236 255
223 236 255
223 236 255
223 236 255
223 236 255
223 236 255
223 236 255
223 236 255
223 236 255
223 236 255
223 236 255
223 236 255
223 236 255
223 236 255
223 236 255
223 236 255
223 236 255
223 236 255
223 236 255
223 236 255
223 236 255
223 236 255
223 236 255
223 236 255
223 236 255
223 236 255
223 236 255
223 236 255
223 236 255
223 236 255
223 236 255
223 236 255
223 236 255
223 237 255
223 236 255
223 236 255
223 236 255
223 237 255
223 236 255
223 236 255
223 236 255
223 236 255
223 236 255
223 237 255
223 236 255
223 236 255
223 236 255
223 237 255
223 237 255
223 236 255
223 236 255
223 236 255
223 236 255
223 236 255
223 237 255
223 236 255
223 236 255
223 236 255
223 237 255
223 236 255
223 236 255
140 105 80
127 100 80
114 80 57
131 102 80
139 105 80
31 44 14
84 68 57
0 0 0
133 102 80
0 0 0
133 103 80
114 95 80
218 234 255
134 154 181
94 125 156
140 158 181
34 64 72
133 154 181
145 160 181
81 95 72
89 99 72
85 97 72
0 0 0
129 152 181
140 157 181
132 153 181
128 151 181
98 74 57
138 157 181
0 0 0
0 0 0
141 158 181
134 154 181
140 157 181
0 0 0
0 0 0
182 181 181
176 178 181
176 178 181
171 175 181
170 175 181
168 174 181
167 173 181
165 172 181
165 172 181
163 171 181
162 171 181
160 170 181
160 170 181
159 169 181
158 169 181
157 168 181
157 168 181
157 168 181
156 168 181
155 167 181
155 167 181
154 167 181
154 167 181
153 167 181
153 167 181
154 167 181
153 166 181
153 166 181
153 167 181
153 166 181
153 166 181
153 167 181
154 167 181
154 167 181
154 167 181
154 167 181
155 167 181
155 167 181
156 168 181
156 168 181
157 168 181
158 169 181
158 169 181
159 169 181
160 170 181
161 170 181
161 170 181
163 171 181
164 172 181
165 172 181
167 173 181
169 174 181
170 175 181
172 176 181
176 178 181
180 180 181
182 181 181
223 236 255
223 236 255
223 236 255
223 236 255
223 236 255
223 236 255
223 236 255
223 236 255
223 236 255
223 236 255
223 236 255
223 236 255
223 236 255
223 236 255
223 236 255
223 236 255
223 236 255
223 236 255
223 236 255
223 236 255
223 236 255
223 236 255
223 236 255
223 236 255
223 236 255
223 236 255
223 236 255
223 236 255
223 236 255
223 236 255
223 236 255
223 236 255
223 236 255
223 236 255
223 236 255
223 236 255
223 236 255
223 236 255
223 236 255
223 236 255
223 236 255
223 236 255
223 237 255
223 237 255
223 237 255
223 237 255
223 237 255
223 237 255
223 237 255
223 236 255
223 236 255
223 236 255
223 237 255
223 236 255
223 237 255
223 237 255
223 237 255
223 237 255
223 237 255
223 237 255
223 237 255
223 236 255
223 237 255
223 237 255
223 237 255
223 237 255
223 237 255
223 237 255
223 237 255
223 237 255
223 237 255
223 237 255
223 237 255
223 237 255
223 237 255
223 237 255
223 237 255
223 237 255
223 237 255
223 237 255
223 237 255
223 237 255
223 237 255
223 237 255
223 237 255
223 237 255
223 237 255
223 237 255
223 237 255
223 237 255
223 237 255
223 237 255
223 237 255
223 237 255
223 237 255
223 237 255
223 237 255
223 237 255
223 237 255
223 237 255
223 237 255
223 237 255
223 237 255
223 237 255
223 237 255
223 237 255
136 104 80
70 26 11
83 68 57
84 69 57
73 77 9
124 99 80
126 100 80
121 98 80
120 97 80
82 68 57
119 97 80
120 97 80
140 105 80
144 160 181
143 159 181
158 192 221
129 152 181
149 163 181
135 155 181
80 94 72
80 94 72
121 137 102
0 0 0
137 156 181
86 69 57
199 223 255
197 222 255
128 151 181
0 0 0
138 156 181
0 0 0
92 39 39
137 156 181
138 157 181
0 0 0
0 0 0
145 160 181
182 181 181
177 178 181
174 177 181
171 175 181
169 174 181
168 174 181
168 173 181
166 173 181
164 172 181
163 171 181
161 170 181
161 170 181
160 170 181
159 169 181
159 169 181
158 169 181
158 169 181
157 168 181
156 168 181
156 168 181
155 167 181
155 167 181
155 167 181
154 167 181
154 167 181
154 167 181
154 167 181
154 167 181
154 167 181
154 167 181
154 167 181
154 167 181
154 167 181
155 167 181
154 167 181
155 167 181
155 167 181
156 168 181
157 168 181
157 168 181
158 169 181
158 169 181
159 169 181
159 169 181
161 170 181
161 170 181
163 171 181
164 172 181
164 172 181
166 172 181
167 173 181
168 174 181
169 174 181
172 176 181
173 176 181
177 178 181
179 179 181
223 237 255
223 237 255
223 237 255
223 237 255
223 237 255
223 237 255
223 237 255
223 237 255
223 237 255
223 237 255
223 237 255
223 237 255
223 237 255
223 237 255
223 237 255
223 237 255
223 237 255
223 237 255
223 237 255
223 237 255
223 237 255
223 236 255
223 237 255
223 237 255
223 237 255
223 237 255
223 237 255
223 237 255
223 236 255
223 237 255
223 237 255
223 237 255
223 236 255
223 236 255
223 237 255
223 236 255
223 236 255
223 237 255
223 236 255
223 236 255
223 237 255
223 237 255
223 237 255
223 237 255
223 237 255
223 237 255
223 237 255
223 237 255
223 237 255
223 237 255
223 237 255
137 156 181
223 237 255
223 237 255
223 237 255
223 237 255
223 237 255
128 151 181
223 237 255
140 158 181
139 157 181
223 237 255
128 151 181
223 237 255
134 154 181
135 155 181
223 237 255
148 162 181
144 159 181
142 158 181
223 237 255
223 237 255
145 160 181
223 237 255
132 153 181
129 152 181
131 153 181
223 237 255
134 154 181
132 154 181
135 155 181
141 158 181
134 155 181
145 160 181
136 155 181
223 237 255
223 237 255
146 161 181
223 237 255
223 237 255
148 162 181
135 155 181
223 237 255
132 153 181
223 237 255
143 159 181
149 162 181
148 162 181
129 152 181
142 159 181
137 156 181
145 160 181
135 155 181
136 156 181
136 155 181
223 237 255
135 103 80
128 100 80
8 15 5
86 69 57
25 0 25
124 99 80
86 69 57
122 98 80
129 101 80
132 102 80
82 68 57
141 105 80
69 60 22
138 156 181
139 180 221
152 189 221
27 54 41
0 0 0
128 151 181
0 0 0
0 0 0
111 132 102
129 141 102
144 160 181
99 74 57
140 157 181
201 224 255
130 152 181
136 155 181
55 113 66
0 0 0
56 114 66
0 0 0
0 0 0
137 156 181
130 152 181
125 126 128
178 179 181
176 178 181
173 176 181
171 175 181
169 174 181
168 174 181
167 173 181
166 173 181
165 172 181
164 172 181
163 171 181
162 171 181
161 170 181
160 170 181
159 169 181
158 169 181
159 169 181
158 169 181
157 168 181
157 168 181
157 168 181
156 168 181
156 168 181
156 168 181
156 168 181
155 167 181
156 168 181
155 167 181
155 167 181
155 167 181
156 168 181
155 167 181
155 167 181
156 168 181
156 168 181
156 168 181
156 168 181
157 168 181
157 168 181
158 169 181
159 169 181
159 169 181
160 169 181
160 170 181
161 170 181
162 171 181
163 171 181
164 171 181
164 172 181
165 172 181
167 173 181
169 174 181
170 175 181
172 175 181
173 176 181
175 177 181
179 179 181
180 180 181
144 160 181
152 164 181
134 154 181
223 237 255
146 160 181
132 153 181
147 161 181
131 153 181
128 151 181
138 156 181
223 237 255
132 153 181
136 155 181
145 160 181
132 153 181
223 237 255
223 237 255
140 157 181
223 237 255
144 160 181
223 237 255
128 151 181
223 237 255
138 156 181
223 237 255
223 237 255
136 155 181
136 155 181
223 237 255
136 155 181
223 237 255
223 237 255
134 154 181
223 237 255
223 237 255
223 237 255
223 237 255
223 237 255
223 237 255
223 237 255
135 155 181
140 158 181
134 154 181
144 160 181
146 161 181
138 156 181
133 154 181
139 157 181
132 153 181
135 155 181
132 153 181
138 157 181
153 164 181
133 154 181
141 158 181
131 153 181
147 161 181
129 152 181
128 151 181
129 152 181
133 154 181
138 156 181
134 154 181
150 163 181
131 153 181
137 156 181
142 158 181
131 153 181
142 158 181
144 160 181
128 151 181
131 153 181
133 154 181
136 155 181
137 156 181
144 160 181
137 156 181
136 155 181
139 157 181
133 154 181
143 159 181
143 159 181
131 153 181
154 165 181
138 157 181
132 153 181
141 158 181
143 159 181
143 159 181
128 151 181
132 153 181
146 161 181
132 153 181
132 153 181
130 152 181
130 152 181
155 166 181
140 158 181
129 152 181
136 155 181
128 151 181
130 152 181
136 155 181
143 159 181
139 157 181
85 69 57
47 51 43
84 68 57
123 98 80
121 98 80
123 99 80
119 97 80
129 101 80
130 101 80
0 0 0
82 68 57
54 42 37
221 235 255
146 161 181
138 180 221
45 88 102
123 22 71
146 160 181
0 0 0
132 143 102
119 136 102
115 134 102
0 0 0
148 162 181
134 154 181
152 164 181
131 153 181
140 158 181
93 72 57
93 174 94
91 172 94
53 74 29
0 0 0
0 0 0
0 0 0
182 181 181
178 179 181
177 178 181
175 177 181
172 176 181
171 175 181
169 174 181
169 174 181
168 173 181
166 173 181
165 172 181
164 172 181
163 171 181
162 171 181
162 171 181
161 170 181
161 170 181
160 170 181
159 169 181
159 169 181
158 169 181
158 169 181
158 169 181
157 168 181
157 168 181
156 168 181
157 168 181
157 168 181
157 168 181
156 168 181
157 168 181
156 168 181
157 168 181
156 168 181
157 168 181
157 168 181
157 169 181
157 169 181
158 169 181
158 169 181
158 169 181
158 169 181
160 170 181
160 170 181
160 170 181
160 170 181
162 171 181
162 171 181
163 171 181
164 172 181
165 172 181
166 172 181
167 173 181
169 174 181
170 175 181
171 175 181
173 176 181
174 177 181
178 179 181
179 179 181
136 155 181
139 157 181
149 163 181
137 156 181
148 162 181
128 151 181
139 157 181
137 156 181
135 155 181
140 157 181
137 156 181
139 157 181
142 159 181
139 157 181
141 158 181
139 157 181
150 163 181
151 164 181
152 164 181
129 152 181
138 156 181
130 152 181
137 156 181
143 159 181
128 151 181
135 155 181
149 162 181
151 164 181
130 152 181
129 152 181
139 157 181
132 153 181
131 153 181
136 155 181
128 151 181
128 151 181
147 161 181
145 160 181
139 157 181
150 163 181
134 154 181
136 155 181
132 153 181
146 161 181
141 158 181
129 152 181
142 158 181
133 154 181
135 155 181
132 153 181
139 157 181
131 153 181
132 153 181
149 162 181
144 159 181
143 159 181
140 157 181
129 152 181
140 158 181
145 160 181
143 159 181
143 159 181
136 155 181
139 157 181
150 163 181
138 156 181
150 163 181
139 157 181
131 153 181
141 158 181
129 152 181
132 153 181
138 156 181
148 162 181
137 156 181
128 151 181
150 163 181
132 153 181
132 153 181
132 153 181
148 162 181
135 155 181
134 154 181
143 159 181
139 157 181
133 154 181
130 152 181
140 157 181
147 161 181
140 157 181
133 154 181
131 153 181
136 155 181
143 159 181
135 155 181
145 160 181
132 153 181
134 154 181
153 165 181
136 156 181
152 164 181
136 156 181
140 157 181
134 154 181
133 154 181
139 105 80
81 67 57
85 69 57
130 101 80
133 103 80
138 104 80
80 67 57
131 102 80
88 70 57
85 69 57
110 79 57
138 156 181
131 153 181
143 159 181
43 86 102
142 159 181
134 154 181
173 32 100
159 31 100
121 137 102
112 132 102
0 0 0
0 0 0
151 163 181
130 152 181
142 159 181
147 161 181
134 154 181
0 0 0
88 169 94
77 159 94
0 0 0
0 0 0
136 155 181
0 0 0
182 181 181
178 179 181
177 178 181
175 177 181
173 176 181
172 176 181
171 175 181
169 174 181
168 174 181
167 173 181
165 172 181
164 172 181
164 172 181
163 171 181
163 171 181
162 171 181
161 170 181
161 170 181
160 170 181
160 170 181
159 169 181
159 169 181
159 169 181
159 169 181
159 169 181
158 169 181
157 168 181
158 169 181
157 168 181
158 169 181
158 169 181
157 168 181
157 168 181
157 168 181
158 169 181
158 169 181
158 169 181
158 169 181
159 169 181
159 169 181
160 170 181
160 170 181
160 170 181
160 170 181
161 170 181
162 171 181
163 171 181
163 171 181
165 172 181
164 172 181
166 172 181
167 173 181
168 174 181
169 174 181
170 175 181
171 175 181
172 176 181
175 177 181
176 178 181
178 179 181
183 181 181
131 153 181
146 161 181
133 154 181
131 153 181
130 152 181
129 152 181
139 157 181
143 159 181
136 155 181
131 153 181
139 157 181
150 163 181
133 154 181
137 156 181
129 152 181
135 155 181
134 154 181
133 154 181
131 153 181
137 156 181
150 163 181
136 155 181
144 160 181
137 156 181
136 155 181
140 158 181
128 151 181
130 152 181
136 155 181
140 157 181
133 154 181
147 161 181
142 158 181
147 161 181
139 157 181
128 151 181
146 161 181
141 158 181
129 151 181
143 159 181
138 156 181
137 156 181
128 151 181
139 157 181
134 155 181
151 163 181
135 155 181
144 160 181
128 151 181
143 159 181
133 154 181
140 158 181
131 153 181
153 165 181
151 163 181
129 152 181
128 151 181
149 163 181
136 155 181
139 157 181
142 159 181
141 158 181
149 162 181
139 157 181
141 158 181
134 154 181
131 152 181
129 152 181
132 153 181
133 154 181
143 159 181
138 157 181
138 157 181
129 151 181
132 153 181
135 155 181
139 157 181
132 153 181
146 161 181
152 164 181
148 162 181
134 155 181
153 164 181
136 155 181
132 153 181
141 158 181
138 157 181
131 153 181
128 151 181
138 157 181
129 152 181
130 152 181
129 152 181
136 156 181
150 163 181
128 151 181
132 153 181
145 160 181
155 165 181
137 156 181
140 158 181
151 164 181
128 151 181
146 161 181
129 101 80
91 71 57
81 67 57
82 68 57
37 75 50
86 69 57
90 71 57
27 11 11
93 72 57
131 102 80
0 0 0
222 236 255
139 132 143
148 162 181
45 88 102
137 156 181
140 157 181
223 236 255
0 0 0
143 159 181
102 123 153
153 178 216
102 82 68
135 155 181
147 161 181
134 154 181
0 0 0
57 140 35
81 163 94
87 169 94
85 167 94
85 166 94
0 0 0
0 0 0
0 0 0
181 180 181
179 179 181
176 178 181
174 177 181
172 176 181
172 176 181
170 175 181
170 174 181
169 174 181
168 174 181
166 173 181
165 172 181
165 172 181
164 172 181
164 172 181
163 171 181
162 171 181
162 171 181
162 171 181
160 170 181
160 170 181
160 170 181
160 170 181
159 169 181
160 170 181
160 170 181
160 169 181
159 169 181
160 170 181
159 169 181
159 169 181
159 169 181
159 169 181
159 169 181
159 169 181
160 170 181
159 169 181
159 169 181
160 170 181
160 170 181
161 170 181
161 170 181
162 171 181
162 171 181
162 171 181
163 171 181
164 171 181
164 172 181
165 172 181
166 173 181
167 173 181
167 173 181
168 174 181
169 174 181
170 175 181
172 176 181
173 176 181
175 177 181
176 178 181
177 178 181
182 181 181
142 158 181
144 160 181
146 161 181
136 155 181
136 155 181
146 161 181
27 35 116
151 163 181
138 157 181
25 21 170
24 21 170
23 20 170
132 153 181
131 153 181
130 152 181
137 156 181
132 153 181
137 156 181
134 154 181
134 154 181
129 152 181
147 161 181
151 163 181
128 151 181
140 157 181
134 154 181
133 154 181
141 158 181
131 153 181
135 155 181
137 156 181
139 157 181
147 161 181
26 152 176
19 108 125
139 157 181
130 152 181
148 162 181
132 153 181
137 156 181
144 160 181
134 154 181
145 160 181
130 152 181
136 155 181
130 152 181
146 161 181
142 159 181
134 154 181
134 154 181
150 163 181
134 154 181
131 153 181
153 165 181
135 155 181
136 155 181
136 155 181
133 154 181
138 156 181
140 158 181
133 154 181
141 158 181
142 159 181
136 156 181
151 164 181
141 158 181
142 159 181
132 153 181
136 156 181
132 153 181
148 162 181
144 160 181
138 157 181
129 152 181
139 157 181
154 165 181
141 158 181
134 154 181
140 158 181
139 157 181
147 161 181
131 153 181
133 154 181
151 163 181
128 151 181
146 161 181
140 158 181
135 155 181
138 156 181
137 156 181
146 160 181
130 152 181
154 165 181
133 154 181
142 159 181
130 152 181
144 160 181
129 152 181
153 164 181
132 153 181
131 153 181
138 157 181
136 155 181
152 164 181
132 102 80
136 103 80
130 101 80
81 67 57
129 101 80
138 104 80
138 104 80
71 61 22
81 68 57
14 71 65
138 104 80
134 154 181
221 236 255
206 191 203
132 153 181
145 160 181
125 125 140
127 125 140
91 81 98
133 154 181
140 158 181
142 172 216
193 220 255
137 156 181
146 161 181
0 0 0
36 94 25
53 134 35
52 133 35
135 155 181
148 162 181
129 152 181
63 81 83
0 0 0
184 182 181
179 179 181
177 178 181
176 178 181
174 177 181
174 177 181
172 176 181
171 175 181
170 174 181
170 175 181
169 174 181
168 174 181
167 173 181
166 172 181
165 172 181
165 172 181
164 172 181
163 171 181
163 171 181
163 171 181
162 171 181
162 171 181
162 171 181
161 170 181
162 170 181
161 170 181
161 170 181
160 170 181
161 170 181
160 170 181
161 170 181
160 170 181
161 170 181
161 170 181
160 170 181
161 170 181
161 170 181
160 170 181
160 170 181
161 170 181
162 171 181
162 171 181
162 171 181
163 171 181
163 171 181
163 171 181
164 172 181
165 172 181
165 172 181
166 173 181
166 173 181
167 173 181
168 174 181
169 174 181
170 175 181
170 175 181
172 176 181
174 176 181
174 177 181
176 178 181
178 179 181
182 181 181
182 181 181
137 156 181
132 153 181
203 170 188
39 50 164
0 0 0
39 50 164
149 162 181
139 157 181
23 20 170
24 20 170
27 22 170
18 15 120
152 164 181
149 163 181
136 155 181
148 162 181
137 156 181
129 152 181
147 161 181
133 154 181
138 156 181
137 156 181
139 157 181
130 152 181
63 28 54
86 40 76
97 42 76
95 42 76
141 158 181
140 157 181
130 152 181
20 113 125
78 162 147
86 169 147
77 161 147
131 153 181
144 160 181
131 153 181
137 156 181
131 153 181
131 153 181
140 157 181
133 154 181
134 154 181
128 151 181
152 164 181
139 157 181
139 157 181
135 155 181
133 154 181
141 158 181
152 164 181
133 154 181
144 159 181
154 165 181
136 155 181
137 156 181
128 151 181
141 158 181
143 159 181
141 158 181
146 160 181
136 156 181
135 155 181
136 155 181
132 153 181
145 160 181
149 162 181
138 157 181
139 157 181
133 154 181
140 157 181
147 161 181
143 159 181
176 179 224
172 177 224
174 178 224
139 157 181
133 154 181
137 156 181
134 154 181
148 162 181
138 156 181
130 152 181
143 159 181
129 151 181
118 94 137
99 87 137
129 151 181
138 156 181
129 152 181
143 159 181
151 163 181
135 155 181
129 152 181
132 153 181
145 160 181
132 153 181
61 29 92
148 162 181
136 155 181
144 160 181
148 162 181
83 68 57
15 39 36
51 71 43
94 83 75
136 104 80
131 102 80
85 69 57
138 104 80
136 104 80
123 99 80
83 68 57
0 0 0
187 207 248
117 139 150
143 199 224
132 153 181
0 0 0
185 180 199
129 115 139
139 157 181
0 0 0
160 183 216
214 231 255
129 152 181
143 159 181
0 0 0
27 117 56
55 137 35
53 135 35
50 131 35
139 157 181
56 77 83
38 53 58
41 55 58
183 181 181
181 180 181
179 179 181
176 178 181
175 177 181
174 177 181
173 176 181
172 175 181
171 175 181
171 175 181
169 174 181
169 174 181
168 173 181
167 173 181
166 173 181
165 172 181
165 172 181
164 172 181
164 172 181
164 172 181
163 171 181
163 171 181
164 171 181
163 171 181
162 171 181
163 171 181
162 171 181
162 171 181
161 170 181
161 170 181
161 170 181
161 170 181
162 171 181
162 171 181
162 171 181
162 171 181
162 171 181
162 170 181
163 171 181
163 171 181
164 171 181
163 171 181
163 171 181
164 172 181
164 172 181
165 172 181
165 172 181
166 173 181
166 173 181
167 173 181
168 174 181
169 174 181
169 174 181
170 175 181
171 175 181
172 176 181
173 176 181
174 177 181
176 177 181
177 178 181
179 179 181
179 179 181
183 181 181
178 160 188
177 159 188
192 165 188
202 169 188
40 51 164
0 0 0
16 186 136
25 21 170
26 21 170
0 0 0
25 21 170
0 0 0
212 173 195
182 161 195
187 163 195
133 154 181
130 152 181
131 153 181
132 153 181
138 156 181
133 154 181
133 154 181
145 160 181
62 21 41
62 28 54
64 29 54
86 70 80
89 71 80
87 70 80
98 74 80
30 162 176
75 159 147
178 215 190
168 209 190
182 217 190
172 212 190
145 160 181
128 151 181
130 152 181
119 27 203
124 27 203
148 162 181
133 154 181
128 151 181
138 156 181
141 158 181
143 159 181
144 159 181
150 163 181
142 159 181
128 151 181
132 153 181
131 153 181
136 155 181
148 162 181
128 151 181
136 155 181
137 156 181
135 155 181
138 156 181
136 156 181
134 154 181
151 163 181
29 99 49
27 97 49
27 96 49
129 152 181
135 155 181
144 160 181
148 162 181
129 152 181
143 159 181
132 153 181
173 178 224
163 173 224
158 171 224
173 178 224
136 155 181
141 158 181
132 153 181
14 41 173
14 40 173
14 40 173
144 159 181
128 151 181
102 88 137
101 87 137
104 88 137
101 87 137
136 155 181
153 164 181
136 155 181
138 156 181
152 164 181
131 152 181
148 162 181
132 153 181
64 29 92
61 29 92
43 13 29
64 30 92
66 30 92
135 155 181
50 20 17
137 104 80
135 103 80
140 105 80
128 100 80
0 0 0
138 105 80
86 69 57
27 18 4
118 97 80
63 58 22
88 70 57
222 236 255
142 178 146
220 235 255
220 235 255
220 235 255
89 35 131
128 151 181
193 63 150
62 12 95
98 19 134
0 0 0
148 162 181
105 12 66
136 155 181
25 112 56
37 163 80
13 34 9
0 0 0
131 153 181
145 160 181
56 76 83
183 181 181
183 181 181
179 179 181
178 179 181
177 178 181
176 178 181
175 177 181
173 176 181
172 176 181
172 175 181
171 175 181
170 175 181
169 174 181
169 174 181
168 174 181
168 174 181
168 173 181
166 173 181
166 173 181
166 172 181
166 173 181
165 172 181
164 172 181
165 172 181
165 172 181
164 172 181
164 172 181
163 171 181
164 172 181
163 171 181
164 172 181
163 171 181
164 171 181
163 171 181
164 171 181
164 171 181
163 171 181
164 172 181
163 171 181
163 171 181
164 172 181
165 172 181
165 172 181
165 172 181
166 173 181
165 172 181
166 173 181
166 173 181
167 173 181
168 174 181
168 174 181
169 174 181
170 174 181
170 174 181
171 175 181
172 176 181
172 176 181
174 176 181
174 177 181
175 177 181
177 178 181
179 179 181
179 179 181
181 180 181
184 182 181
190 164 188
203 170 188
207 171 188
16 185 136
16 182 136
17 191 136
17 189 136
12 133 96
13 7 76
16 14 120
131 86 101
215 174 195
200 168 195
197 167 195
208 171 195
131 153 181
129 152 181
137 156 181
130 152 181
128 151 181
144 160 181
131 153 181
99 43 76
63 29 54
88 40 76
72 53 56
92 72 80
93 72 80
102 76 80
18 108 125
57 116 104
193 224 190
169 210 190
164 207 190
115 137 156
133 154 181
146 161 181
116 26 203
0 0 0
116 26 203
130 28 203
135 155 181
130 152 181
147 161 181
134 154 181
145 160 181
120 25 115
137 156 181
135 155 181
130 152 181
139 157 181
128 151 181
134 154 181
130 152 181
144 160 181
132 153 181
134 154 181
137 156 181
51 124 128
50 122 128
39 91 90
8 58 25
27 97 49
2 2 11
29 99 49
29 99 49
128 151 181
134 154 181
136 155 181
96 11 161
91 11 161
67 8 114
0 0 0
168 175 224
12 32 152
178 180 224
177 180 224
14 41 173
9 23 114
0 0 0
15 42 173
14 40 173
16 44 173
146 161 181
109 90 137
103 88 137
88 15 3
112 92 137
66 40 43
128 151 181
139 157 181
137 156 181
0 0 0
143 159 181
136 155 181
3 4 44
40 73 47
37 70 47
38 71 47
64 30 92
131 153 181
138 156 181
85 69 57
134 103 80
125 99 80
85 69 57
0 0 0
0 0 0
88 70 57
90 71 57
133 102 80
136 103 80
85 69 57
137 104 80
136 155 181
223 236 255
219 234 255
184 218 190
124 181 99
219 234 255
222 236 255
27 22 170
183 173 240
146 161 181
0 0 0
0 0 0
104 12 66
133 154 181
135 155 181
135 155 181
99 11 114
0 0 0
128 151 181
148 162 181
0 0 0
185 182 181
181 180 181
181 180 181
178 179 181
177 178 181
177 178 181
175 177 181
175 177 181
174 177 181
172 176 181
172 176 181
171 175 181
171 175 181
170 175 181
169 174 181
169 174 181
168 174 181
167 173 181
168 174 181
168 174 181
167 173 181
167 173 181
166 173 181
166 173 181
166 172 181
165 172 181
165 172 181
165 172 181
165 172 181
166 172 181
165 172 181
165 172 181
165 172 181
165 172 181
166 172 181
164 172 181
165 172 181
165 172 181
166 173 181
165 172 181
166 173 181
166 173 181
167 173 181
167 173 181
167 173 181
168 173 181
168 173 181
168 174 181
168 174 181
169 174 181
169 174 181
170 175 181
170 175 181
171 175 181
171 175 181
173 176 181
173 176 181
175 177 181
175 177 181
176 178 181
178 179 181
179 179 181
179 179 181
183 181 181
184 182 181
0 0 0
137 117 132
139 89 101
47 31 119
44 30 119
0 0 0
17 187 136
0 0 0
2 1 80
143 159 181
133 115 138
214 174 195
136 117 138
128 151 181
130 152 181
139 157 181
137 156 181
131 153 181
139 157 181
136 155 181
137 156 181
136 155 181
148 162 181
61 28 54
101 75 80
147 100 136
160 104 136
105 47 43
163 105 136
57 49 42
55 114 104
53 47 42
181 216 190
138 157 181
137 156 181
124 151 134
183 190 214
84 19 143
115 26 203
130 28 203
22 198 105
133 154 181
131 153 181
130 152 181
137 156 181
136 27 115
85 18 81
121 25 115
117 25 115
132 153 181
129 152 181
134 154 181
133 154 181
128 151 181
140 157 181
134 154 181
129 152 181
57 130 128
52 125 128
105 131 195
50 122 128
28 73 98
57 130 128
32 104 49
31 103 49
32 104 49
135 155 181
131 153 181
132 153 181
91 11 161
0 0 0
98 11 161
65 8 114
70 8 114
0 0 0
130 129 158
95 95 139
11 31 122
11 30 122
16 43 173
10 28 122
15 41 173
14 40 173
23 2 43
118 94 137
115 93 137
70 61 97
37 12 49
114 92 137
133 154 181
0 0 0
28 52 33
130 152 181
139 157 181
137 156 181
40 73 47
39 72 47
80 133 183
88 139 183
0 0 0
62 29 92
130 152 181
136 156 181
35 37 30
81 67 57
134 103 80
136 104 80
121 98 80
129 101 80
134 103 80
133 102 80
83 68 57
0 0 0
135 103 80
222 236 255
218 234 255
218 234 255
221 236 255
222 236 255
222 236 255
222 236 255
222 236 255
138 156 181
222 236 255
223 236 255
129 152 181
223 236 255
132 153 181
136 155 181
134 154 181
131 153 181
223 236 255
223 236 255
145 160 181
141 158 181
185 182 181
182 181 181
180 180 181
179 179 181
179 179 181
178 179 181
176 178 181
175 177 181
174 177 181
174 176 181
174 176 181
173 176 181
172 176 181
171 175 181
171 175 181
170 174 181
170 174 181
170 175 181
170 174 181
169 174 181
169 174 181
169 174 181
168 174 181
167 173 181
168 174 181
167 173 181
166 173 181
167 173 181
167 173 181
166 173 181
167 173 181
167 173 181
167 173 181
167 173 181
167 173 181
167 173 181
167 173 181
166 173 181
168 173 181
167 173 181
167 173 181
167 173 181
168 174 181
169 174 181
168 174 181
168 174 181
169 174 181
169 174 181
170 175 181
170 175 181
170 175 181
172 176 181
172 176 181
172 176 181
173 176 181
174 177 181
174 177 181
175 177 181
176 178 181
177 178 181
178 179 181
179 179 181
180 180 181
183 181 181
185 182 181
131 115 132
31 21 84
42 29 119
30 21 84
49 32 119
49 31 119
47 31 119
10 127 96
12 134 96
131 153 181
113 174 99
112 173 99
126 183 99
118 177 99
145 160 181
129 152 181
212 231 255
86 34 131
146 161 181
136 155 181
153 164 181
139 157 181
140 157 181
144 160 181
159 103 136
142 98 136
142 98 136
169 107 136
158 103 136
88 58 80
133 154 181
81 120 82
85 123 82
87 124 82
138 157 181
147 161 181
180 189 214
81 3 91
0 0 0
21 193 105
17 189 94
22 199 105
23 200 105
20 187 105
135 27 115
114 25 115
123 25 115
7 2 21
125 26 115
128 151 181
132 153 181
182 214 255
134 154 181
154 165 181
138 157 181
143 159 181
132 153 181
3 115 111
102 129 195
110 133 195
102 129 195
121 140 195
41 93 90
29 99 49
21 71 35
32 105 49
2 21 4
147 161 181
64 8 114
66 8 114
59 7 114
207 228 255
0 0 0
58 7 114
0 0 0
175 176 238
170 174 238
174 176 238
200 188 238
11 30 122
2 12 43
10 29 122
16 43 173
78 64 97
50 29 30
80 65 97
148 7 151
134 6 151
142 6 151
151 7 151
0 0 0
201 224 255
136 155 181
130 152 181
144 159 181
48 73 115
79 133 183
87 139 183
93 143 183
89 140 183
84 136 183
144 160 181
142 159 181
0 0 0
88 70 57
138 104 80
0 0 0
9 21 2
92 72 57
131 102 80
80 41 71
0 0 0
0 0 0
77 94 138
122 66 77
68 54 51
220 235 255
220 235 255
221 235 255
221 235 255
222 236 255
221 236 255
222 236 255
222 236 255
221 236 255
222 236 255
222 236 255
222 236 255
222 236 255
222 236 255
222 236 255
222 236 255
222 236 255
222 236 255
222 236 255
184 182 181
183 181 181
181 180 181
180 180 181
178 179 181
178 179 181
177 178 181
176 178 181
176 177 181
175 177 181
175 177 181
174 177 181
173 176 181
172 176 181
173 176 181
172 176 181
171 175 181
170 175 181
171 175 181
170 175 181
170 175 181
169 174 181
170 175 181
169 174 181
169 174 181
169 174 181
168 174 181
168 174 181
168 174 181
169 174 181
168 174 181
168 174 181
168 174 181
168 174 181
169 174 181
169 174 181
168 174 181
168 174 181
169 174 181
169 174 181
169 174 181
169 174 181
170 175 181
169 174 181
170 175 181
170 175 181
171 175 181
170 175 181
170 175 181
172 176 181
172 176 181
172 176 181
173 176 181
174 177 181
174 177 181
175 177 181
175 177 181
175 177 181
177 178 181
178 179 181
178 179 181
180 180 181
180 180 181
182 181 181
184 182 181
132 153 181
0 0 0
47 31 119
26 18 69
43 30 119
29 20 84
49 31 119
135 155 181
153 165 181
111 172 99
128 184 99
114 174 99
118 73 48
109 70 48
116 72 48
221 235 255
219 234 255
148 162 181
83 91 96
142 159 181
66 29 54
19 15 120
135 155 181
137 156 181
129 152 181
142 98 136
109 72 96
156 103 136
160 104 136
108 72 96
81 121 82
83 113 75
87 125 82
91 128 82
0 0 0
124 132 151
141 87 114
171 222 229
22 198 105
21 191 105
16 140 74
14 132 74
13 131 74
15 136 74
81 17 81
118 25 115
134 27 115
6 10 23
131 153 181
132 153 181
137 156 181
133 154 181
0 0 0
129 152 181
139 157 181
130 152 181
144 160 181
77 94 138
71 90 138
72 91 138
103 129 195
109 133 195
16 4 57
31 103 49
19 68 35
20 70 35
145 160 181
60 7 114
114 72 207
114 73 207
17 22 95
119 74 207
64 8 114
0 0 0
192 184 238
179 178 238
177 177 238
69 73 36
186 181 238
202 189 238
128 126 168
10 28 122
9 28 122
146 161 181
145 160 181
82 66 97
217 233 255
142 6 151
135 155 181
111 5 139
154 7 151
215 232 255
216 233 255
221 236 255
214 232 255
64 100 129
82 135 183
94 144 183
91 142 183
57 95 129
0 0 0
150 163 181
151 42 234
130 39 234
88 70 57
127 100 80
38 20 35
77 40 71
0 0 0
131 102 80
15 27 18
139 105 80
25 13 10
218 234 255
219 234 255
219 234 255
216 233 255
219 234 255
219 234 255
221 235 255
220 235 255
220 235 255
220 235 255
220 235 255
220 235 255
221 235 255
0 0 0
221 235 255
221 235 255
221 236 255
221 235 255
221 235 255
221 235 255
221 235 255
186 183 181
183 182 181
182 181 181
182 181 181
180 180 181
180 180 181
178 179 181
178 179 181
177 178 181
177 178 181
177 178 181
175 177 181
175 177 181
174 177 181
174 177 181
174 177 181
173 176 181
173 176 181
173 176 181
172 175 181
171 175 181
172 176 181
171 175 181
171 175 181
171 175 181
171 175 181
170 175 181
170 175 181
170 174 181
170 175 181
170 175 181
170 175 181
170 174 181
170 175 181
169 174 181
171 175 181
170 175 181
170 175 181
169 174 181
171 175 181
170 175 181
170 175 181
171 175 181
170 175 181
172 176 181
171 175 181
171 175 181
172 176 181
171 175 181
172 176 181
173 176 181
174 177 181
173 176 181
174 177 181
174 177 181
175 177 181
176 177 181
177 178 181
177 178 181
178 179 181
178 179 181
179 179 181
180 180 181
181 180 181
182 181 181
184 182 181
144 160 181
137 156 181
133 154 181
18 16 32
30 21 84
0 0 0
128 151 181
12 136 96
149 162 181
131 187 99
47 39 13
106 69 48
109 70 48
80 50 34
99 67 48
106 69 48
207 171 195
137 156 181
11 10 85
142 159 181
132 153 181
137 156 181
131 153 181
141 158 181
140 158 181
171 107 136
114 74 96
167 106 136
34 22 50
132 172 146
149 183 146
133 173 146
95 123 103
96 131 82
89 126 82
63 89 58
112 126 151
168 220 229
11 127 67
0 0 0
8 91 47
20 190 105
21 194 105
106 58 165
129 26 115
120 25 115
129 26 115
80 17 81
0 0 0
135 155 181
222 236 255
143 159 181
79 17 81
136 155 181
138 156 181
135 155 181
147 161 181
149 162 181
132 153 181
0 0 0
120 139 195
102 129 195
20 70 35
20 70 35
3 33 6
21 72 35
117 74 207
108 71 207
106 70 207
74 49 146
78 50 146
82 52 146
97 11 161
0 0 0
200 188 238
43 22 10
69 73 36
68 73 36
72 75 36
195 185 238
136 130 168
0 5 83
128 151 181
134 154 181
136 155 181
93 4 107
138 156 181
131 153 181
135 155 181
145 160 181
137 6 151
29 66 117
30 68 117
210 229 255
206 227 255
93 144 183
56 94 129
58 96 129
57 24 168
85 137 183
21 31 21
25 4 62
92 27 166
176 192 235
154 180 235
82 68 57
95 73 57
125 99 80
88 70 57
38 21 12
0 0 0
124 99 80
10 27 25
66 3 75
217 233 255
218 234 255
218 234 255
218 234 255
218 234 255
219 234 255
215 232 255
219 234 255
219 234 255
219 234 255
145 160 181
220 235 255
219 235 255
220 235 255
220 235 255
162 171 181
129 152 181
220 235 255
220 235 255
220 235 255
186 183 181
184 182 181
183 181 181
183 181 181
181 180 181
180 180 181
179 179 181
179 179 181
178 179 181
178 178 181
177 178 181
177 178 181
176 178 181
176 178 181
175 177 181
175 177 181
175 177 181
174 177 181
174 177 181
174 177 181
174 177 181
173 176 181
172 176 181
173 176 181
173 176 181
172 176 181
172 176 181
173 176 181
172 176 181
171 175 181
172 176 181
171 175 181
171 175 181
172 176 181
171 175 181
172 176 181
171 175 181
172 176 181
173 176 181
172 176 181
172 176 181
172 175 181
172 176 181
172 176 181
172 176 181
173 176 181
173 176 181
174 177 181
173 176 181
174 177 181
174 177 181
175 177 181
175 177 181
175 177 181
176 178 181
177 178 181
177 178 181
177 178 181
178 179 181
178 179 181
179 179 181
180 180 181
180 180 181
182 181 181
183 181 181
184 182 181
185 182 181
137 156 181
131 153 181
46 30 119
31 21 84
47 31 119
129 152 181
139 157 181
128 151 181
127 184 99
101 67 48
99 67 48
131 153 181
133 154 181
130 152 181
206 227 255
79 56 27
138 156 181
139 157 181
139 157 181
132 153 181
137 156 181
147 161 181
143 159 181
129 152 181
56 22 36
109 72 96
62 23 36
97 124 103
140 177 146
147 181 146
144 179 146
131 172 146
0 0 0
58 86 58
187 217 255
109 124 151
141 173 130
179 228 229
1 83 21
14 132 74
106 58 165
98 56 165
93 54 165
89 18 81
0 0 0
84 18 81
0 0 0
0 0 0
208 228 255
214 232 255
214 231 255
209 229 255
209 229 255
136 155 181
128 151 181
138 156 181
113 64 77
131 153 181
104 61 77
119 66 77
28 38 74
121 140 195
140 158 181
130 152 181
140 158 181
120 74 207
85 53 146
49 17 43
78 50 146
123 75 207
113 72 207
88 11 161
0 0 0
71 74 36
71 74 36
71 74 36
74 76 36
68 73 36
0 0 0
148 162 181
52 71 43
78 156 137
76 154 137
142 6 151
139 6 151
130 152 181
145 160 181
207 227 255
0 0 0
28 65 117
28 65 117
20 46 83
31 68 117
137 156 181
0 0 0
45 18 118
51 60 57
0 0 0
84 136 183
93 143 183
132 153 181
58 12 52
170 188 235
160 183 235
122 98 80
89 71 57
36 25 16
6 18 18
138 104 80
81 67 57
84 69 57
133 103 80
215 232 255
214 232 255
216 233 255
216 233 255
215 232 255
217 233 255
218 234 255
217 233 255
218 234 255
218 234 255
219 234 255
218 234 255
218 234 255
219 234 255
219 234 255
219 234 255
220 235 255
32 37 96
32 36 96
219 234 255
219 234 255
186 183 181
185 182 181
184 182 181
183 181 181
182 181 181
182 181 181
181 180 181
180 180 181
179 179 181
179 179 181
179 179 181
178 179 181
177 178 181
177 178 181
177 178 181
176 178 181
176 178 181
176 178 181
176 178 181
176 177 181
174 177 181
175 177 181
174 177 181
174 177 181
174 176 181
174 177 181
174 177 181
174 177 181
173 176 181
174 177 181
174 177 181
173 176 181
174 177 181
174 176 181
173 176 181
174 177 181
173 176 181
173 176 181
173 176 181
173 176 181
174 177 181
175 177 181
174 177 181
175 177 181
174 177 181
174 177 181
174 177 181
175 177 181
176 178 181
175 177 181
176 177 181
176 177 181
176 178 181
177 178 181
177 178 181
179 179 181
178 179 181
179 179 181
179 179 181
180 180 181
181 180 181
181 180 181
182 181 181
183 181 181
183 181 181
184 182 181
107 117 128
131 153 181
141 158 181
135 45 157
0 0 0
131 153 181
0 0 0
102 130 150
102 130 150
107 133 150
137 156 181
128 151 181
141 158 181
183 215 255
145 160 181
147 161 181
0 0 0
0 0 0
140 157 181
146 160 181
135 155 181
141 158 181
171 193 232
199 207 232
180 197 232
197 206 232
0 0 0
102 70 96
136 175 146
100 125 103
103 127 103
100 125 103
145 180 146
153 185 146
64 90 58
162 191 237
156 188 237
144 174 130
121 161 130
108 58 165
95 55 165
2 35 66
110 59 165
95 55 165
97 55 165
141 158 181
86 18 81
134 154 181
139 157 181
0 0 0
199 223 255
200 224 255
201 224 255
132 153 181
148 162 181
205 227 255
136 155 181
15 17 18
118 65 77
111 63 77
104 62 77
106 62 77
143 159 181
128 151 181
135 155 181
11 30 122
117 73 207
41 14 44
78 50 146
85 52 146
0 0 0
108 71 207
32 11 84
64 8 114
75 76 36
78 78 36
71 74 36
76 77 36
68 73 36
77 155 137
87 164 137
82 160 137
73 151 137
76 154 137
147 161 181
106 131 195
130 152 181
139 157 181
0 0 0
0 0 0
0 0 0
138 156 181
28 65 117
19 30 37
21 48 83
58 95 129
59 96 129
59 96 129
0 0 0
133 154 181
132 153 181
129 152 181
0 0 0
171 189 235
177 192 235
63 49 133
9 19 15
77 51 33
0 0 0
87 70 57
63 58 22
0 0 0
126 100 80
83 68 57
43 58 28
214 231 255
214 232 255
216 232 255
215 232 255
217 233 255
217 233 255
217 233 255
217 233 255
217 233 255
217 233 255
218 234 255
218 234 255
218 233 255
218 234 255
218 233 255
218 234 255
218 234 255
218 234 255
218 234 255
186 183 181
186 183 181
184 182 181
184 182 181
183 181 181
182 181 181
182 181 181
182 181 181
180 180 181
180 180 181
179 179 181
179 179 181
180 180 181
179 179 181
178 179 181
178 179 181
178 179 181
178 179 181
177 178 181
177 178 181
176 178 181
177 178 181
176 178 181
175 177 181
175 177 181
176 178 181
176 178 181
175 177 181
175 177 181
176 178 181
175 177 181
175 177 181
176 177 181
174 177 181
176 178 181
175 177 181
175 177 181
176 178 181
176 178 181
175 177 181
176 178 181
176 177 181
176 178 181
175 177 181
176 178 181
176 178 181
177 178 181
177 178 181
176 178 181
177 178 181
178 178 181
177 178 181
178 179 181
178 179 181
179 179 181
179 179 181
179 179 181
180 180 181
181 180 181
181 180 181
181 180 181
182 181 181
183 181 181
183 181 181
184 182 181
185 182 181
186 183 181
217 233 255
203 225 255
138 156 181
129 152 181
114 137 150
111 135 150
104 131 150
103 130 150
105 132 150
110 135 150
146 161 181
200 224 255
138 156 181
138 156 181
130 152 181
0 0 0
139 157 181
133 154 181
134 154 181
194 205 232
172 193 232
132 153 181
167 191 232
137 156 181
192 204 232
194 205 232
132 153 181
71 100 59
145 180 146
124 155 133
99 125 103
0 0 0
173 197 237
161 191 237
146 182 237
148 183 237
0 0 0
109 150 162
105 58 165
66 39 117
68 39 117
7 203 145
0 0 0
7 195 145
7 196 145
34 83 84
0 0 0
139 157 181
37 87 84
154 165 181
0 0 0
146 161 181
128 151 181
133 154 181
206 227 255
0 0 0
108 63 77
111 63 77
108 62 77
103 61 77
122 66 77
148 162 181
135 155 181
128 151 181
143 159 181
74 49 146
81 51 146
46 16 118
78 50 146
78 50 146
81 51 146
42 24 29
78 78 36
56 55 25
31 41 19
67 61 25
72 75 36
57 112 97
59 114 97
76 154 137
79 157 137
23 33 72
75 153 137
84 52 106
214 232 255
129 151 181
20 46 83
0 0 0
0 0 0
55 55 25
141 158 181
133 154 181
0 0 0
12 20 26
140 157 181
22 29 124
18 42 65
129 152 181
21 82 115
22 83 115
22 83 115
21 82 115
14 37 36
62 48 133
63 49 133
136 104 80
76 51 33
139 105 80
139 105 80
88 70 57
0 0 0
84 69 57
96 73 57
53 36 24
212 231 255
214 232 255
214 231 255
214 231 255
215 232 255
215 232 255
216 232 255
215 232 255
216 232 255
216 233 255
150 163 181
217 233 255
217 233 255
217 233 255
217 233 255
217 233 255
217 233 255
217 233 255
217 233 255
124 5 107
186 183 181
185 182 181
185 182 181
184 182 181
183 181 181
183 181 181
182 181 181
182 181 181
182 181 181
181 180 181
180 180 181
181 180 181
180 180 181
179 179 181
180 179 181
179 179 181
180 180 181
179 179 181
178 179 181
178 179 181
178 179 181
178 179 181
177 178 181
178 179 181
177 178 181
177 178 181
177 178 181
177 178 181
177 178 181
177 178 181
177 178 181
176 178 181
178 178 181
176 178 181
177 178 181
176 178 181
177 178 181
177 178 181
178 179 181
176 178 181
176 178 181
177 178 181
177 178 181
177 178 181
178 179 181
178 179 181
179 179 181
179 179 181
178 179 181
179 179 181
180 180 181
180 180 181
179 179 181
180 180 181
180 180 181
181 180 181
181 180 181
181 180 181
182 181 181
183 181 181
183 181 181
184 182 181
185 182 181
185 182 181
185 182 181
116 122 128
204 226 255
0 0 0
128 151 181
110 135 150
69 75 82
75 94 106
100 108 119
114 137 150
111 135 150
114 137 150
74 93 106
70 94 44
74 96 44
73 96 44
80 100 44
16 50 4
128 151 181
145 160 181
58 88 49
186 201 232
136 156 181
144 160 181
134 154 181
0 0 0
139 157 181
62 77 66
147 161 181
98 124 103
49 70 42
154 185 146
99 125 103
0 0 0
167 194 237
161 190 237
154 186 237
153 186 237
48 33 43
0 0 0
144 159 181
98 56 165
22 68 12
20 65 12
6 190 145
7 198 145
0 52 4
33 83 84
37 87 84
33 83 84
33 83 84
34 84 84
132 153 181
139 157 181
137 156 181
57 68 97
110 63 77
73 43 55
121 66 77
112 64 77
79 45 55
120 66 77
76 29 24
79 45 55
152 164 181
135 155 181
58 68 97
132 153 181
0 0 0
0 0 0
122 75 207
104 59 146
0 0 0
141 158 181
146 161 181
49 52 25
48 52 25
18 32 14
32 23 8
53 108 97
52 107 97
51 107 97
82 160 137
77 155 137
78 156 137
51 106 97
210 230 255
147 161 181
30 67 117
0 0 0
30 67 117
0 0 0
141 158 181
131 153 181
0 0 0
13 11 18
146 161 181
140 158 181
28 2 54
129 152 181
14 56 81
21 81 115
24 86 115
15 57 81
22 82 115
0 0 0
40 25 56
0 0 0
122 115 107
83 80 75
0 0 0
0 0 0
15 39 36
52 27 50
95 73 57
89 71 57
134 154 181
211 230 255
213 231 255
213 231 255
213 231 255
214 232 255
214 232 255
214 232 255
215 232 255
131 153 181
210 230 255
215 232 255
216 232 255
216 233 255
209 229 255
216 233 255
216 233 255
216 232 255
24 50 83
101 51 55
186 183 181
186 183 181
185 183 181
185 182 181
184 182 181
184 182 181
183 181 181
183 182 181
183 181 181
182 181 181
183 181 181
182 181 181
181 181 181
181 180 181
181 180 181
180 180 181
181 180 181
180 180 181
180 180 181
180 180 181
181 180 181
179 179 181
179 179 181
179 179 181
179 179 181
179 179 181
179 179 181
178 179 181
178 179 181
179 179 181
179 179 181
179 179 181
179 179 181
179 179 181
179 179 181
179 179 181
179 179 181
179 179 181
178 179 181
179 179 181
178 179 181
180 180 181
179 179 181
179 179 181
179 179 181
180 180 181
179 179 181
180 180 181
180 180 181
180 180 181
180 180 181
181 180 181
180 180 181
182 181 181
181 180 181
182 181 181
183 181 181
183 181 181
183 181 181
183 181 181
183 181 181
184 182 181
185 182 181
186 183 181
186 183 181
126 37 71
172 175 203
194 185 203
189 183 203
112 136 150
0 0 0
75 93 106
30 42 18
118 139 150
107 112 119
117 139 150
0 0 0
53 46 14
76 98 44
48 33 26
122 75 151
75 21 50
126 76 151
129 76 151
122 75 151
36 54 21
137 156 181
0 0 0
0 0 0
137 156 181
130 152 181
0 0 0
151 164 181
42 114 26
60 162 36
99 125 103
58 160 36
170 195 237
152 171 215
161 190 237
165 193 237
173 197 237
41 37 20
135 155 181
133 154 181
104 58 165
71 40 117
20 65 12
22 68 12
15 47 8
20 65 12
34 83 84
192 199 239
38 88 84
166 186 239
38 89 84
149 162 181
136 155 181
145 160 181
131 153 181
116 65 77
107 62 77
118 65 77
108 63 77
0 0 0
0 0 0
80 45 55
104 62 77
147 161 181
131 153 181
118 172 195
117 171 195
117 171 195
76 77 61
131 153 181
0 0 0
146 161 181
58 36 103
129 152 181
49 52 25
51 53 25
48 51 25
13 12 2
51 106 97
79 157 137
83 160 137
55 110 97
85 162 137
59 114 97
41 114 105
19 46 83
0 0 0
20 46 83
0 0 0
0 0 0
0 0 0
217 233 255
134 154 181
217 233 255
20 47 83
133 154 181
141 158 181
138 157 181
16 59 81
119 88 225
22 82 115
23 85 115
21 81 115
0 0 0
23 84 115
0 0 0
6 14 10
37 25 16
113 112 107
38 25 16
98 128 70
0 0 0
107 134 70
0 0 0
93 72 57
0 0 0
211 230 255
211 230 255
0 0 0
211 230 255
213 231 255
214 231 255
213 231 255
213 231 255
214 232 255
214 231 255
214 232 255
215 232 255
214 232 255
214 232 255
141 158 181
215 232 255
215 232 255
215 232 255
0 0 0
48 14 40
20 129 79
186 183 181
186 183 181
186 183 181
185 182 181
185 182 181
184 182 181
184 182 181
184 182 181
183 181 181
184 182 181
183 181 181
183 181 181
182 181 181
182 181 181
181 180 181
181 180 181
181 180 181
182 181 181
181 180 181
181 180 181
182 181 181
182 181 181
181 180 181
181 180 181
182 181 181
180 180 181
180 180 181
180 180 181
180 180 181
181 180 181
181 180 181
180 180 181
180 180 181
180 180 181
180 180 181
180 180 181
180 180 181
181 180 181
181 180 181
181 180 181
181 180 181
182 181 181
181 180 181
181 180 181
181 180 181
181 180 181
181 180 181
182 181 181
182 181 181
182 181 181
182 181 181
183 181 181
183 181 181
183 181 181
183 181 181
184 182 181
184 182 181
184 182 181
185 182 181
186 183 181
186 183 181
186 183 181
110 119 128
29 62 21
117 132 162
113 63 85
189 183 203
194 185 203
76 94 106
74 93 106
105 132 150
74 93 106
117 139 150
28 41 18
79 100 44
71 95 44
75 97 44
74 97 44
124 75 151
129 77 151
117 73 151
134 78 151
138 79 151
124 75 151
132 153 181
127 139 164
118 135 164
0 0 0
0 0 0
57 159 36
41 114 26
58 160 36
64 167 36
64 168 36
64 167 36
105 130 167
98 77 68
163 191 237
105 130 167
155 187 237
134 155 181
146 161 181
130 152 181
22 69 12
14 46 8
4 30 7
22 69 12
4 33 5
13 40 8
19 58 11
179 192 239
182 194 239
165 185 239
169 187 239
184 194 239
110 107 157
140 158 181
132 153 181
132 153 181
113 64 77
118 65 77
110 63 77
28 8 11
77 44 55
115 65 77
102 61 77
131 153 181
112 168 195
107 164 195
121 174 195
89 127 138
109 165 195
119 172 195
151 163 181
134 154 181
128 151 181
143 159 181
144 160 181
76 77 36
130 152 181
5 11 8
129 152 181
76 154 137
52 107 97
57 112 97
54 109 97
49 69 43
14 53 37
140 158 181
209 229 255
206 227 255
32 69 117
0 0 0
196 222 255
209 229 255
203 226 255
0 0 0
131 153 181
129 152 181
132 153 181
130 152 181
139 96 225
134 94 225
132 93 225
116 87 225
53 28 50
22 83 115
21 81 115
24 87 115
0 0 0
108 134 70
103 131 70
106 133 70
16 19 14
112 137 70
103 131 70
97 128 70
57 31 18
207 228 255
208 228 255
210 229 255
130 114 169
211 230 255
211 230 255
211 230 255
212 230 255
212 231 255
209 229 255
213 231 255
213 231 255
213 231 255
214 231 255
213 231 255
213 231 255
213 231 255
214 232 255
214 231 255
112 119 128
41 82 65
32 0 56
114 121 128
107 117 128
109 118 128
186 183 181
107 117 128
186 183 181
185 182 181
185 182 181
184 182 181
185 183 181
185 182 181
184 182 181
184 182 181
184 182 181
183 181 181
184 182 181
183 181 181
184 182 181
183 181 181
182 181 181
183 181 181
183 181 181
182 181 181
182 181 181
182 181 181
182 181 181
183 181 181
183 181 181
182 181 181
183 181 181
183 181 181
183 181 181
182 181 181
182 181 181
182 181 181
183 181 181
182 181 181
183 181 181
182 181 181
182 181 181
183 181 181
183 181 181
183 181 181
183 181 181
183 181 181
183 181 181
183 181 181
183 181 181
184 182 181
184 182 181
184 182 181
184 182 181
185 182 181
184 182 181
185 182 181
185 183 181
186 183 181
185 182 181
186 183 181
186 183 181
119 123 128
110 118 128
0 0 0
95 52 62
103 60 85
103 60 85
38 43 12
103 60 85
71 91 106
111 135 150
81 97 106
74 93 106
111 135 150
53 69 31
77 98 44
83 102 44
49 66 31
121 74 151
117 73 151
120 74 151
124 75 151
51 9 57
135 78 151
124 75 151
128 76 151
0 0 0
119 135 164
120 136 164
141 158 181
42 114 26
67 172 36
61 163 36
10 57 2
66 170 36
41 113 26
32 63 34
59 78 109
87 112 155
106 130 167
105 129 167
109 150 162
134 154 181
64 82 65
13 31 1
14 46 8
20 65 12
21 67 12
22 69 12
56 164 161
15 31 3
172 189 239
180 193 239
173 189 239
183 194 239
219 234 255
171 188 239
139 157 181
137 156 181
132 153 181
73 43 55
120 66 77
2 39 31
75 44 55
71 43 55
72 43 55
139 157 181
118 172 195
79 118 138
122 174 195
107 164 195
111 167 195
110 166 195
113 168 195
135 155 181
139 157 181
37 38 18
139 157 181
214 232 255
198 223 255
130 152 181
0 0 0
154 165 181
133 154 181
22 78 52
51 64 121
15 54 37
53 108 97
130 152 181
134 154 181
129 152 181
128 151 181
204 226 255
21 47 83
206 227 255
69 117 146
86 94 117
136 155 181
0 0 0
147 161 181
128 151 181
118 88 225
130 92 225
118 88 225
129 92 225
125 91 225
124 90 225
131 93 225
23 85 115
32 14 21
6 13 10
98 128 70
73 56 61
68 90 49
111 136 70
101 130 70
69 91 49
106 133 70
0 0 0
0 0 0
204 226 255
206 227 255
208 228 255
208 228 255
209 229 255
209 229 255
210 230 255
211 230 255
210 230 255
211 230 255
211 230 255
212 230 255
212 231 255
212 230 255
212 230 255
212 230 255
213 231 255
174 177 181
117 122 128
113 120 128
0 0 0
117 122 128
49 101 87
0 0 0
16 6 46
114 120 128
127 127 128
117 122 128
186 183 181
114 120 128
115 121 128
110 118 128
185 182 181
185 182 181
186 183 181
185 182 181
185 182 181
185 182 181
184 182 181
184 182 181
184 182 181
184 182 181
185 182 181
184 182 181
184 182 181
184 182 181
184 182 181
184 182 181
185 182 181
184 182 181
185 182 181
184 182 181
185 182 181
185 182 181
184 182 181
184 182 181
184 182 181
184 182 181
183 182 181
183 181 181
184 182 181
184 182 181
185 182 181
184 182 181
185 182 181
185 182 181
184 182 181
185 182 181
186 183 181
185 183 181
185 182 181
186 183 181
185 182 181
185 182 181
186 183 181
186 183 181
186 183 181
118 122 128
121 124 128
111 119 128
118 122 128
114 120 128
6 131 95
0 0 0
111 119 128
107 61 85
78 44 60
112 62 85
116 63 85
83 45 60
0 0 0
31 41 43
83 98 106
142 158 181
141 158 181
35 39 17
33 79 31
53 35 26
85 52 107
124 75 151
123 75 151
68 20 50
84 52 107
90 54 107
116 73 151
28 40 15
136 79 151
0 0 0
179 197 232
184 199 232
38 55 21
42 114 26
32 89 22
41 113 26
11 57 2
60 162 36
0 0 0
67 171 36
109 132 167
0 0 0
85 122 147
137 156 181
133 154 181
134 154 181
5 13 6
14 47 8
30 41 22
60 170 161
57 165 161
56 164 161
52 159 161
55 163 161
57 165 161
133 154 181
128 151 181
138 156 181
0 0 0
128 151 181
141 158 181
138 156 181
128 151 181
21 48 83
133 154 181
29 8 11
90 75 73
134 154 181
146 161 181
75 116 138
62 21 57
87 124 138
79 118 138
74 115 138
74 115 138
127 178 195
0 0 0
144 160 181
129 152 181
0 0 0
132 153 181
148 162 181
130 152 181
133 154 181
0 0 0
128 151 181
137 156 181
86 79 208
96 83 208
130 152 181
41 80 68
102 4 107
135 155 181
142 159 181
131 153 181
67 115 146
67 115 146
33 43 118
17 49 36
141 158 181
139 157 181
134 154 181
96 66 159
81 61 159
126 91 225
139 95 225
125 91 225
0 0 0
130 92 225
115 87 225
88 64 159
0 0 0
45 35 94
64 53 61
99 129 70
107 134 70
109 135 70
114 138 70
71 91 49
75 94 49
32 38 28
0 0 0
110 47 61
138 156 181
139 157 181
206 227 255
207 228 255
207 228 255
0 0 0
208 228 255
209 229 255
210 229 255
210 229 255
210 229 255
210 229 255
211 230 255
211 230 255
211 230 255
212 230 255
211 230 255
124 144 168
113 120 128
109 118 128
0 0 0
32 69 62
134 68 83
78 87 57
113 120 128
46 30 52
124 125 128
130 100 114
90 47 81
47 64 79
121 124 128
123 125 128
114 120 128
119 123 128
186 183 181
104 51 28
186 183 181
26 110 37
109 118 128
186 183 181
186 183 181
187 183 181
186 183 181
185 182 181
113 120 128
186 183 181
186 183 181
185 182 181
186 183 181
186 183 181
186 183 181
186 183 181
186 183 181
186 183 181
185 182 181
186 183 181
185 182 181
186 183 181
185 182 181
186 183 181
186 183 181
186 183 181
186 183 181
186 183 181
186 183 181
186 183 181
186 183 181
111 119 128
186 183 181
186 183 181
108 117 128
186 183 181
116 121 128
0 0 0
124 165 165
41 81 94
17 34 99
74 15 65
120 123 128
149 136 168
67 17 42
0 0 0
114 120 128
21 14 34
117 122 128
72 113 27
83 121 27
81 120 27
71 42 60
137 156 181
149 162 181
83 98 106
49 59 68
146 160 181
51 68 31
18 14 4
32 22 18
53 23 33
84 52 107
124 75 151
87 53 107
73 20 8
92 54 107
81 51 107
85 52 107
201 224 255
132 153 181
132 153 181
206 227 255
65 169 36
66 169 36
42 115 26
63 166 36
46 119 26
0 0 0
66 170 36
144 159 181
67 44 99
64 81 109
0 0 0
136 155 181
136 155 181
133 154 181
14 46 8
53 160 161
53 160 161
58 167 161
51 157 161
56 164 161
56 164 161
55 163 161
0 0 0
135 155 181
136 156 181
132 153 181
143 159 181
0 0 0
134 154 181
140 158 181
141 158 181
142 158 181
46 28 36
60 115 97
132 153 181
137 156 181
143 159 181
125 177 195
0 0 0
76 116 138
116 171 195
117 171 195
77 117 138
88 125 138
83 121 138
136 155 181
132 153 181
93 72 57
136 156 181
0 0 0
198 223 255
133 154 181
90 81 208
87 80 208
84 79 208
84 78 208
88 80 208
89 80 208
137 156 181
0 0 0
148 162 181
52 98 136
72 119 146
73 120 146
67 116 146
74 121 146
77 123 146
68 116 146
28 17 24
130 152 181
0 0 0
134 93 225
122 89 225
90 64 159
71 55 148
32 34 90
129 92 225
82 62 159
131 93 225
0 0 0
0 0 0
114 138 70
0 0 0
0 0 0
77 95 49
15 12 6
112 48 61
79 96 49
20 1 29
120 49 61
105 46 61
0 0 0
202 225 255
205 227 255
206 227 255
207 228 255
206 227 255
207 228 255
147 161 181
206 227 255
209 229 255
208 228 255
209 229 255
210 229 255
210 229 255
210 230 255
210 229 255
210 229 255
0 0 0
0 0 0
101 2 37
94 132 21
48 40 51
107 117 128
99 99 105
116 121 128
7 132 145
142 135 157
115 121 128
51 31 23
0 0 0
122 124 128
0 0 0
119 117 3
77 79 2
79 2 9
30 127 121
56 56 89
73 24 94
117 122 128
0 0 0
0 0 0
119 123 128
109 118 128
121 124 128
108 118 128
121 124 128
121 124 128
130 129 128
114 120 128
113 120 128
111 119 128
119 123 128
114 120 128
110 118 128
107 117 128
111 119 128
123 125 128
116 121 128
115 121 128
107 117 128
116 121 128
109 118 128
117 122 128
107 117 128
120 123 128
51 37 61
115 121 128
19 34 12
13 99 140
85 95 107
119 123 128
85 64 57
71 156 136
108 117 128
28 13 55
39 80 94
107 117 128
170 142 152
21 20 21
116 121 128
158 125 167
144 120 167
0 0 0
35 89 18
83 121 27
51 80 19
64 90 19
61 87 19
82 45 60
68 13 41
129 152 181
132 153 181
142 159 181
99 74 57
129 152 181
0 0 0
0 0 0
49 66 31
92 54 107
94 55 107
86 53 107
36 6 40
38 6 40
89 53 107
96 55 107
131 153 181
135 155 181
192 220 255
9 61 2
35 46 12
20 15 9
59 161 36
65 169 36
62 165 36
41 108 20
65 168 36
67 82 109
130 152 181
93 30 96
94 30 96
138 156 181
132 153 181
129 152 181
28 40 22
52 159 161
37 113 113
58 166 161
36 26 66
39 116 113
51 157 161
137 156 181
126 135 169
139 157 181
148 162 181
127 136 169
143 159 181
155 166 181
37 112 113
52 159 161
131 153 181
136 155 181
141 158 181
133 154 181
138 157 181
142 158 181
134 154 181
137 156 181
79 118 138
125 177 195
33 127 123
0 0 0
0 0 0
123 175 195
141 158 181
143 159 181
128 151 181
0 0 0
220 235 255
134 155 181
135 155 181
148 162 181
93 82 208
101 86 208
91 81 208
60 56 147
94 82 208
90 81 208
86 79 208
157 191 238
169 197 238
153 188 238
158 191 238
72 119 146
69 117 146
54 86 103
70 88 136
75 122 146
188 163 239
211 173 239
131 92 225
118 88 225
91 65 159
89 64 159
84 62 159
0 0 0
132 93 225
91 65 159
66 53 61
11 42 57
146 161 181
108 134 70
73 93 49
72 92 49
49 42 15
110 136 70
119 49 61
101 45 61
109 47 61
114 48 61
113 48 61
111 47 61
201 224 255
202 225 255
203 225 255
205 226 255
205 226 255
207 228 255
206 227 255
206 227 255
205 226 255
207 227 255
207 228 255
207 228 255
134 154 181
208 228 255
208 228 255
209 229 255
126 126 128
124 125 128
112 136 102
61 90 14
111 119 128
108 118 128
64 67 74
107 117 128
117 122 128
26 100 119
112 119 128
122 124 128
38 97 67
78 79 48
118 122 128
71 21 20
0 0 0
111 119 128
0 0 0
61 20 128
0 0 0
94 89 122
111 119 128
67 100 51
71 103 51
170 174 181
118 122 128
97 148 93
103 65 74
23 71 112
111 119 128
10 47 108
46 43 13
117 122 128
125 126 128
111 119 128
122 124 128
128 128 128
44 96 56
34 71 40
112 119 128
55 119 29
115 121 128
0 0 0
0 0 0
113 120 128
119 123 128
111 119 128
0 0 0
58 25 22
112 120 128
43 126 18
45 61 86
0 0 0
61 45 40
85 64 57
108 117 128
47 38 77
33 17 79
109 118 128
167 169 180
119 123 128
49 15 57
119 123 128
120 123 128
114 121 128
0 0 0
74 115 27
80 118 27
79 118 27
81 119 27
55 83 19
85 122 27
141 158 181
135 155 181
0 0 0
132 153 181
137 156 181
35 47 22
0 0 0
25 17 13
16 23 14
88 53 107
38 12 44
83 52 107
66 5 75
26 38 15
102 98 170
92 93 170
93 93 170
133 154 181
137 156 181
41 113 26
44 117 26
22 31 8
61 164 36
41 113 26
42 114 26
114 135 167
129 145 142
88 29 96
84 28 96
89 29 96
128 151 181
129 152 181
128 151 181
138 156 181
61 171 161
61 171 161
60 169 161
36 111 113
60 169 161
60 170 161
58 167 161
137 37 106
145 38 106
0 0 0
124 134 169
0 0 0
141 158 181
217 233 255
37 112 113
132 153 181
131 153 181
138 156 181
132 153 181
138 156 181
139 157 181
129 152 181
140 157 181
0 0 0
78 118 138
123 176 195
79 118 138
87 124 138
130 152 181
58 48 40
87 70 57
130 152 181
140 157 181
172 176 181
0 0 0
146 161 181
100 85 208
86 79 208
85 79 208
0 0 0
87 80 208
70 60 147
164 194 238
151 187 238
142 182 238
143 182 238
144 183 238
156 190 238
74 120 146
77 123 146
75 122 146
76 122 146
198 167 239
183 161 239
179 160 239
182 161 239
196 166 239
127 91 225
0 0 0
91 65 159
83 62 159
118 63 140
97 67 159
135 155 181
57 48 40
0 0 0
28 39 9
23 22 11
71 91 49
0 0 0
115 48 61
106 46 61
103 46 61
0 0 0
109 47 61
106 46 61
110 47 61
111 47 61
79 24 149
78 24 149
203 225 255
203 226 255
80 24 149
204 226 255
204 226 255
205 227 255
0 0 0
205 227 255
207 228 255
204 226 255
207 228 255
206 227 255
207 228 255
0 0 0
109 118 128
128 144 102
49 122 110
44 64 10
115 121 128
115 121 128
131 56 15
43 41 2
117 122 128
110 118 128
115 121 128
53 125 26
108 117 128
61 58 33
116 121 128
12 77 40
11 4 13
119 123 128
4 9 28
117 122 128
98 105 150
72 65 86
114 120 128
67 124 107
108 117 128
37 12 108
68 104 66
28 77 112
24 71 112
125 139 136
35 37 70
124 126 128
120 123 128
125 126 128
145 157 40
0 0 0
109 118 128
126 126 128
139 3 59
94 2 42
135 3 59
0 0 0
99 64 137
46 17 63
110 118 128
127 127 128
111 119 128
125 126 128
39 16 32
112 119 128
113 120 128
116 121 128
152 36 77
39 79 157
65 75 22
110 119 128
47 57 28
64 80 40
117 122 128
106 88 116
176 173 180
130 120 164
114 121 128
109 118 128
118 122 128
71 113 24
83 121 27
55 83 19
58 85 19
0 0 0
52 81 19
52 81 19
80 119 27
131 153 181
136 155 181
106 71 96
136 155 181
0 0 0
145 160 181
0 0 0
0 0 0
141 158 181
93 55 107
41 13 44
105 99 170
90 92 170
92 93 170
90 92 170
89 92 170
105 99 170
92 93 170
140 158 181
0 0 0
0 0 0
0 0 0
40 112 26
134 154 181
140 158 181
128 151 181
94 30 96
27 2 25
30 8 45
135 155 181
142 159 181
132 153 181
138 156 181
38 114 113
56 164 161
7 59 50
58 167 161
129 36 106
138 37 106
141 38 106
133 37 106
141 38 106
132 37 106
144 38 106
123 134 169
13 45 8
83 48 174
0 0 0
95 73 57
136 156 181
130 152 181
137 156 181
81 120 138
130 152 181
131 153 181
133 154 181
131 153 181
0 0 0
0 0 0
84 122 138
74 115 138
14 45 45
143 159 181
131 152 181
52 81 97
0 0 0
127 100 80
211 230 255
216 233 255
97 84 208
97 84 208
89 80 208
86 79 208
98 84 208
161 192 238
152 188 238
144 183 238
147 185 238
142 182 238
150 186 238
152 188 238
62 57 53
50 84 103
204 170 239
193 165 239
188 163 239
180 160 239
180 160 239
180 160 239
179 160 239
198 167 239
111 61 140
35 35 90
95 48 99
126 65 140
126 65 140
65 46 112
123 64 140
138 157 181
0 0 0
77 95 49
68 90 49
73 93 49
120 49 61
72 32 43
101 45 61
21 2 18
109 47 61
72 32 43
81 34 43
78 24 149
58 17 105
84 25 149
200 224 255
80 24 149
201 225 255
201 224 255
203 226 255
202 225 255
205 226 255
205 226 255
204 226 255
206 227 255
205 226 255
204 226 255
205 227 255
166 173 181
118 122 128
117 138 102
44 97 78
176 178 181
0 0 0
110 118 128
127 127 128
126 55 15
112 119 128
113 120 128
0 0 0
24 72 73
123 125 128
110 118 128
117 122 128
16 107 57
16 108 57
107 117 128
0 0 0
64 71 106
71 75 106
34 50 25
108 118 128
114 120 128
109 118 128
39 12 108
26 9 76
107 117 128
86 98 96
144 149 136
104 123 30
51 46 13
112 119 128
88 103 28
97 108 28
24 50 28
115 121 128
108 117 128
123 125 128
119 123 128
38 83 21
57 33 59
87 49 83
49 24 47
108 117 128
43 13 87
0 0 0
147 125 144
160 131 144
116 121 128
108 118 128
98 24 54
10 56 18
0 0 0
114 120 128
82 83 52
65 80 40
55 62 28
115 121 128
0 0 0
137 123 164
138 123 164
88 31 66
109 118 128
109 118 128
117 122 128
0 0 0
86 123 27
56 83 19
43 79 16
0 0 0
74 115 27
53 82 19
140 157 181
132 153 181
146 161 181
134 154 181
63 25 33
138 157 181
137 156 181
139 157 181
171 221 219
174 223 219
61 37 75
178 226 219
172 222 219
93 93 170
64 65 120
0 0 0
91 93 170
105 99 170
100 97 170
130 152 181
0 0 0
146 161 181
30 81 18
0 0 0
29 80 18
131 153 181
59 20 68
92 29 96
88 29 96
148 162 181
151 163 181
130 152 181
128 151 181
145 160 181
39 116 113
40 116 113
90 25 75
131 37 106
134 37 106
127 36 106
135 37 106
128 36 106
137 37 106
144 38 106
131 36 106
197 5 75
167 5 75
186 5 75
178 5 75
135 155 181
132 153 181
139 157 181
140 157 181
118 131 169
141 158 181
134 154 181
134 154 181
134 154 181
20 45 55
0 0 0
133 154 181
128 151 181
81 120 138
83 121 138
142 159 181
133 154 181
204 226 255
205 227 255
199 224 255
93 82 208
93 82 208
85 79 208
59 55 147
74 70 194
161 193 238
154 189 238
154 189 238
151 187 238
152 187 238
152 188 238
161 193 238
117 46 124
0 0 0
122 47 124
203 169 239
186 162 239
188 163 239
190 164 239
200 168 239
204 170 239
203 169 239
109 60 140
109 60 140
79 43 99
111 61 140
117 63 140
77 43 99
123 64 140
147 161 181
133 154 181
50 65 35
49 64 35
14 18 14
72 32 43
17 1 14
78 33 43
120 49 61
42 7 10
0 0 0
81 34 43
75 24 149
56 17 105
79 24 149
78 24 149
77 24 149
198 223 255
79 24 149
200 224 255
200 224 255
201 224 255
202 225 255
141 158 181
203 225 255
202 225 255
203 226 255
204 226 255
204 226 255
26 28 68
114 120 128
51 124 110
110 118 128
114 120 128
152 159 174
110 119 128
112 119 128
122 124 128
114 120 128
120 123 128
0 0 0
116 121 128
112 119 128
112 120 128
121 124 128
8 55 28
112 119 128
131 9 59
63 71 106
123 125 128
121 124 128
114 121 128
32 61 53
116 121 128
27 9 76
0 0 0
0 0 0
112 119 128
0 0 0
179 174 163
163 166 163
177 173 163
118 122 128
119 123 128
117 122 128
111 119 128
112 119 128
0 0 0
121 124 128
118 122 128
0 0 0
0 0 0
112 120 128
119 123 128
107 117 128
98 86 102
0 0 0
118 157 165
121 124 128
111 119 128
114 120 128
159 170 136
9 54 18
0 0 0
87 86 52
0 0 0
0 0 0
117 122 128
108 117 128
150 128 164
107 117 128
110 118 128
111 119 128
109 118 128
112 119 128
74 114 27
77 116 27
87 124 27
86 123 27
60 86 19
60 86 19
132 153 181
149 162 181
146 161 181
147 161 181
148 162 181
133 154 181
133 154 181
151 164 181
131 153 181
172 222 219
154 211 219
149 208 219
153 210 219
160 215 219
180 227 219
63 65 120
89 91 170
62 64 120
89 92 170
64 65 120
93 94 170
130 152 181
131 153 181
140 158 181
135 155 181
136 156 181
132 153 181
133 154 181
61 20 68
85 28 96
132 153 181
132 153 181
123 134 169
149 162 181
133 154 181
37 113 113
42 119 113
92 26 75
150 39 106
93 26 75
98 26 75
132 37 106
130 36 106
86 10 58
118 29 75
179 5 75
198 5 75
195 5 75
179 5 75
193 5 75
169 5 75
131 153 181
143 159 181
142 158 181
131 153 181
128 151 181
132 153 181
131 153 181
130 152 181
128 151 181
145 160 181
146 161 181
56 83 97
0 0 0
52 85 103
134 154 181
146 161 181
135 155 181
197 222 255
195 221 255
128 151 181
0 0 0
95 83 208
42 43 128
102 129 168
169 198 238
167 196 238
164 195 238
170 198 238
166 196 238
119 46 124
126 47 124
0 0 0
114 45 124
123 47 124
113 45 124
204 170 239
201 168 239
204 169 239
202 169 239
73 21 41
0 0 0
123 64 140
78 13 68
130 66 140
110 61 140
123 64 140
122 64 140
123 64 140
133 154 181
95 109 128
130 152 181
83 99 49
117 49 61
72 32 43
75 26 27
73 32 43
30 5 7
84 35 43
81 34 43
85 25 149
52 16 105
80 24 149
76 24 149
79 24 149
78 24 149
52 16 105
197 222 255
197 222 255
197 222 255
198 223 255
201 224 255
200 224 255
202 225 255
200 224 255
201 224 255
201 224 255
201 224 255
124 125 128
17 19 48
107 117 128
34 86 78
111 119 128
132 125 123
111 119 128
108 117 128
108 118 128
112 119 128
109 118 128
17 51 52
28 77 73
107 117 128
19 53 52
7 52 28
109 118 128
132 9 59
132 9 59
99 6 42
122 124 128
113 120 128
125 126 128
116 121 128
18 6 54
109 118 128
109 118 128
18 6 54
111 119 128
115 121 128
112 116 115
0 0 0
116 118 115
115 121 128
111 119 128
114 120 128
110 119 128
119 123 128
110 118 128
122 124 128
107 117 128
108 118 128
114 120 128
108 118 128
109 118 128
110 118 128
102 8 39
103 8 39
122 159 165
112 119 128
108 117 128
111 119 128
147 164 136
154 168 136
127 127 128
74 67 36
109 118 128
116 121 128
109 118 128
121 124 128
120 123 128
146 20 127
127 19 127
6 6 63
7 55 90
114 120 128
85 122 27
52 81 19
51 80 19
0 0 0
77 116 27
53 81 19
132 153 181
133 154 181
140 158 181
132 153 181
145 160 181
209 229 255
0 0 0
134 154 181
129 152 181
136 155 181
193 220 255
149 208 219
149 208 219
153 210 219
164 217 219
168 220 219
92 93 170
93 93 170
69 67 120
64 65 120
132 153 181
142 158 181
133 154 181
128 151 181
147 161 181
131 153 181
133 154 181
133 154 181
137 156 181
0 0 0
147 161 181
66 34 23
25 78 80
74 39 25
128 151 181
0 0 0
38 114 113
103 27 75
0 0 0
154 39 106
148 39 106
148 39 106
98 26 75
92 26 75
177 5 75
67 3 4
129 3 53
172 5 75
166 5 75
189 5 75
175 5 75
184 5 75
143 159 181
136 155 181
138 157 181
138 156 181
137 156 181
140 158 181
148 162 181
128 151 181
149 162 181
0 0 0
128 151 181
147 161 181
129 152 181
90 71 57
135 155 181
62 57 147
149 162 181
132 153 181
61 56 147
59 55 147
0 0 0
69 59 147
62 56 147
118 139 168
100 128 168
115 137 168
50 23 76
53 6 6
125 47 124
79 32 88
124 47 124
112 45 124
0 0 0
80 32 88
114 45 124
126 48 124
0 0 0
117 47 131
0 0 0
130 66 140
72 35 70
128 65 140
126 65 140
118 63 140
131 66 140
79 43 99
123 64 140
130 152 181
132 153 181
133 154 181
130 152 181
137 156 181
56 18 50
112 48 61
80 34 43
72 32 43
74 33 43
52 16 105
75 23 149
38 13 59
81 24 149
77 24 149
37 13 59
78 24 149
83 25 149
195 221 255
0 0 0
194 221 255
197 222 255
133 154 181
198 223 255
197 222 255
199 223 255
198 223 255
199 224 255
198 223 255
113 93 80
0 0 0
109 118 128
111 119 128
0 0 0
1 86 64
108 113 123
0 0 0
115 121 128
108 117 128
13 38 36
0 0 0
93 74 63
98 90 90
111 95 90
112 120 128
108 118 128
0 0 0
141 9 59
155 10 59
113 120 128
116 121 128
120 123 128
116 121 128
115 121 128
95 102 96
114 120 128
115 121 128
117 122 128
75 80 81
119 119 115
112 116 115
116 121 128
122 124 128
107 117 128
113 120 128
0 0 0
0 0 0
120 123 128
107 117 128
111 119 128
121 124 128
93 93 68
111 119 128
116 121 128
74 5 27
62 4 19
104 8 39
111 153 125
107 87 92
109 118 128
155 168 136
147 164 136
156 169 136
0 0 0
0 0 0
118 122 128
108 118 128
63 61 36
115 121 128
0 0 0
142 20 127
74 36 88
0 0 0
115 121 128
54 82 19
56 84 19
52 81 19
79 118 27
54 82 19
53 81 19
97 110 128
133 154 181
128 151 181
138 156 181
135 155 181
128 151 181
130 152 181
121 156 155
0 0 0
141 158 181
146 161 181
137 156 181
138 156 181
163 216 219
159 214 219
167 219 219
167 219 219
63 65 120
93 94 170
100 97 170
101 97 170
42 14 48
146 160 181
149 163 181
144 160 181
134 154 181
40 14 48
46 14 48
129 152 181
133 154 181
0 0 0
5 20 10
0 0 0
27 81 80
41 118 113
135 155 181
26 80 80
0 0 0
62 16 32
0 0 0
141 38 106
144 38 106
134 0 31
89 0 22
173 5 75
169 5 75
0 0 0
169 5 75
173 5 75
186 5 75
201 5 75
120 3 53
127 3 53
179 5 75
131 153 181
129 152 181
131 153 181
134 154 181
147 161 181
128 151 181
143 159 181
132 153 181
146 161 181
141 158 181
69 59 147
0 0 0
47 41 104
135 155 181
149 162 181
40 31 79
130 152 181
136 156 181
60 56 147
146 161 181
69 59 147
61 56 147
67 38 92
100 128 168
101 129 168
125 47 124
127 48 124
117 46 124
112 45 124
93 34 88
132 49 124
133 49 124
92 34 88
84 32 88
114 38 88
137 117 169
0 0 0
121 64 140
109 60 140
0 0 0
129 66 140
87 45 99
77 43 99
124 64 140
86 45 99
112 61 140
0 0 0
132 153 181
140 157 181
139 157 181
144 160 181
29 31 52
0 0 0
74 33 43
0 0 0
74 33 43
13 0 33
124 116 113
53 17 105
81 24 149
12 4 56
88 25 149
87 25 149
76 24 149
15 1 43
78 24 149
192 219 255
39 12 74
194 221 255
194 221 255
195 221 255
132 153 181
196 222 255
196 222 255
195 221 255
109 118 128
27 28 68
114 120 128
107 113 123
89 110 125
108 118 128
115 121 128
117 122 128
110 118 128
113 120 128
109 118 128
118 123 128
96 89 90
103 92 90
108 117 128
110 118 128
113 120 128
116 121 128
114 120 128
0 0 0
33 61 53
99 95 90
110 118 128
1 133 94
1 129 94
109 118 128
111 119 128
126 126 128
116 121 128
111 119 128
100 95 90
111 119 128
126 126 128
0 0 0
124 125 128
111 119 128
113 120 128
110 118 128
108 117 128
112 119 128
120 123 128
79 6 27
109 118 128
124 125 128
111 119 128
0 0 0
124 126 128
113 8 39
67 83 82
120 123 128
107 117 128
0 0 0
133 132 96
167 174 136
37 40 26
111 119 128
114 120 128
117 122 128
110 118 128
107 117 128
70 10 63
104 51 125
101 50 125
8 56 90
146 161 181
55 83 19
0 0 0
0 0 0
54 82 19
129 152 181
46 93 91
66 66 120
137 156 181
132 153 181
61 87 19
140 157 181
0 0 0
0 0 0
110 149 155
0 0 0
0 0 0
138 156 181
139 157 181
138 156 181
130 152 181
168 219 219
174 223 219
180 227 219
82 71 80
95 94 170
67 67 120
0 0 0
138 157 181
142 159 181
139 157 181
135 155 181
130 152 181
149 162 181
137 156 181
141 158 181
131 153 181
132 153 181
131 153 181
131 153 181
146 161 181
135 155 181
0 0 0
143 159 181
128 151 181
93 26 75
123 178 29
104 164 29
102 27 75
93 26 75
199 5 75
190 5 75
120 3 53
126 3 53
193 5 75
180 5 75
183 5 75
190 5 75
61 1 43
196 5 75
186 5 75
132 153 181
131 153 181
134 154 181
132 153 181
148 162 181
132 153 181
131 153 181
137 156 181
152 164 181
131 153 181
131 153 181
145 160 181
143 159 181
128 151 181
141 158 181
134 154 181
138 178 144
133 154 181
143 181 144
145 182 144
0 0 0
0 0 0
33 33 97
0 0 0
105 98 158
127 48 124
125 47 124
82 32 88
88 33 88
79 32 88
81 32 88
112 45 124
125 47 124
80 32 88
86 26 55
142 89 158
131 114 169
81 44 99
110 51 99
0 0 0
0 0 0
83 44 99
120 63 140
81 44 99
86 45 99
77 43 99
83 44 99
130 152 181
83 34 43
155 166 181
21 9 18
142 159 181
141 158 181
0 0 0
80 34 43
82 34 43
89 26 149
133 120 113
124 116 113
115 95 80
118 114 113
138 122 113
0 0 0
55 17 105
55 17 105
76 24 149
189 218 255
190 218 255
188 218 255
200 224 255
0 0 0
0 0 0
129 152 181
212 230 255
193 220 255
137 156 181
11 4 23
111 119 128
12 13 34
109 118 128
109 118 128
121 124 128
119 123 128
0 0 0
90 91 90
0 0 0
111 119 128
0 0 0
68 63 63
71 64 63
112 119 128
115 121 128
110 118 128
0 0 0
0 0 0
108 117 128
122 124 128
1 129 94
1 103 92
1 106 92
129 141 176
115 121 128
121 124 128
0 0 0
108 118 128
127 127 128
82 83 81
107 117 128
0 0 0
0 0 0
176 178 181
119 123 128
106 98 90
110 118 128
125 126 128
120 123 128
114 120 128
113 120 128
0 0 0
108 118 128
0 0 0
113 120 128
77 84 68
0 0 0
117 122 128
0 0 0
112 120 96
115 121 128
108 118 128
107 117 128
115 121 128
0 0 0
115 121 128
63 33 88
111 119 128
105 51 125
90 48 125
5 38 63
112 119 128
140 158 181
220 235 255
128 151 181
139 157 181
0 0 0
140 157 181
0 0 0
132 153 181
137 156 181
133 154 181
128 151 181
131 153 181
106 147 155
140 158 181
144 160 181
207 228 255
134 154 181
0 0 0
0 0 0
131 153 181
0 0 0
115 153 155
117 125 130
0 0 0
106 147 155
65 66 120
67 66 120
141 158 181
129 152 181
134 154 181
138 156 181
147 161 181
129 152 181
135 155 181
129 152 181
131 153 181
147 161 181
133 154 181
141 158 181
134 154 181
135 155 181
130 152 181
131 153 181
142 159 181
147 161 181
112 170 29
116 173 29
119 175 29
106 166 29
105 165 29
112 170 29
0 0 0
177 5 75
195 5 75
119 3 53
169 5 75
132 3 53
127 3 53
118 3 53
178 5 75
177 5 75
130 152 181
134 154 181
148 162 181
131 153 181
141 158 181
131 153 181
129 152 181
135 155 181
136 155 181
140 158 181
45 40 104
146 161 181
144 160 181
135 155 181
133 154 181
150 163 181
147 183 144
136 177 144
138 178 144
131 173 144
131 173 144
83 98 72
145 182 144
134 154 181
92 118 157
127 48 124
79 32 88
116 46 124
51 18 44
127 48 124
79 31 88
82 32 88
90 34 88
127 48 124
127 48 124
89 34 93
139 118 169
54 9 48
50 9 48
126 65 140
80 43 99
123 64 140
82 44 99
95 47 99
85 45 99
83 44 99
80 44 99
131 153 181
0 0 0
145 160 181
152 164 181
55 23 30
78 33 43
0 0 0
129 118 113
129 118 113
141 124 113
133 120 113
123 116 113
119 114 113
119 114 113
94 85 80
0 0 0
0 0 0
52 16 105
140 158 181
133 154 181
137 156 181
200 224 255
185 216 255
136 155 181
128 151 181
0 0 0
107 132 102
128 151 181
128 151 181
0 0 0
109 118 128
111 114 123
114 120 128
107 117 128
0 0 0
0 0 0
0 0 0
0 0 0
116 121 128
47 44 45
97 89 90
0 0 0
70 64 63
0 0 0
111 119 128
109 118 128
121 124 128
0 0 0
129 128 128
1 139 94
1 129 94
130 141 176
115 133 176
113 132 176
117 134 176
109 118 128
1 94 66
111 119 128
110 118 128
91 91 90
114 121 128
113 120 128
0 0 0
125 126 128
128 127 128
116 121 128
99 95 90
127 127 128
107 117 128
111 119 128
0 0 0
111 119 128
112 120 128
121 124 128
107 117 128
75 5 27
109 118 128
112 119 128
115 122 96
111 119 128
112 119 128
108 118 96
111 119 128
115 121 128
109 118 128
110 118 128
123 125 128
117 122 128
0 0 0
63 33 88
121 124 128
108 118 128
135 155 181
128 151 181
131 153 181
131 153 181
141 158 181
131 153 181
135 155 181
128 151 181
0 0 0
149 162 181
134 154 181
0 0 0
189 218 255
0 0 0
132 153 181
145 160 181
133 154 181
0 0 0
128 151 181
136 155 181
34 64 72
0 0 0
109 149 155
117 154 155
99 96 170
149 162 181
98 96 170
139 157 181
137 156 181
130 152 181
148 162 181
129 152 181
47 47 85
139 157 181
132 153 181
128 151 181
132 153 181
131 153 181
147 161 181
134 154 181
129 152 181
134 154 181
149 162 181
10 157 23
120 176 29
113 170 29
58 89 8
118 174 29
112 170 29
119 175 29
123 178 29
117 173 29
192 5 75
131 3 53
124 3 53
122 3 53
140 4 42
132 3 53
137 3 53
122 3 53
55 1 43
128 151 181
133 154 181
134 154 181
131 153 181
134 154 181
0 0 0
134 154 181
38 5 30
143 159 181
129 152 181
152 164 181
141 158 181
130 152 181
128 151 181
138 178 144
155 188 144
147 183 144
141 180 144
133 175 144
130 173 144
131 173 144
144 181 144
135 176 144
63 57 147
140 157 181
85 33 88
121 46 124
0 0 0
123 47 124
81 32 88
80 32 88
82 32 88
0 0 0
123 47 124
85 33 88
0 0 0
0 0 0
0 0 0
79 43 99
127 65 140
85 45 99
29 35 96
90 46 99
9 5 26
85 45 99
77 43 99
134 155 181
137 156 181
136 155 181
137 156 181
141 158 181
148 162 181
134 154 181
151 163 181
123 116 113
86 81 80
86 81 80
75 64 56
122 115 113
129 118 113
130 119 113
124 116 113
142 124 113
0 0 0
52 16 105
130 152 181
132 153 181
129 152 181
137 156 181
133 154 181
185 216 255
188 217 255
139 157 181
131 153 181
0 0 0
135 155 181
118 122 128
113 120 128
0 0 0
16 15 34
0 0 0
113 120 128
120 123 128
116 121 128
0 0 0
114 120 128
0 0 0
112 119 128
49 45 45
76 5 29
89 90 90
108 117 128
54 47 45
118 122 128
117 122 128
0 66 47
0 65 47
113 120 128
135 144 176
124 138 176
105 107 125
117 134 176
116 103 141
115 121 128
122 124 128
114 120 128
112 119 128
127 127 128
112 119 128
114 120 128
108 117 128
114 120 128
114 120 128
120 123 128
108 117 128
120 123 128
110 118 128
109 118 128
109 118 128
109 118 128
117 122 128
1 72 47
117 122 128
107 117 128
0 0 0
125 126 128
111 119 128
107 117 128
114 88 123
122 124 128
113 120 128
111 119 128
111 119 128
108 118 128
65 34 88
0 0 0
62 33 88
110 119 128
131 153 181
35 92 35
0 0 0
200 224 255
136 156 181
130 152 181
129 152 181
0 0 0
139 157 181
147 161 181
129 152 181
140 158 181
134 154 181
0 0 0
0 0 0
130 152 181
135 155 181
134 154 181
138 156 181
147 161 181
140 158 181
81 196 70
131 153 181
118 155 155
124 158 155
69 67 120
0 0 0
25 21 56
0 0 0
70 68 120
27 9 40
131 153 181
139 157 181
135 155 181
13 101 180
12 99 180
13 103 180
134 154 181
132 153 181
146 161 181
135 155 181
132 153 181
144 160 181
10 161 23
107 166 29
123 178 29
111 169 29
105 165 29
85 125 21
120 176 29
6 106 16
108 167 29
123 178 29
114 171 29
0 0 0
196 5 75
100 2 22
103 4 8
134 3 53
130 3 53
123 3 53
0 0 0
133 154 181
136 155 181
139 157 181
148 162 181
132 153 181
138 156 181
130 152 181
139 157 181
136 155 181
137 156 181
132 153 181
130 152 181
138 156 181
137 156 181
144 181 144
130 173 144
112 135 102
150 185 144
154 187 144
140 179 144
146 183 144
136 176 144
138 178 144
143 180 144
130 152 181
148 162 181
83 32 88
79 32 88
130 48 124
80 32 88
0 0 0
34 4 30
36 4 30
17 10 25
135 116 169
135 155 181
149 162 181
0 0 0
128 65 140
32 8 38
29 35 96
30 36 96
30 35 96
12 13 34
31 36 96
31 36 96
31 36 96
130 152 181
140 157 181
132 153 181
140 158 181
135 155 181
149 162 181
132 120 113
128 118 113
122 115 113
101 89 80
125 117 113
119 114 113
135 121 113
87 82 80
119 114 113
84 81 80
136 122 113
0 0 0
130 152 181
131 153 181
137 122 113
144 160 181
0 0 0
199 223 255
140 158 181
136 155 181
140 158 181
144 159 181
137 156 181
136 155 181
113 120 128
109 118 128
109 118 128
109 118 128
103 97 90
119 123 128
123 125 128
107 117 128
111 119 128
112 119 128
109 118 128
125 126 128
122 124 128
108 118 128
117 122 128
106 98 90
95 93 90
108 117 128
125 126 128
119 123 128
109 118 128
82 94 125
0 0 0
75 76 88
134 143 176
137 145 176
94 101 125
63 69 88
0 0 0
115 121 128
107 117 128
108 117 128
109 118 128
115 121 128
121 124 128
107 117 128
107 117 128
117 122 128
102 96 90
109 118 128
116 121 128
107 117 128
97 94 90
108 117 128
113 120 128
109 118 128
114 120 128
109 118 128
80 62 87
123 91 123
129 93 123
98 69 87
113 120 128
108 118 128
112 119 128
110 118 128
0 0 0
0 0 0
67 34 88
117 122 128
137 163 172
131 153 181
38 58 13
0 0 0
143 159 181
130 152 181
129 152 181
133 154 181
183 222 243
134 154 181
128 151 181
193 228 243
0 0 0
131 153 181
149 163 181
139 157 181
140 157 181
140 157 181
137 156 181
138 157 181
202 225 255
149 162 181
54 135 50
0 0 0
125 159 155
130 152 181
142 159 181
143 159 181
130 152 181
138 156 181
136 155 181
133 154 181
12 99 180
2 39 59
12 98 180
7 55 90
13 103 180
12 99 180
12 99 180
142 158 181
140 157 181
130 152 181
73 49 149
132 153 181
121 177 29
121 176 29
110 169 29
122 177 29
112 170 29
107 166 29
125 180 29
110 169 29
111 169 29
108 167 29
76 118 21
0 0 0
118 3 53
168 4 53
140 4 53
132 3 53
132 3 53
117 3 53
131 153 181
138 156 181
214 231 255
129 152 181
142 159 181
63 18 53
149 162 181
130 152 181
139 157 181
146 161 181
140 158 181
128 151 181
129 152 181
150 163 181
99 72 148
143 181 144
130 173 144
65 166 156
62 162 156
52 126 110
59 158 156
59 159 156
150 185 144
103 129 102
96 97 63
147 183 144
130 152 181
137 156 181
127 48 124
92 34 88
130 48 124
41 18 35
0 0 0
84 32 88
83 32 88
57 23 65
0 0 0
130 114 169
137 156 181
29 79 78
33 37 96
15 7 5
22 11 8
33 37 96
15 14 30
31 36 96
22 25 68
0 0 0
31 36 96
139 157 181
54 30 70
0 0 0
130 152 181
135 155 181
140 157 181
119 114 113
131 119 113
139 123 113
136 121 113
124 116 113
103 90 80
126 117 113
117 95 80
123 116 113
123 116 113
133 154 181
38 12 74
148 162 181
120 123 128
0 0 0
135 155 181
0 0 0
0 0 0
132 153 181
0 0 0
0 0 0
140 157 181
132 153 181
131 153 181
108 118 128
111 119 128
108 118 128
96 94 90
114 120 128
111 119 128
124 125 128
103 97 90
0 0 0
113 120 128
128 127 128
108 118 128
112 119 128
118 122 128
107 117 128
113 120 128
109 118 128
116 122 128
108 117 128
0 0 0
0 0 0
0 0 0
87 97 125
89 98 125
86 97 125
88 98 125
116 121 128
118 123 128
101 96 90
115 121 128
116 122 128
109 118 128
121 124 128
64 64 64
0 0 0
113 120 128
113 120 128
109 118 128
122 125 128
73 69 64
108 118 128
97 94 90
89 90 90
93 92 90
118 123 128
111 119 128
113 120 128
131 94 123
112 88 123
128 93 123
113 88 123
134 95 123
115 121 128
124 125 128
110 119 128
29 15 11
0 0 0
48 24 62
95 114 121
150 163 181
78 42 113
140 157 181
0 0 0
191 219 255
0 0 0
138 156 181
171 215 243
161 209 243
170 214 243
177 218 243
164 210 243
178 219 243
177 218 243
148 162 181
0 0 0
0 0 0
132 153 181
141 158 181
209 229 255
0 0 0
128 151 181
77 105 109
0 0 0
0 0 0
129 152 181
146 161 181
142 159 181
133 154 181
138 156 181
135 155 181
12 98 180
13 101 180
12 100 180
13 104 180
13 101 180
14 105 180
12 100 180
14 105 180
14 106 180
133 154 181
0 0 0
140 158 181
129 151 181
111 169 29
104 164 29
110 169 29
116 173 29
122 177 29
111 169 29
106 166 29
107 166 29
36 126 18
107 167 29
78 135 16
83 123 21
86 0 11
129 3 53
123 3 53
197 5 75
80 0 11
129 3 53
137 156 181
130 152 181
196 222 255
135 155 181
136 155 181
0 0 0
204 226 255
89 2 35
139 157 181
140 157 181
142 159 181
143 159 181
132 153 181
131 153 181
142 159 181
34 96 62
7 107 49
62 162 156
64 164 156
62 161 156
61 161 156
64 164 156
66 167 156
143 181 144
136 176 144
140 179 144
129 152 181
129 152 181
0 0 0
0 0 0
86 33 88
87 33 88
0 0 0
0 0 0
39 6 34
135 155 181
131 153 181
61 32 70
32 37 96
4 12 29
30 35 96
0 0 0
31 36 96
30 35 96
31 36 96
25 27 68
31 36 96
33 37 96
25 27 68
139 157 181
153 165 181
140 158 181
145 160 181
130 152 181
86 81 80
136 121 113
21 19 42
0 0 0
0 0 0
87 82 80
70 52 40
131 119 113
89 83 80
141 124 113
0 0 0
143 159 181
140 158 181
126 117 113
130 152 181
0 0 0
136 156 181
0 0 0
0 0 0
215 232 255
0 0 0
0 0 0
0 0 0
140 158 181
144 160 181
0 0 0
123 125 128
110 118 128
118 122 128
109 118 128
122 124 128
0 0 0
114 120 128
119 123 128
68 66 64
105 97 90
104 97 90
86 97 125
107 117 128
109 118 128
73 68 64
76 70 64
115 121 128
0 0 0
113 120 128
0 0 0
112 119 128
81 79 88
116 122 128
71 81 122
108 118 128
66 72 88
0 0 0
112 120 128
109 118 128
119 123 128
110 118 128
123 125 128
118 122 128
110 119 128
116 121 128
107 117 128
95 67 87
112 119 128
108 99 90
107 117 128
124 125 128
101 96 90
106 98 90
117 122 128
110 118 128
89 65 87
124 91 123
0 0 0
0 0 0
120 90 123
134 95 123
99 95 90
63 33 88
108 117 128
112 119 128
110 118 128
109 99 90
23 33 71
131 153 181
139 157 181
218 234 255
0 0 0
205 226 255
97 96 170
195 229 243
122 152 172
170 214 243
162 210 243
160 208 243
161 209 243
171 215 243
185 223 243
180 220 243
115 148 172
0 0 0
0 0 0
145 160 181
139 157 181
146 161 181
0 0 0
0 0 0
0 0 0
134 154 181
72 109 93
137 156 181
131 153 181
128 151 181
118 154 155
130 152 181
9 72 127
5 31 40
8 59 90
13 101 180
0 0 0
13 100 180
14 104 180
14 106 180
13 102 180
132 153 181
0 0 0
141 158 181
82 122 21
113 171 29
80 120 21
105 165 29
119 175 29
17 98 19
9 151 23
112 170 29
116 173 29
75 117 21
123 178 29
109 168 29
110 169 29
0 0 0
0 0 0
0 0 0
0 0 0
215 232 255
128 151 181
128 151 181
133 154 181
129 152 181
100 127 102
131 153 181
134 154 181
129 152 181
139 157 181
135 155 181
137 156 181
134 154 181
0 0 0
148 162 181
144 160 181
61 160 156
58 157 156
40 105 106
68 169 156
58 157 156
57 155 156
61 161 156
61 160 156
65 166 156
62 162 156
63 163 156
142 180 144
132 3 53
0 0 0
64 24 62
0 0 0
0 0 0
55 22 62
0 0 0
144 160 181
0 0 0
140 158 181
130 152 181
146 161 181
146 161 181
2 15 20
34 38 96
4 13 29
20 24 65
19 20 48
34 38 96
29 30 68
30 35 96
21 25 68
35 38 96
154 165 181
137 156 181
144 160 181
137 156 181
142 158 181
129 152 181
138 122 113
88 82 80
22 20 42
86 82 80
84 80 80
122 115 113
85 81 80
76 65 56
89 83 80
128 118 113
139 157 181
149 162 181
214 231 255
0 0 0
0 0 0
0 0 0
192 220 255
192 220 255
195 221 255
0 0 0
61 18 105
125 64 140
216 232 255
134 155 181
116 121 128
112 120 128
97 94 90
114 120 128
66 65 64
108 117 128
117 122 128
113 120 128
111 119 128
0 0 0
107 117 128
117 122 128
0 63 47
93 100 125
112 119 128
108 117 128
111 119 128
120 123 128
108 117 128
66 65 64
0 0 0
120 123 128
118 122 128
116 121 128
0 0 0
66 65 64
109 118 128
113 120 128
110 118 128
108 118 128
112 119 128
108 118 128
115 121 128
0 0 0
120 123 128
66 65 64
108 118 128
123 125 128
126 126 128
126 126 128
0 0 0
114 120 128
75 51 61
108 99 90
97 94 90
125 126 128
80 62 87
105 71 87
0 0 0
131 94 123
114 88 123
129 128 128
107 117 128
113 120 128
108 99 90
109 118 128
110 118 128
110 119 128
142 159 181
129 152 181
128 151 181
212 230 255
0 0 0
0 0 0
188 224 243
173 216 243
167 212 243
165 211 243
161 209 243
164 210 243
169 214 243
168 213 243
171 214 243
184 222 243
0 0 0
0 0 0
0 0 0
0 0 0
50 130 50
56 137 50
0 0 0
137 156 181
136 156 181
141 158 181
136 155 181
128 151 181
133 154 181
134 154 181
0 0 0
140 158 181
11 78 127
14 105 180
13 103 180
15 108 180
0 0 0
14 107 180
5 20 88
0 0 0
11 79 127
18 209 201
147 161 181
138 156 181
139 157 181
118 175 29
6 105 16
0 0 0
76 118 21
7 109 16
123 178 29
120 176 29
83 123 21
0 0 0
84 124 21
114 171 29
147 161 181
135 155 181
150 163 181
133 154 181
0 0 0
97 125 102
128 151 181
142 159 181
130 152 181
133 154 181
0 0 0
0 0 0
143 159 181
142 158 181
138 157 181
140 158 181
132 153 181
138 156 181
137 156 181
138 156 181
132 153 181
58 156 156
56 155 156
59 158 156
59 158 156
68 170 156
57 156 156
65 166 156
57 155 156
0 0 0
0 0 0
47 120 110
146 182 144
143 159 181
130 152 181
130 152 181
134 154 181
56 22 62
84 44 99
130 152 181
128 151 181
146 160 181
56 22 62
146 161 181
134 154 181
30 35 96
6 18 41
32 37 96
21 25 68
33 37 96
28 29 68
32 37 96
29 35 96
34 38 96
0 0 0
21 25 68
18 19 48
130 152 181
138 156 181
128 151 181
139 157 181
138 156 181
86 81 80
11 10 21
20 19 42
84 81 80
88 82 80
85 81 80
93 84 80
85 81 80
61 24 50
140 123 113
132 153 181
143 159 181
213 231 255
0 0 0
199 224 255
199 224 255
200 224 255
196 222 255
137 156 181
197 222 255
213 231 255
209 229 255
141 158 181
140 158 181
134 155 181
113 120 128
111 119 128
114 120 128
108 117 128
110 118 128
119 123 128
128 128 128
108 117 128
109 100 90
0 0 0
117 122 128
120 123 128
109 118 128
113 120 128
0 0 0
107 117 128
122 124 128
104 97 90
107 117 128
122 124 128
102 96 90
114 120 128
122 124 128
108 117 128
121 124 128
118 122 128
0 0 0
108 117 128
106 98 90
66 65 64
102 96 90
0 0 0
103 97 90
111 119 128
110 119 128
120 123 128
64 64 64
122 124 128
126 126 128
109 118 128
122 124 128
117 122 128
0 0 0
63 46 61
119 123 128
0 0 0
74 50 61
89 65 87
71 49 61
119 123 128
116 122 128
111 119 128
93 13 90
119 123 128
110 118 128
128 128 128
84 31 66
29 42 106
139 157 181
139 157 181
138 157 181
206 227 255
0 0 0
184 223 243
177 218 243
155 173 172
136 163 172
175 217 243
178 219 243
174 216 243
171 215 243
185 223 243
192 227 243
11 96 171
0 0 0
0 0 0
0 0 0
78 193 70
215 232 255
210 230 255
139 157 181
137 156 181
130 152 181
141 158 181
130 152 181
129 152 181
133 154 181
109 62 177
132 153 181
9 71 127
9 72 127
13 100 180
2 20 75
14 104 180
9 73 127
0 0 0
13 103 180
13 103 180
12 143 142
137 156 181
128 151 181
128 151 181
83 123 21
83 123 21
113 170 29
77 119 21
9 154 23
120 176 29
84 124 21
87 126 21
0 0 0
81 121 21
144 160 181
145 160 181
132 153 181
148 162 181
129 152 181
136 155 181
134 154 181
130 152 181
142 158 181
135 155 181
132 153 181
189 218 255
130 152 181
135 155 181
0 0 0
129 152 181
142 159 181
137 156 181
133 154 181
146 161 181
130 152 181
141 158 181
68 169 156
61 161 156
62 162 156
40 109 110
43 113 110
60 160 156
58 157 156
47 120 110
9 31 65
58 157 156
61 161 156
57 22 62
134 154 181
129 152 181
129 152 181
128 151 181
128 151 181
141 158 181
129 152 181
113 120 128
146 161 181
128 151 181
146 161 181
132 153 181
133 154 181
31 36 96
22 26 68
20 25 68
23 26 68
21 25 68
21 24 65
22 25 68
29 35 96
35 38 96
21 25 68
20 21 48
139 157 181
132 153 181
130 152 181
15 18 48
131 153 181
91 83 80
91 84 80
0 0 0
9 24 23
81 67 56
139 123 113
85 81 80
97 86 80
96 86 80
142 158 181
131 153 181
136 155 181
141 158 181
199 223 255
204 226 255
202 225 255
0 0 0
202 225 255
202 225 255
134 154 181
211 230 255
207 228 255
129 152 181
0 0 0
148 162 181
129 152 181
115 121 128
108 117 128
111 119 128
114 121 128
121 124 128
73 68 64
109 118 128
110 118 128
117 122 128
104 97 90
107 117 128
100 7 42
113 120 128
99 95 90
108 99 90
104 97 90
107 117 128
116 122 128
107 117 128
0 0 0
112 120 128
101 96 90
115 121 128
108 118 128
120 123 128
86 97 125
107 117 128
122 124 128
117 122 128
108 117 128
65 65 64
117 122 128
117 122 128
107 117 128
114 121 128
110 118 128
112 119 128
117 122 128
114 120 128
109 118 128
122 124 128
108 117 128
110 119 128
114 120 128
91 66 87
0 0 0
0 0 0
81 62 87
0 0 0
110 118 128
0 0 0
64 64 64
63 33 88
115 121 128
109 118 128
34 45 106
14 9 52
32 44 106
135 155 181
133 154 181
199 223 255
116 149 172
92 67 201
56 160 148
163 177 172
96 115 121
173 216 243
176 217 243
194 228 243
93 59 169
163 171 204
98 17 121
128 156 172
193 228 243
202 225 255
208 228 255
211 230 255
130 152 181
130 152 181
141 158 181
140 157 181
143 159 181
129 152 181
129 151 181
104 61 177
106 61 177
0 0 0
111 63 177
119 64 177
115 63 177
13 104 180
14 104 180
13 102 180
8 67 127
13 102 180
9 71 127
9 70 127
17 204 201
134 155 181
130 152 181
142 159 181
135 155 181
75 117 21
9 154 23
80 121 21
0 0 0
85 124 21
74 116 21
74 117 21
0 0 0
47 94 2
129 152 181
38 67 8
149 162 181
132 153 181
129 152 181
0 0 0
144 159 181
134 154 181
142 159 181
0 0 0
151 164 181
141 158 181
130 152 181
131 153 181
133 154 181
136 155 181
139 157 181
146 182 144
146 161 181
129 152 181
131 153 181
137 156 181
0 0 0
40 48 13
64 164 156
68 169 156
0 0 0
3 39 7
9 68 63
61 160 156
58 157 156
58 157 156
60 159 156
0 0 0
205 218 247
202 216 247
193 212 247
188 209 247
207 219 247
0 0 0
136 156 181
68 88 72
130 152 181
132 153 181
131 152 181
130 152 181
148 162 181
34 38 96
34 38 96
6 12 18
10 27 58
23 26 68
30 35 96
0 0 0
20 25 68
22 25 68
23 26 68
34 38 96
129 152 181
137 156 181
145 160 181
145 160 181
142 159 181
143 159 181
139 157 181
86 81 80
94 85 80
41 31 25
84 80 80
0 0 0
0 0 0
84 81 80
138 156 181
129 152 181
135 155 181
140 157 181
145 160 181
134 154 181
204 226 255
204 226 255
206 227 255
207 228 255
147 161 181
199 223 255
132 153 181
143 159 181
130 152 181
142 159 181
130 152 181
128 151 181
113 120 128
114 120 128
110 118 128
123 125 128
107 117 128
117 122 128
119 123 128
55 48 45
121 124 128
106 7 42
107 117 128
115 121 128
108 117 128
113 120 128
119 123 128
108 117 128
87 97 125
26 43 15
110 119 128
120 123 128
115 121 128
113 120 128
112 120 128
108 117 128
66 65 64
119 123 128
114 120 128
110 119 128
113 120 128
107 117 128
108 117 128
0 0 0
115 121 128
104 97 90
112 119 128
112 120 128
93 92 90
108 118 128
107 117 128
109 118 128
109 118 128
0 0 0
0 0 0
103 97 90
0 0 0
126 126 128
116 121 128
95 93 90
94 93 90
84 63 87
66 65 64
72 50 61
121 124 128
18 23 53
0 0 0
32 44 106
20 29 75
130 152 181
145 160 181
154 165 181
118 150 172
120 151 172
0 0 0
29 43 101
16 23 50
115 91 117
187 224 243
129 114 166
189 225 243
191 226 243
119 151 172
191 226 243
0 0 0
206 227 255
206 227 255
198 223 255
200 224 255
144 159 181
131 153 181
140 158 181
149 162 181
147 161 181
78 44 125
117 64 177
75 43 125
113 63 177
88 47 125
105 61 177
120 65 177
110 62 177
121 65 177
109 62 177
14 106 180
10 77 127
9 71 127
0 0 0
11 138 142
141 158 181
128 151 181
143 159 181
130 152 181
146 161 181
85 124 21
87 129 12
0 0 0
7 110 16
0 0 0
81 121 21
142 69 21
145 69 21
133 67 21
149 70 21
130 66 21
138 68 21
141 69 21
136 155 181
0 0 0
0 0 0
129 152 181
147 161 181
218 233 255
216 233 255
136 156 181
135 155 181
141 158 181
75 117 21
41 92 87
0 0 0
144 160 181
140 158 181
147 161 181
66 166 156
61 160 156
64 165 156
67 168 156
40 109 110
10 67 61
64 164 156
40 109 110
63 163 156
64 164 156
33 85 78
42 113 110
211 221 247
190 210 247
186 208 247
185 207 247
180 205 247
193 212 247
198 214 247
73 61 54
201 216 247
138 157 181
133 154 181
131 153 181
0 0 0
132 153 181
21 25 68
31 36 96
32 36 96
17 19 48
21 25 68
25 28 68
0 0 0
31 36 96
33 37 96
23 26 68
23 26 68
92 84 80
146 161 181
0 0 0
0 0 0
129 152 181
146 161 181
98 86 80
0 0 0
0 0 0
0 0 0
39 30 25
145 160 181
0 0 0
62 58 56
148 162 181
139 157 181
130 152 181
152 164 181
0 0 0
0 0 0
129 152 181
130 152 181
128 151 181
128 151 181
144 160 181
143 159 181
130 152 181
135 155 181
147 161 181
128 151 181
153 165 181
145 160 181
122 124 128
0 0 0
113 120 128
68 66 64
0 0 0
102 96 90
121 124 128
118 122 128
56 48 45
120 123 128
107 117 128
123 125 128
112 119 128
0 0 0
112 119 128
0 0 0
108 118 128
110 118 128
111 119 128
0 0 0
0 0 0
0 0 0
113 120 128
0 0 0
108 118 128
118 122 128
119 123 128
44 23 62
114 121 128
103 97 90
98 95 90
118 122 128
93 92 90
110 118 128
108 118 128
108 117 128
107 117 128
126 126 128
112 120 128
65 65 64
0 0 0
115 121 128
111 119 128
0 0 0
93 92 90
114 120 128
110 118 128
113 120 128
80 62 87
0 0 0
113 120 128
118 122 128
30 43 106
31 43 106
21 30 75
11 8 52
29 42 106
20 29 75
134 154 181
135 155 181
122 152 172
117 150 172
114 148 172
0 0 0
126 154 172
127 155 172
124 154 172
126 154 172
115 148 172
113 147 172
98 17 121
73 103 115
186 216 255
130 152 181
195 221 255
188 218 255
119 123 128
143 159 181
146 161 181
144 160 181
130 152 181
94 49 125
116 64 177
80 44 125
107 61 177
105 61 177
80 44 125
109 62 177
108 62 177
106 61 177
114 63 177
123 66 177
119 65 177
0 0 0
11 11 127
0 23 63
149 162 181
134 154 181
135 155 181
131 153 181
133 154 181
54 84 14
138 156 181
138 156 181
0 0 0
80 121 21
80 121 21
137 67 21
139 68 21
142 69 21
131 66 21
137 67 21
149 70 21
150 71 21
135 67 21
155 72 21
132 67 21
214 232 255
143 159 181
134 154 181
214 231 255
143 159 181
128 151 181
0 0 0
137 156 181
116 172 29
218 234 255
132 153 181
134 154 181
130 152 181
136 155 181
128 151 181
41 111 110
64 164 156
62 162 156
43 113 110
0 0 0
40 110 110
42 112 110
58 150 150
66 160 150
215 223 247
190 210 247
186 208 247
188 209 247
186 208 247
180 205 247
188 209 247
190 210 247
183 206 247
192 211 247
190 210 247
136 155 181
143 159 181
128 151 181
128 151 181
135 155 181
35 38 96
5 14 29
21 25 68
22 26 68
18 19 48
24 26 68
33 37 96
2 3 18
21 25 68
34 38 96
148 162 181
188 218 255
134 154 181
128 151 181
143 159 181
132 153 181
146 161 181
132 153 181
62 58 56
141 158 181
141 158 181
67 60 56
132 153 181
88 82 80
0 0 0
126 126 128
137 156 181
141 158 181
146 160 181
151 163 181
136 155 181
48 33 105
131 153 181
0 0 0
141 158 181
108 118 128
0 0 0
142 158 181
130 152 181
138 157 181
143 159 181
134 154 181
136 155 181
150 163 181
114 120 128
108 117 128
120 123 128
107 117 128
107 117 128
100 95 90
115 121 128
108 118 128
113 120 128
110 118 128
108 117 128
1 75 47
109 118 128
104 97 90
112 119 128
88 98 125
105 98 90
112 119 128
121 124 128
114 120 128
53 55 75
72 68 64
126 126 128
107 117 128
120 124 128
111 119 128
122 124 128
0 0 0
117 122 128
113 120 128
65 65 64
119 123 128
69 66 64
100 95 90
107 99 90
99 95 90
104 97 90
110 118 128
126 127 128
115 121 128
0 0 0
94 93 90
107 117 128
126 126 128
0 0 0
120 123 128
0 0 0
114 120 128
68 76 20
109 118 128
18 23 53
33 44 106
18 17 51
18 23 53
1 13 11
17 23 53
30 42 106
145 160 181
141 158 181
135 155 181
0 0 0
118 150 172
124 154 172
122 152 172
122 152 172
123 153 172
53 31 84
115 148 172
122 152 172
134 159 172
138 156 181
132 153 181
135 155 181
140 157 181
131 153 181
0 0 0
149 162 181
134 155 181
148 162 181
150 163 181
127 67 177
81 45 125
119 64 177
69 35 88
78 44 125
108 62 177
110 62 177
17 1 51
110 62 177
108 62 177
107 61 177
30 20 27
9 71 127
9 72 127
9 71 127
12 141 142
56 85 14
132 153 181
128 151 181
55 84 14
142 159 181
143 159 181
6 107 16
0 0 0
139 157 181
136 67 21
145 70 21
137 68 21
144 69 21
156 72 21
144 69 21
141 69 21
150 70 21
94 47 15
152 71 21
135 67 21
131 66 21
90 81 208
62 56 147
122 174 195
220 235 255
176 5 75
93 26 75
0 0 0
92 130 21
214 231 255
0 0 0
129 152 181
151 164 181
129 152 181
130 152 181
0 0 0
0 0 0
44 115 110
41 111 110
60 153 150
42 113 110
0 0 0
39 91 78
215 223 247
211 221 247
214 223 247
196 213 247
194 212 247
182 206 247
193 211 247
186 208 247
196 213 247
189 209 247
199 214 247
206 218 247
131 147 174
144 160 181
140 157 181
132 153 181
129 152 181
92 72 57
21 25 68
5 13 29
24 27 68
18 19 46
0 0 0
22 25 68
2 3 18
0 0 0
192 219 255
114 120 128
116 122 128
0 0 0
130 128 128
128 127 128
131 153 181
0 0 0
146 161 181
133 154 181
66 60 56
133 154 181
154 165 181
74 49 149
151 164 181
128 151 181
137 156 181
142 158 181
0 0 0
147 161 181
45 25 66
134 154 181
129 152 181
105 115 128
143 159 181
128 151 181
130 152 181
134 154 181
136 155 181
131 153 181
136 155 181
144 160 181
129 152 181
153 164 181
136 155 181
145 160 181
122 125 128
0 0 0
38 90 78
0 0 0
69 67 64
0 0 0
93 88 87
111 119 128
102 96 90
116 121 128
123 125 128
123 125 128
105 98 90
114 120 128
116 121 128
0 0 0
0 0 0
108 117 128
129 128 128
120 123 128
0 0 0
64 64 64
66 65 64
110 119 128
122 125 128
101 96 90
122 124 128
92 92 90
112 119 128
111 119 128
114 120 128
110 118 128
106 98 90
109 118 128
126 126 128
108 99 90
119 123 128
67 62 63
118 122 128
46 17 60
118 122 128
0 0 0
122 124 128
65 65 64
115 121 128
48 108 35
66 65 64
121 124 128
0 0 0
20 29 75
19 24 53
17 23 53
33 45 106
30 42 106
29 42 106
33 45 106
130 152 181
141 158 181
149 162 181
136 155 181
116 149 172
0 0 0
103 118 121
118 150 172
114 148 172
130 157 172
126 155 172
0 0 0
118 150 172
129 152 181
140 157 181
130 152 181
133 154 181
135 155 181
6 51 90
130 152 181
149 162 181
129 152 181
105 61 177
107 61 177
75 43 125
110 62 177
110 62 177
77 44 125
28 15 25
47 12 87
122 65 177
105 61 177
74 43 125
111 62 177
85 46 125
0 0 0
0 0 0
9 73 127
98 114 74
103 117 74
134 155 181
0 0 0
8 99 100
131 153 181
132 153 181
142 159 181
55 84 14
60 88 14
136 67 21
135 67 21
92 47 15
95 47 15
151 71 21
140 68 21
133 67 21
140 68 21
152 71 21
133 67 21
0 0 0
98 48 15
123 99 80
213 231 255
217 233 255
215 232 255
215 232 255
213 231 255
216 232 255
208 228 255
203 225 255
40 26 1
135 155 181
130 152 181
143 159 181
0 0 0
146 161 181
40 110 110
62 161 156
59 158 156
62 162 156
42 113 110
64 164 156
40 109 110
131 147 174
205 218 247
207 219 247
198 214 247
209 220 247
190 210 247
202 216 247
199 214 247
197 214 247
205 217 247
178 171 174
215 223 247
0 0 0
141 158 181
17 18 46
0 0 0
15 17 48
151 163 181
0 0 0
35 38 96
21 25 68
23 26 68
22 26 68
35 38 96
221 235 255
205 226 255
115 121 128
134 154 181
0 0 0
132 153 181
145 160 181
139 157 181
0 0 0
131 153 181
136 155 181
139 157 181
136 155 181
98 86 80
133 154 181
142 158 181
0 0 0
77 83 90
134 154 181
138 156 181
0 0 0
130 152 181
135 155 181
142 158 181
59 57 56
150 163 181
132 153 181
140 157 181
136 155 181
132 153 181
116 121 128
132 154 181
147 161 181
40 25 74
20 20 48
147 161 181
155 166 181
0 0 0
135 155 181
114 120 128
64 64 64
123 125 128
109 118 128
0 0 0
121 124 128
114 120 128
65 65 64
0 0 0
109 118 128
120 123 128
114 121 128
71 74 88
100 95 90
70 67 64
99 95 90
109 118 128
102 96 90
108 117 128
120 123 128
96 91 81
108 99 90
113 120 128
0 0 0
113 120 128
109 118 128
99 95 90
112 119 128
113 120 128
106 98 90
98 95 90
71 67 64
91 91 90
0 0 0
63 46 61
103 97 90
117 122 128
72 68 64
0 0 0
118 122 128
0 0 0
59 45 61
0 0 0
91 91 90
19 24 53
0 0 0
0 0 0
19 24 53
12 16 37
12 16 37
0 0 0
0 0 0
21 30 75
21 30 75
142 158 181
143 159 181
128 151 181
129 152 181
131 153 181
0 0 0
133 159 172
95 114 121
123 153 172
118 150 172
121 152 172
118 150 172
0 0 0
124 153 172
138 156 181
147 161 181
130 152 181
0 0 0
131 153 181
130 152 181
135 155 181
134 154 181
143 159 181
81 45 125
52 20 39
115 63 177
117 64 177
83 45 125
107 61 177
78 44 125
120 65 177
74 36 88
65 31 100
118 64 177
115 64 134
84 45 125
150 163 181
8 70 127
139 157 181
139 157 181
149 162 181
130 152 181
134 154 181
132 153 181
128 151 181
138 157 181
129 152 181
133 154 181
136 67 21
94 47 15
105 50 15
99 48 15
147 70 21
145 70 21
131 66 21
141 68 21
133 67 21
157 72 21
0 0 0
139 68 21
85 42 17
131 66 21
207 228 255
209 229 255
211 230 255
207 228 255
204 226 255
203 226 255
0 0 0
153 165 181
87 126 21
138 156 181
144 160 181
133 154 181
29 78 78
143 159 181
139 157 181
23 60 55
40 110 110
47 118 110
41 111 110
42 112 110
41 111 110
218 224 247
210 220 247
213 222 247
0 0 0
205 218 247
206 218 247
110 8 57
201 216 247
119 112 123
216 224 247
153 174 241
0 0 0
213 222 247
132 153 181
129 152 181
65 86 72
5 13 7
23 26 68
136 155 181
133 154 181
78 84 90
24 27 68
0 0 0
0 0 0
150 163 181
140 157 181
138 156 181
132 153 181
132 147 174
128 151 181
185 216 255
146 161 181
137 156 181
131 153 181
136 155 181
78 158 152
128 151 181
150 163 181
131 153 181
128 151 181
134 154 181
133 154 181
133 154 181
128 151 181
133 154 181
87 88 90
143 159 181
137 156 181
135 155 181
151 164 181
151 163 181
136 155 181
131 153 181
131 152 181
135 155 181
132 153 181
133 154 181
77 83 90
131 129 128
142 158 181
71 35 70
139 157 181
147 161 181
132 153 181
0 0 0
63 64 64
113 120 128
0 0 0
104 97 90
112 119 128
111 119 128
123 125 128
0 0 0
0 0 0
123 125 128
119 123 128
0 0 0
127 127 128
109 118 128
118 122 128
116 121 128
124 125 128
120 123 128
0 0 0
119 123 128
122 124 128
105 98 90
109 118 128
0 0 0
108 99 90
112 119 128
69 67 64
69 66 64
116 121 128
128 127 128
125 126 128
0 0 0
66 65 64
0 0 0
117 122 128
110 118 128
69 67 64
112 119 128
65 65 64
103 97 90
0 0 0
112 120 128
0 0 0
0 0 0
23 31 75
17 23 53
21 30 75
17 23 53
21 30 75
31 43 106
16 16 51
30 43 106
139 157 181
143 159 181
124 125 128
129 152 181
114 120 128
145 160 181
128 93 123
148 118 174
137 114 174
137 114 174
0 0 0
0 0 0
129 156 172
146 161 181
139 157 181
94 12 102
130 152 181
152 164 181
130 152 181
133 154 181
129 152 181
0 0 0
130 152 181
136 155 181
111 62 177
103 51 125
74 43 125
65 34 88
83 46 95
66 31 100
62 32 88
74 43 125
125 66 177
75 43 125
82 45 125
57 31 51
6 51 90
0 0 0
137 156 181
128 151 181
153 165 181
134 154 181
147 161 181
141 158 181
141 158 181
151 164 181
130 152 181
130 152 181
96 47 15
36 1 0
137 68 21
100 48 15
146 70 21
93 47 15
143 69 21
140 68 21
34 36 2
116 53 15
146 70 21
99 48 15
150 71 21
93 45 14
201 224 255
200 224 255
201 224 255
196 222 255
203 225 255
198 223 255
193 220 255
136 155 181
131 153 181
130 152 181
148 162 181
128 151 181
30 80 78
29 79 78
0 0 0
47 119 110
45 116 110
43 114 110
0 0 0
41 111 110
35 86 78
65 53 70
216 224 247
133 148 174
131 146 174
212 221 247
0 0 0
204 217 247
212 221 247
129 146 174
0 0 0
115 116 123
144 153 174
149 156 174
0 0 0
42 112 110
132 153 181
128 151 181
130 152 181
129 152 181
17 18 48
128 151 181
16 18 48
130 152 181
132 153 181
137 156 181
114 115 127
120 118 127
120 117 127
130 152 181
141 158 181
136 155 181
131 153 181
132 153 181
132 153 181
143 153 174
0 0 0
134 154 181
131 153 181
132 153 181
128 151 181
128 151 181
131 153 181
131 153 181
144 159 181
131 153 181
130 152 181
128 151 181
132 153 181
135 155 181
145 160 181
86 88 90
0 0 0
141 158 181
137 156 181
78 84 90
148 162 181
140 157 181
143 159 181
132 153 181
123 125 128
109 118 128
0 0 0
139 157 181
142 159 181
64 38 105
128 151 181
0 0 0
116 121 128
120 123 128
68 66 64
74 69 64
68 66 64
120 123 128
75 69 64
122 124 128
115 121 128
113 120 128
0 0 0
122 124 128
117 122 128
0 0 0
120 123 128
69 67 64
117 122 128
68 66 64
119 123 128
102 96 90
71 67 64
0 0 0
68 66 64
0 0 0
121 124 128
107 99 90
124 125 128
110 118 128
112 120 128
94 93 90
71 68 64
111 119 128
112 119 128
0 0 0
0 0 0
0 0 0
113 120 128
102 96 90
110 119 128
114 120 128
102 96 90
27 34 75
18 24 53
17 23 53
19 24 53
0 0 0
20 30 75
21 30 75
16 22 53
21 30 75
148 162 181
123 153 172
22 31 75
117 89 123
147 118 174
134 113 174
136 114 174
145 117 174
157 122 174
147 118 174
137 114 174
138 115 174
0 0 0
0 0 0
146 161 181
143 159 181
133 154 181
138 156 181
147 161 181
138 156 181
150 163 181
128 151 181
143 159 181
143 159 181
59 35 122
80 44 125
104 61 177
0 0 0
107 61 177
103 51 125
94 49 125
81 45 125
121 65 177
112 63 177
77 44 125
118 64 177
7 52 90
143 159 181
128 151 181
143 159 181
131 153 181
139 157 181
131 153 181
135 155 181
148 162 181
138 156 181
146 161 181
67 165 37
136 155 181
155 72 21
142 69 21
99 48 15
146 70 21
152 71 21
150 71 21
106 50 15
137 68 21
14 43 6
107 50 15
153 71 21
104 49 15
0 0 0
193 220 255
195 221 255
191 219 255
188 218 255
191 219 255
131 153 181
148 162 181
133 154 181
46 117 110
133 154 181
143 159 181
46 117 110
30 94 104
141 158 181
33 98 104
30 94 104
29 93 104
0 0 0
0 0 0
143 159 181
29 78 78
134 148 174
51 128 92
129 146 174
128 145 174
92 97 65
34 96 100
137 150 174
21 64 71
83 79 87
63 57 61
214 222 247
119 118 123
130 146 174
149 162 181
129 151 181
139 157 181
23 26 68
136 155 181
150 163 181
15 18 48
135 155 181
76 83 90
0 0 0
131 123 127
114 115 127
114 115 127
133 124 127
120 118 127
111 113 127
98 90 90
130 122 127
211 230 255
121 124 128
135 155 181
130 152 181
0 0 0
132 153 181
144 160 181
137 156 181
145 160 181
130 152 181
131 153 181
134 154 181
141 158 181
147 161 181
140 158 181
133 154 181
128 151 181
135 155 181
137 156 181
137 156 181
136 155 181
146 161 181
131 153 181
139 157 181
79 84 90
132 153 181
145 160 181
31 81 78
139 157 181
134 154 181
0 0 0
148 162 181
0 0 0
128 151 181
149 162 181
123 125 128
0 0 0
118 122 128
121 124 128
0 0 0
0 0 0
0 0 0
112 119 128
119 123 128
0 0 0
120 123 128
64 64 64
112 119 128
111 119 128
67 66 64
65 65 64
68 66 64
103 97 90
0 0 0
0 0 0
116 122 128
64 64 64
71 67 64
115 121 128
112 119 128
0 0 0
118 122 128
0 0 0
119 123 128
113 120 128
86 85 81
0 0 0
105 98 90
112 119 128
103 97 90
0 0 0
109 99 90
0 0 0
0 0 0
0 0 0
143 159 181
16 19 37
0 0 0
0 0 0
0 0 0
0 0 0
0 0 0
21 30 75
0 0 0
2 4 22
141 158 181
134 154 181
138 156 181
98 81 123
0 0 0
152 120 174
146 118 174
145 117 174
156 121 174
142 116 174
160 123 174
135 113 174
143 116 174
141 115 174
128 151 181
143 159 181
138 156 181
128 151 181
140 157 181
133 154 181
0 0 0
132 153 181
128 151 181
129 152 181
132 153 181
0 0 0
74 43 125
70 35 88
56 14 87
113 63 177
0 0 0
75 43 125
9 6 37
76 43 125
123 66 177
74 43 125
30 8 61
123 66 177
130 152 181
131 153 181
143 159 181
130 152 181
128 151 181
142 159 181
132 153 181
31 74 10
74 174 37
67 165 37
64 161 37
68 166 37
49 118 26
65 163 37
50 52 3
97 48 15
108 50 15
102 49 15
46 50 3
134 67 21
141 68 21
135 67 21
149 70 21
94 47 15
96 48 15
135 155 181
143 159 181
146 161 181
136 155 181
136 156 181
133 154 181
130 152 181
141 158 181
46 117 110
129 152 181
154 165 181
30 95 104
31 96 104
29 92 104
29 93 104
29 93 104
29 92 104
29 92 104
28 76 73
29 78 78
118 122 128
133 147 174
144 153 174
130 146 174
0 0 0
137 150 174
146 154 174
144 153 174
135 148 174
127 145 174
0 0 0
129 146 174
135 149 174
132 147 174
15 18 48
132 153 181
133 154 181
148 162 181
142 159 181
144 160 181
76 83 90
136 155 181
111 113 127
120 117 127
119 117 127
114 115 127
40 95 67
70 78 88
119 117 127
58 64 88
124 120 127
127 121 127
115 115 127
147 161 181
138 157 181
137 156 181
135 155 181
132 153 181
146 161 181
140 157 181
134 154 181
146 161 181
94 109 128
109 118 128
145 160 181
155 165 181
135 155 181
128 151 181
130 152 181
79 84 90
141 158 181
133 154 181
141 158 181
137 156 181
135 155 181
134 154 181
153 165 181
135 155 181
113 120 128
135 155 181
128 151 181
79 84 90
136 155 181
75 70 64
143 159 181
135 155 181
121 119 123
77 83 90
128 127 128
122 124 128
70 67 64
0 0 0
59 67 88
120 123 128
100 95 90
69 67 64
0 0 0
112 119 128
111 119 128
69 66 64
0 0 0
103 97 90
0 0 0
0 0 0
67 66 64
112 120 128
0 0 0
71 67 64
110 119 128
118 122 128
118 122 128
119 123 128
0 0 0
126 126 128
119 123 128
104 97 90
0 0 0
63 64 64
121 124 128
112 119 128
0 0 0
0 0 0
115 121 128
117 122 128
116 121 128
132 153 181
132 153 181
140 157 181
0 0 0
0 0 0
0 0 0
22 31 75
3 5 23
0 0 0
33 45 106
2 4 22
0 0 0
0 0 0
77 106 115
62 50 85
127 92 123
147 118 174
152 120 174
96 80 123
130 94 123
157 122 174
49 22 57
117 113 160
154 120 174
138 114 174
154 121 174
140 115 174
138 156 181
136 155 181
133 154 181
151 164 181
140 157 181
139 157 181
141 158 181
131 153 181
133 154 181
146 161 181
130 152 181
26 9 73
120 65 177
38 9 61
84 46 125
76 43 125
76 43 125
74 36 88
40 1 61
73 43 125
73 36 88
138 157 181
133 154 181
0 0 0
128 151 181
138 157 181
143 159 181
64 162 37
151 164 181
65 162 37
41 35 11
67 164 37
71 170 37
62 159 37
69 167 37
10 70 15
64 162 37
70 168 37
64 161 37
139 68 21
153 71 21
146 70 21
108 50 15
14 20 6
68 31 5
93 47 15
53 10 0
94 47 15
135 155 181
132 153 181
128 151 181
130 152 181
129 151 181
133 154 181
142 158 181
141 158 181
135 155 181
30 94 104
0 0 0
33 99 104
30 94 104
30 95 104
0 54 38
31 95 104
29 93 104
30 95 104
21 66 73
25 72 73
47 119 110
46 117 110
138 150 174
139 151 174
146 154 174
127 122 123
127 145 174
140 151 174
131 146 174
132 147 174
140 151 174
134 148 174
44 5 20
131 147 174
132 153 181
140 157 181
135 155 181
137 156 181
135 155 181
142 159 181
136 155 181
147 161 181
116 116 127
88 84 90
132 123 127
112 114 127
113 114 127
121 118 127
134 124 127
115 115 127
112 114 127
125 120 127
115 115 127
1 93 66
28 64 59
45 116 110
214 231 255
144 160 181
129 152 181
136 155 181
131 153 181
141 158 181
140 158 181
130 152 181
143 159 181
120 123 128
128 151 181
144 160 181
133 154 181
142 158 181
151 163 181
129 152 181
37 25 74
129 128 128
144 159 181
138 156 181
129 152 181
117 122 128
0 0 0
0 0 0
137 156 181
144 160 181
13 14 34
128 151 181
126 126 128
142 159 181
140 157 181
0 0 0
83 95 125
53 51 62
83 95 125
0 0 0
121 124 128
0 0 0
0 0 0
123 125 128
0 0 0
0 0 0
68 66 64
0 0 0
0 0 0
105 98 90
101 96 90
68 66 64
65 65 64
71 67 64
0 0 0
0 0 0
119 123 128
117 122 128
117 122 128
111 119 128
0 0 0
103 97 90
0 0 0
105 98 90
65 65 64
0 0 0
0 0 0
64 64 64
0 0 0
67 66 64
104 97 90
14 21 53
0 0 0
131 153 181
0 0 0
0 0 0
14 21 53
0 0 0
0 0 0
0 0 0
0 0 0
0 0 0
0 0 0
4 7 42
140 158 181
13 9 52
130 152 181
134 113 174
0 0 0
157 122 174
154 121 174
162 124 174
144 117 174
93 80 110
150 119 174
138 114 174
151 119 174
158 122 174
141 116 174
144 117 174
142 159 181
72 36 88
144 160 181
139 157 181
142 158 181
131 153 181
132 153 181
136 155 181
135 155 181
117 122 128
133 154 181
0 0 0
48 13 87
33 9 61
36 19 7
81 45 125
78 44 125
79 44 125
76 43 125
0 0 0
0 0 0
132 153 181
130 152 181
128 151 181
133 154 181
143 159 181
133 154 181
74 173 37
72 171 37
62 160 37
67 164 37
64 162 37
64 162 37
62 159 37
69 167 37
64 161 37
62 160 37
65 162 37
67 165 37
94 47 15
79 37 10
97 48 15
146 70 21
95 47 15
145 69 21
155 69 20
98 48 15
0 0 0
138 157 181
133 154 181
135 155 181
128 151 181
136 155 181
145 160 181
149 162 181
135 155 181
128 151 181
31 96 104
3 60 33
33 99 104
31 96 104
29 92 104
31 96 104
28 92 104
11 2 12
34 101 104
29 93 104
29 93 104
15 21 40
44 110 106
139 157 181
148 155 174
144 153 174
116 117 123
128 145 174
143 153 174
130 146 174
151 157 174
96 101 119
153 158 174
143 159 181
140 157 181
132 153 181
0 0 0
140 157 181
142 158 181
147 161 181
132 153 181
134 154 181
0 0 0
121 118 127
129 122 127
119 117 127
120 117 127
119 117 127
120 118 127
128 121 127
111 114 127
110 113 127
124 119 127
133 124 127
111 113 127
132 174 144
153 187 144
186 208 247
153 164 181
147 161 181
131 153 181
134 154 181
140 157 181
135 155 181
129 128 128
131 153 181
128 151 181
128 151 181
138 157 181
146 161 181
0 0 0
132 153 181
132 153 181
79 84 90
143 159 181
122 125 128
151 163 181
147 161 181
83 86 90
143 159 181
147 161 181
133 154 181
19 53 52
0 0 0
140 157 181
145 160 181
144 160 181
137 156 181
134 143 176
142 175 250
126 139 176
140 174 250
128 140 176
132 142 176
59 74 122
0 0 0
12 79 40
0 0 0
73 68 64
0 0 0
98 94 90
71 67 64
120 123 128
0 0 0
0 0 0
105 98 90
120 123 128
73 68 64
0 0 0
65 65 64
0 0 0
0 0 0
70 67 64
62 46 61
107 99 90
115 121 128
66 65 64
0 0 0
115 121 128
0 0 0
0 0 0
75 69 64
0 0 0
0 0 0
126 126 128
130 152 181
0 0 0
137 156 181
81 85 90
152 164 181
82 86 90
76 70 64
15 21 53
135 155 181
13 17 37
2 4 22
0 0 0
15 21 53
136 155 181
84 63 87
70 28 90
111 86 123
106 84 123
100 82 123
139 115 174
142 116 174
141 116 174
140 115 174
136 114 174
149 119 174
155 121 174
145 117 174
101 83 93
132 153 181
129 152 181
133 154 181
128 151 181
132 153 181
147 161 181
46 29 84
130 152 181
142 159 181
148 162 181
133 154 181
44 23 62
0 0 0
0 0 0
74 43 125
127 67 177
73 43 125
70 35 88
136 155 181
77 44 125
138 156 181
137 156 181
0 0 0
55 31 88
0 0 0
133 154 181
66 164 37
70 169 37
54 153 37
63 160 37
65 162 37
30 21 4
70 169 37
67 165 37
0 0 0
68 166 37
63 160 37
65 163 37
67 164 37
71 169 37
22 25 1
34 37 9
92 47 15
154 72 21
151 71 21
31 35 2
0 0 0
131 153 181
135 155 181
74 35 10
134 154 181
129 152 181
136 155 181
149 163 181
135 155 181
134 154 181
0 0 0
32 97 104
34 100 104
29 93 104
34 100 104
3 63 33
2 42 23
31 96 104
30 95 104
21 67 73
30 94 104
18 49 52
32 98 104
149 162 181
129 152 181
153 158 174
79 77 87
144 153 174
137 150 174
137 150 174
92 99 119
94 100 119
98 102 119
94 100 119
140 151 174
142 159 181
134 148 174
0 0 0
128 151 181
137 156 181
88 44 96
0 0 0
0 0 0
111 113 127
51 51 75
86 83 90
113 114 127
75 4 29
116 115 127
50 50 75
112 114 127
110 113 127
82 82 90
114 115 127
121 118 127
133 124 127
131 123 127
211 230 255
202 225 255
129 152 181
153 164 181
130 152 181
151 163 181
130 152 181
128 151 181
137 156 181
146 161 181
137 156 181
131 129 128
128 151 181
145 160 181
135 155 181
77 83 90
123 125 128
130 152 181
139 157 181
130 129 128
141 158 181
133 154 181
141 158 181
149 162 181
129 152 181
2 175 133
2 172 133
2 174 133
1 166 133
2 178 133
2 175 133
2 173 133
142 175 250
139 173 250
137 172 250
135 171 250
138 173 250
117 134 176
143 175 250
127 140 176
0 0 0
102 96 90
0 0 0
73 68 64
35 41 20
126 127 128
0 0 0
106 98 90
115 121 128
0 0 0
0 0 0
0 0 0
123 125 128
0 0 0
118 122 128
0 0 0
107 99 90
123 125 128
0 0 0
66 65 64
67 66 64
122 124 128
122 121 115
0 0 0
0 0 0
18 23 53
84 87 90
0 0 0
152 164 181
121 124 128
125 126 128
80 85 90
12 16 37
0 0 0
0 0 0
138 156 181
131 129 128
130 129 128
134 155 181
133 154 181
16 22 53
142 158 181
0 0 0
122 124 128
133 95 123
149 118 174
161 123 174
155 121 174
141 116 174
138 114 174
107 85 123
0 0 0
137 114 174
145 117 174
160 123 174
152 120 174
0 0 0
105 84 123
125 126 128
112 119 128
131 153 181
131 153 181
52 30 88
130 152 181
22 30 75
131 153 181
0 0 0
52 30 88
0 0 0
55 31 88
136 155 181
53 72 40
53 25 62
0 0 0
0 0 0
0 0 0
137 156 181
53 30 88
134 154 181
85 46 125
134 154 181
137 156 181
67 165 37
63 160 37
47 117 26
46 115 26
65 163 37
63 160 37
63 160 37
69 167 37
67 165 37
0 0 0
67 165 37
65 163 37
64 161 37
62 159 37
62 160 37
92 47 15
97 48 15
96 47 15
95 47 15
108 50 15
135 155 181
137 156 181
60 27 7
0 0 0
0 0 0
140 158 181
0 0 0
136 156 181
10 5 4
132 153 181
23 69 73
11 72 15
32 97 104
32 97 104
21 66 73
31 95 104
34 100 104
32 97 104
31 96 104
33 98 104
14 36 36
34 100 104
32 97 104
29 93 104
30 95 104
145 160 181
130 152 181
0 0 0
99 107 123
0 0 0
58 61 72
0 0 0
0 0 0
0 0 0
150 163 181
30 79 78
139 157 181
152 158 174
91 103 123
122 124 128
154 165 181
141 158 181
151 163 181
9 25 26
129 122 127
128 121 127
155 12 84
160 12 84
181 13 84
99 6 42
94 85 81
127 121 127
81 81 90
86 83 90
0 64 47
120 117 127
79 80 90
120 118 127
206 227 255
0 0 0
149 162 181
129 152 181
141 158 181
129 152 181
131 153 181
129 152 181
139 157 181
144 160 181
150 163 181
138 156 181
135 155 181
138 156 181
93 108 128
131 153 181
145 160 181
140 157 181
133 154 181
135 155 181
84 87 90
0 0 0
134 154 181
2 171 133
1 169 133
1 168 133
2 173 133
2 172 133
2 176 133
1 162 120
2 172 133
1 167 133
2 173 133
137 172 250
135 171 250
135 171 250
136 172 250
138 173 250
139 173 250
144 176 250
80 94 125
0 0 0
80 85 90
0 0 0
0 0 0
106 98 90
0 0 0
73 69 64
104 97 90
125 126 128
71 67 64
0 0 0
0 0 0
0 0 0
0 0 0
0 0 0
0 0 0
0 0 0
70 67 64
0 0 0
0 0 0
0 0 0
144 159 181
0 0 0
83 86 90
0 0 0
0 0 0
0 0 0
134 154 181
84 87 90
0 0 0
74 69 64
0 0 0
115 121 128
84 87 90
80 85 90
118 122 128
143 159 181
87 88 90
45 32 105
119 123 128
0 0 0
85 87 90
142 159 181
101 82 123
0 0 0
139 115 174
68 57 66
145 117 174
102 82 123
152 120 174
107 84 123
157 122 174
136 114 174
150 119 174
148 118 174
149 118 174
161 123 174
133 154 181
137 156 181
72 36 88
130 152 181
76 43 125
144 160 181
54 31 88
112 86 123
128 151 181
129 152 181
0 0 0
53 30 88
85 46 125
0 0 0
0 0 0
150 163 181
116 121 128
138 156 181
133 154 181
137 156 181
130 152 181
123 125 128
133 154 181
147 161 181
70 168 37
68 166 37
73 172 37
0 0 0
41 111 23
72 171 37
74 173 37
63 160 37
11 8 15
50 120 26
64 161 37
64 161 37
4 73 8
70 168 37
53 124 26
63 136 26
0 0 0
108 50 15
8 23 3
70 34 10
74 35 10
152 164 181
141 158 181
65 33 10
136 155 181
131 147 174
134 154 181
72 34 10
140 157 181
146 161 181
21 66 73
29 93 104
32 97 104
31 96 104
34 100 104
31 96 104
29 93 104
2 42 23
17 3 24
31 96 104
20 52 52
22 68 73
27 76 73
31 95 104
30 95 104
149 162 181
0 0 0
141 152 174
93 104 123
0 0 0
0 0 0
0 0 0
0 0 0
0 0 0
59 57 33
116 121 128
129 152 181
143 153 174
97 106 123
138 156 181
148 162 181
146 161 181
129 152 181
81 81 90
164 12 84
182 13 84
158 12 84
172 12 84
163 12 84
169 12 84
161 12 84
168 12 84
174 12 84
131 123 127
78 80 68
131 123 127
122 119 127
134 124 127
138 156 181
128 151 181
113 120 128
79 84 90
145 160 181
148 162 181
141 158 181
144 160 181
117 122 128
143 159 181
139 157 181
139 151 174
0 0 0
140 157 181
133 154 181
132 153 181
131 153 181
116 122 128
128 127 128
132 153 181
132 153 181
144 160 181
1 118 94
1 168 133
2 177 133
2 173 133
1 167 133
2 173 133
2 175 133
1 169 133
0 0 0
2 174 133
2 174 133
2 175 133
136 171 250
135 171 250
137 172 250
143 175 250
141 174 250
144 176 250
156 183 250
62 89 114
0 0 0
0 0 0
72 68 64
0 0 0
0 0 0
0 0 0
104 97 90
0 0 0
0 0 0
0 0 0
0 0 0
0 0 0
0 0 0
0 0 0
0 0 0
0 0 0
0 0 0
76 70 64
76 70 64
143 159 181
0 0 0
86 88 90
0 0 0
90 90 90
81 85 90
0 0 0
23 31 75
58 59 36
0 0 0
85 87 90
0 0 0
132 153 181
122 124 128
18 23 53
96 73 57
132 153 181
142 159 181
138 157 181
128 151 181
140 157 181
119 123 128
131 153 181
92 66 87
159 122 174
60 45 61
106 84 123
50 30 59
150 119 174
158 122 174
108 85 123
0 0 0
97 81 123
96 80 123
99 81 123
0 0 0
35 28 25
139 157 181
148 162 181
148 162 181
135 155 181
144 160 181
132 153 181
145 160 181
108 117 128
144 160 181
128 151 181
56 31 88
137 156 181
129 152 181
133 154 181
143 159 181
133 154 181
131 153 181
143 159 181
0 0 0
52 30 88
143 159 181
136 155 181
59 32 88
132 153 181
141 158 181
44 112 26
67 164 37
17 39 5
24 55 7
74 173 37
65 162 37
74 173 37
70 169 37
3 53 5
44 112 26
49 118 26
73 172 37
73 172 37
64 162 37
63 160 37
72 34 10
143 159 181
0 0 0
56 11 0
139 151 174
103 49 15
130 152 181
132 153 181
135 155 181
72 34 10
135 155 181
134 154 181
128 151 181
29 92 104
31 96 104
0 0 0
24 71 73
34 100 104
32 97 104
22 68 73
22 68 73
21 66 73
21 67 73
32 97 104
30 94 104
4 3 31
34 100 104
34 100 104
21 66 73
130 152 181
141 158 181
139 157 181
136 156 181
134 154 181
131 153 181
131 129 128
137 156 181
83 67 56
92 103 123
133 154 181
135 155 181
113 115 123
135 155 181
146 154 174
138 157 181
129 152 181
130 152 181
161 12 84
158 12 84
163 12 84
180 13 84
110 8 59
178 13 84
172 12 84
156 12 84
180 13 84
169 12 84
90 94 96
89 85 90
116 116 127
0 66 47
0 0 0
133 154 181
136 155 181
150 163 181
138 156 181
130 152 181
142 158 181
24 27 68
120 123 128
150 163 181
141 158 181
131 153 181
131 153 181
129 152 181
142 159 181
128 151 181
129 152 181
121 124 128
127 127 128
115 121 128
132 153 181
139 157 181
2 172 133
2 174 133
2 177 133
1 167 133
2 176 133
1 83 60
1 168 133
2 177 133
1 169 133
2 170 133
0 0 0
2 178 133
2 176 133
0 71 17
140 173 250
142 175 250
145 177 250
145 176 250
151 180 250
152 180 250
155 182 250
90 99 125
0 0 0
0 0 0
0 0 0
152 164 181
0 0 0
0 0 0
0 0 0
0 0 0
0 0 0
0 0 0
0 0 0
65 47 61
0 0 0
87 88 90
0 0 0
87 88 90
0 0 0
73 68 64
147 161 181
0 0 0
142 159 181
121 124 128
142 159 181
141 158 181
128 127 128
0 0 0
120 123 128
135 155 181
137 156 181
0 0 0
70 67 64
85 87 90
0 0 0
92 108 128
0 0 0
119 123 128
67 34 88
135 155 181
139 157 181
77 83 90
130 152 181
158 122 174
106 84 123
135 113 174
157 122 174
156 121 174
100 82 123
100 82 123
141 116 174
154 121 174
146 118 174
0 0 0
130 112 132
151 120 132
85 87 90
142 159 181
130 152 181
134 154 181
131 153 181
136 156 181
139 157 181
140 157 181
133 154 181
131 152 181
149 163 181
136 155 181
130 152 181
129 151 181
136 155 181
131 152 181
138 156 181
56 31 88
120 123 128
83 12 90
130 152 181
129 152 181
147 161 181
67 75 52
128 10 55
73 172 37
48 117 26
70 168 37
47 117 26
64 162 37
45 114 26
58 158 37
16 12 22
70 168 37
45 114 26
45 114 26
44 113 26
63 161 37
64 161 37
63 161 37
64 162 37
74 35 10
135 155 181
98 48 15
70 34 10
129 152 181
10 14 4
130 152 181
132 153 181
128 151 181
75 35 10
138 156 181
147 161 181
137 156 181
142 159 181
5 36 7
30 95 104
32 96 104
20 66 73
22 67 73
18 3 24
35 101 104
21 66 73
21 67 73
21 66 73
34 101 104
21 66 73
3 28 30
32 96 104
20 65 73
128 151 181
130 152 181
151 157 174
138 157 181
128 145 174
144 160 181
131 153 181
145 160 181
129 152 181
0 0 0
135 149 174
150 157 174
128 151 181
130 152 181
137 156 181
131 153 181
167 12 84
167 12 84
167 12 84
170 12 84
169 12 84
168 12 84
172 12 84
68 5 49
172 12 84
146 11 63
174 12 84
170 12 84
157 12 84
0 0 0
119 117 127
112 114 127
133 154 181
132 153 181
85 83 83
137 156 181
131 129 128
128 151 181
131 153 181
118 122 128
130 128 128
22 26 68
147 161 181
129 152 181
128 151 181
82 86 90
141 158 181
134 155 181
139 157 181
141 158 181
150 163 181
132 153 181
83 86 90
1 169 133
1 166 133
1 165 133
1 116 94
1 165 133
2 178 133
0 0 0
1 169 133
1 166 133
1 119 94
2 180 133
1 122 94
2 181 133
2 175 133
0 37 9
146 177 250
146 177 250
147 178 250
149 179 250
155 182 250
156 183 250
0 0 0
92 100 125
0 0 0
71 67 64
86 88 90
123 125 128
0 0 0
0 0 0
0 0 0
147 161 181
0 0 0
0 0 0
91 90 90
0 0 0
0 0 0
0 0 0
0 0 0
123 125 128
0 0 0
0 0 0
0 0 0
0 0 0
139 157 181
125 126 128
84 87 90
0 0 0
137 156 181
137 156 181
143 159 181
0 0 0
56 43 61
0 0 0
141 158 181
0 0 0
138 157 181
72 68 64
70 35 88
134 154 181
135 155 181
140 157 181
111 119 128
0 0 0
121 124 128
95 80 93
106 84 123
96 80 123
104 83 123
153 120 174
144 117 174
143 116 174
0 0 0
70 4 26
51 30 59
96 80 123
143 116 174
44 37 15
8 6 37
125 126 128
140 157 181
0 0 0
131 153 181
129 152 181
0 0 0
128 151 181
54 31 88
129 152 181
146 161 181
132 153 181
144 160 181
142 158 181
128 127 128
130 152 181
138 157 181
140 158 181
149 162 181
132 153 181
128 151 181
133 154 181
59 32 88
121 10 55
120 10 55
42 29 6
47 117 26
72 171 37
68 166 37
45 114 26
74 173 37
50 119 26
36 99 5
67 165 37
72 171 37
40 111 26
44 113 26
19 139 80
20 141 80
22 149 80
132 153 181
22 149 80
20 140 80
128 151 181
138 157 181
135 155 181
139 157 181
143 159 181
137 156 181
130 146 174
129 152 181
136 155 181
105 50 15
142 159 181
141 158 181
0 0 0
2 43 23
22 68 73
31 95 104
8 28 43
34 100 104
15 26 48
30 94 104
3 38 88
0 0 0
30 94 104
31 95 104
31 95 104
0 36 27
21 66 73
130 146 174
128 151 181
147 161 181
130 152 181
150 163 181
83 86 90
137 156 181
135 155 181
143 159 181
0 0 0
129 152 181
108 117 128
128 151 181
142 158 181
138 156 181
128 151 181
155 12 84
178 13 84
16 7 26
162 12 84
125 9 59
168 12 84
0 0 0
168 12 84
167 12 84
155 12 84
169 12 84
175 12 84
157 12 84
169 12 84
54 3 21
83 82 90
136 155 181
119 123 128
73 88 125
143 159 181
129 152 181
140 157 181
147 161 181
143 159 181
126 126 128
143 159 181
151 157 174
135 155 181
137 156 181
147 161 181
118 122 128
0 0 0
0 0 0
147 162 181
134 154 181
88 89 90
120 123 128
2 172 133
1 167 133
0 0 0
1 10 44
1 167 133
2 171 133
1 9 44
1 168 133
1 169 133
1 117 94
1 121 94
1 117 94
0 56 13
2 174 133
2 177 133
150 179 250
157 183 250
153 181 250
157 183 250
153 181 250
161 185 250
71 85 54
57 35 122
142 159 181
142 158 181
0 0 0
0 0 0
141 158 181
88 89 90
0 0 0
149 162 181
0 0 0
137 156 181
83 86 90
83 86 90
146 161 181
0 0 0
150 163 181
147 161 181
69 67 64
75 69 64
0 0 0
0 0 0
82 86 90
82 86 90
0 0 0
78 84 90
127 127 128
0 0 0
75 69 64
136 156 181
0 0 0
77 83 90
0 0 0
124 126 128
120 123 128
0 0 0
141 158 181
0 0 0
77 83 90
129 152 181
140 157 181
131 153 181
62 46 61
67 56 87
100 82 123
83 46 84
106 108 160
110 86 123
143 116 174
102 83 123
85 64 87
96 80 123
72 75 113
104 83 123
109 85 123
99 82 123
77 83 90
82 45 125
129 151 181
136 155 181
138 156 181
135 155 181
81 85 90
130 152 181
110 118 128
14 21 53
78 84 90
143 159 181
133 154 181
135 155 181
145 160 181
132 153 181
129 152 181
132 153 181
88 23 54
144 160 181
138 157 181
87 7 39
101 8 39
123 10 55
120 10 55
134 154 181
7 51 10
45 114 26
15 84 3
47 116 26
72 170 37
45 113 26
45 114 26
43 112 26
22 149 80
22 147 80
22 147 80
15 102 57
21 143 80
20 142 80
11 84 67
20 142 80
19 137 80
22 146 80
2 6 40
131 153 181
128 151 181
128 151 181
141 158 181
132 153 181
128 151 181
135 155 181
144 160 181
138 157 181
135 155 181
143 159 181
22 68 73
4 10 28
24 70 73
2 41 23
29 93 104
30 94 104
21 66 73
21 66 73
22 67 73
27 5 34
27 5 34
22 68 73
31 96 104
132 153 181
133 154 181
133 154 181
133 154 181
90 85 90
140 158 181
139 157 181
134 154 181
137 156 181
147 161 181
154 165 181
128 151 181
139 157 181
128 151 181
141 158 181
140 158 181
156 12 84
185 13 84
113 8 59
171 12 84
172 12 84
170 12 84
157 12 84
155 12 84
111 8 59
114 8 59
165 12 84
121 9 59
115 8 59
177 13 84
1 9 44
81 81 90
78 80 90
144 160 181
128 151 181
132 153 181
0 0 0
145 160 181
129 152 181
132 153 181
133 154 181
136 155 181
128 151 181
135 155 181
134 154 181
128 151 181
131 153 181
150 163 181
129 152 181
129 152 181
108 118 128
131 153 181
145 160 181
129 128 128
1 116 94
0 0 0
1 167 133
1 117 94
1 117 94
1 117 94
1 166 133
0 0 0
1 169 133
2 173 133
1 164 120
1 114 85
1 120 94
1 121 94
1 116 94
160 185 250
162 187 250
158 184 250
0 0 0
161 186 250
70 6 38
105 123 176
90 99 125
138 156 181
116 121 128
144 159 181
67 57 66
79 84 90
97 122 176
84 87 90
0 0 0
0 0 0
144 159 181
141 158 181
135 155 181
121 124 128
0 0 0
126 127 128
86 88 90
151 163 181
128 128 128
128 151 181
111 129 176
142 158 181
146 161 181
136 155 181
131 153 181
0 0 0
57 44 61
98 2 42
70 67 64
0 0 0
122 124 128
112 119 128
128 127 128
135 155 181
148 162 181
129 151 181
135 155 181
130 128 128
77 83 90
146 161 181
0 0 0
62 45 61
144 160 181
0 0 0
99 81 123
161 123 174
103 83 123
53 30 59
104 83 123
55 31 59
80 45 84
52 30 59
104 83 123
0 0 0
128 151 181
122 124 128
143 159 181
147 161 181
152 164 181
141 158 181
140 157 181
131 153 181
108 118 128
131 153 181
137 156 181
128 151 181
112 119 128
129 128 128
129 152 181
144 159 181
149 162 181
128 151 181
129 152 181
134 154 181
135 155 181
80 6 27
134 11 55
134 11 55
136 11 55
133 11 55
44 112 26
44 113 26
74 173 37
69 167 37
10 59 2
65 163 37
0 0 0
46 115 26
19 137 80
0 0 0
22 147 80
13 98 57
18 136 80
19 139 80
18 137 80
21 145 80
21 144 80
0 0 0
19 139 80
20 141 80
139 157 181
135 155 181
142 158 181
141 158 181
131 153 181
23 70 73
141 158 181
128 151 181
133 154 181
142 159 181
132 154 181
21 66 73
20 65 73
33 98 104
20 65 73
2 20 21
21 66 73
33 99 104
21 66 73
20 65 73
12 36 36
23 69 73
22 68 73
22 68 73
129 152 181
142 159 181
139 157 181
87 85 87
154 165 181
134 154 181
137 156 181
135 155 181
129 152 181
135 155 181
133 154 181
134 154 181
147 161 181
147 161 181
139 157 181
144 160 181
172 12 84
159 12 84
115 8 59
100 7 45
174 12 84
164 12 84
115 8 59
159 12 84
109 8 70
177 13 84
18 0 13
162 12 84
157 12 84
156 12 84
175 13 84
114 8 59
120 123 128
133 154 181
41 13 31
142 158 181
0 0 0
137 156 181
141 158 181
0 0 0
83 86 90
0 0 0
154 165 181
149 162 181
148 162 181
132 153 181
138 157 181
132 153 181
134 154 181
143 159 181
132 153 181
134 154 181
134 154 181
130 128 128
2 180 133
2 172 133
0 0 0
2 173 133
2 180 133
1 123 94
1 169 133
1 117 85
2 178 133
2 178 133
2 173 133
1 166 133
2 178 133
1 119 94
1 118 94
149 173 225
39 99 78
62 20 171
108 128 176
96 121 176
0 0 0
95 121 176
0 0 0
62 69 88
124 125 128
84 87 90
136 155 181
82 86 90
137 156 181
84 86 90
72 68 64
89 65 87
0 0 0
0 0 0
131 153 181
127 127 128
78 84 90
136 156 181
117 122 128
139 157 181
128 151 181
190 219 255
132 153 181
112 120 128
132 153 181
132 153 181
133 154 181
144 160 181
128 151 181
221 235 255
79 84 90
132 153 181
130 152 181
70 67 64
125 126 128
130 152 181
0 0 0
0 0 0
128 151 181
154 165 181
76 83 90
0 0 0
0 0 0
138 156 181
115 121 128
0 0 0
0 0 0
96 80 123
107 84 123
107 84 123
109 85 123
134 110 157
0 0 0
107 84 123
130 152 181
87 88 90
131 153 181
73 68 64
139 157 181
133 154 181
130 152 181
130 152 181
142 159 181
152 164 181
137 156 181
135 155 181
138 157 181
108 117 128
130 152 181
141 158 181
132 153 181
145 160 181
131 153 181
144 160 181
134 154 181
121 10 55
130 10 55
137 11 55
0 0 0
88 7 39
143 11 55
141 11 55
13 38 43
139 157 181
0 0 0
74 173 37
48 117 26
72 171 37
70 168 37
20 142 80
22 147 80
21 145 80
16 131 79
19 138 80
22 148 80
19 139 80
21 146 80
22 149 80
20 143 80
21 146 80
22 149 80
22 150 80
22 146 80
128 151 181
32 81 18
138 157 181
134 155 181
141 158 181
129 152 181
133 154 181
16 46 50
5 35 7
130 152 181
128 151 181
33 99 104
31 96 104
21 66 73
22 68 73
21 66 73
23 69 73
22 68 73
22 68 73
21 66 73
24 70 73
0 71 54
0 0 0
128 151 181
147 155 174
0 0 0
144 160 181
62 60 63
138 156 181
131 153 181
145 160 181
143 159 181
128 151 181
142 159 181
94 87 90
134 154 181
128 151 181
151 163 181
143 159 181
179 13 84
178 13 84
157 12 84
172 12 84
115 8 59
176 13 84
169 12 84
156 12 84
124 9 59
116 8 59
181 13 84
173 12 84
177 13 84
115 8 59
112 8 59
174 12 84
56 48 45
128 151 181
142 158 181
131 153 181
132 153 181
142 158 181
56 57 63
71 67 64
139 157 181
144 160 181
116 121 128
0 0 0
124 125 128
128 151 181
135 155 181
140 157 181
0 0 0
137 156 181
135 155 181
135 155 181
131 153 181
149 162 181
0 65 47
1 119 94
0 63 34
2 173 133
2 170 133
2 177 133
1 120 94
1 124 94
1 119 94
2 172 133
1 167 133
1 123 94
2 170 133
0 67 65
1 90 90
0 0 0
100 123 176
98 122 176
103 125 176
99 123 176
99 123 176
96 121 176
106 127 176
133 154 181
133 154 181
0 0 0
124 125 128
138 156 181
145 160 181
131 153 181
126 127 128
128 151 181
140 157 181
140 158 181
131 153 181
142 159 181
129 152 181
137 156 181
207 228 255
0 0 0
134 154 181
0 0 0
0 0 0
134 154 181
131 153 181
0 0 0
190 219 255
148 162 181
131 153 181
214 231 255
146 161 181
84 87 90
0 0 0
145 160 181
134 154 181
135 155 181
135 155 181
75 69 64
0 0 0
118 122 128
130 152 181
67 56 87
0 0 0
0 0 0
141 158 181
133 154 181
0 0 0
63 46 61
0 0 0
106 84 123
0 0 0
0 0 0
0 0 0
110 85 123
0 0 0
0 0 0
146 161 181
141 158 181
140 157 181
134 155 181
55 31 59
151 163 181
131 153 181
134 154 181
131 153 181
142 158 181
129 152 181
129 152 181
129 152 181
128 151 181
147 161 181
146 161 181
140 157 181
129 152 181
146 161 181
0 0 0
126 10 55
124 10 55
128 10 55
139 11 55
130 10 55
118 10 55
29 26 36
128 151 181
46 115 26
48 117 26
45 114 26
44 113 26
13 96 57
0 0 0
22 149 80
20 143 80
19 139 80
22 149 80
20 142 80
20 143 80
18 136 80
22 149 80
20 141 80
21 145 80
19 137 80
13 97 57
18 136 80
14 99 57
109 50 15
131 153 181
147 161 181
131 153 181
141 158 181
140 157 181
14 46 52
24 70 73
139 157 181
132 153 181
22 68 73
2 21 21
21 66 73
18 3 24
33 99 104
20 65 73
0 0 0
20 65 73
21 66 73
3 29 30
15 47 52
133 154 181
128 151 181
135 155 181
145 160 181
128 151 181
15 47 52
0 0 0
144 160 181
129 152 181
114 120 128
133 154 181
133 154 181
139 157 181
136 155 181
0 0 0
131 153 181
122 9 59
183 13 84
162 12 84
103 7 42
158 12 84
27 0 35
128 9 59
159 12 84
122 9 59
182 13 84
123 9 59
161 12 84
164 12 84
185 13 84
0 0 0
115 8 59
170 12 84
80 68 63
137 156 181
129 152 181
76 66 63
132 153 181
0 0 0
138 156 181
131 129 128
132 154 181
147 161 181
130 152 181
128 151 181
135 155 181
141 158 181
129 152 181
140 158 181
0 0 0
120 123 128
79 84 90
135 155 181
136 155 181
130 152 181
1 121 94
2 180 133
1 168 133
0 4 22
1 117 94
1 117 94
0 40 46
0 24 69
1 96 92
1 118 94
1 125 94
2 172 133
1 169 133
2 177 133
0 19 37
101 124 176
106 126 176
0 0 0
0 0 0
109 129 176
0 0 0
101 124 176
134 154 181
137 156 181
137 156 181
129 128 128
18 52 79
83 86 90
138 156 181
142 158 181
127 127 128
131 153 181
151 163 181
131 153 181
147 161 181
0 0 0
131 153 181
218 234 255
149 163 181
128 151 181
0 0 0
132 153 181
107 117 128
128 151 181
134 154 181
130 152 181
145 160 181
144 159 181
149 162 181
153 164 181
0 0 0
78 84 90
136 155 181
0 0 0
131 153 181
67 56 87
0 0 0
131 153 181
141 158 181
0 0 0
128 151 181
76 60 87
132 153 181
72 58 87
126 126 128
128 151 181
145 160 181
0 0 0
147 161 181
151 163 181
143 159 181
72 58 87
147 161 181
145 160 181
141 158 181
66 56 87
129 151 181
0 0 0
151 163 181
52 30 88
132 153 181
130 152 181
144 160 181
134 154 181
132 153 181
131 153 181
135 155 181
0 0 0
114 121 128
132 153 181
136 155 181
134 154 181
130 152 181
135 155 181
135 155 181
91 7 39
132 10 55
92 7 39
127 10 55
128 10 55
122 10 55
118 10 55
130 152 181
130 152 181
133 154 181
30 43 6
74 173 37
45 114 26
14 100 57
20 141 80
20 140 80
21 146 80
22 148 80
8 62 47
19 138 80
20 140 80
22 147 80
19 139 80
13 97 57
18 136 80
15 103 57
20 143 80
0 0 0
0 64 29
24 71 73
141 158 181
112 132 213
14 46 52
117 135 213
132 153 181
142 158 181
65 33 10
130 152 181
16 49 52
140 157 181
15 47 52
0 0 0
22 68 73
2 20 21
0 0 0
0 0 0
22 67 73
0 0 0
132 153 181
137 156 181
16 46 50
133 154 181
146 161 181
13 98 57
141 158 181
0 0 0
133 154 181
133 154 181
143 159 181
136 155 181
91 107 128
137 156 181
136 155 181
132 153 181
136 155 181
128 151 181
9 25 26
66 0 14
122 9 59
74 5 49
116 8 59
109 8 59
111 8 59
182 13 84
164 12 84
167 12 84
187 13 84
156 12 84
168 12 84
120 9 59
179 13 84
118 8 59
180 13 84
58 58 63
140 157 181
129 151 181
58 58 63
62 59 63
139 157 181
0 0 0
138 157 181
128 151 181
145 160 181
128 151 181
123 125 128
128 151 181
135 155 181
133 154 181
140 157 181
145 160 181
133 154 181
128 151 181
0 0 0
152 164 181
0 0 0
136 155 181
2 175 133
2 176 133
1 121 94
1 124 94
1 115 85
0 0 0
2 180 133
2 175 133
1 120 94
0 80 3
1 118 94
1 127 94
1 119 94
1 117 94
95 121 176
98 122 176
102 124 176
36 70 74
100 123 176
96 121 176
100 123 176
133 154 181
130 152 181
125 126 128
131 153 181
145 160 181
129 152 181
143 159 181
146 160 181
134 154 181
133 154 181
105 126 176
137 156 181
132 153 181
132 153 181
134 154 181
140 157 181
143 159 181
140 157 181
147 161 181
141 158 181
0 0 0
128 151 181
136 155 181
122 125 128
130 152 181
0 0 0
198 223 255
0 0 0
136 155 181
139 157 181
112 120 128
133 154 181
135 155 181
142 159 181
129 152 181
130 152 181
145 160 181
146 160 181
132 153 181
112 119 128
134 154 181
128 127 128
130 152 181
139 157 181
58 44 61
150 163 181
138 156 181
129 152 181
132 153 181
134 154 181
80 85 90
70 57 87
132 153 181
73 58 87
130 152 181
77 106 117
141 158 181
144 160 181
133 154 181
128 151 181
141 158 181
139 157 181
133 154 181
132 153 181
141 158 181
142 158 181
117 122 128
136 155 181
145 160 181
132 154 136
86 105 96
146 161 181
95 7 39
23 0 23
122 10 55
131 10 55
134 11 55
0 0 0
140 11 55
119 10 55
142 158 181
146 161 181
31 79 18
37 86 18
0 0 0
9 85 54
0 0 0
13 98 57
19 137 80
18 136 80
8 84 23
20 142 80
20 142 80
21 145 80
12 86 67
20 142 80
22 147 80
22 148 80
21 144 80
21 143 80
18 136 80
121 138 213
13 98 57
107 130 213
114 134 213
119 137 213
127 141 213
113 133 213
113 133 213
132 153 181
129 152 181
152 164 181
0 0 0
136 155 181
0 0 0
0 0 0
16 48 52
0 0 0
0 0 0
0 0 0
0 0 0
0 0 0
15 47 52
0 0 0
128 151 181
14 46 52
15 47 52
143 159 181
0 0 0
130 152 181
131 153 181
0 0 0
130 152 181
140 158 181
128 151 181
146 161 181
55 56 63
151 163 181
129 152 181
131 153 181
50 6 35
167 12 84
156 12 84
115 8 59
112 8 59
173 12 84
174 12 84
155 12 84
116 8 59
113 8 59
173 12 84
181 13 84
178 13 84
170 12 84
119 9 59
125 9 59
136 155 181
55 56 63
49 45 45
0 0 0
0 0 0
47 44 45
134 154 181
146 161 181
133 154 181
61 59 63
130 152 181
128 151 181
131 153 181
131 129 128
135 155 181
133 154 181
56 57 63
132 153 181
96 121 176
131 153 181
138 157 181
132 153 181
142 158 181
2 179 133
1 119 94
1 118 94
0 4 22
1 120 94
1 119 94
2 174 133
0 0 0
2 175 133
0 5 15
2 172 100
0 0 0
1 170 133
2 174 133
0 66 65
0 66 65
107 127 176
50 68 122
96 121 176
72 97 172
126 126 128
126 127 128
145 160 181
0 0 0
0 0 0
200 217 231
120 123 128
59 73 122
131 152 181
149 162 181
139 157 181
128 151 181
143 159 181
133 154 181
78 84 90
130 152 181
134 154 181
132 153 181
137 156 181
143 159 181
0 0 0
0 0 0
137 156 181
130 128 128
0 0 0
149 162 181
117 122 128
0 0 0
0 0 0
141 158 181
217 233 255
67 56 87
112 130 176
136 155 181
119 123 128
84 87 90
84 87 90
123 125 128
142 159 181
106 127 176
0 0 0
77 60 87
119 123 128
0 0 0
131 153 181
141 158 181
149 162 181
129 152 181
81 62 87
106 84 123
143 159 181
137 156 181
129 152 181
130 152 181
146 161 181
67 56 87
129 152 181
143 159 181
128 151 181
142 158 181
151 164 181
130 152 181
130 152 181
134 154 181
140 157 181
108 85 123
132 153 181
138 157 181
130 152 181
67 56 87
70 87 125
131 153 181
135 155 181
139 157 181
86 7 39
134 11 55
114 8 39
90 7 39
132 10 55
129 10 50
138 11 55
141 158 181
142 158 181
150 163 181
148 162 181
32 81 18
20 142 80
13 98 57
20 143 80
22 146 80
6 44 33
19 138 80
21 144 80
22 146 80
20 140 80
21 145 80
8 61 47
13 97 57
23 150 80
19 137 80
20 142 80
119 137 213
126 140 213
119 136 213
113 133 213
110 131 213
107 130 213
125 140 213
108 131 213
112 133 213
123 139 213
120 137 213
140 158 181
130 152 181
16 49 52
137 156 181
15 47 52
15 48 52
131 153 181
0 0 0
15 47 52
12 36 36
132 153 181
0 0 0
49 118 26
131 153 181
0 0 0
139 157 181
14 46 52
132 153 181
9 25 26
145 160 181
139 157 181
133 154 181
134 154 181
132 153 181
61 59 63
1 118 94
142 158 181
136 155 181
144 160 181
111 8 59
110 8 59
114 8 59
114 8 59
126 9 59
110 8 59
181 13 84
128 10 63
122 9 59
122 9 59
114 8 59
181 13 84
1 6 31
111 8 59
1 6 31
0 0 0
133 154 181
129 152 181
137 156 181
136 155 181
132 153 181
129 152 181
138 156 181
142 159 181
58 58 63
142 158 181
136 155 181
140 158 181
89 85 90
129 128 128
130 152 181
132 153 181
143 159 181
128 151 181
128 151 181
142 158 181
136 155 181
128 151 181
138 157 181
0 0 0
146 160 181
0 94 48
1 124 94
1 118 94
1 119 94
1 119 94
1 118 94
1 123 94
2 172 133
1 117 94
1 117 94
0 0 0
80 102 172
106 127 176
105 126 176
56 72 122
105 126 176
98 122 176
136 155 181
89 89 90
0 0 0
167 168 163
205 220 231
193 214 231
150 160 163
199 216 231
0 0 0
198 216 231
133 154 181
129 128 128
129 152 181
83 86 90
130 152 181
133 154 181
136 155 181
131 153 181
135 155 181
150 163 181
0 0 0
129 152 181
133 154 181
121 124 128
152 164 181
132 153 181
130 152 181
132 153 181
138 156 181
0 0 0
213 231 255
150 163 181
75 59 87
140 157 181
146 161 181
128 151 181
0 0 0
123 125 128
144 160 181
136 155 181
141 158 181
140 157 181
131 153 181
151 163 181
130 152 181
119 123 128
154 165 181
136 155 181
133 154 181
128 151 181
141 158 181
0 0 0
128 151 181
138 156 181
134 154 181
137 156 181
81 85 90
138 156 181
134 155 181
136 155 181
144 160 181
140 158 181
134 154 181
136 155 181
142 159 181
134 154 181
0 0 0
133 154 181
128 151 181
128 151 181
129 152 181
130 152 181
122 125 96
133 154 181
146 160 181
142 11 55
121 10 55
83 7 39
133 11 55
95 7 39
140 11 55
86 7 39
23 54 7
133 154 181
0 0 0
135 155 181
140 158 181
21 144 80
13 96 57
20 142 80
0 0 0
3 7 27
7 47 15
20 142 80
21 146 80
19 139 80
14 99 57
20 143 80
22 147 80
7 79 23
109 131 213
110 131 213
75 91 150
111 132 213
105 129 213
111 132 213
112 132 213
110 132 213
111 132 213
107 130 213
105 129 213
86 98 150
121 138 213
124 139 213
135 155 181
133 154 181
133 154 181
140 158 181
24 70 73
0 0 0
0 0 0
131 153 181
16 48 52
137 156 181
128 151 181
15 47 52
93 108 128
131 153 181
128 151 181
9 68 40
14 46 52
132 153 181
145 160 181
23 69 73
128 151 181
132 153 181
135 155 181
134 154 181
133 154 181
14 46 52
15 48 52
131 153 181
130 152 181
111 8 59
26 0 35
1 3 5
9 4 13
179 13 84
180 13 84
0 0 0
111 8 59
172 12 84
167 12 84
72 0 14
181 13 84
0 0 0
173 12 84
134 154 181
134 154 181
134 154 181
136 155 181
116 121 128
132 153 181
128 151 181
64 60 63
143 159 181
128 151 181
142 158 181
134 154 181
147 161 181
136 156 181
0 82 66
126 126 128
131 153 181
131 153 181
135 155 181
129 152 181
131 153 181
0 0 0
134 154 181
141 158 181
141 158 181
134 154 181
1 121 94
0 67 34
2 174 133
1 117 94
1 117 94
1 124 94
1 119 94
0 93 48
1 121 94
1 116 94
1 98 92
0 0 0
0 0 0
107 127 176
86 88 90
56 71 122
136 156 181
0 0 0
195 214 231
192 213 231
193 213 231
194 214 231
187 210 231
178 206 231
186 210 231
196 215 231
190 212 231
214 225 231
82 91 112
140 157 181
134 154 181
142 159 181
145 160 181
142 159 181
0 0 0
131 153 181
0 0 0
130 152 181
190 212 231
129 151 181
144 159 181
134 154 181
136 155 181
152 164 181
139 157 181
146 161 181
133 154 181
140 158 181
0 0 0
140 157 181
128 151 181
131 153 181
0 0 0
131 153 181
137 156 181
77 83 90
134 155 181
144 159 181
137 156 181
153 165 181
134 155 181
142 158 181
136 156 181
144 160 181
136 155 181
134 154 181
117 122 128
147 161 181
138 157 181
134 155 181
105 126 176
138 157 181
135 155 181
144 159 181
135 155 181
71 58 87
137 156 181
137 156 181
130 152 181
129 152 181
132 153 181
133 154 181
139 157 181
130 152 181
143 159 181
132 153 181
133 154 181
121 124 128
136 155 181
133 154 181
133 154 181
132 154 181
86 7 39
135 11 55
140 11 55
88 7 39
139 11 55
90 7 39
139 11 55
134 154 181
129 152 181
130 152 181
141 158 181
131 153 181
14 101 57
21 144 80
13 97 57
22 147 80
14 101 57
0 43 12
21 146 80
21 143 80
13 96 57
21 143 80
22 148 80
20 140 80
108 131 213
119 137 213
126 141 213
108 131 213
15 8 29
121 137 213
117 135 213
77 93 150
113 133 213
115 134 213
124 140 213
121 138 213
76 92 150
116 135 213
115 134 213
113 133 213
131 153 181
134 154 181
21 66 73
129 152 181
131 153 181
146 161 181
137 156 181
143 159 181
22 68 73
139 157 181
16 48 52
139 157 181
130 152 181
133 154 181
130 152 181
145 160 181
142 158 181
145 160 181
140 157 181
144 160 181
148 162 181
57 57 63
128 151 181
6 5 37
130 152 181
138 157 181
134 154 181
9 28 43
133 154 181
114 8 59
71 0 14
112 8 59
119 9 59
162 12 84
112 8 59
123 9 59
177 13 84
118 8 59
117 8 59
120 9 59
115 8 59
83 6 42
0 0 0
132 153 181
128 151 181
76 83 90
101 7 42
128 127 128
0 0 0
134 154 181
0 0 0
129 152 181
138 156 181
132 153 181
131 153 181
144 160 181
133 154 181
130 152 181
133 154 181
79 84 90
146 161 181
137 156 181
132 153 181
136 155 181
131 153 181
151 163 181
135 155 181
0 0 0
0 0 0
0 64 34
0 0 0
1 123 94
0 64 34
1 124 94
0 69 65
1 118 94
1 118 94
0 0 0
0 0 0
150 163 181
0 0 0
0 0 0
69 86 125
142 158 181
1 163 120
192 213 231
196 215 231
194 214 231
179 206 231
178 206 231
179 206 231
182 208 231
184 209 231
182 208 231
196 215 231
198 216 231
203 219 231
0 0 0
129 152 181
99 123 176
109 118 128
130 152 181
140 157 181
131 153 181
136 155 181
121 124 128
141 158 181
0 0 0
139 157 181
129 151 181
136 156 181
129 152 181
139 157 181
0 0 0
0 0 0
0 0 0
0 0 0
1 119 94
0 0 0
131 153 181
135 155 181
137 156 181
129 152 181
80 85 90
128 151 181
143 159 181
0 0 0
116 122 128
141 158 181
137 156 181
138 157 181
150 163 181
135 155 181
137 156 181
142 159 181
135 155 181
130 152 181
128 151 181
150 163 181
142 159 181
142 159 181
143 159 181
128 151 181
108 85 123
130 152 181
134 154 181
141 158 181
133 154 181
144 160 181
119 147 136
147 161 181
145 160 181
105 147 165
135 155 181
129 152 181
129 152 181
143 159 181
130 152 181
131 153 181
144 160 181
84 7 39
134 11 55
97 7 39
126 10 55
130 10 55
130 10 55
133 11 55
143 159 181
148 162 181
129 152 181
133 154 181
146 161 181
21 143 80
4 11 39
14 100 57
6 37 27
21 144 80
0 0 0
20 142 80
15 103 57
0 0 0
22 149 80
21 144 80
14 101 57
114 134 213
122 138 213
110 131 213
111 132 213
120 137 213
109 131 213
0 0 0
47 49 101
113 133 213
85 97 150
124 139 213
123 139 213
119 137 213
107 130 213
0 0 0
83 96 150
145 160 181
24 71 73
120 9 59
131 153 181
139 157 181
136 155 181
141 158 181
137 156 181
1 29 16
139 157 181
132 153 181
141 158 181
139 157 181
14 46 52
140 158 181
131 153 181
0 0 0
132 153 181
128 151 181
140 158 181
130 152 181
133 154 181
138 156 181
133 154 181
140 158 181
138 156 181
80 6 42
82 6 42
142 159 181
72 4 29
182 13 84
178 13 84
106 8 70
184 13 84
117 8 59
0 0 0
120 9 59
116 8 59
120 9 59
73 0 14
88 88 90
20 65 73
132 153 181
128 151 181
0 0 0
129 152 181
135 155 181
73 0 14
134 155 181
133 154 181
138 156 181
77 83 90
135 155 181
131 153 181
133 154 181
129 152 181
130 152 181
108 118 128
138 156 181
146 161 181
128 151 181
131 153 181
127 127 128
1 6 31
0 83 66
145 160 181
134 154 181
140 157 181
1 87 66
0 84 66
140 158 181
0 0 0
0 89 55
0 0 0
0 0 0
0 0 0
0 0 0
0 0 0
147 161 181
86 98 150
0 0 0
0 0 0
142 159 181
1 88 60
130 148 163
190 212 231
190 212 231
192 213 231
187 210 231
185 209 231
180 207 231
180 207 231
180 207 231
180 207 231
188 211 231
187 210 231
205 220 231
212 223 231
141 158 181
53 46 45
219 234 255
147 161 181
0 0 0
0 0 0
128 151 181
130 152 181
0 0 0
142 158 181
141 158 181
134 154 181
208 228 255
142 158 181
0 0 0
152 164 181
115 121 128
0 0 0
95 121 176
144 160 181
129 152 181
130 152 181
135 155 181
137 156 181
132 153 181
138 156 181
134 154 181
141 158 181
135 155 181
129 128 128
141 158 181
129 152 181
129 152 181
113 120 128
139 157 181
138 156 181
138 157 181
130 152 181
138 156 181
123 125 128
136 155 181
135 155 181
149 162 181
130 152 181
130 152 181
211 230 255
216 233 255
132 153 181
85 87 90
113 120 128
140 158 181
136 156 181
130 152 181
130 152 181
131 153 181
128 151 181
130 152 181
142 159 181
140 157 181
128 151 181
0 0 0
137 156 181
128 151 181
85 7 39
141 11 55
137 11 55
87 7 39
142 11 55
72 5 27
133 154 181
58 19 20
141 158 181
132 153 181
140 158 181
128 151 181
13 97 57
20 142 80
19 138 80
13 97 57
22 148 80
20 142 80
14 101 57
8 18 57
13 97 57
20 143 80
106 129 213
109 131 213
0 0 0
86 97 150
123 139 213
109 131 213
25 13 42
115 134 213
78 93 150
127 141 213
45 95 126
116 135 213
117 135 213
84 96 150
107 130 213
112 133 213
120 137 213
81 95 150
142 159 181
146 161 181
131 152 181
14 46 52
140 158 181
146 161 181
5 75 8
140 158 181
142 159 181
131 153 181
151 163 181
141 158 181
132 153 181
120 123 128
15 47 52
141 158 181
130 152 181
130 152 181
138 157 181
135 155 181
19 10 25
151 163 181
132 153 181
132 153 181
140 158 181
130 152 181
132 153 181
132 153 181
135 155 181
0 0 0
139 157 181
78 0 14
119 9 59
122 9 59
110 8 59
118 9 59
67 0 14
44 16 152
47 16 152
132 153 181
139 157 181
125 9 59
133 154 181
86 6 42
129 152 181
132 153 181
0 0 0
130 152 181
143 159 181
136 156 181
132 153 181
128 151 181
134 154 181
148 162 181
132 153 181
128 151 181
132 153 181
110 118 128
128 151 181
131 153 181
128 151 181
0 5 22
134 154 181
128 151 181
59 5 27
1 86 66
130 152 181
0 44 44
149 162 181
0 83 66
1 87 66
81 119 161
0 0 0
0 0 0
146 161 181
112 130 176
107 127 176
0 0 0
132 153 181
142 158 181
141 158 181
96 121 176
205 220 231
215 225 231
195 215 231
197 215 231
193 213 231
189 211 231
179 206 231
180 207 231
187 211 231
180 207 231
183 208 231
180 207 231
202 218 231
206 220 231
213 224 231
0 0 0
140 157 181
139 157 181
217 233 255
143 20 127
107 84 123
40 31 104
134 154 181
0 0 0
205 227 255
0 0 0
0 0 0
0 0 0
121 124 128
145 160 181
0 0 0
0 0 0
21 25 68
0 0 0
135 155 181
143 159 181
132 153 181
131 153 181
135 155 181
146 161 181
106 84 123
128 151 181
144 160 181
133 154 181
133 154 181
136 155 181
142 158 181
147 161 181
147 161 181
139 157 181
148 162 181
130 152 181
134 154 181
142 159 181
131 153 181
153 167 181
113 120 128
184 215 255
142 159 181
0 0 0
135 155 181
182 214 255
142 158 181
133 154 181
128 151 181
141 158 181
140 158 181
132 153 181
131 153 181
134 154 181
147 161 181
130 152 181
134 154 181
146 161 181
110 118 128
128 151 181
139 157 181
134 154 181
85 7 39
87 7 39
138 11 55
91 7 39
135 11 55
84 7 39
131 153 181
138 157 181
139 157 181
136 155 181
128 151 181
135 155 181
8 17 9
15 102 57
13 97 57
22 149 80
21 145 80
3 39 11
14 99 57
21 146 80
20 141 80
6 53 46
77 93 150
120 137 213
123 139 213
112 132 213
109 131 213
105 129 213
18 58 133
43 93 126
116 135 213
113 133 213
125 140 213
125 140 213
78 93 150
30 35 88
81 95 150
86 97 150
118 136 213
127 141 213
135 155 181
143 159 181
140 157 181
128 151 181
134 154 181
134 154 181
142 159 181
135 155 181
137 156 181
129 152 181
114 120 128
145 160 181
125 9 59
137 156 181
131 153 181
131 153 181
133 154 181
131 153 181
136 155 181
130 152 181
132 153 181
138 157 181
77 6 42
129 152 181
134 154 181
148 162 181
150 163 181
0 0 0
84 6 42
87 6 42
138 156 181
110 8 59
0 0 0
0 0 0
120 9 59
45 16 152
49 17 152
48 16 152
47 16 152
47 16 152
45 16 152
39 12 108
28 9 76
43 16 152
50 17 152
81 6 42
131 153 181
129 152 181
130 152 181
129 152 181
129 152 181
139 157 181
81 6 42
131 129 128
130 152 181
112 8 59
129 152 181
147 161 181
153 165 181
141 158 181
1 85 66
0 0 0
148 162 181
139 157 181
72 5 29
138 157 181
1 123 94
1 86 66
135 155 181
132 154 181
139 157 181
146 161 181
98 107 115
1 87 66
1 87 66
140 157 181
130 152 181
129 152 181
151 163 181
73 88 125
144 160 181
107 8 54
179 12 76
214 225 231
190 212 231
196 215 231
190 212 231
187 210 231
189 211 231
194 214 231
195 215 231
188 211 231
186 210 231
199 216 231
189 211 231
209 222 231
215 225 231
136 151 163
139 157 181
128 151 181
208 228 255
214 231 255
214 232 255
219 234 255
0 0 0
32 44 106
0 0 0
118 122 128
0 0 0
122 124 128
0 0 0
125 126 128
108 117 128
128 128 128
216 233 255
207 228 255
130 152 181
107 127 176
128 151 181
133 154 181
107 117 128
138 156 181
128 151 181
132 153 181
144 160 181
132 153 181
132 153 181
134 154 181
136 155 181
131 153 181
87 88 90
136 155 181
139 157 181
104 126 176
128 151 181
133 154 181
82 63 87
129 152 181
0 0 0
0 0 0
137 156 181
151 164 181
0 0 0
139 157 181
130 152 181
0 0 0
0 0 0
0 0 0
138 156 181
98 142 165
129 152 181
143 159 181
138 156 181
139 157 181
70 58 87
92 7 39
131 129 128
128 151 181
130 152 181
104 146 165
145 160 181
0 5 20
92 7 39
0 0 0
86 7 39
142 11 55
141 158 181
130 152 181
139 157 181
14 99 57
143 159 181
137 156 181
129 152 181
19 140 80
14 99 57
15 103 57
14 101 57
0 37 15
21 143 80
0 0 0
13 97 57
122 138 213
107 130 213
113 133 213
119 137 213
124 139 213
116 135 213
81 95 150
112 133 213
83 96 150
77 93 150
114 134 213
77 93 150
77 92 150
107 130 213
127 141 213
81 95 150
127 141 213
75 92 150
112 132 213
135 155 181
134 154 181
137 156 181
133 154 181
137 156 181
152 164 181
137 156 181
130 152 181
130 152 181
136 155 181
131 153 181
139 157 181
140 157 181
149 163 181
129 152 181
146 161 181
146 161 181
148 162 181
138 156 181
133 154 181
136 155 181
144 160 181
142 158 181
143 159 181
94 87 90
130 152 181
150 163 181
0 0 0
0 0 0
83 6 42
84 6 42
146 161 181
87 6 42
90 6 42
48 16 152
45 16 152
43 16 152
45 16 152
44 16 152
52 17 152
44 16 152
44 16 152
45 16 152
47 16 152
44 16 152
52 17 152
129 152 181
130 152 181
140 157 181
133 154 181
132 153 181
133 154 181
128 151 181
150 163 181
128 151 181
141 158 181
153 164 181
129 152 181
128 151 181
136 155 181
137 156 181
130 9 59
131 153 181
144 159 181
142 158 181
134 154 181
130 152 181
136 155 181
1 88 66
136 156 181
141 158 181
128 151 181
138 156 181
130 152 181
130 152 181
130 152 181
0 82 66
143 159 181
129 152 181
138 157 181
136 156 181
176 12 76
131 148 163
203 219 231
199 216 231
198 216 231
188 211 231
187 210 231
182 208 231
182 208 231
202 218 231
189 211 231
196 215 231
193 214 231
191 212 231
189 212 231
202 218 231
207 221 231
127 146 163
137 156 181
207 228 255
211 230 255
212 230 255
212 230 255
214 231 255
185 182 181
114 120 128
0 0 0
0 0 0
123 125 128
110 119 128
0 0 0
152 164 181
0 0 0
209 229 255
138 156 181
115 121 128
139 157 181
138 157 181
144 160 181
134 154 181
147 161 181
110 3 59
132 153 181
143 159 181
134 154 181
135 155 181
141 158 181
95 109 128
129 152 181
137 156 181
109 118 128
140 158 181
130 152 181
132 153 181
137 156 181
130 152 181
137 156 181
139 157 181
138 157 181
138 157 181
141 158 181
128 151 181
184 216 255
136 155 181
0 0 0
0 0 0
135 155 181
142 159 181
130 152 181
131 153 181
133 154 181
129 152 181
134 154 181
145 160 181
141 158 181
133 154 181
135 155 181
0 0 0
60 5 27
129 152 181
128 151 181
92 7 39
93 7 39
86 7 39
84 7 39
140 157 181
148 162 181
136 156 181
128 151 181
14 100 57
132 153 181
132 153 181
21 144 80
9 62 47
14 101 57
7 64 39
0 0 0
13 97 57
20 142 80
1 46 12
0 0 0
66 88 147
117 135 213
88 99 150
121 138 213
121 138 213
94 113 160
107 130 213
29 10 127
106 129 213
113 133 213
119 136 213
22 12 42
124 139 213
117 135 213
125 140 213
0 0 0
123 139 213
77 93 150
124 139 213
124 9 59
139 157 181
133 154 181
144 160 181
139 157 181
140 158 181
145 160 181
139 157 181
137 156 181
147 161 181
9 69 40
132 153 181
134 154 181
132 153 181
123 125 128
137 156 181
128 151 181
136 155 181
129 152 181
125 9 59
135 155 181
137 156 181
143 159 181
127 9 59
130 152 181
131 153 181
130 152 181
147 161 181
79 6 42
139 157 181
142 158 181
46 16 152
44 16 152
50 17 152
43 16 152
45 16 152
45 16 152
50 17 152
44 16 152
44 16 152
46 16 152
48 16 152
48 16 152
43 16 152
45 16 152
44 16 152
80 81 90
144 160 181
136 155 181
139 157 181
122 9 59
133 154 181
137 156 181
128 151 181
130 152 181
140 158 181
129 152 181
137 156 181
144 160 181
130 152 181
151 164 181
140 158 181
128 151 181
131 153 181
132 153 181
140 157 181
133 154 181
0 0 0
130 152 181
132 153 181
142 159 181
137 156 181
133 154 181
1 121 94
0 83 66
148 162 181
129 152 181
140 158 181
128 151 181
0 0 0
210 223 231
208 221 231
197 215 231
209 222 231
204 219 231
203 219 231
200 217 231
205 220 231
203 218 231
189 212 231
192 213 231
206 220 231
197 216 231
193 213 231
208 221 231
209 222 231
129 4 69
214 224 231
0 0 0
128 151 181
136 155 181
203 225 255
207 228 255
210 229 255
0 0 0
114 88 123
0 0 0
0 0 0
0 0 0
110 118 128
0 0 0
124 125 128
0 0 0
205 227 255
133 154 181
150 163 181
131 153 181
142 158 181
135 155 181
138 156 181
143 159 181
139 157 181
143 159 181
133 154 181
128 151 181
140 158 181
143 159 181
137 156 181
138 156 181
138 156 181
137 156 181
98 111 128
135 155 181
147 161 181
141 158 181
0 0 0
133 154 181
120 123 128
138 157 181
134 155 181
143 159 181
138 156 181
134 154 181
98 7 39
0 0 0
129 152 181
138 157 181
142 159 181
139 157 181
124 150 136
84 7 39
135 155 181
135 155 181
0 0 0
0 0 0
131 154 136
126 126 128
136 156 181
61 5 27
134 155 181
140 158 181
136 156 181
135 155 181
39 0 6
0 0 0
5 34 7
140 158 181
149 162 181
111 119 128
141 158 181
130 152 181
139 157 181
141 158 181
1 63 18
0 0 0
13 98 57
14 98 57
13 98 57
13 96 57
0 43 12
80 94 150
116 135 213
123 139 213
108 130 213
122 138 213
119 136 213
46 16 150
78 93 150
110 131 213
116 135 213
50 100 126
10 51 180
19 60 133
75 92 150
117 135 213
0 0 0
114 134 213
26 10 127
101 7 70
117 135 213
137 156 181
75 92 150
130 152 181
133 154 181
146 161 181
130 152 181
141 158 181
132 153 181
147 161 181
143 159 181
57 113 107
129 151 181
138 157 181
128 151 181
128 151 181
138 156 181
145 160 181
135 155 181
135 155 181
133 154 181
128 151 181
139 157 181
0 0 0
145 160 181
136 155 181
81 6 42
137 151 163
130 152 181
143 159 181
141 158 181
47 16 152
51 17 152
44 16 152
51 17 152
46 16 152
16 5 84
16 5 84
43 16 152
46 16 152
50 17 152
51 17 152
48 16 152
49 17 152
44 16 152
46 16 152
45 16 152
49 17 152
128 151 181
130 152 181
129 152 181
146 161 181
135 155 181
134 154 181
129 152 181
143 159 181
132 153 181
137 156 181
130 152 181
131 153 181
97 110 128
133 154 181
128 151 181
0 0 0
132 153 181
129 152 181
136 155 181
129 152 181
143 159 181
146 161 181
143 159 181
136 155 181
102 139 177
133 154 181
131 153 181
140 157 181
139 157 181
131 153 181
143 159 181
139 157 181
0 72 29
134 150 163
118 8 54
139 152 163
207 221 231
198 216 231
198 216 231
198 216 231
148 174 173
198 216 231
200 217 231
207 221 231
207 221 231
212 223 231
200 217 231
204 219 231
214 224 231
216 225 231
207 221 231
132 153 181
136 155 181
137 156 181
197 222 255
194 221 255
200 224 255
168 174 181
182 181 181
122 124 128
0 0 0
108 117 128
0 0 0
131 141 176
168 174 181
129 152 181
140 158 181
154 165 181
131 153 181
142 159 181
129 152 181
147 162 181
139 157 181
142 158 181
138 157 181
0 0 0
139 157 181
91 107 128
130 152 181
130 152 181
109 118 128
138 157 181
135 155 181
149 162 181
128 151 181
216 232 255
72 44 83
144 160 181
144 160 181
136 155 181
147 161 181
135 155 181
140 158 181
128 151 181
129 152 181
147 161 181
132 153 181
0 0 0
142 158 181
144 160 181
131 153 181
0 0 0
124 126 128
122 124 128
129 152 181
147 161 181
146 160 181
135 155 181
128 151 181
60 5 27
152 164 181
97 7 39
51 5 25
140 158 181
64 5 27
89 81 102
0 0 0
0 0 0
133 154 181
136 155 181
134 154 181
128 151 181
143 159 181
133 154 181
11 74 40
146 161 181
131 153 181
10 70 40
148 162 181
22 148 80
15 104 57
14 100 57
1 44 12
115 134 213
0 0 0
82 95 150
109 131 213
77 92 150
80 94 150
115 134 213
115 134 213
87 98 150
119 136 213
82 95 150
125 140 213
26 9 127
34 69 89
80 94 150
45 76 60
122 138 213
77 93 150
127 141 213
144 159 181
138 157 181
9 69 40
9 68 40
142 159 181
144 160 181
1 45 12
135 155 181
139 157 181
152 164 181
144 160 181
129 152 181
41 36 50
141 158 181
130 152 181
135 155 181
143 159 181
128 151 181
128 151 181
130 152 181
135 155 181
145 160 181
139 157 181
135 155 181
135 155 181
132 153 181
42 21 50
134 154 181
138 156 181
139 157 181
137 156 181
44 16 152
30 11 108
8 1 30
51 17 152
43 16 152
47 16 152
50 17 152
43 16 152
50 17 152
49 17 152
46 16 152
50 17 152
49 17 152
51 17 152
41 14 114
45 16 152
49 17 152
130 152 181
138 156 181
128 151 181
135 155 181
134 154 181
129 152 181
145 160 181
145 160 181
139 157 181
130 152 181
129 152 181
146 161 181
147 161 181
136 155 181
89 103 115
33 11 108
131 153 181
133 154 181
140 147 136
139 157 181
131 153 181
129 152 181
83 6 42
145 160 181
136 155 181
0 0 0
141 158 181
92 104 115
152 164 181
135 155 181
140 158 181
139 157 181
21 64 66
174 12 76
120 135 4
208 221 231
149 158 163
213 224 231
211 223 231
213 224 231
164 182 173
210 222 231
0 0 0
133 149 163
66 150 37
77 92 25
129 147 163
126 146 163
177 157 185
139 152 163
133 149 163
130 147 163
150 163 181
84 87 90
136 155 181
130 152 181
197 223 255
194 221 255
158 169 181
156 168 181
198 223 255
170 175 181
169 174 181
140 157 181
128 151 181
151 163 181
137 156 181
129 152 181
128 151 181
0 0 0
128 151 181
136 156 181
145 160 181
140 158 181
1 120 94
141 158 181
151 163 181
150 163 181
133 154 181
138 156 181
138 157 181
99 8 39
128 151 181
144 160 181
141 158 181
141 158 181
146 161 181
129 152 181
143 159 181
128 151 181
141 158 181
132 153 181
129 152 181
107 117 128
129 152 181
136 155 181
128 151 181
132 153 181
129 152 181
145 160 181
0 0 0
128 151 181
0 0 0
131 153 181
138 156 181
63 5 27
86 88 90
132 153 181
141 158 181
0 0 0
0 0 0
128 151 181
121 124 128
57 4 19
0 0 0
0 0 0
147 161 181
0 0 0
128 151 181
130 152 181
0 0 0
145 160 181
14 46 52
133 154 181
132 153 181
134 155 181
144 160 181
9 69 40
0 0 0
140 157 181
0 0 0
0 0 0
9 22 13
0 0 0
76 92 150
75 91 150
120 137 213
124 139 213
111 132 213
78 93 150
123 139 213
115 134 213
79 93 150
121 138 213
78 93 150
76 92 150
80 94 150
119 136 213
14 5 63
126 141 213
77 92 150
101 114 189
116 148 177
131 153 181
133 154 181
144 160 181
129 152 181
142 158 181
88 84 90
131 153 181
138 156 181
9 58 28
128 151 181
136 155 181
131 153 181
131 153 181
135 155 181
129 152 181
142 159 181
129 152 181
114 138 40
134 154 181
147 161 181
139 157 181
135 155 181
134 154 181
40 20 50
39 20 50
38 20 50
39 20 50
37 20 50
146 160 181
38 20 50
43 16 152
45 16 152
8 1 30
47 16 152
2 0 18
2 0 18
46 16 152
32 11 108
7 2 42
51 17 152
44 16 152
50 17 152
43 16 152
22 8 60
37 13 114
44 16 152
46 16 152
46 16 152
142 158 181
129 152 181
137 156 181
143 159 181
111 119 128
132 153 181
140 157 181
128 151 181
132 153 181
135 155 181
131 153 181
149 158 163
150 163 181
0 84 66
0 0 0
170 192 192
162 187 192
161 186 192
167 190 192
159 185 192
128 141 136
125 140 136
137 146 136
135 155 181
132 153 181
149 162 181
132 153 181
129 152 181
143 159 181
134 154 181
135 155 181
141 153 163
132 148 163
0 0 0
151 159 163
127 146 163
29 0 32
211 223 231
0 0 0
210 222 231
212 223 231
50 64 57
133 149 163
207 221 231
213 224 231
129 147 163
145 155 163
132 148 163
128 147 163
124 10 50
0 0 0
136 155 181
55 56 18
132 153 181
129 152 181
130 152 181
0 0 0
128 151 181
128 151 181
128 151 181
137 156 181
191 219 255
132 153 181
0 0 0
128 127 128
136 155 181
139 157 181
136 155 181
140 157 181
131 153 181
133 154 181
133 154 181
132 153 181
141 158 181
145 160 181
77 83 90
62 5 27
149 162 181
133 154 181
147 161 181
98 7 39
137 156 181
150 163 181
138 156 181
143 159 181
148 162 181
0 0 0
134 154 181
137 156 181
142 159 181
136 155 181
133 154 181
128 151 181
130 152 181
129 152 181
130 152 181
151 163 181
136 156 181
134 154 181
136 155 181
128 151 181
128 151 181
135 155 181
135 155 181
131 153 181
94 7 39
133 154 181
128 151 181
76 83 90
113 120 128
136 155 181
60 5 27
147 161 181
137 156 181
145 160 181
137 156 181
69 5 27
82 86 90
10 71 40
9 68 40
146 161 181
131 153 181
0 0 0
8 66 39
146 161 181
15 103 57
88 93 105
0 0 0
10 71 40
140 158 181
10 73 40
143 159 181
59 115 107
47 49 101
47 97 126
114 134 213
32 11 106
119 136 213
16 9 29
79 94 150
116 135 213
75 92 150
126 140 213
77 92 150
45 79 77
115 134 213
31 39 88
11 6 21
17 9 29
32 40 88
114 134 213
129 152 181
133 154 181
139 157 181
129 152 181
131 153 181
132 153 181
130 152 181
130 152 181
140 157 181
144 159 181
148 162 181
148 162 181
133 154 181
132 153 181
0 0 0
141 158 181
147 162 181
137 156 181
130 152 181
132 153 181
133 154 181
41 21 50
37 20 50
36 20 50
38 20 50
38 20 50
38 20 50
36 19 50
36 20 50
37 20 50
38 20 50
39 20 50
42 21 50
7 1 21
6 6 95
6 1 21
7 1 22
45 16 152
45 16 152
43 16 152
48 16 152
0 0 0
9 1 30
46 16 152
45 16 152
46 16 152
49 17 152
5 0 45
48 16 152
50 17 152
139 157 181
79 6 42
135 155 181
140 158 181
136 155 181
134 155 181
136 155 181
135 155 181
134 154 181
135 155 181
137 156 181
171 192 192
166 189 192
158 185 192
157 184 192
153 182 192
154 183 192
156 183 192
152 181 192
151 181 192
163 187 192
167 190 192
89 99 96
140 158 181
151 164 181
136 155 181
139 157 181
139 157 181
128 151 181
138 157 181
143 159 181
135 150 163
102 121 122
126 146 163
101 119 149
0 0 0
128 147 163
154 177 173
143 154 163
144 155 163
127 146 163
107 130 36
214 224 231
117 3 53
139 152 163
118 3 53
128 147 163
127 146 163
145 155 163
78 2 42
133 154 181
145 160 181
131 153 181
145 160 181
130 152 181
0 0 0
0 0 0
128 151 181
129 151 181
129 152 181
128 151 181
138 157 181
149 162 181
132 153 181
134 154 181
140 158 181
137 156 181
154 165 181
132 153 181
131 152 181
139 157 181
141 158 181
149 162 181
113 120 128
131 153 181
131 153 181
129 152 181
128 151 181
140 157 181
129 152 181
132 153 181
135 155 181
134 154 181
137 156 181
132 153 181
135 155 181
151 163 181
130 152 181
128 151 181
129 152 181
137 156 181
198 223 255
128 151 181
0 0 0
136 156 181
143 159 181
0 0 0
138 157 181
138 157 181
131 153 181
140 158 181
130 152 181
133 154 181
134 154 181
129 151 181
132 153 181
60 5 27
97 7 39
128 151 181
72 58 87
137 156 181
130 152 181
141 158 181
144 160 181
133 154 181
141 158 181
146 160 181
15 102 57
131 153 181
129 152 181
134 154 181
132 153 181
15 103 57
6 43 33
9 69 40
132 153 181
9 69 40
133 154 181
146 161 181
139 157 181
10 71 40
145 160 181
137 156 181
81 95 150
76 92 150
76 92 150
122 138 213
115 134 213
78 93 150
75 91 150
79 94 150
119 137 213
87 98 150
0 0 0
119 137 213
76 92 150
81 95 150
10 6 14
123 139 213
137 156 181
131 153 181
131 153 181
140 157 181
138 157 181
35 12 108
144 159 181
135 155 181
129 152 181
14 100 57
129 152 181
142 158 181
134 154 181
135 155 181
130 152 181
137 156 181
133 154 181
132 153 181
143 159 181
128 151 181
149 162 181
38 20 50
43 21 50
38 20 50
40 20 50
37 20 50
41 21 50
38 20 50
37 20 50
37 20 50
37 20 50
0 0 0
42 21 50
41 21 50
36 20 50
44 16 152
50 17 152
33 11 108
47 16 152
0 0 0
7 1 21
47 16 152
49 17 152
50 17 152
48 16 152
9 1 30
46 16 152
45 16 152
46 16 152
47 16 152
128 151 181
147 161 181
144 160 181
0 83 66
135 155 181
139 157 181
123 125 128
130 152 181
141 158 181
144 155 163
87 98 96
171 192 192
165 189 192
152 182 192
150 181 192
150 180 192
148 179 192
147 179 192
146 178 192
149 180 192
153 182 192
153 182 192
159 185 192
169 191 192
19 59 84
129 152 181
137 156 181
137 156 181
138 157 181
128 151 181
131 153 181
134 155 181
127 146 163
127 146 163
140 152 163
128 142 147
128 146 163
141 153 163
89 99 104
144 155 163
42 46 90
130 148 163
132 149 163
130 148 163
127 146 163
139 152 163
141 153 163
137 151 163
132 149 163
132 148 163
143 159 181
140 157 181
147 161 181
134 154 181
136 156 181
0 0 0
130 152 181
132 153 181
137 156 181
130 152 181
131 153 181
130 152 181
135 155 181
0 0 0
137 156 181
137 156 181
98 111 128
136 156 181
136 156 181
142 159 181
141 158 181
108 118 128
136 156 181
147 161 181
128 151 181
117 118 115
9 69 40
149 162 181
122 136 136
129 152 181
135 155 181
149 162 181
131 153 181
147 161 181
146 161 181
138 157 181
153 165 181
129 152 181
128 151 181
132 153 181
145 160 181
130 152 181
214 231 255
136 156 181
142 158 181
146 161 181
0 0 0
146 161 181
137 156 181
143 159 181
139 157 181
152 164 181
131 153 181
134 154 181
136 155 181
136 155 181
143 159 181
133 154 181
136 155 181
134 154 181
136 155 181
128 151 181
132 117 144
128 151 181
138 156 181
133 154 181
144 160 181
133 154 181
10 70 40
6 37 27
10 71 40
136 155 181
128 151 181
134 154 181
139 157 181
139 157 181
152 164 181
129 152 181
128 151 181
9 69 40
14 101 57
149 162 181
8 60 47
85 164 152
73 153 152
75 155 152
74 154 152
46 96 126
78 158 152
120 137 213
15 8 29
76 92 150
120 137 213
76 92 150
32 39 88
10 53 180
15 8 29
126 141 213
82 95 150
136 155 181
125 9 59
133 154 181
137 156 181
129 152 181
135 155 181
129 152 181
135 155 181
151 164 181
129 152 181
131 153 181
133 154 181
133 154 181
132 153 181
134 154 181
134 155 181
144 160 181
152 164 181
137 156 181
149 162 181
147 161 181
41 21 50
39 20 50
26 14 35
36 20 50
36 20 50
37 20 50
38 20 50
28 14 35
40 21 50
37 20 50
36 20 50
38 20 50
43 21 50
36 20 50
10 11 15
6 3 13
10 6 45
45 16 152
47 16 152
3 3 47
43 16 152
49 17 152
51 17 152
44 16 152
50 17 152
0 0 0
51 17 152
0 0 0
32 11 108
47 16 152
141 158 181
128 151 181
136 150 163
128 151 181
133 154 181
143 159 181
138 156 181
128 151 181
134 154 181
136 155 181
168 190 192
160 186 192
161 187 192
154 183 192
153 182 192
147 179 192
147 179 192
147 179 192
146 178 192
146 178 192
150 180 192
153 182 192
157 184 192
163 187 192
166 189 192
89 99 96
136 155 181
128 151 181
140 158 181
133 154 181
129 152 181
129 152 181
131 153 181
0 0 0
131 148 163
137 151 163
148 157 163
141 153 163
134 150 163
105 123 122
131 148 163
133 149 163
135 150 163
148 157 163
140 153 163
131 148 163
135 150 163
139 152 163
127 146 163
0 0 0
128 151 181
142 159 181
138 157 181
128 151 181
129 152 181
145 160 181
134 154 181
140 157 181
133 154 181
133 154 181
134 155 181
135 155 181
131 153 181
128 151 181
137 156 181
136 155 181
136 155 181
128 151 181
140 158 181
133 154 181
130 152 181
128 151 181
135 155 181
130 152 181
143 159 181
141 158 181
132 153 181
129 152 181
141 158 181
123 149 136
131 153 181
125 126 128
135 155 181
149 162 181
140 158 181
0 0 0
139 157 181
132 153 181
149 163 181
133 154 181
138 156 181
130 152 181
114 120 128
135 155 181
144 159 181
138 156 181
139 157 181
0 0 0
136 155 181
134 154 181
143 159 181
138 156 181
133 154 181
137 156 181
131 153 181
69 5 27
131 153 181
128 151 181
129 152 181
130 152 181
142 159 181
145 160 181
89 7 39
136 155 181
139 157 181
131 153 181
128 151 181
147 161 181
63 86 147
151 163 181
135 155 181
139 157 181
145 160 181
130 152 181
8 60 47
133 154 181
134 154 181
59 68 106
15 103 57
74 154 152
77 157 152
77 157 152
75 155 152
80 159 152
82 162 152
82 162 152
75 155 152
81 161 152
80 160 152
86 165 152
81 95 150
0 0 0
76 92 150
33 40 88
71 118 110
46 96 126
0 0 0
31 39 88
119 137 213
145 160 181
138 156 181
130 152 181
149 163 181
133 154 181
143 159 181
130 152 181
139 157 181
135 155 181
123 9 59
143 159 181
140 158 181
144 160 181
76 78 106
130 152 181
131 153 181
136 155 181
14 100 57
135 155 181
149 162 181
43 21 50
37 20 50
36 20 50
42 21 50
39 20 50
37 20 50
6 9 31
39 20 50
38 20 50
42 21 50
43 21 50
36 20 50
40 21 50
40 21 50
36 20 50
37 20 50
39 20 50
41 21 50
2 0 12
0 0 0
9 1 30
50 17 152
44 16 152
33 11 108
34 12 108
32 11 108
15 5 84
48 17 152
7 5 12
31 11 108
8 2 42
49 17 152
143 159 181
136 155 181
140 157 181
139 157 181
142 159 181
129 152 181
140 158 181
139 157 181
106 127 136
166 189 192
165 189 192
157 184 192
152 182 192
148 179 192
149 180 192
145 178 192
145 178 192
147 179 192
146 178 192
147 179 192
152 182 192
155 183 192
158 185 192
159 185 192
166 189 192
110 126 122
132 153 181
131 153 181
130 152 181
151 164 181
135 155 181
135 155 181
0 0 0
131 148 163
135 150 163
134 149 163
144 155 163
0 0 0
141 153 163
127 146 163
129 147 163
146 151 147
135 150 163
137 151 163
83 2 37
126 145 163
133 149 163
138 151 163
129 151 181
128 151 181
130 152 181
0 0 0
128 151 181
0 0 0
85 96 125
111 119 128
134 154 181
140 158 181
146 160 181
129 152 181
140 158 181
119 123 128
139 157 181
139 157 181
131 148 163
133 154 181
148 162 181
149 163 181
120 123 128
146 160 181
128 151 181
135 155 181
131 153 181
147 161 181
130 152 181
131 153 181
138 156 181
141 158 181
135 155 181
130 152 181
135 155 181
132 153 181
54 68 22
129 152 181
8 51 18
0 0 0
122 137 136
130 152 181
137 156 181
146 161 181
0 0 0
115 121 128
137 156 181
0 0 0
141 158 181
131 153 181
128 151 181
132 153 181
139 157 181
132 153 181
138 157 181
146 160 181
145 160 181
139 157 181
132 153 181
132 153 181
137 156 181
149 162 181
140 158 181
64 5 27
151 163 181
141 158 181
152 164 181
128 151 181
132 153 181
142 158 181
140 158 181
135 155 181
132 153 181
132 153 181
134 154 181
136 156 181
138 156 181
133 154 181
134 154 181
137 156 181
88 168 152
76 156 152
75 155 152
78 158 152
74 154 152
84 163 152
84 164 152
78 158 152
73 154 152
79 159 152
79 158 152
75 155 152
77 156 152
80 159 152
80 94 150
22 47 63
0 0 0
77 92 150
0 0 0
84 96 150
15 103 57
55 66 106
139 157 181
129 152 181
134 154 181
129 152 181
129 152 181
132 153 181
130 152 181
135 155 181
84 97 150
134 154 181
136 155 181
146 161 181
148 162 181
133 154 181
128 151 181
54 65 106
79 6 42
138 156 181
132 154 181
29 15 35
27 14 35
19 15 19
41 21 50
37 20 50
29 15 35
37 20 50
37 20 50
42 21 50
37 20 50
37 20 50
36 20 50
29 15 35
26 14 35
38 20 50
40 20 50
40 20 50
40 21 50
38 20 50
44 16 152
1 0 12
45 16 152
50 17 152
49 17 152
6 1 21
45 16 152
50 17 152
37 13 114
30 11 108
45 16 152
52 17 152
32 11 108
37 13 114
128 151 181
132 153 181
131 153 181
135 155 181
134 155 181
146 161 181
132 153 181
106 127 136
35 13 114
164 188 192
163 187 192
158 185 192
152 182 192
154 183 192
151 181 192
148 179 192
149 180 192
151 181 192
148 180 192
149 180 192
156 183 192
156 184 192
157 184 192
159 186 192
175 194 192
177 195 192
129 152 181
60 5 27
0 0 0
136 151 163
140 152 163
128 151 181
131 153 181
148 157 163
0 0 0
137 151 163
94 102 104
102 121 122
0 0 0
146 156 163
0 0 0
135 150 163
99 104 104
127 146 163
94 102 104
142 154 163
0 0 0
134 149 163
138 156 181
134 154 181
133 154 181
142 159 181
123 125 128
149 162 181
146 161 181
99 111 128
128 151 181
144 160 181
132 153 181
137 156 181
133 154 181
131 153 181
138 156 181
131 153 181
100 108 115
128 151 181
133 154 181
131 153 181
128 151 181
128 151 181
132 153 181
132 153 181
144 159 181
131 153 181
133 154 181
140 157 181
137 151 163
140 157 181
132 153 181
130 152 181
116 121 128
135 155 181
135 155 181
83 100 32
8 50 18
89 7 39
88 7 39
120 147 136
130 152 181
100 82 123
137 156 181
0 0 0
129 152 181
146 161 181
149 162 181
206 227 255
139 157 181
128 151 181
141 158 181
0 0 0
128 151 181
128 151 181
139 157 181
147 161 181
138 156 181
130 152 181
133 154 181
64 5 27
141 158 181
135 155 181
141 158 181
122 124 128
128 151 181
136 155 181
137 156 181
132 153 181
147 161 181
128 151 181
134 155 181
129 152 181
141 158 181
149 162 181
0 0 0
131 153 181
76 156 152
87 166 152
59 115 107
76 156 152
76 155 152
84 164 152
90 169 152
74 154 152
83 162 152
76 155 152
85 164 152
82 162 152
84 163 152
74 154 152
89 169 152
79 159 152
82 161 152
75 155 152
20 7 89
0 0 0
75 91 150
30 15 35
0 0 0
0 0 0
15 105 57
140 157 181
50 3 35
57 67 106
136 155 181
132 153 181
138 156 181
55 65 106
86 98 150
133 154 181
143 159 181
82 95 150
141 158 181
136 156 181
141 158 181
142 159 181
128 151 181
138 156 181
34 12 108
37 20 50
43 21 50
39 20 50
30 15 35
36 20 50
37 20 50
42 21 50
37 20 50
44 21 50
39 20 50
37 20 50
40 20 50
37 20 50
9 4 19
31 18 11
42 21 50
38 20 50
38 20 50
6 3 13
39 20 50
46 16 152
47 16 152
37 13 114
0 0 0
24 9 81
47 16 152
47 16 152
0 0 3
50 17 152
32 11 108
0 0 0
19 6 57
32 11 108
142 159 181
133 154 181
141 158 181
137 156 181
147 161 181
133 154 181
136 155 181
19 0 17
171 192 192
165 188 192
163 188 192
162 187 192
157 184 192
158 185 192
156 184 192
153 182 192
153 182 192
152 182 192
154 183 192
157 184 192
157 184 192
160 186 192
160 186 192
169 191 192
166 189 192
169 191 192
160 180 173
141 158 181
136 155 181
0 0 0
143 159 181
80 85 90
0 0 0
129 128 128
130 148 163
138 151 163
0 0 0
137 151 163
89 100 104
153 159 163
91 101 104
142 154 163
148 152 147
147 157 163
139 148 147
93 102 104
136 156 181
128 151 181
130 152 181
136 155 181
118 119 115
0 0 0
132 153 181
128 151 181
128 151 181
149 162 181
138 156 181
139 152 163
0 0 0
131 153 181
128 151 181
135 155 181
0 0 0
147 161 181
133 154 181
137 156 181
130 152 181
143 159 181
133 154 181
137 156 181
128 151 181
141 158 181
128 151 181
128 151 181
128 151 181
109 118 128
0 0 0
149 162 181
137 156 181
133 154 181
135 155 181
132 153 181
212 230 255
214 232 255
9 68 24
0 0 0
84 7 39
121 148 136
137 156 181
141 158 181
131 153 181
128 151 181
135 155 181
0 0 0
131 153 181
0 0 0
0 0 0
147 161 181
147 161 181
0 0 0
0 0 0
0 0 0
133 154 181
129 152 181
118 122 128
131 153 181
136 155 181
132 153 181
137 156 181
138 157 181
138 156 181
147 161 181
118 134 136
130 152 181
140 158 181
140 157 181
6 15 12
134 154 181
0 0 0
108 117 128
53 64 106
128 151 181
130 152 181
135 155 181
73 153 152
88 168 152
80 159 152
47 84 102
75 155 152
74 154 152
59 115 107
79 159 152
26 30 31
79 159 152
80 160 152
75 155 152
85 164 152
58 114 107
75 155 152
8 46 67
76 156 152
88 168 152
78 158 152
0 0 0
152 164 181
0 0 0
53 65 106
131 153 181
59 68 106
9 69 40
138 156 181
60 69 106
62 70 106
140 158 181
84 96 150
131 153 181
135 155 181
144 159 181
143 159 181
15 104 57
138 156 181
55 65 106
131 153 181
128 151 181
145 160 181
139 157 181
43 21 50
40 21 50
41 21 50
0 0 0
38 20 50
41 21 50
27 14 35
36 20 50
27 14 35
41 21 50
43 21 50
37 20 50
27 14 35
43 21 50
36 20 50
36 20 50
16 12 18
26 14 35
37 20 50
40 21 50
41 21 50
51 17 152
2 0 18
30 11 108
47 16 152
46 16 152
7 1 21
26 9 81
25 9 81
9 1 30
34 12 108
17 6 57
51 17 152
142 159 181
151 164 181
141 158 181
142 159 181
131 153 181
135 155 181
137 156 181
133 154 181
0 0 0
173 193 192
172 193 192
167 190 192
164 188 192
156 184 192
160 186 192
160 186 192
161 186 192
156 183 192
158 184 192
156 184 192
158 185 192
159 185 192
157 184 192
160 186 192
169 191 192
168 191 192
170 191 192
177 195 192
134 154 181
0 0 0
146 161 181
138 157 181
129 152 181
0 0 0
134 154 181
139 157 181
0 0 0
0 0 0
0 0 0
145 155 163
135 150 163
0 0 0
0 0 0
91 101 104
0 0 0
80 82 81
92 104 115
110 118 128
98 104 104
143 159 181
153 164 181
145 160 181
145 155 163
109 118 128
128 151 181
135 155 181
133 154 181
139 157 181
136 155 181
147 161 181
128 147 163
147 161 181
128 151 181
138 156 181
145 160 181
137 156 181
135 155 181
128 151 181
153 191 57
168 199 57
165 197 57
158 193 57
160 195 57
166 198 57
153 191 57
163 196 57
157 192 57
110 119 128
134 154 181
126 146 163
128 151 181
145 160 181
153 165 181
129 152 181
213 231 255
89 7 39
122 10 55
142 11 55
218 233 255
174 26 180
86 46 125
202 225 255
220 235 255
147 161 181
0 0 0
97 81 123
0 0 0
144 160 181
0 0 0
0 0 0
115 121 128
0 0 0
137 156 181
133 154 181
146 160 181
146 160 181
148 162 181
0 0 0
131 153 181
144 160 181
128 151 181
133 154 181
133 154 181
138 157 181
135 155 181
147 161 181
136 155 181
135 155 181
137 156 181
10 71 40
49 118 26
55 66 106
130 152 181
134 154 181
79 158 152
81 161 152
74 154 152
78 158 152
46 135 78
74 154 152
79 158 152
81 160 152
74 154 152
80 160 152
84 163 152
82 162 152
83 162 152
83 163 152
82 161 152
89 168 152
84 163 152
74 154 152
82 161 152
17 15 30
83 163 152
152 164 181
0 0 0
144 160 181
0 0 0
43 83 76
139 157 181
0 0 0
136 155 181
27 14 35
149 162 181
137 156 181
137 156 181
135 155 181
133 154 181
145 160 181
135 155 181
133 154 181
142 159 181
141 158 181
43 60 104
133 154 181
135 155 181
42 21 50
2 0 4
39 20 50
42 21 50
41 21 50
41 21 50
42 21 50
43 21 50
43 21 50
40 20 50
28 14 35
42 21 50
39 20 50
40 20 50
43 21 50
39 20 50
42 21 50
12 6 27
40 21 50
42 21 50
38 20 50
40 20 50
50 17 152
0 0 0
0 0 0
49 17 152
47 16 152
31 11 108
31 11 108
21 0 26
37 13 114
26 9 81
26 9 81
134 154 181
133 154 181
144 160 181
136 156 181
135 155 181
133 154 181
136 155 181
111 130 136
32 17 38
33 17 38
167 190 192
169 191 192
167 190 192
160 186 192
161 186 192
159 185 192
163 187 192
155 183 192
165 189 192
161 186 192
158 185 192
161 186 192
164 188 192
171 192 192
170 192 192
173 193 192
176 195 192
117 133 136
112 127 122
82 83 81
96 106 115
0 0 0
147 161 181
0 0 0
0 0 0
138 156 181
0 0 0
142 158 181
148 162 181
102 40 93
0 0 0
0 0 0
89 103 115
0 0 0
140 158 181
0 0 0
97 107 115
146 161 181
133 154 181
132 153 181
89 103 115
129 152 181
129 152 181
133 154 181
151 163 181
0 0 0
128 151 181
149 162 181
140 157 181
130 152 181
139 157 181
131 153 181
143 159 181
131 153 181
144 160 181
143 159 181
137 156 181
161 195 57
52 61 31
156 192 57
169 200 57
176 204 57
154 191 57
148 188 57
150 189 57
156 192 57
155 191 57
149 188 57
160 194 57
129 152 181
132 153 181
136 155 181
141 158 181
139 157 181
201 225 255
143 159 181
213 231 255
213 231 255
215 232 255
215 232 255
218 233 255
0 0 0
218 234 255
218 234 255
0 0 0
153 120 174
141 158 181
0 0 0
108 118 128
0 0 0
135 9 59
211 230 255
142 159 181
130 128 128
144 159 181
129 152 181
131 153 181
139 157 181
130 152 181
135 155 181
147 161 181
150 163 181
128 151 181
148 162 181
128 151 181
137 156 181
132 153 181
142 159 181
140 158 181
137 156 181
131 153 181
139 157 181
147 161 181
59 115 107
76 156 152
88 167 152
78 157 152
74 154 152
87 167 152
74 154 152
88 167 152
75 155 152
79 159 152
73 153 152
81 161 152
0 0 0
74 154 152
52 109 107
85 164 152
50 141 78
79 159 152
82 162 152
81 161 152
90 170 152
10 10 21
132 153 181
142 158 181
136 156 181
135 155 181
83 96 150
146 161 181
111 119 128
128 151 181
131 153 181
78 93 150
138 156 181
137 156 181
128 151 181
149 162 181
150 163 181
86 98 150
136 155 181
140 158 181
129 152 181
129 152 181
128 151 181
132 153 181
43 21 50
28 14 35
39 20 50
41 21 50
42 21 50
43 21 50
40 20 50
19 3 26
41 21 50
25 14 35
37 20 50
41 21 50
39 20 50
41 21 50
37 20 50
28 14 35
26 14 35
40 21 50
0 0 0
25 14 35
26 14 35
29 16 38
32 11 108
34 11 108
48 17 152
5 5 67
33 11 108
32 11 108
32 11 108
31 11 108
33 11 108
33 11 108
42 50 16
128 151 181
130 152 181
10 70 40
143 159 181
0 0 0
139 157 181
135 155 181
21 8 60
29 10 81
34 17 38
172 192 192
169 191 192
171 192 192
173 193 192
166 189 192
168 190 192
167 189 192
164 188 192
172 192 192
169 191 192
165 189 192
167 190 192
170 191 192
171 192 192
174 194 192
77 50 88
177 196 192
122 136 136
140 157 181
1 122 94
0 0 0
133 154 181
139 157 181
137 156 181
0 0 0
0 0 0
102 109 115
0 0 0
0 0 0
0 0 0
0 0 0
96 106 115
92 104 115
137 156 181
98 107 115
94 105 115
0 0 0
132 153 181
140 157 181
37 88 56
1 119 94
77 88 112
146 161 181
133 154 181
137 156 181
138 156 181
129 152 181
143 159 181
144 155 163
129 152 181
144 160 181
80 97 28
21 67 112
136 156 181
147 161 181
129 152 181
158 193 57
5 7 7
153 190 57
157 192 57
161 195 57
175 203 57
152 190 57
155 191 57
158 193 57
159 193 57
149 188 57
164 197 57
177 204 57
165 197 57
149 188 57
135 155 181
138 156 181
136 156 181
144 155 163
152 164 181
202 225 255
209 229 255
198 223 255
214 231 255
212 230 255
213 231 255
213 231 255
216 233 255
213 231 255
0 0 0
0 0 0
131 94 123
131 152 181
56 56 99
204 226 255
143 159 181
151 164 181
134 154 181
143 159 181
129 151 181
132 153 181
149 162 181
129 152 181
150 163 181
144 160 181
54 68 22
0 0 0
147 161 181
133 154 181
141 158 181
148 162 181
137 156 181
141 158 181
135 155 181
130 152 181
68 73 48
14 100 57
87 167 152
30 89 43
80 160 152
85 165 152
76 156 152
36 43 44
80 159 152
60 116 107
89 168 152
80 160 152
78 158 152
83 162 152
78 157 152
82 161 152
87 166 152
77 156 152
2 5 56
89 169 152
16 15 30
83 163 152
75 155 152
87 166 152
157 167 181
52 64 106
141 158 181
150 163 181
131 153 181
136 155 181
132 153 181
140 157 181
144 159 181
33 11 108
130 152 181
131 153 181
54 65 106
55 66 106
141 158 181
146 161 181
147 161 181
139 157 181
132 153 181
135 155 181
130 152 181
130 152 181
0 0 0
36 20 50
39 20 50
40 20 50
42 21 50
42 21 50
38 20 50
27 14 35
38 20 50
41 21 50
43 21 50
39 20 50
0 0 0
39 20 50
26 14 35
6 9 31
41 21 50
39 20 50
37 20 50
25 14 35
38 20 50
27 14 35
34 12 108
34 11 108
34 12 108
30 11 108
46 16 152
33 11 108
48 17 152
0 0 0
31 11 108
5 0 16
132 153 181
31 11 108
147 161 181
128 151 181
35 12 108
129 152 181
145 160 181
147 162 181
25 9 81
0 0 0
29 16 38
113 131 136
104 127 136
173 193 192
174 193 192
174 194 192
172 193 192
171 192 192
170 191 192
170 191 192
165 189 192
170 191 192
169 191 192
171 192 192
128 161 42
135 166 42
51 34 62
116 133 136
119 135 136
113 127 122
142 154 163
154 165 181
0 0 0
141 153 163
134 154 181
139 152 163
129 152 181
146 160 181
0 0 0
0 0 0
100 108 115
99 108 115
138 152 163
0 0 0
142 154 163
124 3 53
138 156 181
140 152 163
146 161 181
138 156 181
108 113 115
140 153 163
129 152 181
76 91 96
131 153 181
132 153 181
130 152 181
140 157 181
138 156 181
138 157 181
141 153 163
136 155 181
147 161 181
144 160 181
134 154 181
146 161 181
151 189 57
167 198 57
157 193 57
0 0 0
173 202 57
154 191 57
104 132 40
159 194 57
160 194 57
180 206 57
156 192 57
157 193 57
149 188 57
179 206 57
155 192 57
166 198 57
154 191 57
128 151 181
130 152 181
128 151 181
144 160 181
209 229 255
199 223 255
203 226 255
205 227 255
208 228 255
208 228 255
211 230 255
209 229 255
213 231 255
48 15 57
173 176 181
116 121 128
163 171 181
166 173 181
205 227 255
139 157 181
142 158 181
0 0 0
141 158 181
134 154 181
143 159 181
146 161 181
131 153 181
137 156 181
154 165 181
139 157 181
136 155 181
128 151 181
136 155 181
129 152 181
128 151 181
134 154 181
130 152 181
129 152 181
128 151 181
85 97 150
134 154 181
74 154 152
17 8 28
55 112 107
86 165 152
82 162 152
79 158 152
74 154 152
77 157 152
80 160 152
75 155 152
79 159 152
57 113 107
6 34 47
76 156 152
54 111 107
52 109 107
79 158 152
87 166 152
53 109 107
22 66 39
55 111 107
74 154 152
0 0 0
147 161 181
133 154 181
132 153 181
134 154 181
146 161 181
0 0 0
146 161 181
140 158 181
36 12 108
137 156 181
128 151 181
133 154 181
138 156 181
141 158 181
118 9 59
10 6 21
134 154 181
132 153 181
142 158 181
139 157 181
131 153 181
3 0 4
26 14 35
27 14 35
41 21 50
43 21 50
27 14 35
40 21 50
26 14 35
6 8 31
38 20 50
3 6 22
26 14 35
28 14 35
3 1 3
42 21 50
38 20 50
41 21 50
38 20 50
39 20 50
0 0 0
25 14 35
32 11 108
31 11 108
0 0 0
5 0 45
31 11 108
7 1 21
0 0 0
34 12 108
32 11 108
26 9 81
137 156 181
149 162 181
26 8 76
85 95 96
131 153 181
131 153 181
132 153 181
141 158 181
130 152 181
26 9 81
114 132 136
20 11 26
18 10 20
43 91 80
111 130 136
0 0 0
27 83 119
26 82 119
0 0 0
174 194 192
37 42 74
45 51 79
81 102 124
103 126 136
116 133 136
132 164 42
140 169 42
105 127 136
104 126 136
25 28 53
140 157 181
0 0 0
144 160 181
130 152 181
135 155 181
142 159 181
137 156 181
140 157 181
96 106 115
131 152 181
103 107 104
140 157 181
131 153 181
140 158 181
143 154 163
150 163 181
134 154 181
90 103 115
141 158 181
139 152 163
135 150 163
0 0 0
128 151 181
131 153 181
149 162 181
0 0 0
0 0 0
99 108 115
142 159 181
147 161 181
131 153 181
130 152 181
150 163 181
146 161 181
138 156 181
141 158 181
112 136 40
156 192 57
106 133 40
158 193 57
158 193 57
167 198 57
170 200 57
151 189 57
154 191 57
152 190 57
153 191 57
165 197 57
156 192 57
149 188 57
161 195 57
149 188 57
152 190 57
171 201 57
54 136 9
135 155 181
131 153 181
143 159 181
134 154 181
135 155 181
201 225 255
198 223 255
203 226 255
202 225 255
205 227 255
202 225 255
172 176 181
163 171 181
153 166 181
198 223 255
200 224 255
199 223 255
138 156 181
138 156 181
132 153 181
135 155 181
129 152 181
138 157 181
132 153 181
142 159 181
147 161 181
147 161 181
134 154 181
144 159 181
130 152 181
136 155 181
134 154 181
133 154 181
136 155 181
137 156 181
147 161 181
144 160 181
135 155 181
132 153 181
83 163 152
77 157 152
86 165 152
78 158 152
77 157 152
74 154 152
75 155 152
84 163 152
74 154 152
0 0 0
79 159 152
60 116 107
75 155 152
80 159 152
85 164 152
59 115 107
0 0 0
87 166 152
53 109 107
73 154 152
83 162 152
63 119 107
84 163 152
11 10 21
143 159 181
59 68 106
140 158 181
129 152 181
131 153 181
141 158 181
143 159 181
140 157 181
136 155 181
135 155 181
128 151 181
139 157 181
131 153 181
129 152 181
149 163 181
139 157 181
128 151 181
132 153 181
128 151 181
131 153 181
139 157 181
26 14 35
29 15 35
28 14 35
27 14 35
40 21 50
43 21 50
9 4 19
43 21 50
41 21 50
41 21 50
26 14 35
40 21 50
13 6 27
44 22 50
27 14 35
13 6 27
1 0 9
29 14 35
26 14 35
30 16 38
4 6 22
30 11 108
31 11 108
0 0 0
0 0 0
10 3 59
30 11 108
5 0 45
31 11 108
8 0 64
147 161 181
0 0 0
132 153 181
134 154 181
23 8 76
23 8 76
136 155 181
135 155 181
144 160 181
129 152 181
128 151 181
7 9 3
17 55 84
0 0 0
113 131 136
60 108 70
0 0 0
23 78 119
25 80 119
16 54 84
9 4 15
34 40 74
116 133 136
103 126 136
103 126 136
108 129 136
106 128 136
104 127 136
117 134 136
105 127 136
85 106 102
114 132 136
0 0 0
93 105 115
141 158 181
137 151 163
140 157 181
146 161 181
78 2 42
0 0 0
92 104 115
137 151 163
140 158 181
140 158 181
24 8 76
144 160 181
137 151 163
139 157 181
131 153 181
140 157 181
141 158 181
136 155 181
135 155 181
129 152 181
141 158 181
0 0 0
128 151 181
142 158 181
136 155 181
128 151 181
133 154 181
143 154 163
136 155 181
136 155 181
130 148 163
140 157 181
106 133 40
152 190 57
150 189 57
0 0 0
159 194 57
156 192 57
151 189 57
154 191 57
162 195 57
159 194 57
178 205 57
148 188 57
153 190 57
171 201 57
172 201 57
173 202 57
155 192 57
0 0 0
151 189 57
174 202 57
146 161 181
136 155 181
145 160 181
130 152 181
143 159 181
131 153 181
191 219 255
130 152 181
193 220 255
198 223 255
198 223 255
193 220 255
200 224 255
0 0 0
192 219 255
135 155 181
138 156 181
147 161 181
103 125 176
128 151 181
140 157 181
142 158 181
147 161 181
132 153 181
128 151 181
147 161 181
137 156 181
128 151 181
146 161 181
136 156 181
131 153 181
131 153 181
130 152 181
130 152 181
137 156 181
129 151 181
131 153 181
133 154 181
134 154 181
85 164 152
83 162 152
22 64 30
85 164 152
84 164 152
55 111 107
38 23 79
75 155 152
87 166 152
47 137 78
89 168 152
83 163 152
77 157 152
0 0 0
53 110 107
78 158 152
54 111 107
76 155 152
6 34 47
0 0 0
80 160 152
84 163 152
14 26 41
0 0 0
57 67 106
128 151 181
140 158 181
137 156 181
135 155 181
130 152 181
133 154 181
128 151 181
134 154 181
138 157 181
140 157 181
128 151 181
53 65 106
112 120 128
130 152 181
139 157 181
133 154 181
137 156 181
136 156 181
138 156 181
141 158 181
36 20 50
40 20 50
41 21 50
41 21 50
28 14 35
41 21 50
27 14 35
40 20 50
41 21 50
38 20 50
40 20 50
6 8 11
38 20 50
0 0 4
37 20 50
27 14 35
40 21 50
5 1 7
0 0 0
6 1 7
25 14 35
0 0 0
31 11 108
0 0 0
34 12 108
5 0 45
34 12 108
22 8 76
136 156 181
129 152 181
24 8 76
137 156 181
23 8 76
132 153 181
24 8 76
21 8 76
138 156 181
0 0 0
110 129 136
14 7 39
113 132 136
108 129 136
103 126 136
105 127 136
0 0 0
118 134 136
112 130 136
0 0 0
113 131 136
114 132 136
0 0 0
0 0 0
37 42 74
64 70 141
65 71 141
68 73 141
62 69 141
62 69 141
66 71 141
64 70 141
109 129 136
128 151 181
90 103 115
98 107 115
140 157 181
146 161 181
96 106 115
136 155 181
133 154 181
140 157 181
129 152 181
80 93 96
91 104 115
150 158 163
75 87 86
128 151 181
146 161 181
129 151 181
148 162 181
90 103 115
139 157 181
0 0 0
132 153 181
96 106 115
143 159 181
136 155 181
134 154 181
132 153 181
136 155 181
138 156 181
130 152 181
128 151 181
128 151 181
145 160 181
133 154 181
141 158 181
159 193 57
114 138 40
117 139 40
175 203 57
156 192 57
163 196 57
0 0 0
155 192 57
166 198 57
158 193 57
174 202 57
151 189 57
161 195 57
154 191 57
150 189 57
157 192 57
163 196 57
155 192 57
152 190 57
156 192 57
0 0 0
141 158 181
143 159 181
142 158 181
131 153 181
129 152 181
129 152 181
128 151 181
132 153 181
151 164 181
189 218 255
153 164 181
139 157 181
147 161 181
130 152 181
143 159 181
140 158 181
147 161 181
136 155 181
153 164 181
128 151 181
142 158 181
116 121 128
142 158 181
134 154 181
136 155 181
132 153 181
136 155 181
137 156 181
46 30 59
135 155 181
138 156 181
129 152 181
128 151 181
141 158 181
138 157 181
144 159 181
143 159 181
130 152 181
73 153 152
56 113 107
55 111 107
81 160 152
80 159 152
86 165 152
77 157 152
81 160 152
15 44 21
78 157 152
59 115 107
83 162 152
81 161 152
51 142 78
53 109 107
80 160 152
59 115 107
80 160 152
54 111 107
30 56 15
56 112 107
56 112 107
27 51 83
3 36 39
133 154 181
142 159 181
137 156 181
128 151 181
18 10 25
147 161 181
139 157 181
139 157 181
131 153 181
129 152 181
130 152 181
138 156 181
14 8 64
129 151 181
134 154 181
135 155 181
132 153 181
136 155 181
78 92 96
129 152 181
134 154 181
139 157 181
28 14 35
28 14 35
28 14 35
0 0 0
0 0 0
26 14 35
27 14 35
6 8 31
40 21 50
25 14 35
39 20 50
26 14 35
27 14 35
43 21 50
26 14 35
41 21 50
42 21 50
37 20 50
27 14 35
27 14 35
142 159 181
22 8 76
0 0 0
25 8 76
23 8 76
0 0 0
22 8 76
22 8 76
23 8 76
0 0 0
0 0 0
130 9 59
21 8 76
0 6 39
137 156 181
19 6 54
135 155 181
144 160 181
105 127 136
115 132 136
106 127 136
104 126 136
108 129 136
107 128 136
106 127 136
105 127 136
108 129 136
3 15 63
62 69 141
33 20 41
60 68 141
64 70 141
60 68 141
62 69 141
61 69 141
71 74 141
69 73 141
63 70 141
62 69 141
71 74 141
20 7 60
134 154 181
96 106 115
132 153 181
132 153 181
0 0 0
132 153 181
133 149 163
128 151 181
129 152 181
131 153 181
131 153 181
132 153 181
136 155 181
132 153 181
132 153 181
145 155 163
146 156 163
129 152 181
139 157 181
94 105 115
141 158 181
135 155 181
142 158 181
133 154 181
17 55 84
131 153 181
129 152 181
134 154 181
150 158 163
142 158 181
133 154 181
132 153 181
0 0 0
150 189 57
177 204 57
111 136 40
178 205 57
163 196 57
35 42 22
120 141 40
158 193 57
153 190 57
173 202 57
148 188 57
169 199 57
152 190 57
116 139 40
169 199 57
154 191 57
179 206 57
117 140 40
151 189 57
163 196 57
114 138 40
165 197 57
136 155 181
140 157 181
137 156 181
93 108 128
130 152 181
128 151 181
145 160 181
129 151 181
128 151 181
128 151 181
0 0 0
129 152 181
130 152 181
132 153 181
132 153 181
131 153 181
133 154 181
143 159 181
135 155 181
131 153 181
138 156 181
136 155 181
141 158 181
140 157 181
137 156 181
130 152 181
152 164 181
132 153 181
146 161 181
118 122 128
131 153 181
0 0 0
146 161 181
130 152 181
148 162 181
128 151 181
129 152 181
136 155 181
133 154 181
74 154 152
58 114 107
85 164 152
78 157 152
57 113 107
81 161 152
54 111 107
0 0 0
77 157 152
81 160 152
74 154 152
0 0 0
80 160 152
59 115 107
80 160 152
46 136 78
81 161 152
53 109 107
79 159 152
76 156 152
33 69 89
85 164 152
55 111 107
136 155 181
142 158 181
129 152 181
128 151 181
132 153 181
143 159 181
135 155 181
135 155 181
150 163 181
145 160 181
0 0 0
81 6 42
133 154 181
128 151 181
128 151 181
138 156 181
131 153 181
135 155 181
134 154 181
130 152 181
136 156 181
128 151 181
27 14 35
43 21 50
10 10 21
28 14 35
3 0 4
40 21 50
27 14 35
11 8 10
0 0 0
26 14 35
41 21 50
9 4 19
26 14 35
28 14 35
28 14 35
26 14 35
41 21 50
27 14 35
42 21 50
15 8 19
0 0 0
0 0 0
32 97 159
29 93 159
29 93 159
0 0 0
140 157 181
34 100 159
134 154 181
0 0 0
24 4 44
17 6 57
138 156 181
23 8 76
21 7 68
145 160 181
129 152 181
135 155 181
35 12 108
132 153 181
144 160 181
18 6 57
0 0 0
0 0 0
86 107 102
105 127 136
113 131 136
63 70 141
65 71 141
1 6 28
63 70 141
61 69 141
67 72 141
61 69 141
68 72 141
68 72 141
62 69 141
73 75 141
57 1 46
62 69 141
61 69 141
49 56 129
137 156 181
139 157 181
133 154 181
129 152 181
130 152 181
134 154 181
134 154 181
132 153 181
26 13 32
134 155 181
150 158 163
146 161 181
91 104 115
129 152 181
141 158 181
137 156 181
128 151 181
136 155 181
134 154 181
141 158 181
142 158 181
115 121 128
140 158 181
135 155 181
131 153 181
144 155 163
146 161 181
143 159 181
132 153 181
150 163 181
128 151 181
131 153 181
138 156 181
123 143 40
178 205 57
180 206 57
153 191 57
153 190 57
154 191 57
88 118 8
175 203 57
160 194 57
157 193 57
150 189 57
156 192 57
123 143 40
0 0 0
172 201 57
151 189 57
170 200 57
107 134 40
163 196 57
180 206 57
154 191 57
180 206 57
131 153 181
140 158 181
135 155 181
128 146 163
149 162 181
146 161 181
147 161 181
145 160 181
138 156 181
108 116 128
129 152 181
130 152 181
0 0 0
132 153 181
131 129 128
133 154 181
111 129 165
144 159 181
138 157 181
148 162 181
132 153 181
135 155 181
148 162 181
145 160 181
130 152 181
131 153 181
45 29 59
136 155 181
134 154 181
131 153 181
129 152 181
129 152 181
131 153 181
47 44 61
132 153 181
139 157 181
129 152 181
63 119 107
0 0 0
80 160 152
82 161 152
86 165 152
56 112 107
83 162 152
52 109 107
79 158 152
18 95 46
75 155 152
78 158 152
60 116 107
49 140 78
56 113 107
0 0 0
55 112 107
85 164 152
50 141 78
57 113 107
52 108 107
75 155 152
88 167 152
17 15 30
130 152 181
131 153 181
133 154 181
150 163 181
131 153 181
30 15 35
133 154 181
137 156 181
0 0 0
135 155 181
128 151 181
133 154 181
135 155 181
29 15 35
138 156 181
130 152 181
134 154 181
128 151 181
129 152 181
128 151 181
133 154 181
141 158 181
3 1 5
43 21 50
26 14 35
0 0 0
40 21 50
39 20 50
6 9 31
41 21 50
0 0 0
42 21 50
3 0 4
28 14 35
0 0 0
26 14 35
27 14 35
0 0 0
30 16 38
44 21 50
4 6 22
135 155 181
31 96 159
28 91 159
28 91 159
32 97 159
28 91 159
29 94 159
28 92 159
28 92 159
20 21 36
32 98 159
34 100 159
139 157 181
76 91 96
136 155 181
128 151 181
136 155 181
130 152 181
141 158 181
146 161 181
34 12 108
25 8 76
134 154 181
103 126 136
109 129 136
113 131 136
121 136 136
9 30 88
64 70 141
69 73 141
67 72 141
69 73 141
65 71 141
65 71 141
63 70 141
67 72 141
70 73 141
61 69 141
64 70 141
60 68 141
69 73 141
51 61 31
60 68 141
61 69 141
61 69 141
129 152 181
33 11 108
132 153 181
137 156 181
128 151 181
102 109 115
137 156 181
110 129 136
133 154 181
136 155 181
143 159 181
142 158 181
145 160 181
146 156 163
92 108 128
132 153 181
130 152 181
136 156 181
135 155 181
147 161 181
142 159 181
131 153 181
134 154 181
135 155 181
133 154 181
135 155 181
133 154 181
135 155 181
144 160 181
137 156 181
167 198 57
169 199 57
178 205 57
170 200 57
50 61 31
171 201 57
53 62 31
156 192 57
166 198 57
162 195 57
154 191 57
115 138 40
119 45 13
167 199 57
154 191 57
105 133 40
109 135 40
157 193 57
166 198 57
173 202 57
155 191 57
166 197 57
155 191 57
144 160 181
131 153 181
132 153 181
151 163 181
133 154 181
133 154 181
132 153 181
133 154 181
132 153 181
142 159 181
142 158 181
134 155 181
134 154 181
139 157 181
147 161 181
131 153 181
138 157 181
132 153 181
133 154 181
129 151 181
129 152 181
129 152 181
143 159 181
132 153 181
134 154 181
130 152 181
132 153 181
132 153 181
130 152 181
142 158 181
132 153 181
137 156 181
