P3
400 225
255
163 200 255
163 200 255
163 200 255
163 200 255
163 200 255
163 200 255
163 200 255
163 200 255
163 200 255
163 200 255
163 200 255
162 200 255
162 200 255
162 200 255
162 199 255
162 199 255
162 199 255
162 199 255
162 199 255
162 199 255
162 199 255
161 199 255
161 199 255
161 199 255
161 199 255
161 199 255
161 199 255
161 199 255
161 199 255
161 199 255
161 199 255
161 199 255
160 198 255
160 198 255
160 198 255
160 198 255
160 198 255
160 198 255
160 198 255
160 198 255
160 198 255
160 198 255
159 198 255
159 198 255
159 198 255
159 198 255
159 198 255
159 198 255
159 197 255
159 197 255
159 197 255
159 197 255
158 197 255
158 197 255
158 197 255
158 197 255
158 197 255
158 197 255
158 197 255
158 197 255
158 197 255
157 197 255
157 197 255
157 197 255
157 196 255
157 196 255
157 196 255
157 196 255
157 196 255
157 196 255
157 196 255
156 196 255
156 196 255
156 196 255
156 196 255
156 196 255
156 196 255
156 196 255
156 196 255
156 196 255
155 195 255
155 195 255
155 195 255
155 195 255
155 195 255
155 195 255
155 195 255
155 195 255
155 195 255
154 195 255
154 195 255
154 195 255
154 195 255
154 195 255
154 195 255
154 194 255
154 194 255
154 194 255
153 194 255
153 194 255
153 194 255
153 194 255
153 194 255
153 194 255
153 194 255
153 194 255
153 194 255
152 194 255
152 194 255
152 194 255
152 193 255
152 193 255
152 193 255
152 193 255
152 193 255
152 193 255
152 193 255
151 193 255
151 193 255
151 193 255
151 193 255
151 193 255
151 193 255
151 193 255
151 193 255
151 193 255
151 193 255
150 192 255
150 192 255
150 192 255
150 192 255
150 192 255
150 192 255
150 192 255
150 192 255
150 192 255
150 192 255
149 192 255
149 192 255
149 192 255
149 192 255
149 192 255
149 192 255
149 192 255
149 192 255
149 191 255
149 191 255
149 191 255
149 191 255
148 191 255
148 191 255
148 191 255
148 191 255
148 191 255
148 191 255
148 191 255
148 191 255
148 191 255
148 191 255
148 191 255
148 191 255
148 191 255
148 191 255
148 191 255
147 191 255
147 191 255
147 191 255
147 191 255
147 191 255
147 190 255
147 190 255
147 190 255
147 190 255
147 190 255
147 190 255
147 190 255
147 190 255
147 190 255
147 190 255
147 190 255
147 190 255
147 190 255
147 190 255
147 190 255
147 190 255
147 190 255
147 190 255
146 190 255
146 190 255
146 190 255
146 190 255
146 190 255
146 190 255
146 190 255
146 190 255
146 190 255
146 190 255
146 190 255
146 190 255
146 190 255
146 190 255
146 190 255
146 190 255
146 190 255
146 190 255
146 190 255
146 190 255
146 190 255
146 190 255
146 190 255
146 190 255
146 190 255
146 190 255
147 190 255
147 190 255
147 190 255
147 190 255
147 190 255
147 190 255
147 190 255
147 190 255
147 190 255
147 190 255
147 190 255
147 190 255
147 190 255
147 190 255
147 190 255
147 190 255
147 190 255
147 190 255
147 191 255
147 191 255
147 191 255
147 191 255
147 191 255
147 191 255
148 191 255
148 191 255
148 191 255
148 191 255
148 191 255
148 191 255
148 191 255
148 191 255
148 191 255
148 191 255
148 191 255
148 191 255
148 191 255
148 191 255
149 191 255
149 191 255
149 191 255
149 191 255
149 192 255
149 192 255
149 192 255
149 192 255
149 192 255
149 192 255
149 192 255
149 192 255
150 192 255
150 192 255
150 192 255
150 192 255
150 192 255
150 192 255
150 192 255
150 192 255
150 192 255
150 192 255
151 193 255
151 193 255
151 193 255
151 193 255
151 193 255
151 193 255
151 193 255
151 193 255
151 193 255
151 193 255
152 193 255
152 193 255
152 193 255
152 193 255
152 193 255
152 193 255
152 194 255
152 194 255
152 194 255
152 194 255
153 194 255
153 194 255
153 194 255
153 194 255
153 194 255
153 194 255
153 194 255
153 194 255
153 194 255
154 194 255
154 194 255
154 194 255
154 195 255
154 195 255
154 195 255
154 195 255
154 195 255
154 195 255
155 195 255
155 195 255
155 195 255
155 195 255
155 195 255
155 195 255
155 195 255
155 195 255
155 195 255
156 196 255
156 196 255
156 196 255
156 196 255
156 196 255
156 196 255
156 196 255
156 196 255
156 196 255
157 196 255
157 196 255
157 196 255
157 196 255
157 196 255
157 196 255
157 196 255
157 197 255
157 197 255
157 197 255
158 197 255
158 197 255
158 197 255
158 197 255
158 197 255
158 197 255
158 197 255
158 197 255
158 197 255
159 197 255
159 197 255
159 197 255
159 197 255
159 198 255
159 198 255
159 198 255
159 198 255
159 198 255
159 198 255
160 198 255
160 198 255
160 198 255
160 198 255
160 198 255
160 198 255
160 198 255
160 198 255
160 198 255
160 198 255
161 199 255
161 199 255
161 199 255
161 199 255
161 199 255
161 199 255
161 199 255
161 199 255
161 199 255
161 199 255
162 199 255
162 199 255
162 199 255
162 199 255
162 199 255
162 199 255
162 199 255
162 199 255
162 200 255
162 200 255
162 200 255
162 200 255
163 200 255
163 200 255
163 200 255
163 200 255
163 200 255
163 200 255
163 200 255
163 200 255
163 200 255
163 200 255
164 200 255
164 200 255
163 200 255
163 200 255
163 200 255
163 200 255
163 200 255
163 200 255
163 200 255
163 200 255
163 200 255
163 200 255
163 200 255
162 200 255
162 200 255
162 200 255
162 200 255
162 199 255
162 199 255
162 199 255
162 199 255
162 199 255
162 199 255
162 199 255
161 199 255
161 199 255
161 199 255
161 199 255
161 199 255
161 199 255
161 199 255
161 199 255
161 199 255
161 199 255
160 198 255
160 198 255
160 198 255
160 198 255
160 198 255
160 198 255
160 198 255
160 198 255
160 198 255
160 198 255
159 198 255
159 198 255
159 198 255
159 198 255
159 198 255
159 198 255
159 198 255
159 197 255
159 197 255
159 197 255
158 197 255
158 197 255
158 197 255
158 197 255
158 197 255
158 197 255
158 197 255
158 197 255
158 197 255
157 197 255
157 197 255
157 197 255
157 196 255
157 196 255
157 196 255
157 196 255
157 196 255
157 196 255
157 196 255
156 196 255
156 196 255
156 196 255
156 196 255
156 196 255
156 196 255
156 196 255
156 196 255
156 196 255
155 195 255
155 195 255
155 195 255
155 195 255
155 195 255
155 195 255
155 195 255
155 195 255
155 195 255
154 195 255
154 195 255
154 195 255
154 195 255
154 195 255
154 195 255
154 194 255
154 194 255
154 194 255
153 194 255
153 194 255
153 194 255
153 194 255
153 194 255
153 194 255
153 194 255
153 194 255
153 194 255
152 194 255
152 194 255
152 194 255
152 194 255
152 193 255
152 193 255
152 193 255
152 193 255
152 193 255
152 193 255
151 193 255
151 193 255
151 193 255
151 193 255
151 193 255
151 193 255
151 193 255
151 193 255
151 193 255
151 193 255
150 192 255
150 192 255
150 192 255
150 192 255
150 192 255
150 192 255
150 192 255
150 192 255
150 192 255
150 192 255
150 192 255
149 192 255
149 192 255
149 192 255
149 192 255
149 192 255
149 192 255
149 192 255
149 191 255
149 191 255
149 191 255
149 191 255
149 191 255
148 191 255
148 191 255
148 191 255
148 191 255
148 191 255
148 191 255
148 191 255
148 191 255
148 191 255
148 191 255
148 191 255
148 191 255
148 191 255
148 191 255
148 191 255
147 191 255
147 191 255
147 191 255
147 191 255
147 191 255
147 191 255
147 191 255
147 190 255
147 190 255
147 190 255
147 190 255
147 190 255
147 190 255
147 190 255
147 190 255
147 190 255
147 190 255
147 190 255
147 190 255
147 190 255
147 190 255
147 190 255
147 190 255
147 190 255
147 190 255
147 190 255
147 190 255
147 190 255
147 190 255
147 190 255
147 190 255
147 190 255
147 190 255
147 190 255
147 190 255
147 190 255
147 190 255
147 190 255
147 190 255
147 190 255
147 190 255
147 190 255
147 190 255
147 190 255
147 190 255
147 190 255
147 190 255
147 190 255
147 190 255
147 190 255
147 190 255
147 190 255
147 190 255
147 190 255
147 190 255
147 190 255
147 190 255
147 190 255
147 190 255
147 191 255
147 191 255
147 191 255
147 191 255
147 191 255
147 191 255
147 191 255
148 191 255
148 191 255
148 191 255
148 191 255
148 191 255
148 191 255
148 191 255
148 191 255
148 191 255
148 191 255
148 191 255
148 191 255
148 191 255
148 191 255
148 191 255
149 191 255
149 191 255
149 191 255
149 191 255
149 191 255
149 192 255
149 192 255
149 192 255
149 192 255
149 192 255
149 192 255
149 192 255
150 192 255
150 192 255
150 192 255
150 192 255
150 192 255
150 192 255
150 192 255
150 192 255
150 192 255
150 192 255
150 192 255
151 193 255
151 193 255
151 193 255
151 193 255
151 193 255
151 193 255
151 193 255
151 193 255
151 193 255
151 193 255
152 193 255
152 193 255
152 193 255
152 193 255
152 193 255
152 193 255
152 194 255
152 194 255
152 194 255
153 194 255
153 194 255
153 194 255
153 194 255
153 194 255
153 194 255
153 194 255
153 194 255
153 194 255
153 194 255
154 194 255
154 194 255
154 194 255
154 195 255
154 195 255
154 195 255
154 195 255
154 195 255
154 195 255
155 195 255
155 195 255
155 195 255
155 195 255
155 195 255
155 195 255
155 195 255
155 195 255
155 195 255
156 196 255
156 196 255
156 196 255
156 196 255
156 196 255
156 196 255
156 196 255
156 196 255
156 196 255
157 196 255
157 196 255
157 196 255
157 196 255
157 196 255
157 196 255
157 197 255
157 197 255
157 197 255
157 197 255
158 197 255
158 197 255
158 197 255
158 197 255
158 197 255
158 197 255
158 197 255
158 197 255
158 197 255
159 197 255
159 197 255
159 197 255
159 198 255
159 198 255
159 198 255
159 198 255
159 198 255
159 198 255
159 198 255
160 198 255
160 198 255
160 198 255
160 198 255
160 198 255
160 198 255
160 198 255
160 198 255
160 198 255
160 198 255
161 199 255
161 199 255
161 199 255
161 199 255
161 199 255
161 199 255
161 199 255
161 199 255
161 199 255
161 199 255
162 199 255
162 199 255
162 199 255
162 199 255
162 199 255
162 199 255
162 199 255
162 199 255
162 200 255
162 200 255
162 200 255
163 200 255
163 200 255
163 200 255
163 200 255
163 200 255
163 200 255
163 200 255
163 200 255
163 200 255
163 200 255
163 200 255
164 200 255
164 200 255
164 200 255
164 200 255
164 200 255
164 200 255
163 200 255
163 200 255
163 200 255
163 200 255
163 200 255
163 200 255
163 200 255
163 200 255
163 200 255
163 200 255
163 200 255
162 200 255
162 200 255
162 200 255
162 200 255
162 199 255
162 199 255
162 199 255
162 199 255
162 199 255
162 199 255
162 199 255
161 199 255
161 199 255
161 199 255
161 199 255
161 199 255
161 199 255
161 199 255
161 199 255
161 199 255
161 199 255
160 198 255
160 198 255
160 198 255
160 198 255
160 198 255
160 198 255
160 198 255
160 198 255
160 198 255
160 198 255
159 198 255
159 198 255
159 198 255
159 198 255
159 198 255
159 198 255
159 198 255
159 197 255
159 197 255
159 197 255
158 197 255
158 197 255
158 197 255
158 197 255
158 197 255
158 197 255
158 197 255
158 197 255
158 197 255
157 197 255
157 197 255
157 197 255
157 197 255
157 196 255
157 196 255
157 196 255
157 196 255
157 196 255
157 196 255
156 196 255
156 196 255
156 196 255
156 196 255
156 196 255
156 196 255
156 196 255
156 196 255
156 196 255
155 195 255
155 195 255
155 195 255
155 195 255
155 195 255
155 195 255
155 195 255
155 195 255
155 195 255
154 195 255
154 195 255
154 195 255
154 195 255
154 195 255
154 195 255
154 194 255
154 194 255
154 194 255
153 194 255
153 194 255
153 194 255
153 194 255
153 194 255
153 194 255
153 194 255
153 194 255
153 194 255
153 194 255
152 194 255
152 194 255
152 194 255
152 193 255
152 193 255
152 193 255
152 193 255
152 193 255
152 193 255
151 193 255
151 193 255
151 193 255
151 193 255
151 193 255
151 193 255
151 193 255
151 193 255
151 193 255
151 193 255
150 192 255
150 192 255
150 192 255
150 192 255
150 192 255
150 192 255
150 192 255
150 192 255
150 192 255
150 192 255
150 192 255
149 192 255
149 192 255
149 192 255
149 192 255
149 192 255
149 192 255
149 192 255
149 192 255
149 191 255
149 191 255
149 191 255
149 191 255
149 191 255
148 191 255
148 191 255
148 191 255
148 191 255
148 191 255
148 191 255
148 191 255
148 191 255
148 191 255
148 191 255
148 191 255
148 191 255
148 191 255
148 191 255
148 191 255
148 191 255
147 191 255
147 191 255
147 191 255
147 191 255
147 191 255
147 191 255
147 191 255
147 191 255
147 190 255
147 190 255
147 190 255
147 190 255
147 190 255
147 190 255
147 190 255
147 190 255
147 190 255
147 190 255
147 190 255
147 190 255
147 190 255
147 190 255
147 190 255
147 190 255
147 190 255
147 190 255
147 190 255
147 190 255
147 190 255
147 190 255
147 190 255
147 190 255
147 190 255
147 190 255
147 190 255
147 190 255
147 190 255
147 190 255
147 190 255
147 190 255
147 190 255
147 190 255
147 190 255
147 190 255
147 190 255
147 190 255
147 190 255
147 190 255
147 190 255
147 190 255
147 190 255
147 191 255
147 191 255
147 191 255
147 191 255
147 191 255
147 191 255
147 191 255
148 191 255
148 191 255
148 191 255
148 191 255
148 191 255
148 191 255
148 191 255
148 191 255
148 191 255
148 191 255
148 191 255
148 191 255
148 191 255
148 191 255
148 191 255
148 191 255
149 191 255
149 191 255
149 191 255
149 191 255
149 191 255
149 192 255
149 192 255
149 192 255
149 192 255
149 192 255
149 192 255
149 192 255
149 192 255
150 192 255
150 192 255
150 192 255
150 192 255
150 192 255
150 192 255
150 192 255
150 192 255
150 192 255
150 192 255
150 192 255
151 193 255
151 193 255
151 193 255
151 193 255
151 193 255
151 193 255
151 193 255
151 193 255
151 193 255
151 193 255
152 193 255
152 193 255
152 193 255
152 193 255
152 193 255
152 193 255
152 194 255
152 194 255
152 194 255
153 194 255
153 194 255
153 194 255
153 194 255
153 194 255
153 194 255
153 194 255
153 194 255
153 194 255
153 194 255
154 194 255
154 194 255
154 194 255
154 195 255
154 195 255
154 195 255
154 195 255
154 195 255
154 195 255
155 195 255
155 195 255
155 195 255
155 195 255
155 195 255
155 195 255
155 195 255
155 195 255
155 195 255
156 196 255
156 196 255
156 196 255
156 196 255
156 196 255
156 196 255
156 196 255
156 196 255
156 196 255
157 196 255
157 196 255
157 196 255
157 196 255
157 196 255
157 196 255
157 197 255
157 197 255
157 197 255
157 197 255
158 197 255
158 197 255
158 197 255
158 197 255
158 197 255
158 197 255
158 197 255
158 197 255
158 197 255
159 197 255
159 197 255
159 197 255
159 198 255
159 198 255
159 198 255
159 198 255
159 198 255
159 198 255
159 198 255
160 198 255
160 198 255
160 198 255
160 198 255
160 198 255
160 198 255
160 198 255
160 198 255
160 198 255
160 198 255
161 199 255
161 199 255
161 199 255
161 199 255
161 199 255
161 199 255
161 199 255
161 199 255
161 199 255
161 199 255
162 199 255
162 199 255
162 199 255
162 199 255
162 199 255
162 199 255
162 199 255
162 200 255
162 200 255
162 200 255
162 200 255
163 200 255
163 200 255
163 200 255
163 200 255
163 200 255
163 200 255
163 200 255
163 200 255
163 200 255
163 200 255
163 200 255
164 200 255
164 200 255
164 200 255
164 200 255
164 201 255
164 201 255
164 200 255
164 200 255
164 200 255
164 200 255
163 200 255
163 200 255
163 200 255
163 200 255
163 200 255
163 200 255
163 200 255
163 200 255
163 200 255
163 200 255
163 200 255
162 200 255
162 200 255
162 200 255
162 200 255
162 199 255
162 199 255
162 199 255
162 199 255
162 199 255
162 199 255
162 199 255
161 199 255
161 199 255
161 199 255
161 199 255
161 199 255
161 199 255
161 199 255
161 199 255
161 199 255
161 199 255
160 198 255
160 198 255
160 198 255
160 198 255
160 198 255
160 198 255
160 198 255
160 198 255
160 198 255
160 198 255
159 198 255
159 198 255
159 198 255
159 198 255
159 198 255
159 198 255
159 198 255
159 197 255
159 197 255
159 197 255
158 197 255
158 197 255
158 197 255
158 197 255
158 197 255
158 197 255
158 197 255
158 197 255
158 197 255
158 197 255
157 197 255
157 197 255
157 197 255
157 196 255
157 196 255
157 196 255
157 196 255
157 196 255
157 196 255
156 196 255
156 196 255
156 196 255
156 196 255
156 196 255
156 196 255
156 196 255
156 196 255
156 196 255
155 195 255
155 195 255
155 195 255
155 195 255
155 195 255
155 195 255
155 195 255
155 195 255
155 195 255
154 195 255
154 195 255
154 195 255
154 195 255
154 195 255
154 195 255
154 194 255
154 194 255
154 194 255
153 194 255
153 194 255
153 194 255
153 194 255
153 194 255
153 194 255
153 194 255
153 194 255
153 194 255
153 194 255
152 194 255
152 194 255
152 194 255
152 193 255
152 193 255
152 193 255
152 193 255
152 193 255
152 193 255
151 193 255
151 193 255
151 193 255
151 193 255
151 193 255
151 193 255
151 193 255
151 193 255
151 193 255
151 193 255
151 193 255
150 192 255
150 192 255
150 192 255
150 192 255
150 192 255
150 192 255
150 192 255
150 192 255
150 192 255
150 192 255
150 192 255
149 192 255
149 192 255
149 192 255
149 192 255
149 192 255
149 192 255
149 192 255
149 192 255
149 191 255
149 191 255
149 191 255
149 191 255
149 191 255
148 191 255
148 191 255
148 191 255
148 191 255
148 191 255
148 191 255
148 191 255
148 191 255
148 191 255
148 191 255
148 191 255
148 191 255
148 191 255
148 191 255
148 191 255
148 191 255
148 191 255
148 191 255
147 191 255
147 191 255
147 191 255
147 191 255
147 191 255
147 191 255
147 191 255
147 191 255
147 191 255
147 190 255
147 190 255
147 190 255
147 190 255
147 190 255
147 190 255
147 190 255
147 190 255
147 190 255
147 190 255
147 190 255
147 190 255
147 190 255
147 190 255
147 190 255
147 190 255
147 190 255
147 190 255
147 190 255
147 190 255
147 190 255
147 190 255
147 190 255
147 190 255
147 190 255
147 190 255
147 190 255
147 190 255
147 190 255
147 190 255
147 191 255
147 191 255
147 191 255
147 191 255
147 191 255
147 191 255
147 191 255
147 191 255
147 191 255
147 191 255
148 191 255
148 191 255
148 191 255
148 191 255
148 191 255
148 191 255
148 191 255
148 191 255
148 191 255
148 191 255
148 191 255
148 191 255
148 191 255
148 191 255
148 191 255
148 191 255
148 191 255
149 191 255
149 191 255
149 191 255
149 191 255
149 191 255
149 192 255
149 192 255
149 192 255
149 192 255
149 192 255
149 192 255
149 192 255
149 192 255
150 192 255
150 192 255
150 192 255
150 192 255
150 192 255
150 192 255
150 192 255
150 192 255
150 192 255
150 192 255
150 192 255
151 193 255
151 193 255
151 193 255
151 193 255
151 193 255
151 193 255
151 193 255
151 193 255
151 193 255
151 193 255
151 193 255
152 193 255
152 193 255
152 193 255
152 193 255
152 193 255
152 193 255
152 194 255
152 194 255
152 194 255
153 194 255
153 194 255
153 194 255
153 194 255
153 194 255
153 194 255
153 194 255
153 194 255
153 194 255
153 194 255
154 194 255
154 194 255
154 194 255
154 195 255
154 195 255
154 195 255
154 195 255
154 195 255
154 195 255
155 195 255
155 195 255
155 195 255
155 195 255
155 195 255
155 195 255
155 195 255
155 195 255
155 195 255
156 196 255
156 196 255
156 196 255
156 196 255
156 196 255
156 196 255
156 196 255
156 196 255
156 196 255
157 196 255
157 196 255
157 196 255
157 196 255
157 196 255
157 196 255
157 196 255
157 197 255
157 197 255
157 197 255
158 197 255
158 197 255
158 197 255
158 197 255
158 197 255
158 197 255
158 197 255
158 197 255
158 197 255
159 197 255
159 197 255
159 197 255
159 198 255
159 198 255
159 198 255
159 198 255
159 198 255
159 198 255
159 198 255
160 198 255
160 198 255
160 198 255
160 198 255
160 198 255
160 198 255
160 198 255
160 198 255
160 198 255
160 198 255
161 199 255
161 199 255
161 199 255
161 199 255
161 199 255
161 199 255
161 199 255
161 199 255
161 199 255
161 199 255
162 199 255
162 199 255
162 199 255
162 199 255
162 199 255
162 199 255
162 199 255
162 200 255
162 200 255
162 200 255
162 200 255
163 200 255
163 200 255
163 200 255
163 200 255
163 200 255
163 200 255
163 200 255
163 200 255
163 200 255
163 200 255
163 200 255
164 200 255
164 200 255
164 200 255
164 200 255
164 201 255
164 201 255
164 201 255
164 201 255
164 201 255
164 201 255
164 201 255
164 200 255
164 200 255
164 200 255
164 200 255
163 200 255
163 200 255
163 200 255
163 200 255
163 200 255
163 200 255
163 200 255
163 200 255
163 200 255
163 200 255
163 200 255
162 200 255
162 200 255
162 200 255
162 199 255
162 199 255
162 199 255
162 199 255
162 199 255
162 199 255
162 199 255
161 199 255
161 199 255
161 199 255
161 199 255
161 199 255
161 199 255
161 199 255
161 199 255
161 199 255
161 199 255
161 199 255
160 198 255
160 198 255
160 198 255
160 198 255
160 198 255
160 198 255
160 198 255
160 198 255
160 198 255
160 198 255
159 198 255
159 198 255
159 198 255
159 198 255
159 198 255
159 198 255
159 197 255
159 197 255
159 197 255
158 197 255
158 197 255
158 197 255
158 197 255
158 197 255
158 197 255
158 197 255
158 197 255
158 197 255
158 197 255
157 197 255
157 197 255
157 197 255
157 196 255
157 196 255
157 196 255
157 196 255
157 196 255
157 196 255
156 196 255
156 196 255
156 196 255
156 196 255
156 196 255
156 196 255
156 196 255
156 196 255
156 196 255
155 195 255
155 195 255
155 195 255
155 195 255
155 195 255
155 195 255
155 195 255
155 195 255
155 195 255
154 195 255
154 195 255
154 195 255
154 195 255
154 195 255
154 195 255
154 194 255
154 194 255
154 194 255
153 194 255
153 194 255
153 194 255
153 194 255
153 194 255
153 194 255
153 194 255
153 194 255
153 194 255
153 194 255
152 194 255
152 194 255
152 194 255
152 193 255
152 193 255
152 193 255
152 193 255
152 193 255
152 193 255
152 193 255
151 193 255
151 193 255
151 193 255
151 193 255
151 193 255
151 193 255
151 193 255
151 193 255
151 193 255
151 193 255
150 192 255
150 192 255
150 192 255
150 192 255
150 192 255
150 192 255
150 192 255
150 192 255
150 192 255
150 192 255
150 192 255
149 192 255
149 192 255
149 192 255
149 192 255
149 192 255
149 192 255
149 192 255
149 192 255
149 192 255
149 191 255
149 191 255
149 191 255
149 191 255
149 191 255
148 191 255
148 191 255
148 191 255
148 191 255
148 191 255
148 191 255
148 191 255
148 191 255
148 191 255
148 191 255
148 191 255
148 191 255
148 191 255
148 191 255
148 191 255
148 191 255
148 191 255
148 191 255
148 191 255
148 191 255
147 191 255
147 191 255
147 191 255
147 191 255
147 191 255
147 191 255
147 191 255
147 191 255
147 191 255
147 191 255
147 191 255
147 191 255
147 191 255
147 191 255
147 191 255
147 191 255
147 191 255
147 191 255
147 191 255
147 191 255
147 191 255
147 191 255
147 191 255
147 191 255
147 191 255
147 191 255
147 191 255
147 191 255
147 191 255
147 191 255
147 191 255
147 191 255
147 191 255
147 191 255
147 191 255
147 191 255
147 191 255
147 191 255
148 191 255
148 191 255
148 191 255
148 191 255
148 191 255
148 191 255
148 191 255
148 191 255
148 191 255
148 191 255
148 191 255
148 191 255
148 191 255
148 191 255
148 191 255
148 191 255
148 191 255
148 191 255
148 191 255
148 191 255
149 191 255
149 191 255
149 191 255
149 191 255
149 191 255
149 192 255
149 192 255
149 192 255
149 192 255
149 192 255
149 192 255
149 192 255
149 192 255
149 192 255
150 192 255
150 192 255
150 192 255
150 192 255
150 192 255
150 192 255
150 192 255
150 192 255
150 192 255
150 192 255
150 192 255
151 193 255
151 193 255
151 193 255
151 193 255
151 193 255
151 193 255
151 193 255
151 193 255
151 193 255
151 193 255
152 193 255
152 193 255
152 193 255
152 193 255
152 193 255
152 193 255
152 193 255
152 194 255
152 194 255
152 194 255
153 194 255
153 194 255
153 194 255
153 194 255
153 194 255
153 194 255
153 194 255
153 194 255
153 194 255
153 194 255
154 194 255
154 194 255
154 194 255
154 195 255
154 195 255
154 195 255
154 195 255
154 195 255
154 195 255
155 195 255
155 195 255
155 195 255
155 195 255
155 195 255
155 195 255
155 195 255
155 195 255
155 195 255
156 196 255
156 196 255
156 196 255
156 196 255
156 196 255
156 196 255
156 196 255
156 196 255
156 196 255
157 196 255
157 196 255
157 196 255
157 196 255
157 196 255
157 196 255
157 197 255
157 197 255
157 197 255
158 197 255
158 197 255
158 197 255
158 197 255
158 197 255
158 197 255
158 197 255
158 197 255
158 197 255
158 197 255
159 197 255
159 197 255
159 197 255
159 198 255
159 198 255
159 198 255
159 198 255
159 198 255
159 198 255
160 198 255
160 198 255
160 198 255
160 198 255
160 198 255
160 198 255
160 198 255
160 198 255
160 198 255
160 198 255
161 199 255
161 199 255
161 199 255
161 199 255
161 199 255
161 199 255
161 199 255
161 199 255
161 199 255
161 199 255
161 199 255
162 199 255
162 199 255
162 199 255
162 199 255
162 199 255
162 199 255
162 199 255
162 200 255
162 200 255
162 200 255
163 200 255
163 200 255
163 200 255
163 200 255
163 200 255
163 200 255
163 200 255
163 200 255
163 200 255
163 200 255
163 200 255
164 200 255
164 200 255
164 200 255
164 200 255
164 201 255
164 201 255
164 201 255
164 201 255
164 201 255
164 201 255
164 201 255
164 201 255
164 201 255
164 201 255
164 201 255
164 201 255
164 200 255
164 200 255
164 200 255
164 200 255
163 200 255
163 200 255
163 200 255
163 200 255
163 200 255
163 200 255
163 200 255
163 200 255
163 200 255
163 200 255
163 200 255
162 200 255
162 200 255
162 200 255
162 200 255
162 199 255
162 199 255
162 199 255
162 199 255
162 199 255
162 199 255
162 199 255
161 199 255
161 199 255
161 199 255
161 199 255
161 199 255
161 199 255
161 199 255
161 199 255
161 199 255
161 199 255
160 198 255
160 198 255
160 198 255
160 198 255
160 198 255
160 198 255
160 198 255
160 198 255
160 198 255
160 198 255
159 198 255
159 198 255
159 198 255
159 198 255
159 198 255
159 198 255
159 197 255
159 197 255
159 197 255
158 197 255
158 197 255
158 197 255
158 197 255
158 197 255
158 197 255
158 197 255
158 197 255
158 197 255
158 197 255
157 197 255
157 197 255
157 197 255
157 196 255
157 196 255
157 196 255
157 196 255
157 196 255
157 196 255
156 196 255
156 196 255
156 196 255
156 196 255
156 196 255
156 196 255
156 196 255
156 196 255
156 196 255
155 195 255
155 195 255
155 195 255
155 195 255
155 195 255
155 195 255
155 195 255
155 195 255
155 195 255
154 195 255
154 195 255
154 195 255
154 195 255
154 195 255
154 195 255
154 194 255
154 194 255
154 194 255
153 194 255
153 194 255
153 194 255
153 194 255
153 194 255
153 194 255
153 194 255
153 194 255
153 194 255
153 194 255
152 194 255
152 194 255
152 194 255
152 193 255
152 193 255
152 193 255
152 193 255
152 193 255
152 193 255
152 193 255
151 193 255
151 193 255
151 193 255
151 193 255
151 193 255
151 193 255
151 193 255
151 193 255
151 193 255
151 193 255
150 192 255
150 192 255
150 192 255
150 192 255
150 192 255
150 192 255
150 192 255
150 192 255
150 192 255
150 192 255
150 192 255
150 192 255
149 192 255
149 192 255
149 192 255
149 192 255
149 192 255
149 192 255
149 192 255
149 192 255
149 192 255
149 191 255
149 191 255
149 191 255
149 191 255
149 191 255
149 191 255
148 191 255
148 191 255
148 191 255
148 191 255
148 191 255
148 191 255
148 191 255
148 191 255
148 191 255
148 191 255
148 191 255
148 191 255
148 191 255
148 191 255
148 191 255
148 191 255
148 191 255
148 191 255
148 191 255
148 191 255
148 191 255
148 191 255
148 191 255
148 191 255
147 191 255
147 191 255
147 191 255
147 191 255
147 191 255
147 191 255
147 191 255
147 191 255
147 191 255
147 191 255
147 191 255
147 191 255
147 191 255
147 191 255
147 191 255
147 191 255
147 191 255
147 191 255
147 191 255
147 191 255
147 191 255
147 191 255
148 191 255
148 191 255
148 191 255
148 191 255
148 191 255
148 191 255
148 191 255
148 191 255
148 191 255
148 191 255
148 191 255
148 191 255
148 191 255
148 191 255
148 191 255
148 191 255
148 191 255
148 191 255
148 191 255
148 191 255
148 191 255
148 191 255
148 191 255
148 191 255
148 191 255
149 191 255
149 191 255
149 191 255
149 191 255
149 191 255
149 192 255
149 192 255
149 192 255
149 192 255
149 192 255
149 192 255
149 192 255
149 192 255
149 192 255
150 192 255
150 192 255
150 192 255
150 192 255
150 192 255
150 192 255
150 192 255
150 192 255
150 192 255
150 192 255
150 192 255
150 192 255
151 193 255
151 193 255
151 193 255
151 193 255
151 193 255
151 193 255
151 193 255
151 193 255
151 193 255
151 193 255
152 193 255
152 193 255
152 193 255
152 193 255
152 193 255
152 193 255
152 193 255
152 194 255
152 194 255
152 194 255
153 194 255
153 194 255
153 194 255
153 194 255
153 194 255
153 194 255
153 194 255
153 194 255
153 194 255
153 194 255
154 194 255
154 194 255
154 194 255
154 195 255
154 195 255
154 195 255
154 195 255
154 195 255
154 195 255
155 195 255
155 195 255
155 195 255
155 195 255
155 195 255
155 195 255
155 195 255
155 195 255
155 195 255
156 196 255
156 196 255
156 196 255
156 196 255
156 196 255
156 196 255
156 196 255
156 196 255
156 196 255
157 196 255
157 196 255
157 196 255
157 196 255
157 196 255
157 196 255
157 197 255
157 197 255
157 197 255
158 197 255
158 197 255
158 197 255
158 197 255
158 197 255
158 197 255
158 197 255
158 197 255
158 197 255
158 197 255
159 197 255
159 197 255
159 197 255
159 198 255
159 198 255
159 198 255
159 198 255
159 198 255
159 198 255
160 198 255
160 198 255
160 198 255
160 198 255
160 198 255
160 198 255
160 198 255
160 198 255
160 198 255
160 198 255
161 199 255
161 199 255
161 199 255
161 199 255
161 199 255
161 199 255
161 199 255
161 199 255
161 199 255
161 199 255
162 199 255
162 199 255
162 199 255
162 199 255
162 199 255
162 199 255
162 199 255
162 200 255
162 200 255
162 200 255
162 200 255
163 200 255
163 200 255
163 200 255
163 200 255
163 200 255
163 200 255
163 200 255
163 200 255
163 200 255
163 200 255
163 200 255
164 200 255
164 200 255
164 200 255
164 200 255
164 201 255
164 201 255
164 201 255
164 201 255
164 201 255
164 201 255
164 201 255
165 201 255
165 201 255
164 201 255
164 201 255
164 201 255
164 201 255
164 201 255
164 201 255
164 201 255
164 201 255
164 200 255
164 200 255
164 200 255
163 200 255
163 200 255
163 200 255
163 200 255
163 200 255
163 200 255
163 200 255
163 200 255
163 200 255
163 200 255
163 200 255
163 200 255
162 200 255
162 200 255
162 200 255
162 199 255
162 199 255
162 199 255
162 199 255
162 199 255
162 199 255
162 199 255
161 199 255
161 199 255
161 199 255
161 199 255
161 199 255
161 199 255
161 199 255
161 199 255
161 199 255
161 199 255
160 198 255
160 198 255
160 198 255
160 198 255
160 198 255
160 198 255
160 198 255
160 198 255
160 198 255
160 198 255
159 198 255
159 198 255
159 198 255
159 198 255
159 198 255
159 198 255
159 197 255
159 197 255
159 197 255
159 197 255
158 197 255
158 197 255
158 197 255
158 197 255
158 197 255
158 197 255
158 197 255
158 197 255
158 197 255
157 197 255
157 197 255
157 197 255
157 196 255
157 196 255
157 196 255
157 196 255
157 196 255
157 196 255
156 196 255
156 196 255
156 196 255
156 196 255
156 196 255
156 196 255
156 196 255
156 196 255
156 196 255
155 195 255
155 195 255
155 195 255
155 195 255
155 195 255
155 195 255
155 195 255
155 195 255
155 195 255
154 195 255
154 195 255
154 195 255
154 195 255
154 195 255
154 195 255
154 195 255
154 194 255
154 194 255
154 194 255
153 194 255
153 194 255
153 194 255
153 194 255
153 194 255
153 194 255
153 194 255
153 194 255
153 194 255
152 194 255
152 194 255
152 194 255
152 193 255
152 193 255
152 193 255
152 193 255
152 193 255
152 193 255
152 193 255
151 193 255
151 193 255
151 193 255
151 193 255
151 193 255
151 193 255
151 193 255
151 193 255
151 193 255
151 193 255
151 193 255
150 192 255
150 192 255
150 192 255
150 192 255
150 192 255
150 192 255
150 192 255
150 192 255
150 192 255
150 192 255
150 192 255
150 192 255
149 192 255
149 192 255
149 192 255
149 192 255
149 192 255
149 192 255
149 192 255
149 192 255
149 192 255
149 192 255
149 191 255
149 191 255
149 191 255
149 191 255
149 191 255
149 191 255
148 191 255
148 191 255
148 191 255
148 191 255
148 191 255
148 191 255
148 191 255
148 191 255
148 191 255
148 191 255
148 191 255
148 191 255
148 191 255
148 191 255
148 191 255
148 191 255
148 191 255
148 191 255
148 191 255
148 191 255
148 191 255
148 191 255
148 191 255
148 191 255
148 191 255
148 191 255
148 191 255
148 191 255
148 191 255
148 191 255
148 191 255
148 191 255
148 191 255
148 191 255
148 191 255
148 191 255
148 191 255
148 191 255
148 191 255
148 191 255
148 191 255
148 191 255
148 191 255
148 191 255
148 191 255
148 191 255
148 191 255
148 191 255
148 191 255
148 191 255
148 191 255
148 191 255
148 191 255
148 191 255
148 191 255
148 191 255
148 191 255
148 191 255
148 191 255
148 191 255
148 191 255
148 191 255
148 191 255
149 191 255
149 191 255
149 191 255
149 191 255
149 191 255
149 192 255
149 192 255
149 192 255
149 192 255
149 192 255
149 192 255
149 192 255
149 192 255
149 192 255
149 192 255
150 192 255
150 192 255
150 192 255
150 192 255
150 192 255
150 192 255
150 192 255
150 192 255
150 192 255
150 192 255
150 192 255
150 192 255
151 193 255
151 193 255
151 193 255
151 193 255
151 193 255
151 193 255
151 193 255
151 193 255
151 193 255
151 193 255
151 193 255
152 193 255
152 193 255
152 193 255
152 193 255
152 193 255
152 193 255
152 193 255
152 194 255
152 194 255
152 194 255
153 194 255
153 194 255
153 194 255
153 194 255
153 194 255
153 194 255
153 194 255
153 194 255
153 194 255
154 194 255
154 194 255
154 194 255
154 195 255
154 195 255
154 195 255
154 195 255
154 195 255
154 195 255
154 195 255
155 195 255
155 195 255
155 195 255
155 195 255
155 195 255
155 195 255
155 195 255
155 195 255
155 195 255
156 196 255
156 196 255
156 196 255
156 196 255
156 196 255
156 196 255
156 196 255
156 196 255
156 196 255
157 196 255
157 196 255
157 196 255
157 196 255
157 196 255
157 196 255
157 197 255
157 197 255
157 197 255
158 197 255
158 197 255
158 197 255
158 197 255
158 197 255
158 197 255
158 197 255
158 197 255
158 197 255
158 197 255
159 197 255
159 197 255
159 197 255
159 198 255
159 198 255
159 198 255
159 198 255
159 198 255
159 198 255
160 198 255
160 198 255
160 198 255
160 198 255
160 198 255
160 198 255
160 198 255
160 198 255
160 198 255
160 198 255
161 199 255
161 199 255
161 199 255
161 199 255
161 199 255
161 199 255
161 199 255
161 199 255
161 199 255
161 199 255
162 199 255
162 199 255
162 199 255
162 199 255
162 199 255
162 199 255
162 199 255
162 200 255
162 200 255
162 200 255
162 200 255
163 200 255
163 200 255
163 200 255
163 200 255
163 200 255
163 200 255
163 200 255
163 200 255
163 200 255
163 200 255
163 200 255
164 200 255
164 200 255
164 200 255
164 201 255
164 201 255
164 201 255
164 201 255
164 201 255
164 201 255
164 201 255
164 201 255
165 201 255
165 201 255
165 201 255
165 201 255
165 201 255
165 201 255
164 201 255
164 201 255
164 201 255
164 201 255
164 201 255
164 201 255
164 201 255
164 201 255
164 200 255
164 200 255
164 200 255
164 200 255
163 200 255
163 200 255
163 200 255
163 200 255
163 200 255
163 200 255
163 200 255
163 200 255
163 200 255
163 200 255
163 200 255
162 200 255
162 200 255
162 200 255
162 199 255
162 199 255
162 199 255
162 199 255
162 199 255
162 199 255
162 199 255
161 199 255
161 199 255
161 199 255
161 199 255
161 199 255
161 199 255
161 199 255
161 199 255
161 199 255
161 199 255
160 198 255
160 198 255
160 198 255
160 198 255
160 198 255
160 198 255
160 198 255
160 198 255
160 198 255
160 198 255
159 198 255
159 198 255
159 198 255
159 198 255
159 198 255
159 198 255
159 197 255
159 197 255
159 197 255
159 197 255
158 197 255
158 197 255
158 197 255
158 197 255
158 197 255
158 197 255
158 197 255
158 197 255
158 197 255
157 197 255
157 197 255
157 197 255
157 196 255
157 196 255
157 196 255
157 196 255
157 196 255
157 196 255
156 196 255
156 196 255
156 196 255
156 196 255
156 196 255
156 196 255
156 196 255
156 196 255
156 196 255
155 195 255
155 195 255
155 195 255
155 195 255
155 195 255
155 195 255
155 195 255
155 195 255
155 195 255
155 195 255
154 195 255
154 195 255
154 195 255
154 195 255
154 195 255
154 195 255
154 194 255
154 194 255
154 194 255
153 194 255
153 194 255
153 194 255
153 194 255
153 194 255
153 194 255
153 194 255
153 194 255
153 194 255
152 194 255
152 194 255
152 194 255
152 194 255
152 193 255
152 193 255
152 193 255
152 193 255
152 193 255
152 193 255
152 193 255
151 193 255
151 193 255
151 193 255
151 193 255
151 193 255
151 193 255
151 193 255
151 193 255
151 193 255
151 193 255
151 193 255
150 192 255
150 192 255
150 192 255
150 192 255
150 192 255
150 192 255
150 192 255
150 192 255
150 192 255
150 192 255
150 192 255
150 192 255
149 192 255
149 192 255
149 192 255
149 192 255
149 192 255
149 192 255
149 192 255
149 192 255
149 192 255
149 192 255
149 191 255
149 191 255
149 191 255
149 191 255
149 191 255
149 191 255
149 191 255
148 191 255
148 191 255
148 191 255
148 191 255
148 191 255
148 191 255
148 191 255
148 191 255
148 191 255
148 191 255
148 191 255
148 191 255
148 191 255
148 191 255
148 191 255
148 191 255
148 191 255
148 191 255
148 191 255
148 191 255
148 191 255
148 191 255
148 191 255
148 191 255
148 191 255
148 191 255
148 191 255
148 191 255
148 191 255
148 191 255
148 191 255
148 191 255
148 191 255
148 191 255
148 191 255
148 191 255
148 191 255
148 191 255
148 191 255
148 191 255
148 191 255
148 191 255
148 191 255
148 191 255
148 191 255
148 191 255
148 191 255
148 191 255
148 191 255
148 191 255
148 191 255
148 191 255
148 191 255
148 191 255
149 191 255
149 191 255
149 191 255
149 191 255
149 191 255
149 191 255
149 191 255
149 192 255
149 192 255
149 192 255
149 192 255
149 192 255
149 192 255
149 192 255
149 192 255
149 192 255
149 192 255
150 192 255
150 192 255
150 192 255
150 192 255
150 192 255
150 192 255
150 192 255
150 192 255
150 192 255
150 192 255
150 192 255
150 192 255
151 193 255
151 193 255
151 193 255
151 193 255
151 193 255
151 193 255
151 193 255
151 193 255
151 193 255
151 193 255
151 193 255
152 193 255
152 193 255
152 193 255
152 193 255
152 193 255
152 193 255
152 193 255
152 194 255
152 194 255
152 194 255
152 194 255
153 194 255
153 194 255
153 194 255
153 194 255
153 194 255
153 194 255
153 194 255
153 194 255
153 194 255
154 194 255
154 194 255
154 194 255
154 195 255
154 195 255
154 195 255
154 195 255
154 195 255
154 195 255
155 195 255
155 195 255
155 195 255
155 195 255
155 195 255
155 195 255
155 195 255
155 195 255
155 195 255
155 195 255
156 196 255
156 196 255
156 196 255
156 196 255
156 196 255
156 196 255
156 196 255
156 196 255
156 196 255
157 196 255
157 196 255
157 196 255
157 196 255
157 196 255
157 196 255
157 197 255
157 197 255
157 197 255
158 197 255
158 197 255
158 197 255
158 197 255
158 197 255
158 197 255
158 197 255
158 197 255
158 197 255
159 197 255
159 197 255
159 197 255
159 198 255
159 198 255
159 198 255
159 198 255
159 198 255
159 198 255
159 198 255
160 198 255
160 198 255
160 198 255
160 198 255
160 198 255
160 198 255
160 198 255
160 198 255
160 198 255
160 198 255
161 199 255
161 199 255
161 199 255
161 199 255
161 199 255
161 199 255
161 199 255
161 199 255
161 199 255
161 199 255
162 199 255
162 199 255
162 199 255
162 199 255
162 199 255
162 199 255
162 199 255
162 200 255
162 200 255
162 200 255
163 200 255
163 200 255
163 200 255
163 200 255
163 200 255
163 200 255
163 200 255
163 200 255
163 200 255
163 200 255
163 200 255
164 200 255
164 200 255
164 200 255
164 200 255
164 201 255
164 201 255
164 201 255
164 201 255
164 201 255
164 201 255
164 201 255
164 201 255
165 201 255
165 201 255
165 201 255
165 201 255
165 201 255
165 201 255
165 201 255
165 201 255
165 201 255
165 201 255
165 201 255
164 201 255
164 201 255
164 201 255
164 201 255
164 201 255
164 201 255
164 201 255
164 201 255
164 200 255
164 200 255
164 200 255
163 200 255
163 200 255
163 200 255
163 200 255
163 200 255
163 200 255
163 200 255
163 200 255
163 200 255
163 200 255
163 200 255
162 200 255
162 200 255
162 200 255
162 200 255
162 199 255
162 199 255
162 199 255
162 199 255
162 199 255
162 199 255
161 199 255
161 199 255
161 199 255
161 199 255
161 199 255
161 199 255
161 199 255
161 199 255
161 199 255
161 199 255
161 199 255
160 198 255
160 198 255
160 198 255
160 198 255
160 198 255
160 198 255
160 198 255
160 198 255
160 198 255
159 198 255
159 198 255
159 198 255
159 198 255
159 198 255
159 198 255
159 198 255
159 197 255
159 197 255
159 197 255
158 197 255
158 197 255
158 197 255
158 197 255
158 197 255
158 197 255
158 197 255
158 197 255
158 197 255
157 197 255
157 197 255
157 197 255
157 196 255
157 196 255
157 196 255
157 196 255
157 196 255
157 196 255
156 196 255
156 196 255
156 196 255
156 196 255
156 196 255
156 196 255
156 196 255
156 196 255
156 196 255
156 196 255
155 195 255
155 195 255
155 195 255
155 195 255
155 195 255
155 195 255
155 195 255
155 195 255
155 195 255
154 195 255
154 195 255
154 195 255
154 195 255
154 195 255
154 195 255
154 194 255
154 194 255
154 194 255
153 194 255
153 194 255
153 194 255
153 194 255
153 194 255
153 194 255
153 194 255
153 194 255
153 194 255
153 194 255
152 194 255
152 194 255
152 194 255
152 193 255
152 193 255
152 193 255
152 193 255
152 193 255
152 193 255
152 193 255
151 193 255
151 193 255
151 193 255
151 193 255
151 193 255
151 193 255
151 193 255
151 193 255
151 193 255
151 193 255
151 193 255
150 192 255
150 192 255
150 192 255
150 192 255
150 192 255
150 192 255
150 192 255
150 192 255
150 192 255
150 192 255
150 192 255
150 192 255
150 192 255
150 192 255
149 192 255
149 192 255
149 192 255
149 192 255
149 192 255
149 192 255
149 192 255
149 192 255
149 192 255
149 192 255
149 192 255
149 191 255
149 191 255
149 191 255
149 191 255
149 191 255
149 191 255
149 191 255
148 191 255
148 191 255
148 191 255
148 191 255
148 191 255
148 191 255
148 191 255
148 191 255
148 191 255
148 191 255
148 191 255
148 191 255
148 191 255
148 191 255
148 191 255
148 191 255
148 191 255
148 191 255
148 191 255
148 191 255
148 191 255
148 191 255
148 191 255
148 191 255
148 191 255
148 191 255
148 191 255
148 191 255
148 191 255
148 191 255
148 191 255
148 191 255
148 191 255
148 191 255
148 191 255
148 191 255
148 191 255
148 191 255
148 191 255
148 191 255
148 191 255
148 191 255
148 191 255
148 191 255
149 191 255
149 191 255
149 191 255
149 191 255
149 191 255
149 191 255
149 191 255
149 192 255
149 192 255
149 192 255
149 192 255
149 192 255
149 192 255
149 192 255
149 192 255
149 192 255
149 192 255
149 192 255
150 192 255
150 192 255
150 192 255
150 192 255
150 192 255
150 192 255
150 192 255
150 192 255
150 192 255
150 192 255
150 192 255
150 192 255
150 192 255
150 192 255
151 193 255
151 193 255
151 193 255
151 193 255
151 193 255
151 193 255
151 193 255
151 193 255
151 193 255
151 193 255
151 193 255
152 193 255
152 193 255
152 193 255
152 193 255
152 193 255
152 193 255
152 193 255
152 194 255
152 194 255
152 194 255
153 194 255
153 194 255
153 194 255
153 194 255
153 194 255
153 194 255
153 194 255
153 194 255
153 194 255
153 194 255
154 194 255
154 194 255
154 194 255
154 195 255
154 195 255
154 195 255
154 195 255
154 195 255
154 195 255
155 195 255
155 195 255
155 195 255
155 195 255
155 195 255
155 195 255
155 195 255
155 195 255
155 195 255
156 196 255
156 196 255
156 196 255
156 196 255
156 196 255
156 196 255
156 196 255
156 196 255
156 196 255
156 196 255
157 196 255
157 196 255
157 196 255
157 196 255
157 196 255
157 196 255
157 197 255
157 197 255
157 197 255
158 197 255
158 197 255
158 197 255
158 197 255
158 197 255
158 197 255
158 197 255
158 197 255
158 197 255
159 197 255
159 197 255
159 197 255
159 198 255
159 198 255
159 198 255
159 198 255
159 198 255
159 198 255
159 198 255
160 198 255
160 198 255
160 198 255
160 198 255
160 198 255
160 198 255
160 198 255
160 198 255
160 198 255
160 198 255
161 199 255
161 199 255
161 199 255
161 199 255
161 199 255
161 199 255
161 199 255
161 199 255
161 199 255
161 199 255
162 199 255
162 199 255
162 199 255
162 199 255
162 199 255
162 199 255
162 200 255
162 200 255
162 200 255
162 200 255
163 200 255
163 200 255
163 200 255
163 200 255
163 200 255
163 200 255
163 200 255
163 200 255
163 200 255
163 200 255
163 200 255
164 200 255
164 200 255
164 200 255
164 200 255
164 201 255
164 201 255
164 201 255
164 201 255
164 201 255
164 201 255
164 201 255
165 201 255
165 201 255
165 201 255
165 201 255
165 201 255
165 201 255
165 201 255
165 201 255
165 201 255
165 201 255
165 201 255
165 201 255
165 201 255
165 201 255
165 201 255
165 201 255
164 201 255
164 201 255
164 201 255
164 201 255
164 201 255
164 201 255
164 201 255
164 201 255
164 200 255
164 200 255
164 200 255
164 200 255
163 200 255
163 200 255
163 200 255
163 200 255
163 200 255
163 200 255
163 200 255
163 200 255
163 200 255
163 200 255
162 200 255
162 200 255
162 200 255
162 200 255
162 199 255
162 199 255
162 199 255
162 199 255
162 199 255
162 199 255
162 199 255
161 199 255
161 199 255
161 199 255
161 199 255
161 199 255
161 199 255
161 199 255
161 199 255
161 199 255
161 199 255
160 198 255
160 198 255
160 198 255
160 198 255
160 198 255
160 198 255
160 198 255
160 198 255
160 198 255
160 198 255
159 198 255
159 198 255
159 198 255
159 198 255
159 198 255
159 198 255
159 197 255
159 197 255
159 197 255
158 197 255
158 197 255
158 197 255
158 197 255
158 197 255
158 197 255
158 197 255
158 197 255
158 197 255
157 197 255
157 197 255
157 197 255
157 197 255
157 196 255
157 196 255
157 196 255
157 196 255
157 196 255
156 196 255
156 196 255
156 196 255
156 196 255
156 196 255
156 196 255
156 196 255
156 196 255
156 196 255
156 196 255
155 195 255
155 195 255
155 195 255
155 195 255
155 195 255
155 195 255
155 195 255
155 195 255
155 195 255
154 195 255
154 195 255
154 195 255
154 195 255
154 195 255
154 195 255
154 194 255
154 194 255
154 194 255
153 194 255
153 194 255
153 194 255
153 194 255
153 194 255
153 194 255
153 194 255
153 194 255
153 194 255
153 194 255
152 194 255
152 194 255
152 194 255
152 194 255
152 193 255
152 193 255
152 193 255
152 193 255
152 193 255
152 193 255
152 193 255
151 193 255
151 193 255
151 193 255
151 193 255
151 193 255
151 193 255
151 193 255
151 193 255
151 193 255
151 193 255
151 193 255
150 192 255
150 192 255
150 192 255
150 192 255
150 192 255
150 192 255
150 192 255
150 192 255
150 192 255
150 192 255
150 192 255
150 192 255
150 192 255
150 192 255
149 192 255
149 192 255
149 192 255
149 192 255
149 192 255
149 192 255
149 192 255
149 192 255
149 192 255
149 192 255
149 192 255
149 192 255
149 192 255
149 191 255
149 191 255
149 191 255
149 191 255
149 191 255
149 191 255
149 191 255
149 191 255
148 191 255
148 191 255
148 191 255
148 191 255
148 191 255
148 191 255
148 191 255
148 191 255
148 191 255
148 191 255
148 191 255
148 191 255
148 191 255
148 191 255
148 191 255
148 191 255
148 191 255
148 191 255
148 191 255
148 191 255
148 191 255
148 191 255
148 191 255
148 191 255
148 191 255
148 191 255
148 191 255
148 191 255
148 191 255
148 191 255
148 191 255
149 191 255
149 191 255
149 191 255
149 191 255
149 191 255
149 191 255
149 191 255
149 191 255
149 191 255
149 192 255
149 192 255
149 192 255
149 192 255
149 192 255
149 192 255
149 192 255
149 192 255
149 192 255
149 192 255
149 192 255
149 192 255
149 192 255
150 192 255
150 192 255
150 192 255
150 192 255
150 192 255
150 192 255
150 192 255
150 192 255
150 192 255
150 192 255
150 192 255
150 192 255
150 192 255
150 192 255
151 193 255
151 193 255
151 193 255
151 193 255
151 193 255
151 193 255
151 193 255
151 193 255
151 193 255
151 193 255
151 193 255
152 193 255
152 193 255
152 193 255
152 193 255
152 193 255
152 193 255
152 193 255
152 194 255
152 194 255
152 194 255
152 194 255
153 194 255
153 194 255
153 194 255
153 194 255
153 194 255
153 194 255
153 194 255
153 194 255
153 194 255
153 194 255
154 194 255
154 194 255
154 194 255
154 195 255
154 195 255
154 195 255
154 195 255
154 195 255
154 195 255
155 195 255
155 195 255
155 195 255
155 195 255
155 195 255
155 195 255
155 195 255
155 195 255
155 195 255
156 196 255
156 196 255
156 196 255
156 196 255
156 196 255
156 196 255
156 196 255
156 196 255
156 196 255
156 196 255
157 196 255
157 196 255
157 196 255
157 196 255
157 196 255
157 196 255
157 197 255
157 197 255
157 197 255
158 197 255
158 197 255
158 197 255
158 197 255
158 197 255
158 197 255
158 197 255
158 197 255
158 197 255
159 197 255
159 197 255
159 197 255
159 198 255
159 198 255
159 198 255
159 198 255
159 198 255
159 198 255
160 198 255
160 198 255
160 198 255
160 198 255
160 198 255
160 198 255
160 198 255
160 198 255
160 198 255
160 198 255
161 199 255
161 199 255
161 199 255
161 199 255
161 199 255
161 199 255
161 199 255
161 199 255
161 199 255
161 199 255
162 199 255
162 199 255
162 199 255
162 199 255
162 199 255
162 199 255
162 199 255
162 200 255
162 200 255
162 200 255
163 200 255
163 200 255
163 200 255
163 200 255
163 200 255
163 200 255
163 200 255
163 200 255
163 200 255
163 200 255
163 200 255
164 200 255
164 200 255
164 200 255
164 200 255
164 201 255
164 201 255
164 201 255
164 201 255
164 201 255
164 201 255
164 201 255
164 201 255
165 201 255
165 201 255
165 201 255
165 201 255
165 201 255
165 201 255
165 201 255
165 201 255
165 201 255
165 201 255
165 201 255
165 201 255
165 201 255
165 201 255
165 201 255
165 201 255
165 201 255
165 201 255
165 201 255
165 201 255
165 201 255
164 201 255
164 201 255
164 201 255
164 201 255
164 201 255
164 201 255
164 201 255
164 200 255
164 200 255
164 200 255
164 200 255
163 200 255
163 200 255
163 200 255
163 200 255
163 200 255
163 200 255
163 200 255
163 200 255
163 200 255
163 200 255
163 200 255
162 200 255
162 200 255
162 200 255
162 199 255
162 199 255
162 199 255
162 199 255
162 199 255
162 199 255
162 199 255
161 199 255
161 199 255
161 199 255
161 199 255
161 199 255
161 199 255
161 199 255
161 199 255
161 199 255
161 199 255
160 198 255
160 198 255
160 198 255
160 198 255
160 198 255
160 198 255
160 198 255
160 198 255
160 198 255
160 198 255
159 198 255
159 198 255
159 198 255
159 198 255
159 198 255
159 198 255
159 197 255
159 197 255
159 197 255
158 197 255
158 197 255
158 197 255
158 197 255
158 197 255
158 197 255
158 197 255
158 197 255
158 197 255
158 197 255
157 197 255
157 197 255
157 197 255
157 196 255
157 196 255
157 196 255
157 196 255
157 196 255
157 196 255
156 196 255
156 196 255
156 196 255
156 196 255
156 196 255
156 196 255
156 196 255
156 196 255
156 196 255
155 195 255
155 195 255
155 195 255
155 195 255
155 195 255
155 195 255
155 195 255
155 195 255
155 195 255
154 195 255
154 195 255
154 195 255
154 195 255
154 195 255
154 195 255
154 194 255
154 194 255
154 194 255
154 194 255
153 194 255
153 194 255
153 194 255
153 194 255
153 194 255
153 194 255
153 194 255
153 194 255
153 194 255
153 194 255
152 194 255
152 194 255
152 194 255
152 193 255
152 193 255
152 193 255
152 193 255
152 193 255
152 193 255
152 193 255
151 193 255
151 193 255
151 193 255
151 193 255
151 193 255
151 193 255
151 193 255
151 193 255
151 193 255
151 193 255
151 193 255
151 193 255
150 192 255
150 192 255
150 192 255
150 192 255
150 192 255
150 192 255
150 192 255
150 192 255
150 192 255
150 192 255
150 192 255
150 192 255
150 192 255
150 192 255
150 192 255
149 192 255
149 192 255
149 192 255
149 192 255
149 192 255
149 192 255
149 192 255
149 192 255
149 192 255
149 192 255
149 192 255
149 192 255
149 192 255
149 192 255
149 191 255
149 191 255
149 191 255
149 191 255
149 191 255
149 191 255
149 191 255
149 191 255
149 191 255
149 191 255
149 191 255
149 191 255
149 191 255
149 191 255
149 191 255
149 191 255
149 191 255
149 191 255
149 191 255
149 191 255
149 191 255
149 191 255
149 191 255
149 191 255
149 191 255
149 191 255
149 191 255
149 191 255
149 191 255
149 191 255
149 191 255
149 191 255
149 191 255
149 191 255
149 191 255
149 191 255
149 191 255
149 192 255
149 192 255
149 192 255
149 192 255
149 192 255
149 192 255
149 192 255
149 192 255
149 192 255
149 192 255
149 192 255
149 192 255
149 192 255
149 192 255
149 192 255
150 192 255
150 192 255
150 192 255
150 192 255
150 192 255
150 192 255
150 192 255
150 192 255
150 192 255
150 192 255
150 192 255
150 192 255
150 192 255
150 192 255
150 192 255
151 193 255
151 193 255
151 193 255
151 193 255
151 193 255
151 193 255
151 193 255
151 193 255
151 193 255
151 193 255
151 193 255
151 193 255
152 193 255
152 193 255
152 193 255
152 193 255
152 193 255
152 193 255
152 193 255
152 194 255
152 194 255
152 194 255
153 194 255
153 194 255
153 194 255
153 194 255
153 194 255
153 194 255
153 194 255
153 194 255
153 194 255
153 194 255
154 194 255
154 194 255
154 194 255
154 194 255
154 195 255
154 195 255
154 195 255
154 195 255
154 195 255
154 195 255
155 195 255
155 195 255
155 195 255
155 195 255
155 195 255
155 195 255
155 195 255
155 195 255
155 195 255
156 196 255
156 196 255
156 196 255
156 196 255
156 196 255
156 196 255
156 196 255
156 196 255
156 196 255
157 196 255
157 196 255
157 196 255
157 196 255
157 196 255
157 196 255
157 197 255
157 197 255
157 197 255
157 197 255
158 197 255
158 197 255
158 197 255
158 197 255
158 197 255
158 197 255
158 197 255
158 197 255
158 197 255
159 197 255
159 197 255
159 197 255
159 198 255
159 198 255
159 198 255
159 198 255
159 198 255
159 198 255
160 198 255
160 198 255
160 198 255
160 198 255
160 198 255
160 198 255
160 198 255
160 198 255
160 198 255
160 198 255
161 199 255
161 199 255
161 199 255
161 199 255
161 199 255
161 199 255
161 199 255
161 199 255
161 199 255
161 199 255
162 199 255
162 199 255
162 199 255
162 199 255
162 199 255
162 199 255
162 199 255
162 200 255
162 200 255
162 200 255
163 200 255
163 200 255
163 200 255
163 200 255
163 200 255
163 200 255
163 200 255
163 200 255
163 200 255
163 200 255
163 200 255
164 200 255
164 200 255
164 200 255
164 200 255
164 201 255
164 201 255
164 201 255
164 201 255
164 201 255
164 201 255
164 201 255
165 201 255
165 201 255
165 201 255
165 201 255
165 201 255
165 201 255
165 201 255
165 201 255
165 201 255
165 201 255
165 201 255
165 201 255
166 202 255
166 202 255
166 202 255
165 201 255
165 201 255
165 201 255
165 201 255
165 201 255
165 201 255
165 201 255
165 201 255
165 201 255
165 201 255
165 201 255
164 201 255
164 201 255
164 201 255
164 201 255
164 201 255
164 201 255
164 201 255
164 201 255
164 200 255
164 200 255
164 200 255
164 200 255
163 200 255
163 200 255
163 200 255
163 200 255
163 200 255
163 200 255
163 200 255
163 200 255
163 200 255
163 200 255
162 200 255
162 200 255
162 200 255
162 200 255
162 199 255
162 199 255
162 199 255
162 199 255
162 199 255
162 199 255
162 199 255
161 199 255
161 199 255
161 199 255
161 199 255
161 199 255
161 199 255
161 199 255
161 199 255
161 199 255
160 198 255
160 198 255
160 198 255
160 198 255
160 198 255
160 198 255
160 198 255
160 198 255
160 198 255
160 198 255
159 198 255
159 198 255
159 198 255
159 198 255
159 198 255
159 198 255
159 197 255
159 197 255
159 197 255
158 197 255
158 197 255
158 197 255
158 197 255
158 197 255
158 197 255
158 197 255
158 197 255
158 197 255
158 197 255
157 197 255
157 197 255
157 197 255
157 196 255
157 196 255
157 196 255
157 196 255
157 196 255
157 196 255
156 196 255
156 196 255
156 196 255
156 196 255
156 196 255
156 196 255
156 196 255
156 196 255
156 196 255
155 195 255
155 195 255
155 195 255
155 195 255
155 195 255
155 195 255
155 195 255
155 195 255
155 195 255
154 195 255
154 195 255
154 195 255
154 195 255
154 195 255
154 195 255
154 195 255
154 194 255
154 194 255
154 194 255
153 194 255
153 194 255
153 194 255
153 194 255
153 194 255
153 194 255
153 194 255
153 194 255
153 194 255
153 194 255
152 194 255
152 194 255
152 194 255
152 194 255
152 193 255
152 193 255
152 193 255
152 193 255
152 193 255
152 193 255
152 193 255
151 193 255
151 193 255
151 193 255
151 193 255
151 193 255
151 193 255
151 193 255
151 193 255
151 193 255
151 193 255
151 193 255
151 193 255
150 192 255
150 192 255
150 192 255
150 192 255
150 192 255
150 192 255
150 192 255
150 192 255
150 192 255
150 192 255
150 192 255
150 192 255
150 192 255
150 192 255
150 192 255
150 192 255
149 192 255
149 192 255
149 192 255
149 192 255
149 192 255
149 192 255
149 192 255
149 192 255
149 192 255
149 192 255
149 192 255
149 192 255
149 192 255
149 192 255
149 192 255
149 192 255
149 192 255
149 192 255
149 192 255
149 192 255
149 191 255
149 191 255
149 191 255
149 191 255
149 191 255
149 191 255
149 191 255
149 191 255
149 191 255
149 191 255
149 191 255
149 191 255
149 191 255
149 191 255
149 191 255
149 191 255
149 191 255
149 191 255
149 191 255
149 192 255
149 192 255
149 192 255
149 192 255
149 192 255
149 192 255
149 192 255
149 192 255
149 192 255
149 192 255
149 192 255
149 192 255
149 192 255
149 192 255
149 192 255
149 192 255
149 192 255
149 192 255
149 192 255
150 192 255
150 192 255
150 192 255
150 192 255
150 192 255
150 192 255
150 192 255
150 192 255
150 192 255
150 192 255
150 192 255
150 192 255
150 192 255
150 192 255
150 192 255
150 192 255
151 193 255
151 193 255
151 193 255
151 193 255
151 193 255
151 193 255
151 193 255
151 193 255
151 193 255
151 193 255
151 193 255
151 193 255
152 193 255
152 193 255
152 193 255
152 193 255
152 193 255
152 193 255
152 193 255
152 194 255
152 194 255
152 194 255
152 194 255
153 194 255
153 194 255
153 194 255
153 194 255
153 194 255
153 194 255
153 194 255
153 194 255
153 194 255
153 194 255
154 194 255
154 194 255
154 194 255
154 195 255
154 195 255
154 195 255
154 195 255
154 195 255
154 195 255
154 195 255
155 195 255
155 195 255
155 195 255
155 195 255
155 195 255
155 195 255
155 195 255
155 195 255
155 195 255
156 196 255
156 196 255
156 196 255
156 196 255
156 196 255
156 196 255
156 196 255
156 196 255
156 196 255
157 196 255
157 196 255
157 196 255
157 196 255
157 196 255
157 196 255
157 197 255
157 197 255
157 197 255
158 197 255
158 197 255
158 197 255
158 197 255
158 197 255
158 197 255
158 197 255
158 197 255
158 197 255
159 197 255
159 197 255
159 197 255
159 197 255
159 198 255
159 198 255
159 198 255
159 198 255
159 198 255
159 198 255
160 198 255
160 198 255
160 198 255
160 198 255
160 198 255
160 198 255
160 198 255
160 198 255
160 198 255
160 198 255
161 199 255
161 199 255
161 199 255
161 199 255
161 199 255
161 199 255
161 199 255
161 199 255
161 199 255
161 199 255
162 199 255
162 199 255
162 199 255
162 199 255
162 199 255
162 199 255
162 200 255
162 200 255
162 200 255
162 200 255
163 200 255
163 200 255
163 200 255
163 200 255
163 200 255
163 200 255
163 200 255
163 200 255
163 200 255
163 200 255
164 200 255
164 200 255
164 200 255
164 200 255
164 201 255
164 201 255
164 201 255
164 201 255
164 201 255
164 201 255
164 201 255
164 201 255
165 201 255
165 201 255
165 201 255
165 201 255
165 201 255
165 201 255
165 201 255
165 201 255
165 201 255
165 201 255
165 201 255
166 202 255
166 202 255
166 202 255
166 202 255
166 202 255
166 202 255
166 202 255
166 202 255
165 201 255
165 201 255
165 201 255
165 201 255
165 201 255
165 201 255
165 201 255
165 201 255
165 201 255
165 201 255
165 201 255
165 201 255
164 201 255
164 201 255
164 201 255
164 201 255
164 201 255
164 201 255
164 201 255
164 200 255
164 200 255
164 200 255
164 200 255
163 200 255
163 200 255
163 200 255
163 200 255
163 200 255
163 200 255
163 200 255
163 200 255
163 200 255
163 200 255
163 200 255
162 200 255
162 200 255
162 200 255
162 199 255
162 199 255
162 199 255
162 199 255
162 199 255
162 199 255
162 199 255
161 199 255
161 199 255
161 199 255
161 199 255
161 199 255
161 199 255
161 199 255
161 199 255
161 199 255
161 199 255
160 198 255
160 198 255
160 198 255
160 198 255
160 198 255
160 198 255
160 198 255
160 198 255
160 198 255
159 198 255
159 198 255
159 198 255
159 198 255
159 198 255
159 198 255
159 198 255
159 197 255
159 197 255
159 197 255
158 197 255
158 197 255
158 197 255
158 197 255
158 197 255
158 197 255
158 197 255
158 197 255
158 197 255
157 197 255
157 197 255
157 197 255
157 196 255
157 196 255
157 196 255
157 196 255
157 196 255
157 196 255
156 196 255
156 196 255
156 196 255
156 196 255
156 196 255
156 196 255
156 196 255
156 196 255
156 196 255
155 195 255
155 195 255
155 195 255
155 195 255
155 195 255
155 195 255
155 195 255
155 195 255
155 195 255
155 195 255
154 195 255
154 195 255
154 195 255
154 195 255
154 195 255
154 195 255
154 194 255
154 194 255
154 194 255
153 194 255
153 194 255
153 194 255
153 194 255
153 194 255
153 194 255
153 194 255
153 194 255
153 194 255
153 194 255
153 194 255
152 194 255
152 194 255
152 194 255
152 193 255
152 193 255
152 193 255
152 193 255
152 193 255
152 193 255
152 193 255
152 193 255
151 193 255
151 193 255
151 193 255
151 193 255
151 193 255
151 193 255
151 193 255
151 193 255
151 193 255
151 193 255
151 193 255
151 193 255
151 193 255
150 192 255
150 192 255
150 192 255
150 192 255
150 192 255
150 192 255
150 192 255
150 192 255
150 192 255
150 192 255
150 192 255
150 192 255
150 192 255
150 192 255
150 192 255
150 192 255
150 192 255
149 192 255
149 192 255
149 192 255
149 192 255
149 192 255
149 192 255
149 192 255
149 192 255
149 192 255
149 192 255
149 192 255
149 192 255
149 192 255
149 192 255
149 192 255
149 192 255
149 192 255
149 192 255
149 192 255
149 192 255
149 192 255
149 192 255
149 192 255
149 192 255
149 192 255
149 192 255
149 192 255
149 192 255
149 192 255
149 192 255
149 192 255
149 192 255
149 192 255
149 192 255
149 192 255
149 192 255
149 192 255
149 192 255
149 192 255
149 192 255
149 192 255
149 192 255
149 192 255
149 192 255
149 192 255
149 192 255
149 192 255
149 192 255
150 192 255
150 192 255
150 192 255
150 192 255
150 192 255
150 192 255
150 192 255
150 192 255
150 192 255
150 192 255
150 192 255
150 192 255
150 192 255
150 192 255
150 192 255
150 192 255
150 192 255
151 193 255
151 193 255
151 193 255
151 193 255
151 193 255
151 193 255
151 193 255
151 193 255
151 193 255
151 193 255
151 193 255
151 193 255
151 193 255
152 193 255
152 193 255
152 193 255
152 193 255
152 193 255
152 193 255
152 193 255
152 193 255
152 194 255
152 194 255
152 194 255
153 194 255
153 194 255
153 194 255
153 194 255
153 194 255
153 194 255
153 194 255
153 194 255
153 194 255
153 194 255
153 194 255
154 194 255
154 194 255
154 194 255
154 195 255
154 195 255
154 195 255
154 195 255
154 195 255
154 195 255
155 195 255
155 195 255
155 195 255
155 195 255
155 195 255
155 195 255
155 195 255
155 195 255
155 195 255
155 195 255
156 196 255
156 196 255
156 196 255
156 196 255
156 196 255
156 196 255
156 196 255
156 196 255
156 196 255
157 196 255
157 196 255
157 196 255
157 196 255
157 196 255
157 196 255
157 197 255
157 197 255
157 197 255
158 197 255
158 197 255
158 197 255
158 197 255
158 197 255
158 197 255
158 197 255
158 197 255
158 197 255
159 197 255
159 197 255
159 197 255
159 198 255
159 198 255
159 198 255
159 198 255
159 198 255
159 198 255
159 198 255
160 198 255
160 198 255
160 198 255
160 198 255
160 198 255
160 198 255
160 198 255
160 198 255
160 198 255
161 199 255
161 199 255
161 199 255
161 199 255
161 199 255
161 199 255
161 199 255
161 199 255
161 199 255
161 199 255
162 199 255
162 199 255
162 199 255
162 199 255
162 199 255
162 199 255
162 199 255
162 200 255
162 200 255
162 200 255
162 200 255
163 200 255
163 200 255
163 200 255
163 200 255
163 200 255
163 200 255
163 200 255
163 200 255
163 200 255
163 200 255
164 200 255
164 200 255
164 200 255
164 201 255
164 201 255
164 201 255
164 201 255
164 201 255
164 201 255
164 201 255
164 201 255
165 201 255
165 201 255
165 201 255
165 201 255
165 201 255
165 201 255
165 201 255
165 201 255
165 201 255
165 201 255
165 201 255
165 201 255
166 202 255
166 202 255
166 202 255
166 202 255
166 202 255
166 202 255
166 202 255
166 202 255
166 202 255
166 202 255
166 202 255
166 202 255
166 202 255
165 201 255
165 201 255
165 201 255
165 201 255
165 201 255
165 201 255
165 201 255
165 201 255
165 201 255
165 201 255
165 201 255
164 201 255
164 201 255
164 201 255
164 201 255
164 201 255
164 201 255
164 201 255
164 201 255
164 200 255
164 200 255
164 200 255
163 200 255
163 200 255
163 200 255
163 200 255
163 200 255
163 200 255
163 200 255
163 200 255
163 200 255
163 200 255
163 200 255
162 200 255
162 200 255
162 200 255
162 200 255
162 199 255
162 199 255
162 199 255
162 199 255
162 199 255
162 199 255
161 199 255
161 199 255
161 199 255
161 199 255
161 199 255
161 199 255
161 199 255
161 199 255
161 199 255
161 199 255
160 198 255
160 198 255
160 198 255
160 198 255
160 198 255
160 198 255
160 198 255
160 198 255
160 198 255
160 198 255
159 198 255
159 198 255
159 198 255
159 198 255
159 198 255
159 198 255
159 197 255
159 197 255
159 197 255
158 197 255
158 197 255
158 197 255
158 197 255
158 197 255
158 197 255
158 197 255
158 197 255
158 197 255
157 197 255
157 197 255
157 197 255
157 196 255
157 196 255
157 196 255
157 196 255
157 196 255
157 196 255
157 196 255
156 196 255
156 196 255
156 196 255
156 196 255
156 196 255
156 196 255
156 196 255
156 196 255
156 196 255
155 195 255
155 195 255
155 195 255
155 195 255
155 195 255
155 195 255
155 195 255
155 195 255
155 195 255
154 195 255
154 195 255
154 195 255
154 195 255
154 195 255
154 195 255
154 195 255
154 194 255
154 194 255
154 194 255
153 194 255
153 194 255
153 194 255
153 194 255
153 194 255
153 194 255
153 194 255
153 194 255
153 194 255
153 194 255
152 194 255
152 194 255
152 194 255
152 194 255
152 193 255
152 193 255
152 193 255
152 193 255
152 193 255
152 193 255
152 193 255
152 193 255
151 193 255
151 193 255
151 193 255
151 193 255
151 193 255
151 193 255
151 193 255
151 193 255
151 193 255
151 193 255
151 193 255
151 193 255
151 193 255
150 192 255
150 192 255
150 192 255
150 192 255
150 192 255
150 192 255
150 192 255
150 192 255
150 192 255
150 192 255
150 192 255
150 192 255
150 192 255
150 192 255
150 192 255
150 192 255
150 192 255
150 192 255
150 192 255
150 192 255
149 192 255
149 192 255
149 192 255
149 192 255
149 192 255
149 192 255
149 192 255
149 192 255
149 192 255
149 192 255
149 192 255
149 192 255
149 192 255
149 192 255
149 192 255
149 192 255
149 192 255
149 192 255
149 192 255
149 192 255
149 192 255
149 192 255
149 192 255
149 192 255
149 192 255
149 192 255
149 192 255
149 192 255
149 192 255
149 192 255
149 192 255
149 192 255
149 192 255
149 192 255
149 192 255
150 192 255
150 192 255
150 192 255
150 192 255
150 192 255
150 192 255
150 192 255
150 192 255
150 192 255
150 192 255
150 192 255
150 192 255
150 192 255
150 192 255
150 192 255
150 192 255
150 192 255
150 192 255
150 192 255
150 192 255
150 192 255
151 193 255
151 193 255
151 193 255
151 193 255
151 193 255
151 193 255
151 193 255
151 193 255
151 193 255
151 193 255
151 193 255
151 193 255
151 193 255
152 193 255
152 193 255
152 193 255
152 193 255
152 193 255
152 193 255
152 193 255
152 193 255
152 194 255
152 194 255
152 194 255
152 194 255
153 194 255
153 194 255
153 194 255
153 194 255
153 194 255
153 194 255
153 194 255
153 194 255
153 194 255
153 194 255
154 194 255
154 194 255
154 194 255
154 195 255
154 195 255
154 195 255
154 195 255
154 195 255
154 195 255
154 195 255
155 195 255
155 195 255
155 195 255
155 195 255
155 195 255
155 195 255
155 195 255
155 195 255
155 195 255
156 196 255
156 196 255
156 196 255
156 196 255
156 196 255
156 196 255
156 196 255
156 196 255
156 196 255
156 196 255
157 196 255
157 196 255
157 196 255
157 196 255
157 196 255
157 196 255
157 197 255
157 197 255
157 197 255
158 197 255
158 197 255
158 197 255
158 197 255
158 197 255
158 197 255
158 197 255
158 197 255
158 197 255
159 197 255
159 197 255
159 197 255
159 198 255
159 198 255
159 198 255
159 198 255
159 198 255
159 198 255
160 198 255
160 198 255
160 198 255
160 198 255
160 198 255
160 198 255
160 198 255
160 198 255
160 198 255
160 198 255
161 199 255
161 199 255
161 199 255
161 199 255
161 199 255
161 199 255
161 199 255
161 199 255
161 199 255
161 199 255
162 199 255
162 199 255
162 199 255
162 199 255
162 199 255
162 199 255
162 200 255
162 200 255
162 200 255
162 200 255
163 200 255
163 200 255
163 200 255
163 200 255
163 200 255
163 200 255
163 200 255
163 200 255
163 200 255
163 200 255
163 200 255
164 200 255
164 200 255
164 200 255
164 201 255
164 201 255
164 201 255
164 201 255
164 201 255
164 201 255
164 201 255
164 201 255
165 201 255
165 201 255
165 201 255
165 201 255
165 201 255
165 201 255
165 201 255
165 201 255
165 201 255
165 201 255
165 201 255
166 202 255
166 202 255
166 202 255
166 202 255
166 202 255
166 202 255
166 202 255
166 202 255
166 202 255
166 202 255
166 202 255
166 202 255
166 202 255
166 202 255
166 202 255
166 202 255
166 202 255
166 202 255
165 201 255
165 201 255
165 201 255
165 201 255
165 201 255
165 201 255
165 201 255
165 201 255
165 201 255
165 201 255
165 201 255
165 201 255
164 201 255
164 201 255
164 201 255
164 201 255
164 201 255
164 201 255
164 201 255
164 200 255
164 200 255
164 200 255
164 200 255
163 200 255
163 200 255
163 200 255
163 200 255
163 200 255
163 200 255
163 200 255
163 200 255
163 200 255
163 200 255
162 200 255
162 200 255
162 200 255
162 200 255
162 199 255
162 199 255
162 199 255
162 199 255
162 199 255
162 199 255
162 199 255
161 199 255
161 199 255
161 199 255
161 199 255
161 199 255
161 199 255
161 199 255
161 199 255
161 199 255
160 198 255
160 198 255
160 198 255
160 198 255
160 198 255
160 198 255
160 198 255
160 198 255
160 198 255
160 198 255
159 198 255
159 198 255
159 198 255
159 198 255
159 198 255
159 198 255
159 197 255
159 197 255
159 197 255
158 197 255
158 197 255
158 197 255
158 197 255
158 197 255
158 197 255
158 197 255
158 197 255
158 197 255
158 197 255
157 197 255
157 197 255
157 197 255
157 196 255
157 196 255
157 196 255
157 196 255
157 196 255
157 196 255
156 196 255
156 196 255
156 196 255
156 196 255
156 196 255
156 196 255
156 196 255
156 196 255
156 196 255
155 195 255
155 195 255
155 195 255
155 195 255
155 195 255
155 195 255
155 195 255
155 195 255
155 195 255
155 195 255
154 195 255
154 195 255
154 195 255
154 195 255
154 195 255
154 195 255
154 194 255
154 194 255
154 194 255
153 194 255
153 194 255
153 194 255
153 194 255
153 194 255
153 194 255
153 194 255
153 194 255
153 194 255
153 194 255
153 194 255
152 194 255
152 194 255
152 194 255
152 194 255
152 193 255
152 193 255
152 193 255
152 193 255
152 193 255
152 193 255
152 193 255
152 193 255
151 193 255
151 193 255
151 193 255
151 193 255
151 193 255
151 193 255
151 193 255
151 193 255
151 193 255
151 193 255
151 193 255
151 193 255
151 193 255
151 193 255
150 192 255
150 192 255
150 192 255
150 192 255
150 192 255
150 192 255
150 192 255
150 192 255
150 192 255
150 192 255
150 192 255
150 192 255
150 192 255
150 192 255
150 192 255
150 192 255
150 192 255
150 192 255
150 192 255
150 192 255
150 192 255
150 192 255
150 192 255
150 192 255
150 192 255
150 192 255
150 192 255
150 192 255
149 192 255
149 192 255
149 192 255
149 192 255
149 192 255
149 192 255
149 192 255
149 192 255
149 192 255
149 192 255
149 192 255
149 192 255
150 192 255
150 192 255
150 192 255
150 192 255
150 192 255
150 192 255
150 192 255
150 192 255
150 192 255
150 192 255
150 192 255
150 192 255
150 192 255
150 192 255
150 192 255
150 192 255
150 192 255
150 192 255
150 192 255
150 192 255
150 192 255
150 192 255
150 192 255
150 192 255
150 192 255
150 192 255
150 192 255
150 192 255
151 193 255
151 193 255
151 193 255
151 193 255
151 193 255
151 193 255
151 193 255
151 193 255
151 193 255
151 193 255
151 193 255
151 193 255
151 193 255
151 193 255
152 193 255
152 193 255
152 193 255
152 193 255
152 193 255
152 193 255
152 193 255
152 193 255
152 194 255
152 194 255
152 194 255
152 194 255
153 194 255
153 194 255
153 194 255
153 194 255
153 194 255
153 194 255
153 194 255
153 194 255
153 194 255
153 194 255
153 194 255
154 194 255
154 194 255
154 194 255
154 195 255
154 195 255
154 195 255
154 195 255
154 195 255
154 195 255
154 195 255
155 195 255
155 195 255
155 195 255
155 195 255
155 195 255
155 195 255
155 195 255
155 195 255
155 195 255
156 196 255
156 196 255
156 196 255
156 196 255
156 196 255
156 196 255
156 196 255
156 196 255
156 196 255
157 196 255
157 196 255
157 196 255
157 196 255
157 196 255
157 196 255
157 197 255
157 197 255
157 197 255
158 197 255
158 197 255
158 197 255
158 197 255
158 197 255
158 197 255
158 197 255
158 197 255
158 197 255
158 197 255
159 197 255
159 197 255
159 197 255
159 198 255
159 198 255
159 198 255
159 198 255
159 198 255
159 198 255
160 198 255
160 198 255
160 198 255
160 198 255
160 198 255
160 198 255
160 198 255
160 198 255
160 198 255
160 198 255
161 199 255
161 199 255
161 199 255
161 199 255
161 199 255
161 199 255
161 199 255
161 199 255
161 199 255
161 199 255
162 199 255
162 199 255
162 199 255
162 199 255
162 199 255
162 199 255
162 200 255
162 200 255
162 200 255
162 200 255
163 200 255
163 200 255
163 200 255
163 200 255
163 200 255
163 200 255
163 200 255
163 200 255
163 200 255
163 200 255
164 200 255
164 200 255
164 200 255
164 200 255
164 201 255
164 201 255
164 201 255
164 201 255
164 201 255
164 201 255
164 201 255
165 201 255
165 201 255
165 201 255
165 201 255
165 201 255
165 201 255
165 201 255
165 201 255
165 201 255
165 201 255
165 201 255
165 201 255
166 202 255
166 202 255
166 202 255
166 202 255
166 202 255
166 202 255
166 202 255
166 202 255
166 202 255
166 202 255
167 202 255
166 202 255
166 202 255
166 202 255
166 202 255
166 202 255
166 202 255
166 202 255
166 202 255
166 202 255
166 202 255
166 202 255
166 202 255
165 201 255
165 201 255
165 201 255
165 201 255
165 201 255
165 201 255
165 201 255
165 201 255
165 201 255
165 201 255
165 201 255
165 201 255
164 201 255
164 201 255
164 201 255
164 201 255
164 201 255
164 201 255
164 201 255
164 200 255
164 200 255
164 200 255
163 200 255
163 200 255
163 200 255
163 200 255
163 200 255
163 200 255
163 200 255
163 200 255
163 200 255
163 200 255
163 200 255
162 200 255
162 200 255
162 200 255
162 199 255
162 199 255
162 199 255
162 199 255
162 199 255
162 199 255
162 199 255
161 199 255
161 199 255
161 199 255
161 199 255
161 199 255
161 199 255
161 199 255
161 199 255
161 199 255
161 199 255
160 198 255
160 198 255
160 198 255
160 198 255
160 198 255
160 198 255
160 198 255
160 198 255
160 198 255
159 198 255
159 198 255
159 198 255
159 198 255
159 198 255
159 198 255
159 197 255
159 197 255
159 197 255
159 197 255
158 197 255
158 197 255
158 197 255
158 197 255
158 197 255
158 197 255
158 197 255
158 197 255
158 197 255
157 197 255
157 197 255
157 197 255
157 196 255
157 196 255
157 196 255
157 196 255
157 196 255
157 196 255
156 196 255
156 196 255
156 196 255
156 196 255
156 196 255
156 196 255
156 196 255
156 196 255
156 196 255
155 195 255
155 195 255
155 195 255
155 195 255
155 195 255
155 195 255
155 195 255
155 195 255
155 195 255
155 195 255
154 195 255
154 195 255
154 195 255
154 195 255
154 195 255
154 195 255
154 195 255
154 194 255
154 194 255
154 194 255
153 194 255
153 194 255
153 194 255
153 194 255
153 194 255
153 194 255
153 194 255
153 194 255
153 194 255
153 194 255
153 194 255
152 194 255
152 194 255
152 194 255
152 194 255
152 193 255
152 193 255
152 193 255
152 193 255
152 193 255
152 193 255
152 193 255
152 193 255
151 193 255
151 193 255
151 193 255
151 193 255
151 193 255
151 193 255
151 193 255
151 193 255
151 193 255
151 193 255
151 193 255
151 193 255
151 193 255
151 193 255
151 193 255
151 193 255
150 192 255
150 192 255
150 192 255
150 192 255
150 192 255
150 192 255
150 192 255
150 192 255
150 192 255
150 192 255
150 192 255
150 192 255
150 192 255
150 192 255
150 192 255
150 192 255
150 192 255
150 192 255
150 192 255
150 192 255
150 192 255
150 192 255
150 192 255
150 192 255
150 192 255
150 192 255
150 192 255
150 192 255
150 192 255
150 192 255
150 192 255
150 192 255
150 192 255
150 192 255
150 192 255
150 192 255
150 192 255
150 192 255
150 192 255
150 192 255
150 192 255
150 192 255
150 192 255
150 192 255
150 192 255
150 192 255
150 192 255
150 192 255
150 192 255
150 192 255
150 192 255
150 192 255
150 192 255
150 192 255
150 192 255
150 192 255
150 192 255
150 192 255
151 193 255
151 193 255
151 193 255
151 193 255
151 193 255
151 193 255
151 193 255
151 193 255
151 193 255
151 193 255
151 193 255
151 193 255
151 193 255
151 193 255
151 193 255
151 193 255
152 193 255
152 193 255
152 193 255
152 193 255
152 193 255
152 193 255
152 193 255
152 193 255
152 194 255
152 194 255
152 194 255
152 194 255
153 194 255
153 194 255
153 194 255
153 194 255
153 194 255
153 194 255
153 194 255
153 194 255
153 194 255
153 194 255
153 194 255
154 194 255
154 194 255
154 194 255
154 195 255
154 195 255
154 195 255
154 195 255
154 195 255
154 195 255
154 195 255
155 195 255
155 195 255
155 195 255
155 195 255
155 195 255
155 195 255
155 195 255
155 195 255
155 195 255
155 195 255
156 196 255
156 196 255
156 196 255
156 196 255
156 196 255
156 196 255
156 196 255
156 196 255
156 196 255
157 196 255
157 196 255
157 196 255
157 196 255
157 196 255
157 196 255
157 197 255
157 197 255
157 197 255
158 197 255
158 197 255
158 197 255
158 197 255
158 197 255
158 197 255
158 197 255
158 197 255
158 197 255
159 197 255
159 197 255
159 197 255
159 197 255
159 198 255
159 198 255
159 198 255
159 198 255
159 198 255
159 198 255
160 198 255
160 198 255
160 198 255
160 198 255
160 198 255
160 198 255
160 198 255
160 198 255
160 198 255
160 198 255
161 199 255
161 199 255
161 199 255
161 199 255
161 199 255
161 199 255
161 199 255
161 199 255
161 199 255
162 199 255
162 199 255
162 199 255
162 199 255
162 199 255
162 199 255
162 199 255
162 200 255
162 200 255
162 200 255
163 200 255
163 200 255
163 200 255
163 200 255
163 200 255
163 200 255
163 200 255
163 200 255
163 200 255
163 200 255
163 200 255
164 200 255
164 200 255
164 200 255
164 201 255
164 201 255
164 201 255
164 201 255
164 201 255
164 201 255
164 201 255
165 201 255
165 201 255
165 201 255
165 201 255
165 201 255
165 201 255
165 201 255
165 201 255
165 201 255
165 201 255
165 201 255
165 201 255
166 202 255
166 202 255
166 202 255
166 202 255
166 202 255
166 202 255
166 202 255
166 202 255
166 202 255
166 202 255
166 202 255
166 202 255
167 202 255
167 202 255
167 202 255
167 202 255
167 202 255
166 202 255
166 202 255
166 202 255
166 202 255
166 202 255
166 202 255
166 202 255
166 202 255
166 202 255
166 202 255
166 202 255
166 202 255
165 201 255
165 201 255
165 201 255
165 201 255
165 201 255
165 201 255
165 201 255
165 201 255
165 201 255
165 201 255
165 201 255
164 201 255
164 201 255
164 201 255
164 201 255
164 201 255
164 201 255
164 201 255
164 200 255
164 200 255
164 200 255
164 200 255
163 200 255
163 200 255
163 200 255
163 200 255
163 200 255
163 200 255
163 200 255
163 200 255
163 200 255
163 200 255
162 200 255
162 200 255
162 200 255
162 200 255
162 199 255
162 199 255
162 199 255
162 199 255
162 199 255
162 199 255
161 199 255
161 199 255
161 199 255
161 199 255
161 199 255
161 199 255
161 199 255
161 199 255
161 199 255
161 199 255
160 198 255
160 198 255
160 198 255
160 198 255
160 198 255
160 198 255
160 198 255
160 198 255
160 198 255
160 198 255
159 198 255
159 198 255
159 198 255
159 198 255
159 198 255
159 198 255
159 197 255
159 197 255
159 197 255
158 197 255
158 197 255
158 197 255
158 197 255
158 197 255
158 197 255
158 197 255
158 197 255
158 197 255
157 197 255
157 197 255
157 197 255
157 196 255
157 196 255
157 196 255
157 196 255
157 196 255
157 196 255
157 196 255
156 196 255
156 196 255
156 196 255
156 196 255
156 196 255
156 196 255
156 196 255
156 196 255
156 196 255
155 195 255
155 195 255
155 195 255
155 195 255
155 195 255
155 195 255
155 195 255
155 195 255
155 195 255
155 195 255
154 195 255
154 195 255
154 195 255
154 195 255
154 195 255
154 195 255
154 194 255
154 194 255
154 194 255
154 194 255
153 194 255
153 194 255
153 194 255
153 194 255
153 194 255
153 194 255
153 194 255
153 194 255
153 194 255
153 194 255
153 194 255
152 194 255
152 194 255
152 194 255
152 194 255
152 193 255
152 193 255
152 193 255
152 193 255
152 193 255
152 193 255
152 193 255
152 193 255
152 193 255
151 193 255
151 193 255
151 193 255
151 193 255
151 193 255
151 193 255
151 193 255
151 193 255
151 193 255
151 193 255
151 193 255
151 193 255
151 193 255
151 193 255
151 193 255
151 193 255
151 193 255
150 192 255
150 192 255
150 192 255
150 192 255
150 192 255
150 192 255
150 192 255
150 192 255
150 192 255
150 192 255
150 192 255
150 192 255
150 192 255
150 192 255
150 192 255
150 192 255
150 192 255
150 192 255
150 192 255
150 192 255
150 192 255
150 192 255
150 192 255
150 192 255
150 192 255
150 192 255
150 192 255
150 192 255
150 192 255
150 192 255
150 192 255
150 192 255
150 192 255
150 192 255
150 192 255
150 192 255
150 192 255
150 192 255
150 192 255
150 192 255
150 192 255
150 192 255
150 192 255
150 192 255
150 192 255
150 192 255
150 192 255
150 192 255
151 193 255
151 193 255
151 193 255
151 193 255
151 193 255
151 193 255
151 193 255
151 193 255
151 193 255
151 193 255
151 193 255
151 193 255
151 193 255
151 193 255
151 193 255
151 193 255
151 193 255
151 193 255
152 193 255
152 193 255
152 193 255
152 193 255
152 193 255
152 193 255
152 193 255
152 193 255
152 194 255
152 194 255
152 194 255
152 194 255
153 194 255
153 194 255
153 194 255
153 194 255
153 194 255
153 194 255
153 194 255
153 194 255
153 194 255
153 194 255
153 194 255
154 194 255
154 194 255
154 194 255
154 194 255
154 195 255
154 195 255
154 195 255
154 195 255
154 195 255
154 195 255
154 195 255
155 195 255
155 195 255
155 195 255
155 195 255
155 195 255
155 195 255
155 195 255
155 195 255
155 195 255
156 196 255
156 196 255
156 196 255
156 196 255
156 196 255
156 196 255
156 196 255
156 196 255
156 196 255
156 196 255
157 196 255
157 196 255
157 196 255
157 196 255
157 196 255
157 196 255
157 197 255
157 197 255
157 197 255
158 197 255
158 197 255
158 197 255
158 197 255
158 197 255
158 197 255
158 197 255
158 197 255
158 197 255
159 197 255
159 197 255
159 197 255
159 198 255
159 198 255
159 198 255
159 198 255
159 198 255
159 198 255
159 198 255
160 198 255
160 198 255
160 198 255
160 198 255
160 198 255
160 198 255
160 198 255
160 198 255
160 198 255
161 199 255
161 199 255
161 199 255
161 199 255
161 199 255
161 199 255
161 199 255
161 199 255
161 199 255
161 199 255
162 199 255
162 199 255
162 199 255
162 199 255
162 199 255
162 199 255
162 200 255
162 200 255
162 200 255
162 200 255
163 200 255
163 200 255
163 200 255
163 200 255
163 200 255
163 200 255
163 200 255
163 200 255
163 200 255
163 200 255
164 200 255
164 200 255
164 200 255
164 200 255
164 201 255
164 201 255
164 201 255
164 201 255
164 201 255
164 201 255
164 201 255
165 201 255
165 201 255
165 201 255
165 201 255
165 201 255
165 201 255
165 201 255
165 201 255
165 201 255
165 201 255
165 201 255
166 202 255
166 202 255
166 202 255
166 202 255
166 202 255
166 202 255
166 202 255
166 202 255
166 202 255
166 202 255
166 202 255
166 202 255
167 202 255
167 202 255
167 202 255
167 202 255
167 202 255
167 202 255
167 202 255
167 202 255
167 202 255
167 202 255
166 202 255
166 202 255
166 202 255
166 202 255
166 202 255
166 202 255
166 202 255
166 202 255
166 202 255
166 202 255
166 202 255
166 202 255
165 201 255
165 201 255
165 201 255
165 201 255
165 201 255
165 201 255
165 201 255
165 201 255
165 201 255
165 201 255
165 201 255
165 201 255
164 201 255
164 201 255
164 201 255
164 201 255
164 201 255
164 201 255
164 201 255
164 200 255
164 200 255
164 200 255
163 200 255
163 200 255
163 200 255
163 200 255
163 200 255
163 200 255
163 200 255
163 200 255
163 200 255
163 200 255
163 200 255
162 200 255
162 200 255
162 200 255
162 199 255
162 199 255
162 199 255
162 199 255
162 199 255
162 199 255
162 199 255
161 199 255
161 199 255
161 199 255
161 199 255
161 199 255
161 199 255
161 199 255
161 199 255
161 199 255
160 198 255
160 198 255
160 198 255
160 198 255
160 198 255
160 198 255
160 198 255
160 198 255
160 198 255
160 198 255
159 198 255
159 198 255
159 198 255
159 198 255
159 198 255
159 198 255
159 197 255
159 197 255
159 197 255
158 197 255
158 197 255
158 197 255
158 197 255
158 197 255
158 197 255
158 197 255
158 197 255
158 197 255
158 197 255
157 197 255
157 197 255
157 197 255
157 196 255
157 196 255
157 196 255
157 196 255
157 196 255
157 196 255
156 196 255
156 196 255
156 196 255
156 196 255
156 196 255
156 196 255
156 196 255
156 196 255
156 196 255
155 195 255
155 195 255
155 195 255
155 195 255
155 195 255
155 195 255
155 195 255
155 195 255
155 195 255
155 195 255
154 195 255
154 195 255
154 195 255
154 195 255
154 195 255
154 195 255
154 195 255
154 194 255
154 194 255
154 194 255
153 194 255
153 194 255
153 194 255
153 194 255
153 194 255
153 194 255
153 194 255
153 194 255
153 194 255
153 194 255
153 194 255
153 194 255
152 194 255
152 194 255
152 194 255
152 194 255
152 193 255
152 193 255
152 193 255
152 193 255
152 193 255
152 193 255
152 193 255
152 193 255
152 193 255
151 193 255
151 193 255
151 193 255
151 193 255
151 193 255
151 193 255
151 193 255
151 193 255
151 193 255
151 193 255
151 193 255
151 193 255
151 193 255
151 193 255
151 193 255
151 193 255
151 193 255
151 193 255
151 193 255
151 193 255
150 192 255
150 192 255
150 192 255
150 192 255
150 192 255
150 192 255
150 192 255
150 192 255
150 192 255
150 192 255
150 192 255
150 192 255
150 192 255
150 192 255
150 192 255
150 192 255
150 192 255
150 192 255
150 192 255
150 192 255
150 192 255
150 192 255
150 192 255
150 192 255
150 192 255
150 192 255
150 192 255
150 192 255
150 192 255
150 192 255
150 192 255
150 192 255
150 192 255
150 192 255
150 192 255
151 193 255
151 193 255
151 193 255
151 193 255
151 193 255
151 193 255
151 193 255
151 193 255
151 193 255
151 193 255
151 193 255
151 193 255
151 193 255
151 193 255
151 193 255
151 193 255
151 193 255
151 193 255
151 193 255
151 193 255
151 193 255
152 193 255
152 193 255
152 193 255
152 193 255
152 193 255
152 193 255
152 193 255
152 193 255
152 193 255
152 194 255
152 194 255
152 194 255
152 194 255
153 194 255
153 194 255
153 194 255
153 194 255
153 194 255
153 194 255
153 194 255
153 194 255
153 194 255
153 194 255
153 194 255
153 194 255
154 194 255
154 194 255
154 194 255
154 195 255
154 195 255
154 195 255
154 195 255
154 195 255
154 195 255
154 195 255
155 195 255
155 195 255
155 195 255
155 195 255
155 195 255
155 195 255
155 195 255
155 195 255
155 195 255
155 195 255
156 196 255
156 196 255
156 196 255
156 196 255
156 196 255
156 196 255
156 196 255
156 196 255
156 196 255
157 196 255
157 196 255
157 196 255
157 196 255
157 196 255
157 196 255
157 197 255
157 197 255
157 197 255
157 197 255
158 197 255
158 197 255
158 197 255
158 197 255
158 197 255
158 197 255
158 197 255
158 197 255
158 197 255
159 197 255
159 197 255
159 197 255
159 198 255
159 198 255
159 198 255
159 198 255
159 198 255
159 198 255
160 198 255
160 198 255
160 198 255
160 198 255
160 198 255
160 198 255
160 198 255
160 198 255
160 198 255
161 199 255
161 199 255
161 199 255
161 199 255
161 199 255
161 199 255
161 199 255
161 199 255
161 199 255
161 199 255
162 199 255
162 199 255
162 199 255
162 199 255
162 199 255
162 199 255
162 199 255
162 200 255
162 200 255
162 200 255
163 200 255
163 200 255
163 200 255
163 200 255
163 200 255
163 200 255
163 200 255
163 200 255
163 200 255
163 200 255
163 200 255
164 200 255
164 200 255
164 200 255
164 201 255
164 201 255
164 201 255
164 201 255
164 201 255
164 201 255
164 201 255
165 201 255
165 201 255
165 201 255
165 201 255
165 201 255
165 201 255
165 201 255
165 201 255
165 201 255
165 201 255
165 201 255
165 201 255
166 202 255
166 202 255
166 202 255
166 202 255
166 202 255
166 202 255
166 202 255
166 202 255
166 202 255
166 202 255
166 202 255
167 202 255
167 202 255
167 202 255
167 202 255
167 202 255
167 202 255
167 202 255
167 203 255
167 202 255
167 202 255
167 202 255
167 202 255
167 202 255
167 202 255
167 202 255
167 202 255
166 202 255
166 202 255
166 202 255
166 202 255
166 202 255
166 202 255
166 202 255
166 202 255
166 202 255
166 202 255
166 202 255
166 202 255
165 201 255
165 201 255
165 201 255
165 201 255
165 201 255
165 201 255
165 201 255
165 201 255
165 201 255
165 201 255
165 201 255
164 201 255
164 201 255
164 201 255
164 201 255
164 201 255
164 201 255
164 201 255
164 200 255
164 200 255
164 200 255
164 200 255
163 200 255
163 200 255
163 200 255
163 200 255
163 200 255
163 200 255
163 200 255
163 200 255
163 200 255
163 200 255
162 200 255
162 200 255
162 200 255
162 200 255
162 199 255
162 199 255
162 199 255
162 199 255
162 199 255
162 199 255
161 199 255
161 199 255
161 199 255
161 199 255
161 199 255
161 199 255
161 199 255
161 199 255
161 199 255
161 199 255
160 198 255
160 198 255
160 198 255
160 198 255
160 198 255
160 198 255
160 198 255
160 198 255
160 198 255
159 198 255
159 198 255
159 198 255
159 198 255
159 198 255
159 198 255
159 198 255
159 197 255
159 197 255
159 197 255
158 197 255
158 197 255
158 197 255
158 197 255
158 197 255
158 197 255
158 197 255
158 197 255
158 197 255
157 197 255
157 197 255
157 197 255
157 196 255
157 196 255
157 196 255
157 196 255
157 196 255
157 196 255
156 196 255
156 196 255
156 196 255
156 196 255
156 196 255
156 196 255
156 196 255
156 196 255
156 196 255
156 196 255
155 195 255
155 195 255
155 195 255
155 195 255
155 195 255
155 195 255
155 195 255
155 195 255
155 195 255
155 195 255
154 195 255
154 195 255
154 195 255
154 195 255
154 195 255
154 195 255
154 195 255
154 194 255
154 194 255
154 194 255
153 194 255
153 194 255
153 194 255
153 194 255
153 194 255
153 194 255
153 194 255
153 194 255
153 194 255
153 194 255
153 194 255
153 194 255
152 194 255
152 194 255
152 194 255
152 194 255
152 193 255
152 193 255
152 193 255
152 193 255
152 193 255
152 193 255
152 193 255
152 193 255
152 193 255
152 193 255
151 193 255
151 193 255
151 193 255
151 193 255
151 193 255
151 193 255
151 193 255
151 193 255
151 193 255
151 193 255
151 193 255
151 193 255
151 193 255
151 193 255
151 193 255
151 193 255
151 193 255
151 193 255
151 193 255
151 193 255
151 193 255
151 193 255
151 193 255
151 193 255
151 193 255
151 193 255
151 193 255
151 193 255
150 192 255
150 192 255
150 192 255
150 192 255
150 192 255
150 192 255
150 192 255
150 192 255
150 192 255
150 192 255
150 192 255
150 192 255
151 193 255
151 193 255
151 193 255
151 193 255
151 193 255
151 193 255
151 193 255
151 193 255
151 193 255
151 193 255
151 193 255
151 193 255
151 193 255
151 193 255
151 193 255
151 193 255
151 193 255
151 193 255
151 193 255
151 193 255
151 193 255
151 193 255
151 193 255
151 193 255
151 193 255
151 193 255
151 193 255
151 193 255
152 193 255
152 193 255
152 193 255
152 193 255
152 193 255
152 193 255
152 193 255
152 193 255
152 193 255
152 193 255
152 194 255
152 194 255
152 194 255
152 194 255
153 194 255
153 194 255
153 194 255
153 194 255
153 194 255
153 194 255
153 194 255
153 194 255
153 194 255
153 194 255
153 194 255
153 194 255
154 194 255
154 194 255
154 194 255
154 195 255
154 195 255
154 195 255
154 195 255
154 195 255
154 195 255
154 195 255
155 195 255
155 195 255
155 195 255
155 195 255
155 195 255
155 195 255
155 195 255
155 195 255
155 195 255
155 195 255
156 196 255
156 196 255
156 196 255
156 196 255
156 196 255
156 196 255
156 196 255
156 196 255
156 196 255
156 196 255
157 196 255
157 196 255
157 196 255
157 196 255
157 196 255
157 196 255
157 197 255
157 197 255
157 197 255
158 197 255
158 197 255
158 197 255
158 197 255
158 197 255
158 197 255
158 197 255
158 197 255
158 197 255
159 197 255
159 197 255
159 197 255
159 197 255
159 198 255
159 198 255
159 198 255
159 198 255
159 198 255
159 198 255
160 198 255
160 198 255
160 198 255
160 198 255
160 198 255
160 198 255
160 198 255
160 198 255
160 198 255
161 199 255
161 199 255
161 199 255
161 199 255
161 199 255
161 199 255
161 199 255
161 199 255
161 199 255
161 199 255
162 199 255
162 199 255
162 199 255
162 199 255
162 199 255
162 199 255
162 200 255
162 200 255
162 200 255
162 200 255
163 200 255
163 200 255
163 200 255
163 200 255
163 200 255
163 200 255
163 200 255
163 200 255
163 200 255
163 200 255
164 200 255
164 200 255
164 200 255
164 200 255
164 201 255
164 201 255
164 201 255
164 201 255
164 201 255
164 201 255
164 201 255
165 201 255
165 201 255
165 201 255
165 201 255
165 201 255
165 201 255
165 201 255
165 201 255
165 201 255
165 201 255
165 201 255
166 202 255
166 202 255
166 202 255
166 202 255
166 202 255
166 202 255
166 202 255
166 202 255
166 202 255
166 202 255
166 202 255
166 202 255
167 202 255
167 202 255
167 202 255
167 202 255
167 202 255
167 202 255
167 202 255
167 202 255
167 203 255
167 203 255
167 203 255
167 203 255
167 203 255
167 202 255
167 202 255
167 202 255
167 202 255
167 202 255
167 202 255
167 202 255
167 202 255
166 202 255
166 202 255
166 202 255
166 202 255
166 202 255
166 202 255
166 202 255
166 202 255
166 202 255
166 202 255
166 202 255
166 202 255
165 201 255
165 201 255
165 201 255
165 201 255
165 201 255
165 201 255
165 201 255
165 201 255
165 201 255
165 201 255
165 201 255
164 201 255
164 201 255
164 201 255
164 201 255
164 201 255
164 201 255
164 201 255
164 200 255
164 200 255
164 200 255
163 200 255
163 200 255
163 200 255
163 200 255
163 200 255
163 200 255
163 200 255
163 200 255
163 200 255
163 200 255
163 200 255
162 200 255
162 200 255
162 200 255
162 199 255
162 199 255
162 199 255
162 199 255
162 199 255
162 199 255
162 199 255
161 199 255
161 199 255
161 199 255
161 199 255
161 199 255
161 199 255
161 199 255
161 199 255
161 199 255
160 198 255
160 198 255
160 198 255
160 198 255
160 198 255
160 198 255
160 198 255
160 198 255
160 198 255
160 198 255
159 198 255
159 198 255
159 198 255
159 198 255
159 198 255
159 198 255
159 197 255
159 197 255
159 197 255
158 197 255
158 197 255
158 197 255
158 197 255
158 197 255
158 197 255
158 197 255
158 197 255
158 197 255
157 197 255
157 197 255
157 197 255
157 196 255
157 196 255
157 196 255
157 196 255
157 196 255
157 196 255
157 196 255
156 196 255
156 196 255
156 196 255
156 196 255
156 196 255
156 196 255
156 196 255
156 196 255
156 196 255
155 195 255
155 195 255
155 195 255
155 195 255
155 195 255
155 195 255
155 195 255
155 195 255
155 195 255
155 195 255
154 195 255
154 195 255
154 195 255
154 195 255
154 195 255
154 195 255
154 195 255
154 195 255
154 194 255
154 194 255
154 194 255
153 194 255
153 194 255
153 194 255
153 194 255
153 194 255
153 194 255
153 194 255
153 194 255
153 194 255
153 194 255
153 194 255
153 194 255
153 194 255
152 194 255
152 194 255
152 194 255
152 194 255
152 193 255
152 193 255
152 193 255
152 193 255
152 193 255
152 193 255
152 193 255
152 193 255
152 193 255
152 193 255
152 193 255
151 193 255
151 193 255
151 193 255
151 193 255
151 193 255
151 193 255
151 193 255
151 193 255
151 193 255
151 193 255
151 193 255
151 193 255
151 193 255
151 193 255
151 193 255
151 193 255
151 193 255
151 193 255
151 193 255
151 193 255
151 193 255
151 193 255
151 193 255
151 193 255
151 193 255
151 193 255
151 193 255
151 193 255
151 193 255
151 193 255
151 193 255
151 193 255
151 193 255
151 193 255
151 193 255
151 193 255
151 193 255
151 193 255
151 193 255
151 193 255
151 193 255
151 193 255
151 193 255
151 193 255
151 193 255
151 193 255
151 193 255
151 193 255
151 193 255
151 193 255
151 193 255
151 193 255
151 193 255
151 193 255
151 193 255
151 193 255
151 193 255
151 193 255
152 193 255
152 193 255
152 193 255
152 193 255
152 193 255
152 193 255
152 193 255
152 193 255
152 193 255
152 193 255
152 193 255
152 194 255
152 194 255
152 194 255
152 194 255
152 194 255
153 194 255
153 194 255
153 194 255
153 194 255
153 194 255
153 194 255
153 194 255
153 194 255
153 194 255
153 194 255
153 194 255
153 194 255
154 194 255
154 194 255
154 194 255
154 195 255
154 195 255
154 195 255
154 195 255
154 195 255
154 195 255
154 195 255
154 195 255
155 195 255
155 195 255
155 195 255
155 195 255
155 195 255
155 195 255
155 195 255
155 195 255
155 195 255
155 195 255
156 196 255
156 196 255
156 196 255
156 196 255
156 196 255
156 196 255
156 196 255
156 196 255
156 196 255
157 196 255
157 196 255
157 196 255
157 196 255
157 196 255
157 196 255
157 196 255
157 197 255
157 197 255
157 197 255
158 197 255
158 197 255
158 197 255
158 197 255
158 197 255
158 197 255
158 197 255
158 197 255
158 197 255
159 197 255
159 197 255
159 197 255
159 198 255
159 198 255
159 198 255
159 198 255
159 198 255
159 198 255
160 198 255
160 198 255
160 198 255
160 198 255
160 198 255
160 198 255
160 198 255
160 198 255
160 198 255
160 198 255
161 199 255
161 199 255
161 199 255
161 199 255
161 199 255
161 199 255
161 199 255
161 199 255
161 199 255
162 199 255
162 199 255
162 199 255
162 199 255
162 199 255
162 199 255
162 199 255
162 200 255
162 200 255
162 200 255
163 200 255
163 200 255
163 200 255
163 200 255
163 200 255
163 200 255
163 200 255
163 200 255
163 200 255
163 200 255
164 200 255
164 200 255
164 200 255
164 200 255
164 201 255
164 201 255
164 201 255
164 201 255
164 201 255
164 201 255
164 201 255
165 201 255
165 201 255
165 201 255
165 201 255
165 201 255
165 201 255
165 201 255
165 201 255
165 201 255
165 201 255
165 201 255
166 202 255
166 202 255
166 202 255
166 202 255
166 202 255
166 202 255
166 202 255
166 202 255
166 202 255
166 202 255
166 202 255
166 202 255
167 202 255
167 202 255
167 202 255
167 202 255
167 202 255
167 202 255
167 202 255
167 202 255
167 203 255
167 203 255
167 203 255
167 203 255
168 203 255
168 203 255
167 203 255
167 203 255
167 203 255
167 203 255
167 203 255
167 202 255
167 202 255
167 202 255
167 202 255
167 202 255
167 202 255
167 202 255
167 202 255
166 202 255
166 202 255
166 202 255
166 202 255
166 202 255
166 202 255
166 202 255
166 202 255
166 202 255
166 202 255
166 202 255
165 201 255
165 201 255
165 201 255
165 201 255
165 201 255
165 201 255
165 201 255
165 201 255
165 201 255
165 201 255
165 201 255
164 201 255
164 201 255
164 201 255
164 201 255
164 201 255
164 201 255
164 201 255
164 201 255
164 200 255
164 200 255
164 200 255
163 200 255
163 200 255
163 200 255
163 200 255
163 200 255
163 200 255
163 200 255
163 200 255
163 200 255
163 200 255
162 200 255
162 200 255
162 200 255
162 200 255
162 199 255
162 199 255
162 199 255
162 199 255
162 199 255
162 199 255
161 199 255
161 199 255
161 199 255
161 199 255
161 199 255
161 199 255
161 199 255
161 199 255
161 199 255
161 199 255
160 198 255
160 198 255
160 198 255
160 198 255
160 198 255
160 198 255
160 198 255
160 198 255
160 198 255
159 198 255
159 198 255
159 198 255
159 198 255
159 198 255
159 198 255
159 197 255
159 197 255
159 197 255
159 197 255
158 197 255
158 197 255
158 197 255
158 197 255
158 197 255
158 197 255
158 197 255
158 197 255
158 197 255
157 197 255
157 197 255
157 197 255
157 196 255
157 196 255
157 196 255
157 196 255
157 196 255
157 196 255
156 196 255
156 196 255
156 196 255
156 196 255
156 196 255
156 196 255
156 196 255
156 196 255
156 196 255
156 196 255
155 195 255
155 195 255
155 195 255
155 195 255
155 195 255
155 195 255
155 195 255
155 195 255
155 195 255
155 195 255
154 195 255
154 195 255
154 195 255
154 195 255
154 195 255
154 195 255
154 195 255
154 194 255
154 194 255
154 194 255
154 194 255
153 194 255
153 194 255
153 194 255
153 194 255
153 194 255
153 194 255
153 194 255
153 194 255
153 194 255
153 194 255
153 194 255
153 194 255
153 194 255
152 194 255
152 194 255
152 194 255
152 194 255
152 194 255
152 193 255
152 193 255
152 193 255
152 193 255
152 193 255
152 193 255
152 193 255
152 193 255
152 193 255
152 193 255
152 193 255
152 193 255
152 193 255
151 193 255
151 193 255
151 193 255
151 193 255
151 193 255
151 193 255
151 193 255
151 193 255
151 193 255
151 193 255
151 193 255
151 193 255
151 193 255
151 193 255
151 193 255
151 193 255
151 193 255
151 193 255
151 193 255
151 193 255
151 193 255
151 193 255
151 193 255
151 193 255
151 193 255
151 193 255
151 193 255
151 193 255
151 193 255
151 193 255
151 193 255
151 193 255
151 193 255
151 193 255
151 193 255
151 193 255
151 193 255
151 193 255
151 193 255
151 193 255
151 193 255
151 193 255
151 193 255
151 193 255
151 193 255
151 193 255
151 193 255
152 193 255
152 193 255
152 193 255
152 193 255
152 193 255
152 193 255
152 193 255
152 193 255
152 193 255
152 193 255
152 193 255
152 193 255
152 194 255
152 194 255
152 194 255
152 194 255
152 194 255
153 194 255
153 194 255
153 194 255
153 194 255
153 194 255
153 194 255
153 194 255
153 194 255
153 194 255
153 194 255
153 194 255
153 194 255
153 194 255
154 194 255
154 194 255
154 194 255
154 194 255
154 195 255
154 195 255
154 195 255
154 195 255
154 195 255
154 195 255
154 195 255
155 195 255
155 195 255
155 195 255
155 195 255
155 195 255
155 195 255
155 195 255
155 195 255
155 195 255
155 195 255
156 196 255
156 196 255
156 196 255
156 196 255
156 196 255
156 196 255
156 196 255
156 196 255
156 196 255
156 196 255
157 196 255
157 196 255
157 196 255
157 196 255
157 196 255
157 196 255
157 197 255
157 197 255
157 197 255
158 197 255
158 197 255
158 197 255
158 197 255
158 197 255
158 197 255
158 197 255
158 197 255
158 197 255
159 197 255
159 197 255
159 197 255
159 197 255
159 198 255
159 198 255
159 198 255
159 198 255
159 198 255
159 198 255
160 198 255
160 198 255
160 198 255
160 198 255
160 198 255
160 198 255
160 198 255
160 198 255
160 198 255
161 199 255
161 199 255
161 199 255
161 199 255
161 199 255
161 199 255
161 199 255
161 199 255
161 199 255
161 199 255
162 199 255
162 199 255
162 199 255
162 199 255
162 199 255
162 199 255
162 200 255
162 200 255
162 200 255
162 200 255
163 200 255
163 200 255
163 200 255
163 200 255
163 200 255
163 200 255
163 200 255
163 200 255
163 200 255
163 200 255
164 200 255
164 200 255
164 200 255
164 201 255
164 201 255
164 201 255
164 201 255
164 201 255
164 201 255
164 201 255
164 201 255
165 201 255
165 201 255
165 201 255
165 201 255
165 201 255
165 201 255
165 201 255
165 201 255
165 201 255
165 201 255
165 201 255
166 202 255
166 202 255
166 202 255
166 202 255
166 202 255
166 202 255
166 202 255
166 202 255
166 202 255
166 202 255
166 202 255
167 202 255
167 202 255
167 202 255
167 202 255
167 202 255
167 202 255
167 202 255
167 202 255
167 203 255
167 203 255
167 203 255
167 203 255
167 203 255
168 203 255
168 203 255
168 203 255
168 203 255
168 203 255
168 203 255
168 203 255
167 203 255
167 203 255
167 203 255
167 203 255
167 202 255
167 202 255
167 202 255
167 202 255
167 202 255
167 202 255
167 202 255
167 202 255
166 202 255
166 202 255
166 202 255
166 202 255
166 202 255
166 202 255
166 202 255
166 202 255
166 202 255
166 202 255
166 202 255
166 202 255
165 201 255
165 201 255
165 201 255
165 201 255
165 201 255
165 201 255
165 201 255
165 201 255
165 201 255
165 201 255
165 201 255
164 201 255
164 201 255
164 201 255
164 201 255
164 201 255
164 201 255
164 201 255
164 200 255
164 200 255
164 200 255
164 200 255
163 200 255
163 200 255
163 200 255
163 200 255
163 200 255
163 200 255
163 200 255
163 200 255
163 200 255
163 200 255
162 200 255
162 200 255
162 200 255
162 199 255
162 199 255
162 199 255
162 199 255
162 199 255
162 199 255
162 199 255
161 199 255
161 199 255
161 199 255
161 199 255
161 199 255
161 199 255
161 199 255
161 199 255
161 199 255
160 198 255
160 198 255
160 198 255
160 198 255
160 198 255
160 198 255
160 198 255
160 198 255
160 198 255
160 198 255
159 198 255
159 198 255
159 198 255
159 198 255
159 198 255
159 198 255
159 197 255
159 197 255
159 197 255
158 197 255
158 197 255
158 197 255
158 197 255
158 197 255
158 197 255
158 197 255
158 197 255
158 197 255
157 197 255
157 197 255
157 197 255
157 196 255
157 196 255
157 196 255
157 196 255
157 196 255
157 196 255
157 196 255
156 196 255
156 196 255
156 196 255
156 196 255
156 196 255
156 196 255
156 196 255
156 196 255
156 196 255
156 196 255
155 195 255
155 195 255
155 195 255
155 195 255
155 195 255
155 195 255
155 195 255
155 195 255
155 195 255
155 195 255
154 195 255
154 195 255
154 195 255
154 195 255
154 195 255
154 195 255
154 195 255
154 195 255
154 194 255
154 194 255
154 194 255
154 194 255
153 194 255
153 194 255
153 194 255
153 194 255
153 194 255
153 194 255
153 194 255
153 194 255
153 194 255
153 194 255
153 194 255
153 194 255
153 194 255
152 194 255
152 194 255
152 194 255
152 194 255
152 194 255
152 193 255
152 193 255
152 193 255
152 193 255
152 193 255
152 193 255
152 193 255
152 193 255
152 193 255
152 193 255
152 193 255
152 193 255
152 193 255
152 193 255
152 193 255
152 193 255
151 193 255
151 193 255
151 193 255
151 193 255
151 193 255
151 193 255
151 193 255
151 193 255
151 193 255
151 193 255
151 193 255
151 193 255
151 193 255
151 193 255
151 193 255
151 193 255
151 193 255
151 193 255
151 193 255
151 193 255
151 193 255
151 193 255
151 193 255
151 193 255
151 193 255
151 193 255
151 193 255
151 193 255
151 193 255
151 193 255
151 193 255
151 193 255
152 193 255
152 193 255
152 193 255
152 193 255
152 193 255
152 193 255
152 193 255
152 193 255
152 193 255
152 193 255
152 193 255
152 193 255
152 193 255
152 193 255
152 193 255
152 194 255
152 194 255
152 194 255
152 194 255
152 194 255
152 194 255
153 194 255
153 194 255
153 194 255
153 194 255
153 194 255
153 194 255
153 194 255
153 194 255
153 194 255
153 194 255
153 194 255
153 194 255
153 194 255
154 194 255
154 194 255
154 194 255
154 194 255
154 194 255
154 195 255
154 195 255
154 195 255
154 195 255
154 195 255
154 195 255
154 195 255
155 195 255
155 195 255
155 195 255
155 195 255
155 195 255
155 195 255
155 195 255
155 195 255
155 195 255
155 195 255
156 196 255
156 196 255
156 196 255
156 196 255
156 196 255
156 196 255
156 196 255
156 196 255
156 196 255
156 196 255
157 196 255
157 196 255
157 196 255
157 196 255
157 196 255
157 196 255
157 197 255
157 197 255
157 197 255
157 197 255
158 197 255
158 197 255
158 197 255
158 197 255
158 197 255
158 197 255
158 197 255
158 197 255
158 197 255
159 197 255
159 197 255
159 197 255
159 198 255
159 198 255
159 198 255
159 198 255
159 198 255
159 198 255
160 198 255
160 198 255
160 198 255
160 198 255
160 198 255
160 198 255
160 198 255
160 198 255
160 198 255
160 198 255
161 199 255
161 199 255
161 199 255
161 199 255
161 199 255
161 199 255
161 199 255
161 199 255
161 199 255
162 199 255
162 199 255
162 199 255
162 199 255
162 199 255
162 199 255
162 199 255
162 200 255
162 200 255
162 200 255
163 200 255
163 200 255
163 200 255
163 200 255
163 200 255
163 200 255
163 200 255
163 200 255
163 200 255
163 200 255
164 200 255
164 200 255
164 200 255
164 200 255
164 201 255
164 201 255
164 201 255
164 201 255
164 201 255
164 201 255
164 201 255
165 201 255
165 201 255
165 201 255
165 201 255
165 201 255
165 201 255
165 201 255
165 201 255
165 201 255
165 201 255
165 201 255
166 202 255
166 202 255
166 202 255
166 202 255
166 202 255
166 202 255
166 202 255
166 202 255
166 202 255
166 202 255
166 202 255
166 202 255
167 202 255
167 202 255
167 202 255
167 202 255
167 202 255
167 202 255
167 202 255
167 202 255
167 203 255
167 203 255
167 203 255
167 203 255
168 203 255
168 203 255
168 203 255
168 203 255
168 203 255
168 203 255
168 203 255
168 203 255
168 203 255
168 203 255
168 203 255
168 203 255
168 203 255
167 203 255
167 203 255
167 203 255
167 203 255
167 202 255
167 202 255
167 202 255
167 202 255
167 202 255
167 202 255
167 202 255
167 202 255
166 202 255
166 202 255
166 202 255
166 202 255
166 202 255
166 202 255
166 202 255
166 202 255
166 202 255
166 202 255
166 202 255
166 202 255
165 201 255
165 201 255
165 201 255
165 201 255
165 201 255
165 201 255
165 201 255
165 201 255
165 201 255
165 201 255
165 201 255
164 201 255
164 201 255
164 201 255
164 201 255
164 201 255
164 201 255
164 201 255
164 200 255
164 200 255
164 200 255
163 200 255
163 200 255
163 200 255
163 200 255
163 200 255
163 200 255
163 200 255
163 200 255
163 200 255
163 200 255
162 200 255
162 200 255
162 200 255
162 200 255
162 199 255
162 199 255
162 199 255
162 199 255
162 199 255
162 199 255
161 199 255
161 199 255
161 199 255
161 199 255
161 199 255
161 199 255
161 199 255
161 199 255
161 199 255
161 199 255
160 198 255
160 198 255
160 198 255
160 198 255
160 198 255
160 198 255
160 198 255
160 198 255
160 198 255
159 198 255
159 198 255
159 198 255
159 198 255
159 198 255
159 198 255
159 197 255
159 197 255
159 197 255
158 197 255
158 197 255
158 197 255
158 197 255
158 197 255
158 197 255
158 197 255
158 197 255
158 197 255
158 197 255
157 197 255
157 197 255
157 197 255
157 196 255
157 196 255
157 196 255
157 196 255
157 196 255
157 196 255
157 196 255
156 196 255
156 196 255
156 196 255
156 196 255
156 196 255
156 196 255
156 196 255
156 196 255
156 196 255
155 195 255
155 195 255
155 195 255
155 195 255
155 195 255
155 195 255
155 195 255
155 195 255
155 195 255
155 195 255
155 195 255
154 195 255
154 195 255
154 195 255
154 195 255
154 195 255
154 195 255
154 195 255
154 195 255
154 194 255
154 194 255
154 194 255
154 194 255
153 194 255
153 194 255
153 194 255
153 194 255
153 194 255
153 194 255
153 194 255
153 194 255
153 194 255
153 194 255
153 194 255
153 194 255
153 194 255
153 194 255
153 194 255
152 194 255
152 194 255
152 194 255
152 194 255
152 194 255
152 194 255
152 193 255
152 193 255
152 193 255
152 193 255
152 193 255
152 193 255
152 193 255
152 193 255
152 193 255
152 193 255
152 193 255
152 193 255
152 193 255
152 193 255
152 193 255
152 193 255
152 193 255
152 193 255
152 193 255
152 193 255
152 193 255
152 193 255
152 193 255
152 193 255
152 193 255
152 193 255
152 193 255
152 193 255
152 193 255
152 193 255
152 193 255
152 193 255
152 193 255
152 193 255
152 193 255
152 193 255
152 193 255
152 193 255
152 193 255
152 193 255
152 193 255
152 193 255
152 193 255
152 193 255
152 193 255
152 193 255
152 193 255
152 193 255
152 193 255
152 193 255
152 193 255
152 193 255
152 193 255
152 194 255
152 194 255
152 194 255
152 194 255
152 194 255
153 194 255
153 194 255
153 194 255
153 194 255
153 194 255
153 194 255
153 194 255
153 194 255
153 194 255
153 194 255
153 194 255
153 194 255
153 194 255
153 194 255
153 194 255
154 194 255
154 194 255
154 194 255
154 194 255
154 195 255
154 195 255
154 195 255
154 195 255
154 195 255
154 195 255
154 195 255
154 195 255
155 195 255
155 195 255
155 195 255
155 195 255
155 195 255
155 195 255
155 195 255
155 195 255
155 195 255
155 195 255
155 195 255
156 196 255
156 196 255
156 196 255
156 196 255
156 196 255
156 196 255
156 196 255
156 196 255
156 196 255
156 196 255
157 196 255
157 196 255
157 196 255
157 196 255
157 196 255
157 196 255
157 197 255
157 197 255
157 197 255
158 197 255
158 197 255
158 197 255
158 197 255
158 197 255
158 197 255
158 197 255
158 197 255
158 197 255
159 197 255
159 197 255
159 197 255
159 197 255
159 198 255
159 198 255
159 198 255
159 198 255
159 198 255
159 198 255
160 198 255
160 198 255
160 198 255
160 198 255
160 198 255
160 198 255
160 198 255
160 198 255
160 198 255
161 199 255
161 199 255
161 199 255
161 199 255
161 199 255
161 199 255
161 199 255
161 199 255
161 199 255
161 199 255
162 199 255
162 199 255
162 199 255
162 199 255
162 199 255
162 199 255
162 200 255
162 200 255
162 200 255
162 200 255
163 200 255
163 200 255
163 200 255
163 200 255
163 200 255
163 200 255
163 200 255
163 200 255
163 200 255
163 200 255
164 200 255
164 200 255
164 200 255
164 201 255
164 201 255
164 201 255
164 201 255
164 201 255
164 201 255
164 201 255
165 201 255
165 201 255
165 201 255
165 201 255
165 201 255
165 201 255
165 201 255
165 201 255
165 201 255
165 201 255
165 201 255
165 201 255
166 202 255
166 202 255
166 202 255
166 202 255
166 202 255
166 202 255
166 202 255
166 202 255
166 202 255
166 202 255
166 202 255
167 202 255
167 202 255
167 202 255
167 202 255
167 202 255
167 202 255
167 202 255
167 202 255
167 203 255
167 203 255
167 203 255
167 203 255
168 203 255
168 203 255
168 203 255
168 203 255
168 203 255
168 203 255
168 203 255
168 203 255
168 203 255
168 203 255
168 203 255
168 203 255
168 203 255
168 203 255
168 203 255
168 203 255
168 203 255
168 203 255
168 203 255
167 203 255
167 203 255
167 203 255
167 203 255
167 202 255
167 202 255
167 202 255
167 202 255
167 202 255
167 202 255
167 202 255
167 202 255
166 202 255
166 202 255
166 202 255
166 202 255
166 202 255
166 202 255
166 202 255
166 202 255
166 202 255
166 202 255
166 202 255
165 201 255
165 201 255
165 201 255
165 201 255
165 201 255
165 201 255
165 201 255
165 201 255
165 201 255
165 201 255
165 201 255
164 201 255
164 201 255
164 201 255
164 201 255
164 201 255
164 201 255
164 201 255
164 200 255
164 200 255
164 200 255
164 200 255
163 200 255
163 200 255
163 200 255
163 200 255
163 200 255
163 200 255
163 200 255
163 200 255
163 200 255
163 200 255
162 200 255
162 200 255
162 200 255
162 199 255
162 199 255
162 199 255
162 199 255
162 199 255
162 199 255
162 199 255
161 199 255
161 199 255
161 199 255
161 199 255
161 199 255
161 199 255
161 199 255
161 199 255
161 199 255
160 198 255
160 198 255
160 198 255
160 198 255
160 198 255
160 198 255
160 198 255
160 198 255
160 198 255
160 198 255
159 198 255
159 198 255
159 198 255
159 198 255
159 198 255
159 198 255
159 197 255
159 197 255
159 197 255
158 197 255
158 197 255
158 197 255
158 197 255
158 197 255
158 197 255
158 197 255
158 197 255
158 197 255
158 197 255
157 197 255
157 197 255
157 197 255
157 196 255
157 196 255
157 196 255
157 196 255
157 196 255
157 196 255
156 196 255
156 196 255
156 196 255
156 196 255
156 196 255
156 196 255
156 196 255
156 196 255
156 196 255
156 196 255
155 195 255
155 195 255
155 195 255
155 195 255
155 195 255
155 195 255
155 195 255
155 195 255
155 195 255
155 195 255
155 195 255
154 195 255
154 195 255
154 195 255
154 195 255
154 195 255
154 195 255
154 195 255
154 195 255
154 194 255
154 194 255
154 194 255
154 194 255
154 194 255
153 194 255
153 194 255
153 194 255
153 194 255
153 194 255
153 194 255
153 194 255
153 194 255
153 194 255
153 194 255
153 194 255
153 194 255
153 194 255
153 194 255
153 194 255
153 194 255
152 194 255
152 194 255
152 194 255
152 194 255
152 194 255
152 194 255
152 194 255
152 193 255
152 193 255
152 193 255
152 193 255
152 193 255
152 193 255
152 193 255
152 193 255
152 193 255
152 193 255
152 193 255
152 193 255
152 193 255
152 193 255
152 193 255
152 193 255
152 193 255
152 193 255
152 193 255
152 193 255
152 193 255
152 193 255
152 193 255
152 193 255
152 193 255
152 193 255
152 193 255
152 193 255
152 193 255
152 193 255
152 193 255
152 193 255
152 193 255
152 193 255
152 193 255
152 193 255
152 193 255
152 193 255
152 193 255
152 193 255
152 194 255
152 194 255
152 194 255
152 194 255
152 194 255
152 194 255
152 194 255
152 194 255
153 194 255
153 194 255
153 194 255
153 194 255
153 194 255
153 194 255
153 194 255
153 194 255
153 194 255
153 194 255
153 194 255
153 194 255
153 194 255
153 194 255
153 194 255
154 194 255
154 194 255
154 194 255
154 194 255
154 194 255
154 195 255
154 195 255
154 195 255
154 195 255
154 195 255
154 195 255
154 195 255
154 195 255
155 195 255
155 195 255
155 195 255
155 195 255
155 195 255
155 195 255
155 195 255
155 195 255
155 195 255
155 195 255
155 195 255
156 196 255
156 196 255
156 196 255
156 196 255
156 196 255
156 196 255
156 196 255
156 196 255
156 196 255
156 196 255
157 196 255
157 196 255
157 196 255
157 196 255
157 196 255
157 196 255
157 197 255
157 197 255
157 197 255
158 197 255
158 197 255
158 197 255
158 197 255
158 197 255
158 197 255
158 197 255
158 197 255
158 197 255
158 197 255
159 197 255
159 197 255
159 197 255
159 198 255
159 198 255
159 198 255
159 198 255
159 198 255
159 198 255
160 198 255
160 198 255
160 198 255
160 198 255
160 198 255
160 198 255
160 198 255
160 198 255
160 198 255
160 198 255
161 199 255
161 199 255
161 199 255
161 199 255
161 199 255
161 199 255
161 199 255
161 199 255
161 199 255
162 199 255
162 199 255
162 199 255
162 199 255
162 199 255
162 199 255
162 199 255
162 200 255
162 200 255
162 200 255
163 200 255
163 200 255
163 200 255
163 200 255
163 200 255
163 200 255
163 200 255
163 200 255
163 200 255
163 200 255
164 200 255
164 200 255
164 200 255
164 200 255
164 201 255
164 201 255
164 201 255
164 201 255
164 201 255
164 201 255
164 201 255
165 201 255
165 201 255
165 201 255
165 201 255
165 201 255
165 201 255
165 201 255
165 201 255
165 201 255
165 201 255
165 201 255
166 202 255
166 202 255
166 202 255
166 202 255
166 202 255
166 202 255
166 202 255
166 202 255
166 202 255
166 202 255
166 202 255
167 202 255
167 202 255
167 202 255
167 202 255
167 202 255
167 202 255
167 202 255
167 202 255
167 203 255
167 203 255
167 203 255
167 203 255
168 203 255
168 203 255
168 203 255
168 203 255
168 203 255
168 203 255
168 203 255
168 203 255
168 203 255
168 203 255
168 203 255
169 203 255
168 203 255
168 203 255
168 203 255
168 203 255
168 203 255
168 203 255
168 203 255
168 203 255
168 203 255
168 203 255
168 203 255
168 203 255
168 203 255
167 203 255
167 203 255
167 203 255
167 203 255
167 202 255
167 202 255
167 202 255
167 202 255
167 202 255
167 202 255
167 202 255
167 202 255
166 202 255
166 202 255
166 202 255
166 202 255
166 202 255
166 202 255
166 202 255
166 202 255
166 202 255
166 202 255
166 202 255
165 201 255
165 201 255
165 201 255
165 201 255
165 201 255
165 201 255
165 201 255
165 201 255
165 201 255
165 201 255
165 201 255
164 201 255
164 201 255
164 201 255
164 201 255
164 201 255
164 201 255
164 201 255
164 200 255
164 200 255
164 200 255
163 200 255
163 200 255
163 200 255
163 200 255
163 200 255
163 200 255
163 200 255
163 200 255
163 200 255
163 200 255
162 200 255
162 200 255
162 200 255
162 200 255
162 199 255
162 199 255
162 199 255
162 199 255
162 199 255
162 199 255
161 199 255
161 199 255
161 199 255
161 199 255
161 199 255
161 199 255
161 199 255
161 199 255
161 199 255
161 199 255
160 198 255
160 198 255
160 198 255
160 198 255
160 198 255
160 198 255
160 198 255
160 198 255
160 198 255
159 198 255
159 198 255
159 198 255
159 198 255
159 198 255
159 198 255
159 197 255
159 197 255
159 197 255
159 197 255
158 197 255
158 197 255
158 197 255
158 197 255
158 197 255
158 197 255
158 197 255
158 197 255
158 197 255
157 197 255
157 197 255
157 197 255
157 196 255
157 196 255
157 196 255
157 196 255
157 196 255
157 196 255
157 196 255
156 196 255
156 196 255
156 196 255
156 196 255
156 196 255
156 196 255
156 196 255
156 196 255
156 196 255
156 196 255
155 195 255
155 195 255
155 195 255
155 195 255
155 195 255
155 195 255
155 195 255
155 195 255
155 195 255
155 195 255
155 195 255
155 195 255
154 195 255
154 195 255
154 195 255
154 195 255
154 195 255
154 195 255
154 195 255
154 195 255
154 194 255
154 194 255
154 194 255
154 194 255
154 194 255
153 194 255
153 194 255
153 194 255
153 194 255
153 194 255
153 194 255
153 194 255
153 194 255
153 194 255
153 194 255
153 194 255
153 194 255
153 194 255
153 194 255
153 194 255
153 194 255
153 194 255
153 194 255
152 194 255
152 194 255
152 194 255
152 194 255
152 194 255
152 194 255
152 194 255
152 194 255
152 194 255
152 194 255
152 194 255
152 193 255
152 193 255
152 193 255
152 193 255
152 193 255
152 193 255
152 193 255
152 193 255
152 193 255
152 193 255
152 193 255
152 193 255
152 193 255
152 193 255
152 193 255
152 193 255
152 193 255
152 193 255
152 193 255
152 193 255
152 194 255
152 194 255
152 194 255
152 194 255
152 194 255
152 194 255
152 194 255
152 194 255
152 194 255
152 194 255
152 194 255
153 194 255
153 194 255
153 194 255
153 194 255
153 194 255
153 194 255
153 194 255
153 194 255
153 194 255
153 194 255
153 194 255
153 194 255
153 194 255
153 194 255
153 194 255
153 194 255
153 194 255
153 194 255
153 194 255
154 194 255
154 194 255
154 194 255
154 194 255
154 195 255
154 195 255
154 195 255
154 195 255
154 195 255
154 195 255
154 195 255
154 195 255
154 195 255
155 195 255
155 195 255
155 195 255
155 195 255
155 195 255
155 195 255
155 195 255
155 195 255
155 195 255
155 195 255
155 195 255
156 196 255
156 196 255
156 196 255
156 196 255
156 196 255
156 196 255
156 196 255
156 196 255
156 196 255
156 196 255
157 196 255
157 196 255
157 196 255
157 196 255
157 196 255
157 196 255
157 196 255
157 197 255
157 197 255
157 197 255
158 197 255
158 197 255
158 197 255
158 197 255
158 197 255
158 197 255
158 197 255
158 197 255
158 197 255
159 197 255
159 197 255
159 197 255
159 197 255
159 198 255
159 198 255
159 198 255
159 198 255
159 198 255
159 198 255
160 198 255
160 198 255
160 198 255
160 198 255
160 198 255
160 198 255
160 198 255
160 198 255
160 198 255
161 199 255
161 199 255
161 199 255
161 199 255
161 199 255
161 199 255
161 199 255
161 199 255
161 199 255
161 199 255
162 199 255
162 199 255
162 199 255
162 199 255
162 199 255
162 199 255
162 200 255
162 200 255
162 200 255
162 200 255
163 200 255
163 200 255
163 200 255
163 200 255
163 200 255
163 200 255
163 200 255
163 200 255
163 200 255
163 200 255
164 200 255
164 200 255
164 200 255
164 201 255
164 201 255
164 201 255
164 201 255
164 201 255
164 201 255
164 201 255
165 201 255
165 201 255
165 201 255
165 201 255
165 201 255
165 201 255
165 201 255
165 201 255
165 201 255
165 201 255
165 201 255
166 202 255
166 202 255
166 202 255
166 202 255
166 202 255
166 202 255
166 202 255
166 202 255
166 202 255
166 202 255
166 202 255
167 202 255
167 202 255
167 202 255
167 202 255
167 202 255
167 202 255
167 202 255
167 202 255
167 203 255
167 203 255
167 203 255
167 203 255
168 203 255
168 203 255
168 203 255
168 203 255
168 203 255
168 203 255
168 203 255
168 203 255
168 203 255
168 203 255
168 203 255
168 203 255
168 203 255
169 203 255
169 203 255
169 203 255
169 203 255
169 203 255
168 203 255
168 203 255
168 203 255
168 203 255
168 203 255
168 203 255
168 203 255
168 203 255
168 203 255
168 203 255
168 203 255
168 203 255
168 203 255
167 203 255
167 203 255
167 203 255
167 203 255
167 202 255
167 202 255
167 202 255
167 202 255
167 202 255
167 202 255
167 202 255
167 202 255
166 202 255
166 202 255
166 202 255
166 202 255
166 202 255
166 202 255
166 202 255
166 202 255
166 202 255
166 202 255
166 202 255
165 201 255
165 201 255
165 201 255
165 201 255
165 201 255
165 201 255
165 201 255
165 201 255
165 201 255
165 201 255
165 201 255
164 201 255
164 201 255
164 201 255
164 201 255
164 201 255
164 201 255
164 201 255
164 200 255
164 200 255
164 200 255
163 200 255
163 200 255
163 200 255
163 200 255
163 200 255
163 200 255
163 200 255
163 200 255
163 200 255
163 200 255
162 200 255
162 200 255
162 200 255
162 199 255
162 199 255
162 199 255
162 199 255
162 199 255
162 199 255
162 199 255
161 199 255
161 199 255
161 199 255
161 199 255
161 199 255
161 199 255
161 199 255
161 199 255
161 199 255
160 198 255
160 198 255
160 198 255
160 198 255
160 198 255
160 198 255
160 198 255
160 198 255
160 198 255
160 198 255
159 198 255
159 198 255
159 198 255
159 198 255
159 198 255
159 198 255
159 197 255
159 197 255
159 197 255
158 197 255
158 197 255
158 197 255
158 197 255
158 197 255
158 197 255
158 197 255
158 197 255
158 197 255
158 197 255
157 197 255
157 197 255
157 197 255
157 196 255
157 196 255
157 196 255
157 196 255
157 196 255
157 196 255
157 196 255
156 196 255
156 196 255
156 196 255
156 196 255
156 196 255
156 196 255
156 196 255
156 196 255
156 196 255
156 196 255
155 195 255
155 195 255
155 195 255
155 195 255
155 195 255
155 195 255
155 195 255
155 195 255
155 195 255
155 195 255
155 195 255
155 195 255
154 195 255
154 195 255
154 195 255
154 195 255
154 195 255
154 195 255
154 195 255
154 195 255
154 195 255
154 194 255
154 194 255
154 194 255
154 194 255
154 194 255
153 194 255
153 194 255
153 194 255
153 194 255
153 194 255
153 194 255
153 194 255
153 194 255
153 194 255
153 194 255
153 194 255
153 194 255
153 194 255
153 194 255
153 194 255
153 194 255
153 194 255
153 194 255
153 194 255
153 194 255
153 194 255
153 194 255
152 194 255
152 194 255
152 194 255
152 194 255
152 194 255
152 194 255
152 194 255
152 194 255
152 194 255
152 194 255
152 194 255
152 194 255
152 194 255
152 194 255
152 194 255
152 194 255
152 194 255
152 194 255
152 194 255
152 194 255
152 194 255
152 194 255
152 194 255
152 194 255
152 194 255
152 194 255
153 194 255
153 194 255
153 194 255
153 194 255
153 194 255
153 194 255
153 194 255
153 194 255
153 194 255
153 194 255
153 194 255
153 194 255
153 194 255
153 194 255
153 194 255
153 194 255
153 194 255
153 194 255
153 194 255
153 194 255
153 194 255
153 194 255
154 194 255
154 194 255
154 194 255
154 194 255
154 194 255
154 195 255
154 195 255
154 195 255
154 195 255
154 195 255
154 195 255
154 195 255
154 195 255
154 195 255
155 195 255
155 195 255
155 195 255
155 195 255
155 195 255
155 195 255
155 195 255
155 195 255
155 195 255
155 195 255
155 195 255
155 195 255
156 196 255
156 196 255
156 196 255
156 196 255
156 196 255
156 196 255
156 196 255
156 196 255
156 196 255
156 196 255
157 196 255
157 196 255
157 196 255
157 196 255
157 196 255
157 196 255
157 196 255
157 197 255
157 197 255
157 197 255
158 197 255
158 197 255
158 197 255
158 197 255
158 197 255
158 197 255
158 197 255
158 197 255
158 197 255
158 197 255
159 197 255
159 197 255
159 197 255
159 198 255
159 198 255
159 198 255
159 198 255
159 198 255
159 198 255
160 198 255
160 198 255
160 198 255
160 198 255
160 198 255
160 198 255
160 198 255
160 198 255
160 198 255
160 198 255
161 199 255
161 199 255
161 199 255
161 199 255
161 199 255
161 199 255
161 199 255
161 199 255
161 199 255
162 199 255
162 199 255
162 199 255
162 199 255
162 199 255
162 199 255
162 199 255
162 200 255
162 200 255
162 200 255
163 200 255
163 200 255
163 200 255
163 200 255
163 200 255
163 200 255
163 200 255
163 200 255
163 200 255
163 200 255
164 200 255
164 200 255
164 200 255
164 201 255
164 201 255
164 201 255
164 201 255
164 201 255
164 201 255
164 201 255
165 201 255
165 201 255
165 201 255
165 201 255
165 201 255
165 201 255
165 201 255
165 201 255
165 201 255
165 201 255
165 201 255
166 202 255
166 202 255
166 202 255
166 202 255
166 202 255
166 202 255
166 202 255
166 202 255
166 202 255
166 202 255
166 202 255
167 202 255
167 202 255
167 202 255
167 202 255
167 202 255
167 202 255
167 202 255
167 202 255
167 203 255
167 203 255
167 203 255
167 203 255
168 203 255
168 203 255
168 203 255
168 203 255
168 203 255
168 203 255
168 203 255
168 203 255
168 203 255
168 203 255
168 203 255
168 203 255
168 203 255
169 203 255
169 203 255
169 203 255
169 203 255
169 204 255
169 204 255
169 204 255
169 203 255
169 203 255
169 203 255
169 203 255
168 203 255
168 203 255
168 203 255
168 203 255
168 203 255
168 203 255
168 203 255
168 203 255
168 203 255
168 203 255
168 203 255
168 203 255
168 203 255
167 203 255
167 203 255
167 203 255
167 203 255
167 202 255
167 202 255
167 202 255
167 202 255
167 202 255
167 202 255
167 202 255
167 202 255
166 202 255
166 202 255
166 202 255
166 202 255
166 202 255
166 202 255
166 202 255
166 202 255
166 202 255
166 202 255
166 202 255
165 201 255
165 201 255
165 201 255
165 201 255
165 201 255
165 201 255
165 201 255
165 201 255
165 201 255
165 201 255
164 201 255
164 201 255
164 201 255
164 201 255
164 201 255
164 201 255
164 201 255
164 200 255
164 200 255
164 200 255
164 200 255
163 200 255
163 200 255
163 200 255
163 200 255
163 200 255
163 200 255
163 200 255
163 200 255
163 200 255
163 200 255
162 200 255
162 200 255
162 200 255
162 199 255
162 199 255
162 199 255
162 199 255
162 199 255
162 199 255
161 199 255
161 199 255
161 199 255
161 199 255
161 199 255
161 199 255
161 199 255
161 199 255
161 199 255
161 199 255
160 198 255
160 198 255
160 198 255
160 198 255
160 198 255
160 198 255
160 198 255
160 198 255
160 198 255
159 198 255
159 198 255
159 198 255
159 198 255
159 198 255
159 198 255
159 198 255
159 197 255
159 197 255
159 197 255
158 197 255
158 197 255
158 197 255
158 197 255
158 197 255
158 197 255
158 197 255
158 197 255
158 197 255
158 197 255
157 197 255
157 197 255
157 197 255
157 196 255
157 196 255
157 196 255
157 196 255
157 196 255
157 196 255
157 196 255
156 196 255
156 196 255
156 196 255
156 196 255
156 196 255
156 196 255
156 196 255
156 196 255
156 196 255
156 196 255
155 195 255
155 195 255
155 195 255
155 195 255
155 195 255
155 195 255
155 195 255
155 195 255
155 195 255
155 195 255
155 195 255
155 195 255
155 195 255
154 195 255
154 195 255
154 195 255
154 195 255
154 195 255
154 195 255
154 195 255
154 195 255
154 195 255
154 194 255
154 194 255
154 194 255
154 194 255
154 194 255
154 194 255
153 194 255
153 194 255
153 194 255
153 194 255
153 194 255
153 194 255
153 194 255
153 194 255
153 194 255
153 194 255
153 194 255
153 194 255
153 194 255
153 194 255
153 194 255
153 194 255
153 194 255
153 194 255
153 194 255
153 194 255
153 194 255
153 194 255
153 194 255
153 194 255
153 194 255
153 194 255
153 194 255
153 194 255
153 194 255
153 194 255
153 194 255
153 194 255
153 194 255
153 194 255
153 194 255
153 194 255
153 194 255
153 194 255
153 194 255
153 194 255
153 194 255
153 194 255
153 194 255
153 194 255
153 194 255
153 194 255
153 194 255
153 194 255
153 194 255
153 194 255
153 194 255
153 194 255
153 194 255
153 194 255
153 194 255
153 194 255
153 194 255
153 194 255
153 194 255
153 194 255
154 194 255
154 194 255
154 194 255
154 194 255
154 194 255
154 194 255
154 195 255
154 195 255
154 195 255
154 195 255
154 195 255
154 195 255
154 195 255
154 195 255
154 195 255
154 195 255
155 195 255
155 195 255
155 195 255
155 195 255
155 195 255
155 195 255
155 195 255
155 195 255
155 195 255
155 195 255
155 195 255
155 195 255
156 196 255
156 196 255
156 196 255
156 196 255
156 196 255
156 196 255
156 196 255
156 196 255
156 196 255
156 196 255
157 196 255
157 196 255
157 196 255
157 196 255
157 196 255
157 196 255
157 196 255
157 197 255
157 197 255
157 197 255
158 197 255
158 197 255
158 197 255
158 197 255
158 197 255
158 197 255
158 197 255
158 197 255
158 197 255
158 197 255
159 197 255
159 197 255
159 197 255
159 198 255
159 198 255
159 198 255
159 198 255
159 198 255
159 198 255
159 198 255
160 198 255
160 198 255
160 198 255
160 198 255
160 198 255
160 198 255
160 198 255
160 198 255
160 198 255
161 199 255
161 199 255
161 199 255
161 199 255
161 199 255
161 199 255
161 199 255
161 199 255
161 199 255
161 199 255
162 199 255
162 199 255
162 199 255
162 199 255
162 199 255
162 199 255
162 200 255
162 200 255
162 200 255
163 200 255
163 200 255
163 200 255
163 200 255
163 200 255
163 200 255
163 200 255
163 200 255
163 200 255
163 200 255
164 200 255
164 200 255
164 200 255
164 200 255
164 201 255
164 201 255
164 201 255
164 201 255
164 201 255
164 201 255
164 201 255
165 201 255
165 201 255
165 201 255
165 201 255
165 201 255
165 201 255
165 201 255
165 201 255
165 201 255
165 201 255
166 202 255
166 202 255
166 202 255
166 202 255
166 202 255
166 202 255
166 202 255
166 202 255
166 202 255
166 202 255
166 202 255
166 202 255
167 202 255
167 202 255
167 202 255
167 202 255
167 202 255
167 202 255
167 202 255
167 203 255
167 203 255
167 203 255
167 203 255
168 203 255
168 203 255
168 203 255
168 203 255
168 203 255
168 203 255
168 203 255
168 203 255
168 203 255
168 203 255
168 203 255
168 203 255
168 203 255
169 203 255
169 203 255
169 203 255
169 203 255
169 204 255
169 204 255
169 204 255
169 204 255
169 204 255
169 204 255
169 204 255
169 204 255
169 204 255
169 203 255
169 203 255
169 203 255
169 203 255
168 203 255
168 203 255
168 203 255
168 203 255
168 203 255
168 203 255
168 203 255
168 203 255
168 203 255
168 203 255
168 203 255
168 203 255
168 203 255
167 203 255
167 203 255
167 203 255
167 203 255
167 202 255
167 202 255
167 202 255
167 202 255
167 202 255
167 202 255
167 202 255
166 202 255
166 202 255
166 202 255
166 202 255
166 202 255
166 202 255
166 202 255
166 202 255
166 202 255
166 202 255
166 202 255
165 201 255
165 201 255
165 201 255
165 201 255
165 201 255
165 201 255
165 201 255
165 201 255
165 201 255
165 201 255
165 201 255
164 201 255
164 201 255
164 201 255
164 201 255
164 201 255
164 201 255
164 201 255
164 200 255
164 200 255
164 200 255
163 200 255
163 200 255
163 200 255
163 200 255
163 200 255
163 200 255
163 200 255
163 200 255
163 200 255
163 200 255
162 200 255
162 200 255
162 200 255
162 200 255
162 199 255
162 199 255
162 199 255
162 199 255
162 199 255
162 199 255
161 199 255
161 199 255
161 199 255
161 199 255
161 199 255
161 199 255
161 199 255
161 199 255
161 199 255
161 199 255
160 198 255
160 198 255
160 198 255
160 198 255
160 198 255
160 198 255
160 198 255
160 198 255
160 198 255
159 198 255
159 198 255
159 198 255
159 198 255
159 198 255
159 198 255
159 197 255
159 197 255
159 197 255
159 197 255
158 197 255
158 197 255
158 197 255
158 197 255
158 197 255
158 197 255
158 197 255
158 197 255
158 197 255
157 197 255
157 197 255
157 197 255
157 197 255
157 196 255
157 196 255
157 196 255
157 196 255
157 196 255
157 196 255
157 196 255
156 196 255
156 196 255
156 196 255
156 196 255
156 196 255
156 196 255
156 196 255
156 196 255
156 196 255
156 196 255
156 196 255
155 195 255
155 195 255
155 195 255
155 195 255
155 195 255
155 195 255
155 195 255
155 195 255
155 195 255
155 195 255
155 195 255
155 195 255
154 195 255
154 195 255
154 195 255
154 195 255
154 195 255
154 195 255
154 195 255
154 195 255
154 195 255
154 195 255
154 195 255
154 194 255
154 194 255
154 194 255
154 194 255
154 194 255
154 194 255
153 194 255
153 194 255
153 194 255
153 194 255
153 194 255
153 194 255
153 194 255
153 194 255
153 194 255
153 194 255
153 194 255
153 194 255
153 194 255
153 194 255
153 194 255
153 194 255
153 194 255
153 194 255
153 194 255
153 194 255
153 194 255
153 194 255
153 194 255
153 194 255
153 194 255
153 194 255
153 194 255
153 194 255
153 194 255
153 194 255
153 194 255
153 194 255
153 194 255
153 194 255
153 194 255
153 194 255
153 194 255
153 194 255
153 194 255
153 194 255
153 194 255
153 194 255
153 194 255
153 194 255
153 194 255
153 194 255
153 194 255
153 194 255
153 194 255
153 194 255
154 194 255
154 194 255
154 194 255
154 194 255
154 194 255
154 194 255
154 195 255
154 195 255
154 195 255
154 195 255
154 195 255
154 195 255
154 195 255
154 195 255
154 195 255
154 195 255
155 195 255
155 195 255
155 195 255
155 195 255
155 195 255
155 195 255
155 195 255
155 195 255
155 195 255
155 195 255
155 195 255
155 195 255
155 195 255
156 196 255
156 196 255
156 196 255
156 196 255
156 196 255
156 196 255
156 196 255
156 196 255
156 196 255
156 196 255
156 196 255
156 196 255
157 196 255
157 196 255
157 196 255
157 196 255
157 196 255
157 196 255
157 197 255
157 197 255
157 197 255
157 197 255
158 197 255
158 197 255
158 197 255
158 197 255
158 197 255
158 197 255
158 197 255
158 197 255
158 197 255
159 197 255
159 197 255
159 197 255
159 197 255
159 198 255
159 198 255
159 198 255
159 198 255
159 198 255
159 198 255
160 198 255
160 198 255
160 198 255
160 198 255
160 198 255
160 198 255
160 198 255
160 198 255
160 198 255
160 198 255
161 199 255
161 199 255
161 199 255
161 199 255
161 199 255
161 199 255
161 199 255
161 199 255
161 199 255
162 199 255
162 199 255
162 199 255
162 199 255
162 199 255
162 199 255
162 200 255
162 200 255
162 200 255
162 200 255
163 200 255
163 200 255
163 200 255
163 200 255
163 200 255
163 200 255
163 200 255
163 200 255
163 200 255
163 200 255
164 200 255
164 200 255
164 200 255
164 201 255
164 201 255
164 201 255
164 201 255
164 201 255
164 201 255
164 201 255
165 201 255
165 201 255
165 201 255
165 201 255
165 201 255
165 201 255
165 201 255
165 201 255
165 201 255
165 201 255
166 202 255
166 202 255
166 202 255
166 202 255
166 202 255
166 202 255
166 202 255
166 202 255
166 202 255
166 202 255
166 202 255
166 202 255
167 202 255
167 202 255
167 202 255
167 202 255
167 202 255
167 202 255
167 202 255
167 203 255
167 203 255
167 203 255
167 203 255
168 203 255
168 203 255
168 203 255
168 203 255
168 203 255
168 203 255
168 203 255
168 203 255
168 203 255
168 203 255
168 203 255
168 203 255
168 203 255
169 203 255
169 203 255
169 203 255
169 203 255
169 204 255
169 204 255
169 204 255
169 204 255
169 204 255
169 204 255
169 204 255
169 204 255
169 204 255
169 204 255
169 204 255
169 204 255
169 204 255
169 204 255
169 204 255
169 203 255
169 203 255
169 203 255
169 203 255
168 203 255
168 203 255
168 203 255
168 203 255
168 203 255
168 203 255
168 203 255
168 203 255
168 203 255
168 203 255
168 203 255
168 203 255
167 203 255
167 203 255
167 203 255
167 203 255
167 202 255
167 202 255
167 202 255
167 202 255
167 202 255
167 202 255
167 202 255
167 202 255
166 202 255
166 202 255
166 202 255
166 202 255
166 202 255
166 202 255
166 202 255
166 202 255
166 202 255
166 202 255
166 202 255
165 201 255
165 201 255
165 201 255
165 201 255
165 201 255
165 201 255
165 201 255
165 201 255
165 201 255
165 201 255
165 201 255
164 201 255
164 201 255
164 201 255
164 201 255
164 201 255
164 201 255
164 201 255
164 200 255
164 200 255
164 200 255
163 200 255
163 200 255
163 200 255
163 200 255
163 200 255
163 200 255
163 200 255
163 200 255
163 200 255
163 200 255
162 200 255
162 200 255
162 200 255
162 199 255
162 199 255
162 199 255
162 199 255
162 199 255
162 199 255
162 199 255
161 199 255
161 199 255
161 199 255
161 199 255
161 199 255
161 199 255
161 199 255
161 199 255
161 199 255
160 198 255
160 198 255
160 198 255
160 198 255
160 198 255
160 198 255
160 198 255
160 198 255
160 198 255
160 198 255
159 198 255
159 198 255
159 198 255
159 198 255
159 198 255
159 198 255
159 197 255
159 197 255
159 197 255
158 197 255
158 197 255
158 197 255
158 197 255
158 197 255
158 197 255
158 197 255
158 197 255
158 197 255
158 197 255
157 197 255
157 197 255
157 197 255
157 197 255
157 196 255
157 196 255
157 196 255
157 196 255
157 196 255
157 196 255
157 196 255
156 196 255
156 196 255
156 196 255
156 196 255
156 196 255
156 196 255
156 196 255
156 196 255
156 196 255
156 196 255
156 196 255
155 195 255
155 195 255
155 195 255
155 195 255
155 195 255
155 195 255
155 195 255
155 195 255
155 195 255
155 195 255
155 195 255
155 195 255
155 195 255
155 195 255
154 195 255
154 195 255
154 195 255
154 195 255
154 195 255
154 195 255
154 195 255
154 195 255
154 195 255
154 195 255
154 195 255
154 194 255
154 194 255
154 194 255
154 194 255
154 194 255
154 194 255
154 194 255
154 194 255
153 194 255
153 194 255
153 194 255
153 194 255
153 194 255
153 194 255
153 194 255
153 194 255
153 194 255
153 194 255
153 194 255
153 194 255
153 194 255
153 194 255
153 194 255
153 194 255
153 194 255
153 194 255
153 194 255
153 194 255
153 194 255
153 194 255
153 194 255
153 194 255
153 194 255
153 194 255
153 194 255
153 194 255
153 194 255
153 194 255
153 194 255
153 194 255
153 194 255
153 194 255
153 194 255
154 194 255
154 194 255
154 194 255
154 194 255
154 194 255
154 194 255
154 194 255
154 194 255
154 194 255
154 195 255
154 195 255
154 195 255
154 195 255
154 195 255
154 195 255
154 195 255
154 195 255
154 195 255
154 195 255
154 195 255
155 195 255
155 195 255
155 195 255
155 195 255
155 195 255
155 195 255
155 195 255
155 195 255
155 195 255
155 195 255
155 195 255
155 195 255
155 195 255
155 195 255
156 196 255
156 196 255
156 196 255
156 196 255
156 196 255
156 196 255
156 196 255
156 196 255
156 196 255
156 196 255
156 196 255
157 196 255
157 196 255
157 196 255
157 196 255
157 196 255
157 196 255
157 196 255
157 197 255
157 197 255
157 197 255
157 197 255
158 197 255
158 197 255
158 197 255
158 197 255
158 197 255
158 197 255
158 197 255
158 197 255
158 197 255
158 197 255
159 197 255
159 197 255
159 197 255
159 198 255
159 198 255
159 198 255
159 198 255
159 198 255
159 198 255
160 198 255
160 198 255
160 198 255
160 198 255
160 198 255
160 198 255
160 198 255
160 198 255
160 198 255
160 198 255
161 199 255
161 199 255
161 199 255
161 199 255
161 199 255
161 199 255
161 199 255
161 199 255
161 199 255
161 199 255
162 199 255
162 199 255
162 199 255
162 199 255
162 199 255
162 199 255
162 200 255
162 200 255
162 200 255
163 200 255
163 200 255
163 200 255
163 200 255
163 200 255
163 200 255
163 200 255
163 200 255
163 200 255
163 200 255
164 200 255
164 200 255
164 200 255
164 201 255
164 201 255
164 201 255
164 201 255
164 201 255
164 201 255
164 201 255
165 201 255
165 201 255
165 201 255
165 201 255
165 201 255
165 201 255
165 201 255
165 201 255
165 201 255
165 201 255
165 201 255
166 202 255
166 202 255
166 202 255
166 202 255
166 202 255
166 202 255
166 202 255
166 202 255
166 202 255
166 202 255
166 202 255
167 202 255
167 202 255
167 202 255
167 202 255
167 202 255
167 202 255
167 202 255
167 202 255
167 203 255
167 203 255
167 203 255
167 203 255
168 203 255
168 203 255
168 203 255
168 203 255
168 203 255
168 203 255
168 203 255
168 203 255
168 203 255
168 203 255
168 203 255
168 203 255
169 203 255
169 203 255
169 203 255
169 203 255
169 204 255
169 204 255
169 204 255
169 204 255
169 204 255
169 204 255
169 204 255
169 204 255
169 204 255
170 204 255
170 204 255
170 204 255
169 204 255
169 204 255
169 204 255
169 204 255
169 204 255
169 204 255
169 204 255
169 204 255
169 204 255
169 203 255
169 203 255
169 203 255
169 203 255
168 203 255
168 203 255
168 203 255
168 203 255
168 203 255
168 203 255
168 203 255
168 203 255
168 203 255
168 203 255
168 203 255
168 203 255
167 203 255
167 203 255
167 203 255
167 203 255
167 202 255
167 202 255
167 202 255
167 202 255
167 202 255
167 202 255
167 202 255
167 202 255
166 202 255
166 202 255
166 202 255
166 202 255
166 202 255
166 202 255
166 202 255
166 202 255
166 202 255
166 202 255
166 202 255
165 201 255
165 201 255
165 201 255
165 201 255
165 201 255
165 201 255
165 201 255
165 201 255
165 201 255
165 201 255
165 201 255
164 201 255
164 201 255
164 201 255
164 201 255
164 201 255
164 201 255
164 200 255
164 200 255
164 200 255
164 200 255
163 200 255
163 200 255
163 200 255
163 200 255
163 200 255
163 200 255
163 200 255
163 200 255
163 200 255
163 200 255
162 200 255
162 200 255
162 200 255
162 199 255
162 199 255
162 199 255
162 199 255
162 199 255
162 199 255
161 199 255
161 199 255
161 199 255
161 199 255
161 199 255
161 199 255
161 199 255
161 199 255
161 199 255
161 199 255
160 198 255
160 198 255
160 198 255
160 198 255
160 198 255
160 198 255
160 198 255
160 198 255
160 198 255
160 198 255
159 198 255
159 198 255
159 198 255
159 198 255
159 198 255
159 198 255
159 197 255
159 197 255
159 197 255
158 197 255
158 197 255
158 197 255
158 197 255
158 197 255
158 197 255
158 197 255
158 197 255
158 197 255
158 197 255
157 197 255
157 197 255
157 197 255
157 197 255
157 196 255
157 196 255
157 196 255
157 196 255
157 196 255
157 196 255
157 196 255
156 196 255
156 196 255
156 196 255
156 196 255
156 196 255
156 196 255
156 196 255
156 196 255
156 196 255
156 196 255
156 196 255
156 196 255
155 195 255
155 195 255
155 195 255
155 195 255
155 195 255
155 195 255
155 195 255
155 195 255
155 195 255
155 195 255
155 195 255
155 195 255
155 195 255
155 195 255
154 195 255
154 195 255
154 195 255
154 195 255
154 195 255
154 195 255
154 195 255
154 195 255
154 195 255
154 195 255
154 195 255
154 195 255
154 195 255
154 195 255
154 194 255
154 194 255
154 194 255
154 194 255
154 194 255
154 194 255
154 194 255
154 194 255
154 194 255
154 194 255
154 194 255
154 194 255
154 194 255
154 194 255
154 194 255
154 194 255
154 194 255
154 194 255
154 194 255
154 194 255
153 194 255
154 194 255
154 194 255
154 194 255
154 194 255
154 194 255
154 194 255
154 194 255
154 194 255
154 194 255
154 194 255
154 194 255
154 194 255
154 194 255
154 194 255
154 194 255
154 194 255
154 195 255
154 195 255
154 195 255
154 195 255
154 195 255
154 195 255
154 195 255
154 195 255
154 195 255
154 195 255
154 195 255
154 195 255
154 195 255
154 195 255
154 195 255
155 195 255
155 195 255
155 195 255
155 195 255
155 195 255
155 195 255
155 195 255
155 195 255
155 195 255
155 195 255
155 195 255
155 195 255
155 195 255
155 195 255
156 196 255
156 196 255
156 196 255
156 196 255
156 196 255
156 196 255
156 196 255
156 196 255
156 196 255
156 196 255
156 196 255
156 196 255
157 196 255
157 196 255
157 196 255
157 196 255
157 196 255
157 196 255
157 196 255
157 197 255
157 197 255
157 197 255
157 197 255
158 197 255
158 197 255
158 197 255
158 197 255
158 197 255
158 197 255
158 197 255
158 197 255
158 197 255
158 197 255
159 197 255
159 197 255
159 197 255
159 198 255
159 198 255
159 198 255
159 198 255
159 198 255
159 198 255
160 198 255
160 198 255
160 198 255
160 198 255
160 198 255
160 198 255
160 198 255
160 198 255
160 198 255
160 198 255
161 199 255
161 199 255
161 199 255
161 199 255
161 199 255
161 199 255
161 199 255
161 199 255
161 199 255
161 199 255
162 199 255
162 199 255
162 199 255
162 199 255
162 199 255
162 199 255
162 200 255
162 200 255
162 200 255
163 200 255
163 200 255
163 200 255
163 200 255
163 200 255
163 200 255
163 200 255
163 200 255
163 200 255
163 200 255
164 200 255
164 200 255
164 200 255
164 200 255
164 201 255
164 201 255
164 201 255
164 201 255
164 201 255
164 201 255
164 201 255
165 201 255
165 201 255
165 201 255
165 201 255
165 201 255
165 201 255
165 201 255
165 201 255
165 201 255
165 201 255
166 202 255
166 202 255
166 202 255
166 202 255
166 202 255
166 202 255
166 202 255
166 202 255
166 202 255
166 202 255
166 202 255
167 202 255
167 202 255
167 202 255
167 202 255
167 202 255
167 202 255
167 202 255
167 202 255
167 203 255
167 203 255
167 203 255
167 203 255
168 203 255
168 203 255
168 203 255
168 203 255
168 203 255
168 203 255
168 203 255
168 203 255
168 203 255
168 203 255
168 203 255
168 203 255
169 203 255
169 203 255
169 203 255
169 203 255
169 204 255
169 204 255
169 204 255
169 204 255
169 204 255
169 204 255
169 204 255
169 204 255
169 204 255
170 204 255
170 204 255
170 204 255
170 204 255
170 204 255
170 204 255
170 204 255
170 204 255
170 204 255
169 204 255
169 204 255
169 204 255
169 204 255
169 204 255
169 204 255
169 204 255
169 204 255
169 204 255
169 203 255
169 203 255
169 203 255
169 203 255
168 203 255
168 203 255
168 203 255
168 203 255
168 203 255
168 203 255
168 203 255
168 203 255
168 203 255
168 203 255
168 203 255
168 203 255
167 203 255
167 203 255
167 203 255
167 203 255
167 202 255
167 202 255
167 202 255
167 202 255
167 202 255
167 202 255
167 202 255
167 202 255
166 202 255
166 202 255
166 202 255
166 202 255
166 202 255
166 202 255
166 202 255
166 202 255
166 202 255
166 202 255
166 202 255
165 201 255
165 201 255
165 201 255
165 201 255
165 201 255
165 201 255
165 201 255
165 201 255
165 201 255
165 201 255
164 201 255
164 201 255
164 201 255
164 201 255
164 201 255
164 201 255
164 201 255
164 200 255
164 200 255
164 200 255
164 200 255
163 200 255
163 200 255
163 200 255
163 200 255
163 200 255
163 200 255
163 200 255
163 200 255
163 200 255
163 200 255
162 200 255
162 200 255
162 200 255
162 199 255
162 199 255
162 199 255
162 199 255
162 199 255
162 199 255
161 199 255
161 199 255
161 199 255
161 199 255
161 199 255
161 199 255
161 199 255
161 199 255
161 199 255
161 199 255
160 198 255
160 198 255
160 198 255
160 198 255
160 198 255
160 198 255
160 198 255
160 198 255
160 198 255
159 198 255
159 198 255
159 198 255
159 198 255
159 198 255
159 198 255
159 198 255
159 197 255
159 197 255
159 197 255
158 197 255
158 197 255
158 197 255
158 197 255
158 197 255
158 197 255
158 197 255
158 197 255
158 197 255
158 197 255
157 197 255
157 197 255
157 197 255
157 197 255
157 196 255
157 196 255
157 196 255
157 196 255
157 196 255
157 196 255
157 196 255
156 196 255
156 196 255
156 196 255
156 196 255
156 196 255
156 196 255
156 196 255
156 196 255
156 196 255
156 196 255
156 196 255
156 196 255
156 196 255
155 195 255
155 195 255
155 195 255
155 195 255
155 195 255
155 195 255
155 195 255
155 195 255
155 195 255
155 195 255
155 195 255
155 195 255
155 195 255
155 195 255
155 195 255
155 195 255
154 195 255
154 195 255
154 195 255
154 195 255
154 195 255
154 195 255
154 195 255
154 195 255
154 195 255
154 195 255
154 195 255
154 195 255
154 195 255
154 195 255
154 195 255
154 195 255
154 195 255
154 195 255
154 195 255
154 195 255
154 194 255
154 195 255
154 194 255
154 194 255
154 194 255
154 194 255
154 194 255
154 194 255
154 194 255
154 194 255
154 194 255
154 194 255
154 194 255
154 195 255
154 195 255
154 195 255
154 195 255
154 195 255
154 195 255
154 195 255
154 195 255
154 195 255
154 195 255
154 195 255
154 195 255
154 195 255
154 195 255
154 195 255
154 195 255
154 195 255
154 195 255
154 195 255
154 195 255
154 195 255
155 195 255
155 195 255
155 195 255
155 195 255
155 195 255
155 195 255
155 195 255
155 195 255
155 195 255
155 195 255
155 195 255
155 195 255
155 195 255
155 195 255
155 195 255
155 195 255
156 196 255
156 196 255
156 196 255
156 196 255
156 196 255
156 196 255
156 196 255
156 196 255
156 196 255
156 196 255
156 196 255
156 196 255
156 196 255
157 196 255
157 196 255
157 196 255
157 196 255
157 196 255
157 196 255
157 196 255
157 197 255
157 197 255
157 197 255
157 197 255
158 197 255
158 197 255
158 197 255
158 197 255
158 197 255
158 197 255
158 197 255
158 197 255
158 197 255
158 197 255
159 197 255
159 197 255
159 197 255
159 198 255
159 198 255
159 198 255
159 198 255
159 198 255
159 198 255
159 198 255
160 198 255
160 198 255
160 198 255
160 198 255
160 198 255
160 198 255
160 198 255
160 198 255
160 198 255
161 199 255
161 199 255
161 199 255
161 199 255
161 199 255
161 199 255
161 199 255
161 199 255
161 199 255
161 199 255
162 199 255
162 199 255
162 199 255
162 199 255
162 199 255
162 199 255
162 200 255
162 200 255
162 200 255
162 200 255
163 200 255
163 200 255
163 200 255
163 200 255
163 200 255
163 200 255
163 200 255
163 200 255
163 200 255
164 200 255
164 200 255
164 200 255
164 200 255
164 201 255
164 201 255
164 201 255
164 201 255
164 201 255
164 201 255
164 201 255
165 201 255
165 201 255
165 201 255
165 201 255
165 201 255
165 201 255
165 201 255
165 201 255
165 201 255
165 201 255
166 202 255
166 202 255
166 202 255
166 202 255
166 202 255
166 202 255
166 202 255
166 202 255
166 202 255
166 202 255
166 202 255
167 202 255
167 202 255
167 202 255
167 202 255
167 202 255
167 202 255
167 202 255
167 202 255
167 203 255
167 203 255
167 203 255
167 203 255
168 203 255
168 203 255
168 203 255
168 203 255
168 203 255
168 203 255
168 203 255
168 203 255
168 203 255
168 203 255
168 203 255
168 203 255
169 203 255
169 203 255
169 203 255
169 203 255
169 204 255
169 204 255
169 204 255
169 204 255
169 204 255
169 204 255
169 204 255
169 204 255
169 204 255
170 204 255
170 204 255
170 204 255
170 204 255
170 204 255
170 204 255
170 204 255
170 204 255
170 204 255
170 204 255
170 204 255
170 204 255
170 204 255
170 204 255
170 204 255
169 204 255
169 204 255
169 204 255
169 204 255
169 204 255
169 204 255
169 204 255
169 204 255
169 204 255
169 203 255
169 203 255
169 203 255
169 203 255
168 203 255
168 203 255
168 203 255
168 203 255
168 203 255
168 203 255
168 203 255
168 203 255
168 203 255
168 203 255
168 203 255
168 203 255
167 203 255
167 203 255
167 203 255
167 203 255
167 202 255
167 202 255
167 202 255
167 202 255
167 202 255
167 202 255
167 202 255
167 202 255
166 202 255
166 202 255
166 202 255
166 202 255
166 202 255
166 202 255
166 202 255
166 202 255
166 202 255
166 202 255
166 202 255
165 201 255
165 201 255
165 201 255
165 201 255
165 201 255
165 201 255
165 201 255
165 201 255
165 201 255
165 201 255
164 201 255
164 201 255
164 201 255
164 201 255
164 201 255
164 201 255
164 201 255
164 200 255
164 200 255
164 200 255
163 200 255
163 200 255
163 200 255
163 200 255
163 200 255
163 200 255
163 200 255
163 200 255
163 200 255
163 200 255
162 200 255
162 200 255
162 200 255
162 199 255
162 199 255
162 199 255
162 199 255
162 199 255
162 199 255
162 199 255
161 199 255
161 199 255
161 199 255
161 199 255
161 199 255
161 199 255
161 199 255
161 199 255
161 199 255
160 198 255
160 198 255
160 198 255
160 198 255
160 198 255
160 198 255
160 198 255
160 198 255
160 198 255
160 198 255
159 198 255
159 198 255
159 198 255
159 198 255
159 198 255
159 198 255
159 198 255
159 197 255
159 197 255
159 197 255
158 197 255
158 197 255
158 197 255
158 197 255
158 197 255
158 197 255
158 197 255
158 197 255
158 197 255
158 197 255
158 197 255
157 197 255
157 197 255
157 197 255
157 196 255
157 196 255
157 196 255
157 196 255
157 196 255
157 196 255
157 196 255
157 196 255
156 196 255
156 196 255
156 196 255
156 196 255
156 196 255
156 196 255
156 196 255
156 196 255
156 196 255
156 196 255
156 196 255
156 196 255
156 196 255
155 195 255
155 195 255
155 195 255
155 195 255
155 195 255
155 195 255
155 195 255
155 195 255
155 195 255
155 195 255
155 195 255
155 195 255
155 195 255
155 195 255
155 195 255
155 195 255
155 195 255
155 195 255
154 195 255
154 195 255
154 195 255
154 195 255
154 195 255
154 195 255
154 195 255
154 195 255
154 195 255
154 195 255
154 195 255
154 195 255
154 195 255
154 195 255
154 195 255
154 195 255
154 195 255
154 195 255
154 195 255
154 195 255
154 195 255
154 195 255
154 195 255
154 195 255
154 195 255
154 195 255
154 195 255
154 195 255
154 195 255
154 195 255
154 195 255
154 195 255
154 195 255
154 195 255
154 195 255
154 195 255
154 195 255
154 195 255
154 195 255
154 195 255
154 195 255
155 195 255
155 195 255
155 195 255
155 195 255
155 195 255
155 195 255
155 195 255
155 195 255
155 195 255
155 195 255
155 195 255
155 195 255
155 195 255
155 195 255
155 195 255
155 195 255
155 195 255
155 195 255
155 195 255
156 196 255
156 196 255
156 196 255
156 196 255
156 196 255
156 196 255
156 196 255
156 196 255
156 196 255
156 196 255
156 196 255
156 196 255
156 196 255
157 196 255
157 196 255
157 196 255
157 196 255
157 196 255
157 196 255
157 196 255
157 196 255
157 197 255
157 197 255
157 197 255
158 197 255
158 197 255
158 197 255
158 197 255
158 197 255
158 197 255
158 197 255
158 197 255
158 197 255
158 197 255
158 197 255
159 197 255
159 197 255
159 197 255
159 198 255
159 198 255
159 198 255
159 198 255
159 198 255
159 198 255
159 198 255
160 198 255
160 198 255
160 198 255
160 198 255
160 198 255
160 198 255
160 198 255
160 198 255
160 198 255
160 198 255
161 199 255
161 199 255
161 199 255
161 199 255
161 199 255
161 199 255
161 199 255
161 199 255
161 199 255
162 199 255
162 199 255
162 199 255
162 199 255
162 199 255
162 199 255
162 199 255
162 200 255
162 200 255
162 200 255
163 200 255
163 200 255
163 200 255
163 200 255
163 200 255
163 200 255
163 200 255
163 200 255
163 200 255
163 200 255
164 200 255
164 200 255
164 200 255
164 201 255
164 201 255
164 201 255
164 201 255
164 201 255
164 201 255
164 201 255
165 201 255
165 201 255
165 201 255
165 201 255
165 201 255
165 201 255
165 201 255
165 201 255
165 201 255
165 201 255
166 202 255
166 202 255
166 202 255
166 202 255
166 202 255
166 202 255
166 202 255
166 202 255
166 202 255
166 202 255
166 202 255
167 202 255
167 202 255
167 202 255
167 202 255
167 202 255
167 202 255
167 202 255
167 202 255
167 203 255
167 203 255
167 203 255
167 203 255
168 203 255
168 203 255
168 203 255
168 203 255
168 203 255
168 203 255
168 203 255
168 203 255
168 203 255
168 203 255
168 203 255
168 203 255
169 203 255
169 203 255
169 203 255
169 203 255
169 204 255
169 204 255
169 204 255
169 204 255
169 204 255
169 204 255
169 204 255
169 204 255
170 204 255
170 204 255
170 204 255
170 204 255
170 204 255
170 204 255
170 204 255
170 204 255
170 204 255
170 204 255
170 204 255
170 204 255
170 204 255
170 204 255
170 204 255
170 204 255
170 204 255
170 204 255
170 204 255
170 204 255
170 204 255
170 204 255
170 204 255
169 204 255
169 204 255
169 204 255
169 204 255
169 204 255
169 204 255
169 204 255
169 204 255
169 203 255
169 203 255
169 203 255
169 203 255
168 203 255
168 203 255
168 203 255
168 203 255
168 203 255
168 203 255
168 203 255
168 203 255
168 203 255
168 203 255
168 203 255
168 203 255
167 203 255
167 203 255
167 203 255
167 203 255
167 202 255
167 202 255
167 202 255
167 202 255
167 202 255
167 202 255
167 202 255
167 202 255
166 202 255
166 202 255
166 202 255
166 202 255
166 202 255
166 202 255
166 202 255
166 202 255
166 202 255
166 202 255
166 202 255
165 201 255
165 201 255
165 201 255
165 201 255
165 201 255
165 201 255
165 201 255
165 201 255
165 201 255
165 201 255
164 201 255
164 201 255
164 201 255
164 201 255
164 201 255
164 201 255
164 201 255
164 200 255
164 200 255
164 200 255
163 200 255
163 200 255
163 200 255
163 200 255
163 200 255
163 200 255
163 200 255
163 200 255
163 200 255
163 200 255
162 200 255
162 200 255
162 200 255
162 199 255
162 199 255
162 199 255
162 199 255
162 199 255
162 199 255
162 199 255
161 199 255
161 199 255
161 199 255
161 199 255
161 199 255
161 199 255
161 199 255
161 199 255
161 199 255
160 198 255
160 198 255
160 198 255
160 198 255
160 198 255
160 198 255
160 198 255
160 198 255
160 198 255
160 198 255
159 198 255
159 198 255
159 198 255
159 198 255
159 198 255
159 198 255
159 198 255
159 197 255
159 197 255
159 197 255
158 197 255
158 197 255
158 197 255
158 197 255
158 197 255
158 197 255
158 197 255
158 197 255
158 197 255
158 197 255
158 197 255
157 197 255
157 197 255
157 197 255
157 197 255
157 196 255
157 196 255
157 196 255
157 196 255
157 196 255
157 196 255
157 196 255
157 196 255
156 196 255
156 196 255
156 196 255
156 196 255
156 196 255
156 196 255
156 196 255
156 196 255
156 196 255
156 196 255
156 196 255
156 196 255
156 196 255
156 196 255
155 195 255
155 195 255
155 195 255
155 195 255
155 195 255
155 195 255
155 195 255
155 195 255
155 195 255
155 195 255
155 195 255
155 195 255
155 195 255
155 195 255
155 195 255
155 195 255
155 195 255
155 195 255
155 195 255
155 195 255
155 195 255
155 195 255
155 195 255
155 195 255
154 195 255
154 195 255
154 195 255
154 195 255
154 195 255
154 195 255
154 195 255
154 195 255
154 195 255
154 195 255
154 195 255
154 195 255
154 195 255
154 195 255
154 195 255
154 195 255
154 195 255
154 195 255
154 195 255
154 195 255
155 195 255
155 195 255
155 195 255
155 195 255
155 195 255
155 195 255
155 195 255
155 195 255
155 195 255
155 195 255
155 195 255
155 195 255
155 195 255
155 195 255
155 195 255
155 195 255
155 195 255
155 195 255
155 195 255
155 195 255
155 195 255
155 195 255
155 195 255
155 195 255
156 196 255
156 196 255
156 196 255
156 196 255
156 196 255
156 196 255
156 196 255
156 196 255
156 196 255
156 196 255
156 196 255
156 196 255
156 196 255
156 196 255
157 196 255
157 196 255
157 196 255
157 196 255
157 196 255
157 196 255
157 196 255
157 196 255
157 197 255
157 197 255
157 197 255
157 197 255
158 197 255
158 197 255
158 197 255
158 197 255
158 197 255
158 197 255
158 197 255
158 197 255
158 197 255
158 197 255
158 197 255
159 197 255
159 197 255
159 197 255
159 198 255
159 198 255
159 198 255
159 198 255
159 198 255
159 198 255
159 198 255
160 198 255
160 198 255
160 198 255
160 198 255
160 198 255
160 198 255
160 198 255
160 198 255
160 198 255
160 198 255
161 199 255
161 199 255
161 199 255
161 199 255
161 199 255
161 199 255
161 199 255
161 199 255
161 199 255
162 199 255
162 199 255
162 199 255
162 199 255
162 199 255
162 199 255
162 199 255
162 200 255
162 200 255
162 200 255
163 200 255
163 200 255
163 200 255
163 200 255
163 200 255
163 200 255
163 200 255
163 200 255
163 200 255
163 200 255
164 200 255
164 200 255
164 200 255
164 201 255
164 201 255
164 201 255
164 201 255
164 201 255
164 201 255
164 201 255
165 201 255
165 201 255
165 201 255
165 201 255
165 201 255
165 201 255
165 201 255
165 201 255
165 201 255
165 201 255
166 202 255
166 202 255
166 202 255
166 202 255
166 202 255
166 202 255
166 202 255
166 202 255
166 202 255
166 202 255
166 202 255
167 202 255
167 202 255
167 202 255
167 202 255
167 202 255
167 202 255
167 202 255
167 202 255
167 203 255
167 203 255
167 203 255
167 203 255
168 203 255
168 203 255
168 203 255
168 203 255
168 203 255
168 203 255
168 203 255
168 203 255
168 203 255
168 203 255
168 203 255
168 203 255
169 203 255
169 203 255
169 203 255
169 203 255
169 204 255
169 204 255
169 204 255
169 204 255
169 204 255
169 204 255
169 204 255
169 204 255
169 204 255
170 204 255
170 204 255
170 204 255
170 204 255
170 204 255
170 204 255
170 204 255
170 204 255
170 204 255
170 204 255
170 204 255
170 204 255
171 205 255
171 205 255
170 204 255
170 204 255
170 204 255
170 204 255
170 204 255
170 204 255
170 204 255
170 204 255
170 204 255
170 204 255
170 204 255
170 204 255
170 204 255
170 204 255
169 204 255
169 204 255
169 204 255
169 204 255
169 204 255
169 204 255
169 204 255
169 204 255
169 203 255
169 203 255
169 203 255
169 203 255
169 203 255
168 203 255
168 203 255
168 203 255
168 203 255
168 203 255
168 203 255
168 203 255
168 203 255
168 203 255
168 203 255
168 203 255
167 203 255
167 203 255
167 203 255
167 203 255
167 202 255
167 202 255
167 202 255
167 202 255
167 202 255
167 202 255
167 202 255
167 202 255
166 202 255
166 202 255
166 202 255
166 202 255
166 202 255
166 202 255
166 202 255
166 202 255
166 202 255
166 202 255
166 202 255
165 201 255
165 201 255
165 201 255
165 201 255
165 201 255
165 201 255
165 201 255
165 201 255
165 201 255
165 201 255
164 201 255
164 201 255
164 201 255
164 201 255
164 201 255
164 201 255
164 201 255
164 200 255
164 200 255
164 200 255
163 200 255
163 200 255
163 200 255
163 200 255
163 200 255
163 200 255
163 200 255
163 200 255
163 200 255
163 200 255
162 200 255
162 200 255
162 200 255
162 199 255
162 199 255
162 199 255
162 199 255
162 199 255
162 199 255
162 199 255
161 199 255
161 199 255
161 199 255
161 199 255
161 199 255
161 199 255
161 199 255
161 199 255
161 199 255
160 198 255
160 198 255
160 198 255
160 198 255
160 198 255
160 198 255
160 198 255
160 198 255
160 198 255
160 198 255
159 198 255
159 198 255
159 198 255
159 198 255
159 198 255
159 198 255
159 198 255
159 197 255
159 197 255
159 197 255
159 197 255
158 197 255
158 197 255
158 197 255
158 197 255
158 197 255
158 197 255
158 197 255
158 197 255
158 197 255
158 197 255
157 197 255
157 197 255
157 197 255
157 197 255
157 196 255
157 196 255
157 196 255
157 196 255
157 196 255
157 196 255
157 196 255
157 196 255
157 196 255
156 196 255
156 196 255
156 196 255
156 196 255
156 196 255
156 196 255
156 196 255
156 196 255
156 196 255
156 196 255
156 196 255
156 196 255
156 196 255
156 196 255
156 196 255
155 195 255
155 195 255
155 195 255
155 195 255
155 195 255
155 195 255
155 195 255
155 195 255
155 195 255
155 195 255
155 195 255
155 195 255
155 195 255
155 195 255
155 195 255
155 195 255
155 195 255
155 195 255
155 195 255
155 195 255
155 195 255
155 195 255
155 195 255
155 195 255
155 195 255
155 195 255
155 195 255
155 195 255
155 195 255
155 195 255
155 195 255
155 195 255
155 195 255
155 195 255
155 195 255
155 195 255
155 195 255
155 195 255
155 195 255
155 195 255
155 195 255
155 195 255
155 195 255
155 195 255
155 195 255
155 195 255
155 195 255
155 195 255
155 195 255
155 195 255
155 195 255
155 195 255
155 195 255
155 195 255
155 195 255
155 195 255
155 195 255
155 195 255
156 196 255
156 196 255
156 196 255
156 196 255
156 196 255
156 196 255
156 196 255
156 196 255
156 196 255
156 196 255
156 196 255
156 196 255
156 196 255
156 196 255
156 196 255
157 196 255
157 196 255
157 196 255
157 196 255
157 196 255
157 196 255
157 196 255
157 196 255
157 196 255
157 197 255
157 197 255
157 197 255
157 197 255
158 197 255
158 197 255
158 197 255
158 197 255
158 197 255
158 197 255
158 197 255
158 197 255
158 197 255
158 197 255
158 197 255
159 197 255
159 197 255
159 197 255
159 198 255
159 198 255
159 198 255
159 198 255
159 198 255
159 198 255
159 198 255
160 198 255
160 198 255
160 198 255
160 198 255
160 198 255
160 198 255
160 198 255
160 198 255
160 198 255
160 198 255
161 199 255
161 199 255
161 199 255
161 199 255
161 199 255
161 199 255
161 199 255
161 199 255
161 199 255
162 199 255
162 199 255
162 199 255
162 199 255
162 199 255
162 199 255
162 199 255
162 200 255
162 200 255
162 200 255
163 200 255
163 200 255
163 200 255
163 200 255
163 200 255
163 200 255
163 200 255
163 200 255
163 200 255
163 200 255
164 200 255
164 200 255
164 200 255
164 201 255
164 201 255
164 201 255
164 201 255
164 201 255
164 201 255
164 201 255
165 201 255
165 201 255
165 201 255
165 201 255
165 201 255
165 201 255
165 201 255
165 201 255
165 201 255
165 201 255
166 202 255
166 202 255
166 202 255
166 202 255
166 202 255
166 202 255
166 202 255
166 202 255
166 202 255
166 202 255
166 202 255
167 202 255
167 202 255
167 202 255
167 202 255
167 202 255
167 202 255
167 202 255
167 202 255
167 203 255
167 203 255
167 203 255
168 203 255
168 203 255
168 203 255
168 203 255
168 203 255
168 203 255
168 203 255
168 203 255
168 203 255
168 203 255
168 203 255
168 203 255
168 203 255
169 203 255
169 203 255
169 203 255
169 203 255
169 204 255
169 204 255
169 204 255
169 204 255
169 204 255
169 204 255
169 204 255
169 204 255
170 204 255
170 204 255
170 204 255
170 204 255
170 204 255
170 204 255
170 204 255
170 204 255
170 204 255
170 204 255
170 204 255
170 204 255
170 204 255
170 204 255
171 205 255
171 205 255
171 205 255
171 205 255
171 205 255
171 205 255
171 205 255
171 205 255
170 204 255
170 204 255
170 204 255
170 204 255
170 204 255
170 204 255
170 204 255
170 204 255
170 204 255
170 204 255
170 204 255
170 204 255
170 204 255
169 204 255
169 204 255
169 204 255
169 204 255
169 204 255
169 204 255
169 204 255
169 204 255
169 203 255
169 203 255
169 203 255
169 203 255
169 203 255
168 203 255
168 203 255
168 203 255
168 203 255
168 203 255
168 203 255
168 203 255
168 203 255
168 203 255
168 203 255
168 203 255
168 203 255
167 203 255
167 203 255
167 203 255
167 202 255
167 202 255
167 202 255
167 202 255
167 202 255
167 202 255
167 202 255
167 202 255
166 202 255
166 202 255
166 202 255
166 202 255
166 202 255
166 202 255
166 202 255
166 202 255
166 202 255
166 202 255
165 201 255
165 201 255
165 201 255
165 201 255
165 201 255
165 201 255
165 201 255
165 201 255
165 201 255
165 201 255
165 201 255
164 201 255
164 201 255
164 201 255
164 201 255
164 201 255
164 201 255
164 200 255
164 200 255
164 200 255
164 200 255
163 200 255
163 200 255
163 200 255
163 200 255
163 200 255
163 200 255
163 200 255
163 200 255
163 200 255
163 200 255
162 200 255
162 200 255
162 200 255
162 199 255
162 199 255
162 199 255
162 199 255
162 199 255
162 199 255
161 199 255
161 199 255
161 199 255
161 199 255
161 199 255
161 199 255
161 199 255
161 199 255
161 199 255
161 199 255
160 198 255
160 198 255
160 198 255
160 198 255
160 198 255
160 198 255
160 198 255
160 198 255
160 198 255
160 198 255
159 198 255
159 198 255
159 198 255
159 198 255
159 198 255
159 198 255
159 198 255
159 197 255
159 197 255
159 197 255
159 197 255
158 197 255
158 197 255
158 197 255
158 197 255
158 197 255
158 197 255
158 197 255
158 197 255
158 197 255
158 197 255
158 197 255
157 197 255
157 197 255
157 197 255
157 197 255
157 196 255
157 196 255
157 196 255
157 196 255
157 196 255
157 196 255
157 196 255
157 196 255
157 196 255
156 196 255
156 196 255
156 196 255
156 196 255
156 196 255
156 196 255
156 196 255
156 196 255
156 196 255
156 196 255
156 196 255
156 196 255
156 196 255
156 196 255
156 196 255
156 196 255
156 196 255
156 196 255
155 195 255
155 195 255
155 195 255
155 195 255
155 195 255
155 195 255
155 195 255
155 195 255
155 195 255
155 195 255
155 195 255
155 195 255
155 195 255
155 195 255
155 195 255
155 195 255
155 195 255
155 195 255
155 195 255
155 195 255
155 195 255
155 195 255
155 195 255
155 195 255
155 195 255
155 195 255
155 195 255
155 195 255
155 195 255
155 195 255
155 195 255
155 195 255
155 195 255
155 195 255
155 195 255
155 195 255
155 195 255
155 195 255
155 195 255
155 195 255
155 195 255
155 195 255
155 195 255
155 195 255
156 196 255
156 196 255
156 196 255
156 196 255
156 196 255
156 196 255
156 196 255
156 196 255
156 196 255
156 196 255
156 196 255
156 196 255
156 196 255
156 196 255
156 196 255
156 196 255
156 196 255
156 196 255
157 196 255
157 196 255
157 196 255
157 196 255
157 196 255
157 196 255
157 196 255
157 196 255
157 196 255
157 197 255
157 197 255
157 197 255
157 197 255
158 197 255
158 197 255
158 197 255
158 197 255
158 197 255
158 197 255
158 197 255
158 197 255
158 197 255
158 197 255
158 197 255
159 197 255
159 197 255
159 197 255
159 197 255
159 198 255
159 198 255
159 198 255
159 198 255
159 198 255
159 198 255
159 198 255
160 198 255
160 198 255
160 198 255
160 198 255
160 198 255
160 198 255
160 198 255
160 198 255
160 198 255
160 198 255
161 199 255
161 199 255
161 199 255
161 199 255
161 199 255
161 199 255
161 199 255
161 199 255
161 199 255
161 199 255
162 199 255
162 199 255
162 199 255
162 199 255
162 199 255
162 199 255
162 200 255
162 200 255
162 200 255
163 200 255
163 200 255
163 200 255
163 200 255
163 200 255
163 200 255
163 200 255
163 200 255
163 200 255
163 200 255
164 200 255
164 200 255
164 200 255
164 200 255
164 201 255
164 201 255
164 201 255
164 201 255
164 201 255
164 201 255
165 201 255
165 201 255
165 201 255
165 201 255
165 201 255
165 201 255
165 201 255
165 201 255
165 201 255
165 201 255
165 201 255
166 202 255
166 202 255
166 202 255
166 202 255
166 202 255
166 202 255
166 202 255
166 202 255
166 202 255
166 202 255
167 202 255
167 202 255
167 202 255
167 202 255
167 202 255
167 202 255
167 202 255
167 202 255
167 203 255
167 203 255
167 203 255
167 203 255
168 203 255
168 203 255
168 203 255
168 203 255
168 203 255
168 203 255
168 203 255
168 203 255
168 203 255
168 203 255
168 203 255
169 203 255
169 203 255
169 203 255
169 203 255
169 204 255
169 204 255
169 204 255
169 204 255
169 204 255
169 204 255
169 204 255
169 204 255
169 204 255
170 204 255
170 204 255
170 204 255
170 204 255
170 204 255
170 204 255
170 204 255
170 204 255
170 204 255
170 204 255
170 204 255
170 204 255
170 204 255
171 205 255
171 205 255
171 205 255
171 205 255
171 205 255
171 205 255
171 205 255
171 205 255
171 205 255
171 205 255
171 205 255
171 205 255
171 205 255
171 205 255
171 205 255
170 204 255
170 204 255
170 204 255
170 204 255
170 204 255
170 204 255
170 204 255
170 204 255
170 204 255
170 204 255
170 204 255
170 204 255
170 204 255
169 204 255
169 204 255
169 204 255
169 204 255
169 204 255
169 204 255
169 204 255
169 204 255
169 204 255
169 203 255
169 203 255
169 203 255
169 203 255
168 203 255
168 203 255
168 203 255
168 203 255
168 203 255
168 203 255
168 203 255
168 203 255
168 203 255
168 203 255
168 203 255
167 203 255
167 203 255
167 203 255
167 203 255
167 202 255
167 202 255
167 202 255
167 202 255
167 202 255
167 202 255
167 202 255
167 202 255
166 202 255
166 202 255
166 202 255
166 202 255
166 202 255
166 202 255
166 202 255
166 202 255
166 202 255
166 202 255
165 201 255
165 201 255
165 201 255
165 201 255
165 201 255
165 201 255
165 201 255
165 201 255
165 201 255
165 201 255
165 201 255
164 201 255
164 201 255
164 201 255
164 201 255
164 201 255
164 201 255
164 200 255
164 200 255
164 200 255
164 200 255
163 200 255
163 200 255
163 200 255
163 200 255
163 200 255
163 200 255
163 200 255
163 200 255
163 200 255
163 200 255
162 200 255
162 200 255
162 200 255
162 199 255
162 199 255
162 199 255
162 199 255
162 199 255
162 199 255
161 199 255
161 199 255
161 199 255
161 199 255
161 199 255
161 199 255
161 199 255
161 199 255
161 199 255
161 199 255
160 198 255
160 198 255
160 198 255
160 198 255
160 198 255
160 198 255
160 198 255
160 198 255
160 198 255
160 198 255
159 198 255
159 198 255
159 198 255
159 198 255
159 198 255
159 198 255
159 198 255
159 197 255
159 197 255
159 197 255
159 197 255
158 197 255
158 197 255
158 197 255
158 197 255
158 197 255
158 197 255
158 197 255
158 197 255
158 197 255
158 197 255
158 197 255
158 197 255
157 197 255
157 197 255
157 197 255
157 197 255
157 196 255
157 196 255
157 196 255
157 196 255
157 196 255
157 196 255
157 196 255
157 196 255
157 196 255
157 196 255
156 196 255
156 196 255
156 196 255
156 196 255
156 196 255
156 196 255
156 196 255
156 196 255
156 196 255
156 196 255
156 196 255
156 196 255
156 196 255
156 196 255
156 196 255
156 196 255
156 196 255
156 196 255
156 196 255
156 196 255
156 196 255
156 196 255
156 196 255
155 195 255
155 195 255
155 195 255
155 195 255
155 195 255
155 195 255
155 195 255
155 195 255
155 195 255
155 195 255
155 195 255
155 195 255
155 195 255
155 195 255
155 195 255
155 195 255
155 195 255
155 195 255
155 195 255
155 195 255
155 195 255
155 195 255
155 195 255
156 196 255
155 195 255
156 196 255
156 196 255
156 196 255
156 196 255
156 196 255
156 196 255
156 196 255
156 196 255
156 196 255
156 196 255
156 196 255
156 196 255
156 196 255
156 196 255
156 196 255
156 196 255
156 196 255
156 196 255
156 196 255
156 196 255
156 196 255
156 196 255
157 196 255
157 196 255
157 196 255
157 196 255
157 196 255
157 196 255
157 196 255
157 196 255
157 196 255
157 196 255
157 197 255
157 197 255
157 197 255
157 197 255
158 197 255
158 197 255
158 197 255
158 197 255
158 197 255
158 197 255
158 197 255
158 197 255
158 197 255
158 197 255
158 197 255
158 197 255
159 197 255
159 197 255
159 197 255
159 197 255
159 198 255
159 198 255
159 198 255
159 198 255
159 198 255
159 198 255
159 198 255
160 198 255
160 198 255
160 198 255
160 198 255
160 198 255
160 198 255
160 198 255
160 198 255
160 198 255
160 198 255
161 199 255
161 199 255
161 199 255
161 199 255
161 199 255
161 199 255
161 199 255
161 199 255
161 199 255
161 199 255
162 199 255
162 199 255
162 199 255
162 199 255
162 199 255
162 199 255
162 200 255
162 200 255
162 200 255
162 200 255
163 200 255
163 200 255
163 200 255
163 200 255
163 200 255
163 200 255
163 200 255
163 200 255
163 200 255
164 200 255
164 200 255
164 200 255
164 200 255
164 201 255
164 201 255
164 201 255
164 201 255
164 201 255
164 201 255
165 201 255
165 201 255
165 201 255
165 201 255
165 201 255
165 201 255
165 201 255
165 201 255
165 201 255
165 201 255
165 201 255
166 202 255
166 202 255
166 202 255
166 202 255
166 202 255
166 202 255
166 202 255
166 202 255
166 202 255
166 202 255
167 202 255
167 202 255
167 202 255
167 202 255
167 202 255
167 202 255
167 202 255
167 202 255
167 203 255
167 203 255
167 203 255
167 203 255
168 203 255
168 203 255
168 203 255
168 203 255
168 203 255
168 203 255
168 203 255
168 203 255
168 203 255
168 203 255
168 203 255
169 203 255
169 203 255
169 203 255
169 203 255
169 204 255
169 204 255
169 204 255
169 204 255
169 204 255
169 204 255
169 204 255
169 204 255
169 204 255
170 204 255
170 204 255
170 204 255
170 204 255
170 204 255
170 204 255
170 204 255
170 204 255
170 204 255
170 204 255
170 204 255
170 204 255
170 204 255
171 205 255
171 205 255
171 205 255
171 205 255
171 205 255
171 205 255
171 205 255
171 205 255
171 205 255
171 205 255
171 205 255
171 205 255
171 205 255
171 205 255
171 205 255
171 205 255
171 205 255
171 205 255
171 205 255
171 205 255
171 205 255
170 204 255
170 204 255
170 204 255
170 204 255
170 204 255
170 204 255
170 204 255
170 204 255
170 204 255
170 204 255
170 204 255
170 204 255
170 204 255
169 204 255
169 204 255
169 204 255
169 204 255
169 204 255
169 204 255
169 204 255
169 204 255
169 204 255
169 203 255
169 203 255
169 203 255
169 203 255
168 203 255
168 203 255
168 203 255
168 203 255
168 203 255
168 203 255
168 203 255
168 203 255
168 203 255
168 203 255
168 203 255
168 203 255
167 203 255
167 203 255
167 203 255
167 202 255
167 202 255
167 202 255
167 202 255
167 202 255
167 202 255
167 202 255
167 202 255
166 202 255
166 202 255
166 202 255
166 202 255
166 202 255
166 202 255
166 202 255
166 202 255
166 202 255
166 202 255
165 201 255
165 201 255
165 201 255
165 201 255
165 201 255
165 201 255
165 201 255
165 201 255
165 201 255
165 201 255
165 201 255
164 201 255
164 201 255
164 201 255
164 201 255
164 201 255
164 201 255
164 200 255
164 200 255
164 200 255
164 200 255
163 200 255
163 200 255
163 200 255
163 200 255
163 200 255
163 200 255
163 200 255
163 200 255
163 200 255
163 200 255
162 200 255
162 200 255
162 200 255
162 199 255
162 199 255
162 199 255
162 199 255
162 199 255
162 199 255
161 199 255
161 199 255
161 199 255
161 199 255
161 199 255
161 199 255
161 199 255
161 199 255
161 199 255
161 199 255
160 198 255
160 198 255
160 198 255
160 198 255
160 198 255
160 198 255
160 198 255
160 198 255
160 198 255
160 198 255
160 198 255
159 198 255
159 198 255
159 198 255
159 198 255
159 198 255
159 198 255
159 198 255
159 197 255
159 197 255
159 197 255
159 197 255
158 197 255
158 197 255
158 197 255
158 197 255
158 197 255
158 197 255
158 197 255
158 197 255
158 197 255
158 197 255
158 197 255
158 197 255
157 197 255
157 197 255
157 197 255
157 197 255
157 196 255
157 196 255
157 196 255
157 196 255
157 196 255
157 196 255
157 196 255
157 196 255
157 196 255
157 196 255
157 196 255
156 196 255
156 196 255
156 196 255
156 196 255
156 196 255
156 196 255
156 196 255
156 196 255
156 196 255
156 196 255
156 196 255
156 196 255
156 196 255
156 196 255
156 196 255
156 196 255
156 196 255
156 196 255
156 196 255
156 196 255
156 196 255
156 196 255
156 196 255
156 196 255
156 196 255
156 196 255
156 196 255
156 196 255
156 196 255
156 196 255
156 196 255
156 196 255
156 196 255
156 196 255
156 196 255
156 196 255
156 196 255
156 196 255
156 196 255
156 196 255
156 196 255
156 196 255
156 196 255
156 196 255
156 196 255
156 196 255
156 196 255
156 196 255
156 196 255
156 196 255
156 196 255
156 196 255
156 196 255
156 196 255
156 196 255
156 196 255
156 196 255
156 196 255
156 196 255
156 196 255
157 196 255
157 196 255
157 196 255
157 196 255
157 196 255
157 196 255
157 196 255
157 196 255
157 196 255
157 196 255
157 197 255
157 197 255
157 197 255
157 197 255
157 197 255
158 197 255
158 197 255
158 197 255
158 197 255
158 197 255
158 197 255
158 197 255
158 197 255
158 197 255
158 197 255
158 197 255
158 197 255
159 197 255
159 197 255
159 197 255
159 197 255
159 198 255
159 198 255
159 198 255
159 198 255
159 198 255
159 198 255
159 198 255
160 198 255
160 198 255
160 198 255
160 198 255
160 198 255
160 198 255
160 198 255
160 198 255
160 198 255
160 198 255
160 198 255
161 199 255
161 199 255
161 199 255
161 199 255
161 199 255
161 199 255
161 199 255
161 199 255
161 199 255
161 199 255
162 199 255
162 199 255
162 199 255
162 199 255
162 199 255
162 199 255
162 200 255
162 200 255
162 200 255
162 200 255
163 200 255
163 200 255
163 200 255
163 200 255
163 200 255
163 200 255
163 200 255
163 200 255
163 200 255
164 200 255
164 200 255
164 200 255
164 200 255
164 201 255
164 201 255
164 201 255
164 201 255
164 201 255
164 201 255
165 201 255
165 201 255
165 201 255
165 201 255
165 201 255
165 201 255
165 201 255
165 201 255
165 201 255
165 201 255
165 201 255
166 202 255
166 202 255
166 202 255
166 202 255
166 202 255
166 202 255
166 202 255
166 202 255
166 202 255
166 202 255
167 202 255
167 202 255
167 202 255
167 202 255
167 202 255
167 202 255
167 202 255
167 202 255
167 203 255
167 203 255
167 203 255
168 203 255
168 203 255
168 203 255
168 203 255
168 203 255
168 203 255
168 203 255
168 203 255
168 203 255
168 203 255
168 203 255
168 203 255
169 203 255
169 203 255
169 203 255
169 203 255
169 204 255
169 204 255
169 204 255
169 204 255
169 204 255
169 204 255
169 204 255
169 204 255
170 204 255
170 204 255
170 204 255
170 204 255
170 204 255
170 204 255
170 204 255
170 204 255
170 204 255
170 204 255
170 204 255
170 204 255
170 204 255
171 205 255
171 205 255
171 205 255
171 205 255
171 205 255
171 205 255
171 205 255
171 205 255
171 205 255
171 205 255
171 205 255
171 205 255
171 205 255
172 205 255
172 205 255
171 205 255
171 205 255
171 205 255
171 205 255
171 205 255
171 205 255
171 205 255
171 205 255
171 205 255
171 205 255
171 205 255
171 205 255
171 205 255
171 205 255
170 204 255
170 204 255
170 204 255
170 204 255
170 204 255
170 204 255
170 204 255
170 204 255
170 204 255
170 204 255
170 204 255
170 204 255
170 204 255
169 204 255
169 204 255
169 204 255
169 204 255
169 204 255
169 204 255
169 204 255
169 204 255
169 203 255
169 203 255
169 203 255
169 203 255
168 203 255
168 203 255
168 203 255
168 203 255
168 203 255
168 203 255
168 203 255
168 203 255
168 203 255
168 203 255
168 203 255
168 203 255
167 203 255
167 203 255
167 203 255
167 203 255
167 202 255
167 202 255
167 202 255
167 202 255
167 202 255
167 202 255
167 202 255
166 202 255
166 202 255
166 202 255
166 202 255
166 202 255
166 202 255
166 202 255
166 202 255
166 202 255
166 202 255
165 201 255
165 201 255
165 201 255
165 201 255
165 201 255
165 201 255
165 201 255
165 201 255
165 201 255
165 201 255
165 201 255
164 201 255
164 201 255
164 201 255
164 201 255
164 201 255
164 201 255
164 200 255
164 200 255
164 200 255
164 200 255
163 200 255
163 200 255
163 200 255
163 200 255
163 200 255
163 200 255
163 200 255
163 200 255
163 200 255
163 200 255
162 200 255
162 200 255
162 200 255
162 199 255
162 199 255
162 199 255
162 199 255
162 199 255
162 199 255
161 199 255
161 199 255
161 199 255
161 199 255
161 199 255
161 199 255
161 199 255
161 199 255
161 199 255
161 199 255
161 199 255
160 198 255
160 198 255
160 198 255
160 198 255
160 198 255
160 198 255
160 198 255
160 198 255
160 198 255
160 198 255
159 198 255
159 198 255
159 198 255
159 198 255
159 198 255
159 198 255
159 198 255
159 198 255
159 197 255
159 197 255
159 197 255
158 197 255
158 197 255
158 197 255
158 197 255
158 197 255
158 197 255
158 197 255
158 197 255
158 197 255
158 197 255
158 197 255
158 197 255
158 197 255
157 197 255
157 197 255
157 197 255
157 197 255
157 197 255
157 197 255
157 196 255
157 196 255
157 196 255
157 196 255
157 196 255
157 196 255
157 196 255
157 196 255
157 196 255
157 196 255
157 196 255
157 196 255
156 196 255
156 196 255
156 196 255
156 196 255
156 196 255
156 196 255
156 196 255
156 196 255
156 196 255
156 196 255
156 196 255
156 196 255
156 196 255
156 196 255
156 196 255
156 196 255
156 196 255
156 196 255
156 196 255
156 196 255
156 196 255
156 196 255
156 196 255
156 196 255
156 196 255
156 196 255
156 196 255
156 196 255
156 196 255
156 196 255
156 196 255
156 196 255
156 196 255
156 196 255
156 196 255
156 196 255
156 196 255
156 196 255
156 196 255
156 196 255
156 196 255
156 196 255
156 196 255
156 196 255
156 196 255
156 196 255
157 196 255
157 196 255
157 196 255
157 196 255
157 196 255
157 196 255
157 196 255
157 196 255
157 196 255
157 196 255
157 196 255
157 196 255
157 196 255
157 197 255
157 197 255
157 197 255
157 197 255
158 197 255
158 197 255
158 197 255
158 197 255
158 197 255
158 197 255
158 197 255
158 197 255
158 197 255
158 197 255
158 197 255
158 197 255
158 197 255
158 197 255
159 197 255
159 197 255
159 197 255
159 198 255
159 198 255
159 198 255
159 198 255
159 198 255
159 198 255
159 198 255
159 198 255
160 198 255
160 198 255
160 198 255
160 198 255
160 198 255
160 198 255
160 198 255
160 198 255
160 198 255
160 198 255
161 199 255
161 199 255
161 199 255
161 199 255
161 199 255
161 199 255
161 199 255
161 199 255
161 199 255
161 199 255
161 199 255
162 199 255
162 199 255
162 199 255
162 199 255
162 199 255
162 199 255
162 200 255
162 200 255
162 200 255
162 200 255
163 200 255
163 200 255
163 200 255
163 200 255
163 200 255
163 200 255
163 200 255
163 200 255
163 200 255
164 200 255
164 200 255
164 200 255
164 200 255
164 201 255
164 201 255
164 201 255
164 201 255
164 201 255
164 201 255
165 201 255
165 201 255
165 201 255
165 201 255
165 201 255
165 201 255
165 201 255
165 201 255
165 201 255
165 201 255
165 201 255
166 202 255
166 202 255
166 202 255
166 202 255
166 202 255
166 202 255
166 202 255
166 202 255
166 202 255
166 202 255
167 202 255
167 202 255
167 202 255
167 202 255
167 202 255
167 202 255
167 202 255
167 202 255
167 203 255
167 203 255
167 203 255
168 203 255
168 203 255
168 203 255
168 203 255
168 203 255
168 203 255
168 203 255
168 203 255
168 203 255
168 203 255
168 203 255
168 203 255
169 203 255
169 203 255
169 203 255
169 203 255
169 204 255
169 204 255
169 204 255
169 204 255
169 204 255
169 204 255
169 204 255
169 204 255
170 204 255
170 204 255
170 204 255
170 204 255
170 204 255
170 204 255
170 204 255
170 204 255
170 204 255
170 204 255
170 204 255
170 204 255
170 204 255
171 205 255
171 205 255
171 205 255
171 205 255
171 205 255
171 205 255
171 205 255
171 205 255
171 205 255
171 205 255
171 205 255
171 205 255
171 205 255
171 205 255
172 205 255
172 205 255
172 205 255
172 205 255
172 205 255
172 205 255
172 205 255
171 205 255
171 205 255
171 205 255
171 205 255
171 205 255
171 205 255
171 205 255
171 205 255
171 205 255
171 205 255
171 205 255
171 205 255
171 205 255
171 205 255
170 204 255
170 204 255
170 204 255
170 204 255
170 204 255
170 204 255
170 204 255
170 204 255
170 204 255
170 204 255
170 204 255
170 204 255
170 204 255
169 204 255
169 204 255
169 204 255
169 204 255
169 204 255
169 204 255
169 204 255
169 204 255
169 203 255
169 203 255
169 203 255
169 203 255
168 203 255
168 203 255
168 203 255
168 203 255
168 203 255
168 203 255
168 203 255
168 203 255
168 203 255
168 203 255
168 203 255
168 203 255
167 203 255
167 203 255
167 203 255
167 203 255
167 202 255
167 202 255
167 202 255
167 202 255
167 202 255
167 202 255
167 202 255
166 202 255
166 202 255
166 202 255
166 202 255
166 202 255
166 202 255
166 202 255
166 202 255
166 202 255
166 202 255
165 201 255
165 201 255
165 201 255
165 201 255
165 201 255
165 201 255
165 201 255
165 201 255
165 201 255
165 201 255
165 201 255
164 201 255
164 201 255
164 201 255
164 201 255
164 201 255
164 201 255
164 200 255
164 200 255
164 200 255
164 200 255
163 200 255
163 200 255
163 200 255
163 200 255
163 200 255
163 200 255
163 200 255
163 200 255
163 200 255
163 200 255
162 200 255
162 200 255
162 200 255
162 199 255
162 199 255
162 199 255
162 199 255
162 199 255
162 199 255
162 199 255
161 199 255
161 199 255
161 199 255
161 199 255
161 199 255
161 199 255
161 199 255
161 199 255
161 199 255
161 199 255
160 198 255
160 198 255
160 198 255
160 198 255
160 198 255
160 198 255
160 198 255
160 198 255
160 198 255
160 198 255
160 198 255
159 198 255
159 198 255
159 198 255
159 198 255
159 198 255
159 198 255
159 198 255
159 197 255
159 197 255
159 197 255
159 197 255
158 197 255
158 197 255
158 197 255
158 197 255
158 197 255
158 197 255
158 197 255
158 197 255
158 197 255
158 197 255
158 197 255
158 197 255
158 197 255
158 197 255
157 197 255
157 197 255
157 197 255
157 197 255
157 197 255
157 197 255
157 196 255
157 196 255
157 196 255
157 196 255
157 196 255
157 196 255
157 196 255
157 196 255
157 196 255
157 196 255
157 196 255
157 196 255
157 196 255
157 196 255
157 196 255
157 196 255
157 196 255
156 196 255
156 196 255
156 196 255
156 196 255
156 196 255
156 196 255
156 196 255
156 196 255
156 196 255
156 196 255
156 196 255
156 196 255
156 196 255
156 196 255
156 196 255
156 196 255
156 196 255
156 196 255
156 196 255
156 196 255
156 196 255
156 196 255
156 196 255
156 196 255
156 196 255
156 196 255
157 196 255
157 196 255
157 196 255
157 196 255
157 196 255
157 196 255
157 196 255
157 196 255
157 196 255
157 196 255
157 196 255
157 196 255
157 196 255
157 196 255
157 196 255
157 196 255
157 196 255
157 197 255
157 197 255
157 197 255
157 197 255
157 197 255
157 197 255
158 197 255
158 197 255
158 197 255
158 197 255
158 197 255
158 197 255
158 197 255
158 197 255
158 197 255
158 197 255
158 197 255
158 197 255
158 197 255
159 197 255
159 197 255
159 197 255
159 197 255
159 197 255
159 198 255
159 198 255
159 198 255
159 198 255
159 198 255
159 198 255
159 198 255
160 198 255
160 198 255
160 198 255
160 198 255
160 198 255
160 198 255
160 198 255
160 198 255
160 198 255
160 198 255
160 198 255
161 199 255
161 199 255
161 199 255
161 199 255
161 199 255
161 199 255
161 199 255
161 199 255
161 199 255
161 199 255
162 199 255
162 199 255
162 199 255
162 199 255
162 199 255
162 199 255
162 199 255
162 200 255
162 200 255
162 200 255
163 200 255
163 200 255
163 200 255
163 200 255
163 200 255
163 200 255
163 200 255
163 200 255
163 200 255
163 200 255
164 200 255
164 200 255
164 200 255
164 200 255
164 201 255
164 201 255
164 201 255
164 201 255
164 201 255
164 201 255
165 201 255
165 201 255
165 201 255
165 201 255
165 201 255
165 201 255
165 201 255
165 201 255
165 201 255
165 201 255
165 201 255
166 202 255
166 202 255
166 202 255
166 202 255
166 202 255
166 202 255
166 202 255
166 202 255
166 202 255
166 202 255
167 202 255
167 202 255
167 202 255
167 202 255
167 202 255
167 202 255
167 202 255
167 203 255
167 203 255
167 203 255
167 203 255
168 203 255
168 203 255
168 203 255
168 203 255
168 203 255
168 203 255
168 203 255
168 203 255
168 203 255
168 203 255
168 203 255
168 203 255
169 203 255
169 203 255
169 203 255
169 203 255
169 204 255
169 204 255
169 204 255
169 204 255
169 204 255
169 204 255
169 204 255
169 204 255
170 204 255
170 204 255
170 204 255
170 204 255
170 204 255
170 204 255
170 204 255
170 204 255
170 204 255
170 204 255
170 204 255
170 204 255
170 204 255
171 205 255
171 205 255
171 205 255
171 205 255
171 205 255
171 205 255
171 205 255
171 205 255
171 205 255
171 205 255
171 205 255
171 205 255
171 205 255
171 205 255
172 205 255
172 205 255
172 205 255
172 205 255
172 205 255
172 205 255
172 205 255
172 205 255
172 205 255
172 205 255
172 205 255
172 205 255
172 205 255
172 205 255
171 205 255
171 205 255
171 205 255
171 205 255
171 205 255
171 205 255
171 205 255
171 205 255
171 205 255
171 205 255
171 205 255
171 205 255
171 205 255
171 205 255
170 204 255
170 204 255
170 204 255
170 204 255
170 204 255
170 204 255
170 204 255
170 204 255
170 204 255
170 204 255
170 204 255
170 204 255
169 204 255
169 204 255
169 204 255
169 204 255
169 204 255
169 204 255
169 204 255
169 204 255
169 203 255
169 203 255
169 203 255
169 203 255
169 203 255
168 203 255
168 203 255
168 203 255
168 203 255
168 203 255
168 203 255
168 203 255
168 203 255
168 203 255
168 203 255
168 203 255
167 203 255
167 203 255
167 203 255
167 203 255
167 202 255
167 202 255
167 202 255
167 202 255
167 202 255
167 202 255
167 202 255
166 202 255
166 202 255
166 202 255
166 202 255
166 202 255
166 202 255
166 202 255
166 202 255
166 202 255
166 202 255
165 201 255
165 201 255
165 201 255
165 201 255
165 201 255
165 201 255
165 201 255
165 201 255
165 201 255
165 201 255
165 201 255
164 201 255
164 201 255
164 201 255
164 201 255
164 201 255
164 201 255
164 200 255
164 200 255
164 200 255
164 200 255
163 200 255
163 200 255
163 200 255
163 200 255
163 200 255
163 200 255
163 200 255
163 200 255
163 200 255
163 200 255
162 200 255
162 200 255
162 200 255
162 199 255
162 199 255
162 199 255
162 199 255
162 199 255
162 199 255
162 199 255
161 199 255
161 199 255
161 199 255
161 199 255
161 199 255
161 199 255
161 199 255
161 199 255
161 199 255
161 199 255
160 198 255
160 198 255
160 198 255
160 198 255
160 198 255
160 198 255
160 198 255
160 198 255
160 198 255
160 198 255
160 198 255
159 198 255
159 198 255
159 198 255
159 198 255
159 198 255
159 198 255
159 198 255
159 198 255
159 197 255
159 197 255
159 197 255
159 197 255
158 197 255
158 197 255
158 197 255
158 197 255
158 197 255
158 197 255
158 197 255
158 197 255
158 197 255
158 197 255
158 197 255
158 197 255
158 197 255
158 197 255
158 197 255
158 197 255
157 197 255
157 197 255
157 197 255
157 197 255
157 197 255
157 197 255
157 197 255
157 196 255
157 196 255
157 196 255
157 196 255
157 196 255
157 196 255
157 196 255
157 196 255
157 196 255
157 196 255
157 196 255
157 196 255
157 196 255
157 196 255
157 196 255
157 196 255
157 196 255
157 196 255
157 196 255
157 196 255
157 196 255
157 196 255
157 196 255
157 196 255
157 196 255
157 196 255
157 196 255
157 196 255
157 196 255
157 196 255
157 196 255
157 196 255
157 196 255
157 196 255
157 196 255
157 196 255
157 196 255
157 196 255
157 196 255
157 196 255
157 196 255
157 196 255
157 196 255
157 196 255
157 196 255
157 196 255
157 197 255
157 197 255
157 197 255
157 197 255
157 197 255
157 197 255
157 197 255
158 197 255
158 197 255
158 197 255
158 197 255
158 197 255
158 197 255
158 197 255
158 197 255
158 197 255
158 197 255
158 197 255
158 197 255
158 197 255
158 197 255
158 197 255
158 197 255
159 197 255
159 197 255
159 197 255
159 198 255
159 198 255
159 198 255
159 198 255
159 198 255
159 198 255
159 198 255
159 198 255
159 198 255
160 198 255
160 198 255
160 198 255
160 198 255
160 198 255
160 198 255
160 198 255
160 198 255
160 198 255
160 198 255
160 198 255
161 199 255
161 199 255
161 199 255
161 199 255
161 199 255
161 199 255
161 199 255
161 199 255
161 199 255
161 199 255
162 199 255
162 199 255
162 199 255
162 199 255
162 199 255
162 199 255
162 199 255
162 200 255
162 200 255
162 200 255
163 200 255
163 200 255
163 200 255
163 200 255
163 200 255
163 200 255
163 200 255
163 200 255
163 200 255
163 200 255
164 200 255
164 200 255
164 200 255
164 201 255
164 201 255
164 201 255
164 201 255
164 201 255
164 201 255
164 201 255
165 201 255
165 201 255
165 201 255
165 201 255
165 201 255
165 201 255
165 201 255
165 201 255
165 201 255
165 201 255
165 201 255
166 202 255
166 202 255
166 202 255
166 202 255
166 202 255
166 202 255
166 202 255
166 202 255
166 202 255
166 202 255
167 202 255
167 202 255
167 202 255
167 202 255
167 202 255
167 202 255
167 202 255
167 203 255
167 203 255
167 203 255
167 203 255
168 203 255
168 203 255
168 203 255
168 203 255
168 203 255
168 203 255
168 203 255
168 203 255
168 203 255
168 203 255
168 203 255
169 203 255
169 203 255
169 203 255
169 203 255
169 204 255
169 204 255
169 204 255
169 204 255
169 204 255
169 204 255
169 204 255
169 204 255
169 204 255
170 204 255
170 204 255
170 204 255
170 204 255
170 204 255
170 204 255
170 204 255
170 204 255
170 204 255
170 204 255
170 204 255
170 204 255
170 204 255
171 205 255
171 205 255
171 205 255
171 205 255
171 205 255
171 205 255
171 205 255
171 205 255
171 205 255
171 205 255
171 205 255
171 205 255
171 205 255
172 205 255
172 205 255
172 205 255
172 205 255
172 205 255
172 205 255
172 205 255
172 205 255
172 205 255
172 206 255
172 206 255
172 206 255
172 205 255
172 205 255
172 205 255
172 205 255
172 205 255
172 205 255
172 205 255
172 205 255
172 205 255
171 205 255
171 205 255
171 205 255
171 205 255
171 205 255
171 205 255
171 205 255
171 205 255
171 205 255
171 205 255
171 205 255
171 205 255
171 205 255
171 205 255
170 204 255
170 204 255
170 204 255
170 204 255
170 204 255
170 204 255
170 204 255
170 204 255
170 204 255
170 204 255
170 204 255
170 204 255
170 204 255
169 204 255
169 204 255
169 204 255
169 204 255
169 204 255
169 204 255
169 204 255
169 204 255
169 203 255
169 203 255
169 203 255
169 203 255
168 203 255
168 203 255
168 203 255
168 203 255
168 203 255
168 203 255
168 203 255
168 203 255
168 203 255
168 203 255
168 203 255
167 203 255
167 203 255
167 203 255
167 203 255
167 202 255
167 202 255
167 202 255
167 202 255
167 202 255
167 202 255
167 202 255
166 202 255
166 202 255
166 202 255
166 202 255
166 202 255
166 202 255
166 202 255
166 202 255
166 202 255
166 202 255
166 202 255
165 201 255
165 201 255
165 201 255
165 201 255
165 201 255
165 201 255
165 201 255
165 201 255
165 201 255
165 201 255
164 201 255
164 201 255
164 201 255
164 201 255
164 201 255
164 201 255
164 200 255
164 200 255
164 200 255
164 200 255
163 200 255
163 200 255
163 200 255
163 200 255
163 200 255
163 200 255
163 200 255
163 200 255
163 200 255
163 200 255
162 200 255
162 200 255
162 200 255
162 199 255
162 199 255
162 199 255
162 199 255
162 199 255
162 199 255
162 199 255
161 199 255
161 199 255
161 199 255
161 199 255
161 199 255
161 199 255
161 199 255
161 199 255
161 199 255
161 199 255
161 199 255
160 198 255
160 198 255
160 198 255
160 198 255
160 198 255
160 198 255
160 198 255
160 198 255
160 198 255
160 198 255
160 198 255
159 198 255
159 198 255
159 198 255
159 198 255
159 198 255
159 198 255
159 198 255
159 198 255
159 198 255
159 197 255
159 197 255
159 197 255
159 197 255
158 197 255
158 197 255
158 197 255
158 197 255
158 197 255
158 197 255
158 197 255
158 197 255
158 197 255
158 197 255
158 197 255
158 197 255
158 197 255
158 197 255
158 197 255
158 197 255
158 197 255
158 197 255
157 197 255
157 197 255
157 197 255
157 197 255
157 197 255
157 197 255
157 197 255
157 197 255
157 197 255
157 197 255
157 196 255
157 196 255
157 196 255
157 196 255
157 196 255
157 196 255
157 196 255
157 196 255
157 196 255
157 196 255
157 196 255
157 196 255
157 196 255
157 196 255
157 196 255
157 196 255
157 196 255
157 196 255
157 196 255
157 196 255
157 196 255
157 196 255
157 196 255
157 196 255
157 196 255
157 196 255
157 197 255
157 197 255
157 197 255
157 197 255
157 197 255
157 197 255
157 197 255
157 197 255
157 197 255
158 197 255
158 197 255
158 197 255
158 197 255
158 197 255
158 197 255
158 197 255
158 197 255
158 197 255
158 197 255
158 197 255
158 197 255
158 197 255
158 197 255
158 197 255
158 197 255
158 197 255
158 197 255
158 197 255
159 197 255
159 197 255
159 197 255
159 197 255
159 198 255
159 198 255
159 198 255
159 198 255
159 198 255
159 198 255
159 198 255
159 198 255
159 198 255
160 198 255
160 198 255
160 198 255
160 198 255
160 198 255
160 198 255
160 198 255
160 198 255
160 198 255
160 198 255
160 198 255
161 199 255
161 199 255
161 199 255
161 199 255
161 199 255
161 199 255
161 199 255
161 199 255
161 199 255
161 199 255
161 199 255
162 199 255
162 199 255
162 199 255
162 199 255
162 199 255
162 199 255
162 199 255
162 200 255
162 200 255
162 200 255
163 200 255
163 200 255
163 200 255
163 200 255
163 200 255
163 200 255
163 200 255
163 200 255
163 200 255
163 200 255
164 200 255
164 200 255
164 200 255
164 200 255
164 201 255
164 201 255
164 201 255
164 201 255
164 201 255
164 201 255
165 201 255
165 201 255
165 201 255
165 201 255
165 201 255
165 201 255
165 201 255
165 201 255
165 201 255
165 201 255
166 202 255
166 202 255
166 202 255
166 202 255
166 202 255
166 202 255
166 202 255
166 202 255
166 202 255
166 202 255
166 202 255
167 202 255
167 202 255
167 202 255
167 202 255
167 202 255
167 202 255
167 202 255
167 203 255
167 203 255
167 203 255
167 203 255
168 203 255
168 203 255
168 203 255
168 203 255
168 203 255
168 203 255
168 203 255
168 203 255
168 203 255
168 203 255
168 203 255
169 203 255
169 203 255
169 203 255
169 203 255
169 204 255
169 204 255
169 204 255
169 204 255
169 204 255
169 204 255
169 204 255
169 204 255
170 204 255
170 204 255
170 204 255
170 204 255
170 204 255
170 204 255
170 204 255
170 204 255
170 204 255
170 204 255
170 204 255
170 204 255
170 204 255
171 205 255
171 205 255
171 205 255
171 205 255
171 205 255
171 205 255
171 205 255
171 205 255
171 205 255
171 205 255
171 205 255
171 205 255
171 205 255
171 205 255
172 205 255
172 205 255
172 205 255
172 205 255
172 205 255
172 205 255
172 205 255
172 205 255
172 205 255
172 206 255
172 206 255
172 206 255
173 206 255
172 206 255
172 206 255
172 206 255
172 206 255
172 206 255
172 205 255
172 205 255
172 205 255
172 205 255
172 205 255
172 205 255
172 205 255
172 205 255
172 205 255
172 205 255
171 205 255
171 205 255
171 205 255
171 205 255
171 205 255
171 205 255
171 205 255
171 205 255
171 205 255
171 205 255
171 205 255
171 205 255
171 205 255
170 204 255
170 204 255
170 204 255
170 204 255
170 204 255
170 204 255
170 204 255
170 204 255
170 204 255
170 204 255
170 204 255
170 204 255
170 204 255
169 204 255
169 204 255
169 204 255
169 204 255
169 204 255
169 204 255
169 204 255
169 204 255
169 203 255
169 203 255
169 203 255
169 203 255
168 203 255
168 203 255
168 203 255
168 203 255
168 203 255
168 203 255
168 203 255
168 203 255
168 203 255
168 203 255
168 203 255
167 203 255
167 203 255
167 203 255
167 203 255
167 202 255
167 202 255
167 202 255
167 202 255
167 202 255
167 202 255
167 202 255
166 202 255
166 202 255
166 202 255
166 202 255
166 202 255
166 202 255
166 202 255
166 202 255
166 202 255
166 202 255
166 202 255
165 201 255
165 201 255
165 201 255
165 201 255
165 201 255
165 201 255
165 201 255
165 201 255
165 201 255
165 201 255
164 201 255
164 201 255
164 201 255
164 201 255
164 201 255
164 201 255
164 201 255
164 200 255
164 200 255
164 200 255
163 200 255
163 200 255
163 200 255
163 200 255
163 200 255
163 200 255
163 200 255
163 200 255
163 200 255
163 200 255
162 200 255
162 200 255
162 200 255
162 200 255
162 199 255
162 199 255
162 199 255
162 199 255
162 199 255
162 199 255
162 199 255
161 199 255
161 199 255
161 199 255
161 199 255
161 199 255
161 199 255
161 199 255
161 199 255
161 199 255
161 199 255
160 198 255
160 198 255
160 198 255
160 198 255
160 198 255
160 198 255
160 198 255
160 198 255
160 198 255
160 198 255
160 198 255
160 198 255
159 198 255
159 198 255
159 198 255
159 198 255
159 198 255
159 198 255
159 198 255
159 198 255
159 198 255
159 197 255
159 197 255
159 197 255
159 197 255
159 197 255
158 197 255
158 197 255
158 197 255
158 197 255
158 197 255
158 197 255
158 197 255
158 197 255
158 197 255
158 197 255
158 197 255
158 197 255
158 197 255
158 197 255
158 197 255
158 197 255
158 197 255
158 197 255
158 197 255
158 197 255
158 197 255
158 197 255
158 197 255
157 197 255
157 197 255
157 197 255
157 197 255
157 197 255
157 197 255
157 197 255
157 197 255
157 197 255
157 197 255
157 197 255
157 197 255
157 197 255
157 197 255
157 197 255
157 197 255
157 197 255
157 197 255
157 197 255
157 197 255
157 197 255
157 197 255
157 197 255
157 197 255
157 197 255
157 197 255
158 197 255
158 197 255
158 197 255
158 197 255
158 197 255
158 197 255
158 197 255
158 197 255
158 197 255
158 197 255
158 197 255
158 197 255
158 197 255
158 197 255
158 197 255
158 197 255
158 197 255
158 197 255
158 197 255
158 197 255
158 197 255
158 197 255
159 197 255
159 197 255
159 197 255
159 197 255
159 197 255
159 197 255
159 198 255
159 198 255
159 198 255
159 198 255
159 198 255
159 198 255
159 198 255
159 198 255
160 198 255
160 198 255
160 198 255
160 198 255
160 198 255
160 198 255
160 198 255
160 198 255
160 198 255
160 198 255
160 198 255
160 198 255
161 199 255
161 199 255
161 199 255
161 199 255
161 199 255
161 199 255
161 199 255
161 199 255
161 199 255
161 199 255
161 199 255
162 199 255
162 199 255
162 199 255
162 199 255
162 199 255
162 199 255
162 199 255
162 200 255
162 200 255
162 200 255
162 200 255
163 200 255
163 200 255
163 200 255
163 200 255
163 200 255
163 200 255
163 200 255
163 200 255
163 200 255
163 200 255
164 200 255
164 200 255
164 200 255
164 201 255
164 201 255
164 201 255
164 201 255
164 201 255
164 201 255
164 201 255
165 201 255
165 201 255
165 201 255
165 201 255
165 201 255
165 201 255
165 201 255
165 201 255
165 201 255
165 201 255
166 202 255
166 202 255
166 202 255
166 202 255
166 202 255
166 202 255
166 202 255
166 202 255
166 202 255
166 202 255
166 202 255
167 202 255
167 202 255
167 202 255
167 202 255
167 202 255
167 202 255
167 202 255
167 203 255
167 203 255
167 203 255
167 203 255
168 203 255
168 203 255
168 203 255
168 203 255
168 203 255
168 203 255
168 203 255
168 203 255
168 203 255
168 203 255
168 203 255
169 203 255
169 203 255
169 203 255
169 203 255
169 204 255
169 204 255
169 204 255
169 204 255
169 204 255
169 204 255
169 204 255
169 204 255
170 204 255
170 204 255
170 204 255
170 204 255
170 204 255
170 204 255
170 204 255
170 204 255
170 204 255
170 204 255
170 204 255
170 204 255
170 204 255
171 205 255
171 205 255
171 205 255
171 205 255
171 205 255
171 205 255
171 205 255
171 205 255
171 205 255
171 205 255
171 205 255
171 205 255
171 205 255
172 205 255
172 205 255
172 205 255
172 205 255
172 205 255
172 205 255
172 205 255
172 205 255
172 205 255
172 205 255
172 206 255
172 206 255
172 206 255
172 206 255
172 206 255
173 206 255
173 206 255
173 206 255
173 206 255
173 206 255
173 206 255
172 206 255
172 206 255
172 206 255
172 206 255
172 206 255
172 205 255
172 205 255
172 205 255
172 205 255
172 205 255
172 205 255
172 205 255
172 205 255
172 205 255
171 205 255
171 205 255
171 205 255
171 205 255
171 205 255
171 205 255
171 205 255
171 205 255
171 205 255
171 205 255
171 205 255
171 205 255
171 205 255
171 205 255
170 204 255
170 204 255
170 204 255
170 204 255
170 204 255
170 204 255
170 204 255
170 204 255
170 204 255
170 204 255
170 204 255
170 204 255
169 204 255
169 204 255
169 204 255
169 204 255
169 204 255
169 204 255
169 204 255
169 204 255
169 203 255
169 203 255
169 203 255
169 203 255
168 203 255
168 203 255
168 203 255
168 203 255
168 203 255
168 203 255
168 203 255
168 203 255
168 203 255
168 203 255
168 203 255
168 203 255
167 203 255
167 203 255
167 203 255
167 202 255
167 202 255
167 202 255
167 202 255
167 202 255
167 202 255
167 202 255
166 202 255
166 202 255
166 202 255
166 202 255
166 202 255
166 202 255
166 202 255
166 202 255
166 202 255
166 202 255
166 202 255
165 201 255
165 201 255
165 201 255
165 201 255
165 201 255
165 201 255
165 201 255
165 201 255
165 201 255
165 201 255
164 201 255
164 201 255
164 201 255
164 201 255
164 201 255
164 201 255
164 201 255
164 200 255
164 200 255
164 200 255
163 200 255
163 200 255
163 200 255
163 200 255
163 200 255
163 200 255
163 200 255
163 200 255
163 200 255
163 200 255
163 200 255
162 200 255
162 200 255
162 200 255
162 199 255
162 199 255
162 199 255
162 199 255
162 199 255
162 199 255
162 199 255
161 199 255
161 199 255
161 199 255
161 199 255
161 199 255
161 199 255
161 199 255
161 199 255
161 199 255
161 199 255
161 199 255
160 198 255
160 198 255
160 198 255
160 198 255
160 198 255
160 198 255
160 198 255
160 198 255
160 198 255
160 198 255
160 198 255
160 198 255
160 198 255
159 198 255
159 198 255
159 198 255
159 198 255
159 198 255
159 198 255
159 198 255
159 198 255
159 198 255
159 198 255
159 197 255
159 197 255
159 197 255
159 197 255
159 197 255
159 197 255
158 197 255
158 197 255
158 197 255
158 197 255
158 197 255
158 197 255
158 197 255
158 197 255
158 197 255
158 197 255
158 197 255
158 197 255
158 197 255
158 197 255
158 197 255
158 197 255
158 197 255
158 197 255
158 197 255
158 197 255
158 197 255
158 197 255
158 197 255
158 197 255
158 197 255
158 197 255
158 197 255
158 197 255
158 197 255
158 197 255
158 197 255
158 197 255
158 197 255
158 197 255
158 197 255
158 197 255
158 197 255
158 197 255
158 197 255
158 197 255
158 197 255
158 197 255
158 197 255
158 197 255
158 197 255
158 197 255
158 197 255
158 197 255
158 197 255
158 197 255
158 197 255
158 197 255
158 197 255
158 197 255
158 197 255
158 197 255
158 197 255
158 197 255
158 197 255
159 197 255
159 197 255
159 197 255
159 197 255
159 197 255
159 198 255
159 198 255
159 198 255
159 198 255
159 198 255
159 198 255
159 198 255
159 198 255
159 198 255
159 198 255
160 198 255
160 198 255
160 198 255
160 198 255
160 198 255
160 198 255
160 198 255
160 198 255
160 198 255
160 198 255
160 198 255
160 198 255
161 199 255
161 199 255
161 199 255
161 199 255
161 199 255
161 199 255
161 199 255
161 199 255
161 199 255
161 199 255
161 199 255
161 199 255
162 199 255
162 199 255
162 199 255
162 199 255
162 199 255
162 199 255
162 199 255
162 200 255
162 200 255
162 200 255
163 200 255
163 200 255
163 200 255
163 200 255
163 200 255
163 200 255
163 200 255
163 200 255
163 200 255
163 200 255
163 200 255
164 200 255
164 200 255
164 200 255
164 201 255
164 201 255
164 201 255
164 201 255
164 201 255
164 201 255
164 201 255
165 201 255
165 201 255
165 201 255
165 201 255
165 201 255
165 201 255
165 201 255
165 201 255
165 201 255
165 201 255
166 202 255
166 202 255
166 202 255
166 202 255
166 202 255
166 202 255
166 202 255
166 202 255
166 202 255
166 202 255
166 202 255
167 202 255
167 202 255
167 202 255
167 202 255
167 202 255
167 202 255
167 202 255
167 203 255
167 203 255
167 203 255
168 203 255
168 203 255
168 203 255
168 203 255
168 203 255
168 203 255
168 203 255
168 203 255
168 203 255
168 203 255
168 203 255
168 203 255
169 203 255
169 203 255
169 203 255
169 203 255
169 204 255
169 204 255
169 204 255
169 204 255
169 204 255
169 204 255
169 204 255
169 204 255
170 204 255
170 204 255
170 204 255
170 204 255
170 204 255
170 204 255
170 204 255
170 204 255
170 204 255
170 204 255
170 204 255
170 204 255
171 205 255
171 205 255
171 205 255
171 205 255
171 205 255
171 205 255
171 205 255
171 205 255
171 205 255
171 205 255
171 205 255
171 205 255
171 205 255
171 205 255
172 205 255
172 205 255
172 205 255
172 205 255
172 205 255
172 205 255
172 205 255
172 205 255
172 205 255
172 206 255
172 206 255
172 206 255
172 206 255
172 206 255
173 206 255
173 206 255
173 206 255
173 206 255
173 206 255
173 206 255
173 206 255
173 206 255
173 206 255
173 206 255
173 206 255
173 206 255
173 206 255
173 206 255
172 206 255
172 206 255
172 206 255
172 206 255
172 206 255
172 205 255
172 205 255
172 205 255
172 205 255
172 205 255
172 205 255
172 205 255
172 205 255
172 205 255
171 205 255
171 205 255
171 205 255
171 205 255
171 205 255
171 205 255
171 205 255
171 205 255
171 205 255
171 205 255
171 205 255
171 205 255
171 205 255
170 204 255
170 204 255
170 204 255
170 204 255
170 204 255
170 204 255
170 204 255
170 204 255
170 204 255
170 204 255
170 204 255
170 204 255
170 204 255
169 204 255
169 204 255
169 204 255
169 204 255
169 204 255
169 204 255
169 204 255
169 204 255
169 203 255
169 203 255
169 203 255
169 203 255
168 203 255
168 203 255
168 203 255
168 203 255
168 203 255
168 203 255
168 203 255
168 203 255
168 203 255
168 203 255
168 203 255
167 203 255
167 203 255
167 203 255
167 202 255
167 202 255
167 202 255
167 202 255
167 202 255
167 202 255
167 202 255
166 202 255
166 202 255
166 202 255
166 202 255
166 202 255
166 202 255
166 202 255
166 202 255
166 202 255
166 202 255
166 202 255
165 201 255
165 201 255
165 201 255
165 201 255
165 201 255
165 201 255
165 201 255
165 201 255
165 201 255
165 201 255
165 201 255
164 201 255
164 201 255
164 201 255
164 201 255
164 201 255
164 201 255
164 200 255
164 200 255
164 200 255
164 200 255
163 200 255
163 200 255
163 200 255
163 200 255
163 200 255
163 200 255
163 200 255
163 200 255
163 200 255
163 200 255
162 200 255
162 200 255
162 200 255
162 200 255
162 199 255
162 199 255
162 199 255
162 199 255
162 199 255
162 199 255
162 199 255
161 199 255
161 199 255
161 199 255
161 199 255
161 199 255
161 199 255
161 199 255
161 199 255
161 199 255
161 199 255
161 199 255
160 198 255
160 198 255
160 198 255
160 198 255
160 198 255
160 198 255
160 198 255
160 198 255
160 198 255
160 198 255
160 198 255
160 198 255
160 198 255
160 198 255
159 198 255
159 198 255
159 198 255
159 198 255
159 198 255
159 198 255
159 198 255
159 198 255
159 198 255
159 198 255
159 198 255
159 197 255
159 197 255
159 197 255
159 197 255
159 197 255
159 197 255
159 197 255
158 197 255
158 197 255
158 197 255
158 197 255
158 197 255
158 197 255
158 197 255
158 197 255
158 197 255
158 197 255
158 197 255
158 197 255
158 197 255
158 197 255
158 197 255
158 197 255
158 197 255
158 197 255
158 197 255
158 197 255
158 197 255
158 197 255
158 197 255
158 197 255
158 197 255
158 197 255
158 197 255
158 197 255
158 197 255
158 197 255
158 197 255
158 197 255
158 197 255
158 197 255
158 197 255
158 197 255
158 197 255
158 197 255
158 197 255
158 197 255
158 197 255
158 197 255
158 197 255
158 197 255
159 197 255
159 197 255
159 197 255
159 197 255
159 197 255
159 197 255
159 197 255
159 198 255
159 198 255
159 198 255
159 198 255
159 198 255
159 198 255
159 198 255
159 198 255
159 198 255
159 198 255
159 198 255
160 198 255
160 198 255
160 198 255
160 198 255
160 198 255
160 198 255
160 198 255
160 198 255
160 198 255
160 198 255
160 198 255
160 198 255
160 198 255
161 199 255
161 199 255
161 199 255
161 199 255
161 199 255
161 199 255
161 199 255
161 199 255
161 199 255
161 199 255
161 199 255
161 199 255
162 199 255
162 199 255
162 199 255
162 199 255
162 199 255
162 199 255
162 199 255
162 200 255
162 200 255
162 200 255
162 200 255
163 200 255
163 200 255
163 200 255
163 200 255
163 200 255
163 200 255
163 200 255
163 200 255
163 200 255
163 200 255
164 200 255
164 200 255
164 200 255
164 200 255
164 201 255
164 201 255
164 201 255
164 201 255
164 201 255
164 201 255
164 201 255
165 201 255
165 201 255
165 201 255
165 201 255
165 201 255
165 201 255
165 201 255
165 201 255
165 201 255
165 201 255
166 202 255
166 202 255
166 202 255
166 202 255
166 202 255
166 202 255
166 202 255
166 202 255
166 202 255
166 202 255
167 202 255
167 202 255
167 202 255
167 202 255
167 202 255
167 202 255
167 202 255
167 202 255
167 203 255
167 203 255
167 203 255
168 203 255
168 203 255
168 203 255
168 203 255
168 203 255
168 203 255
168 203 255
168 203 255
168 203 255
168 203 255
168 203 255
169 203 255
169 203 255
169 203 255
169 203 255
169 204 255
169 204 255
169 204 255
169 204 255
169 204 255
169 204 255
169 204 255
169 204 255
170 204 255
170 204 255
170 204 255
170 204 255
170 204 255
170 204 255
170 204 255
170 204 255
170 204 255
170 204 255
170 204 255
170 204 255
170 204 255
171 205 255
171 205 255
171 205 255
171 205 255
171 205 255
171 205 255
171 205 255
171 205 255
171 205 255
171 205 255
171 205 255
171 205 255
171 205 255
172 205 255
172 205 255
172 205 255
172 205 255
172 205 255
172 205 255
172 205 255
172 205 255
172 205 255
172 206 255
172 206 255
172 206 255
172 206 255
172 206 255
173 206 255
173 206 255
173 206 255
173 206 255
173 206 255
173 206 255
173 206 255
173 206 255
173 206 255
173 206 255
173 206 255
173 206 255
173 206 255
173 206 255
173 206 255
173 206 255
173 206 255
173 206 255
173 206 255
173 206 255
173 206 255
172 206 255
172 206 255
172 206 255
172 206 255
172 206 255
172 205 255
172 205 255
172 205 255
172 205 255
172 205 255
172 205 255
172 205 255
172 205 255
172 205 255
172 205 255
171 205 255
171 205 255
171 205 255
171 205 255
171 205 255
171 205 255
171 205 255
171 205 255
171 205 255
171 205 255
171 205 255
171 205 255
171 205 255
170 204 255
170 204 255
170 204 255
170 204 255
170 204 255
170 204 255
170 204 255
170 204 255
170 204 255
170 204 255
170 204 255
170 204 255
169 204 255
169 204 255
169 204 255
169 204 255
169 204 255
169 204 255
169 204 255
169 204 255
169 203 255
169 203 255
169 203 255
169 203 255
168 203 255
168 203 255
168 203 255
168 203 255
168 203 255
168 203 255
168 203 255
168 203 255
168 203 255
168 203 255
168 203 255
167 203 255
167 203 255
167 203 255
167 203 255
167 202 255
167 202 255
167 202 255
167 202 255
167 202 255
167 202 255
167 202 255
166 202 255
166 202 255
166 202 255
166 202 255
166 202 255
166 202 255
166 202 255
166 202 255
166 202 255
166 202 255
165 201 255
165 201 255
165 201 255
165 201 255
165 201 255
165 201 255
165 201 255
165 201 255
165 201 255
165 201 255
165 201 255
164 201 255
164 201 255
164 201 255
164 201 255
164 201 255
164 201 255
164 201 255
164 200 255
164 200 255
164 200 255
163 200 255
163 200 255
163 200 255
163 200 255
163 200 255
163 200 255
163 200 255
163 200 255
163 200 255
163 200 255
163 200 255
162 200 255
162 200 255
162 200 255
162 199 255
162 199 255
162 199 255
162 199 255
162 199 255
162 199 255
162 199 255
162 199 255
161 199 255
161 199 255
161 199 255
161 199 255
161 199 255
161 199 255
161 199 255
161 199 255
161 199 255
161 199 255
161 199 255
161 199 255
160 198 255
160 198 255
160 198 255
160 198 255
160 198 255
160 198 255
160 198 255
160 198 255
160 198 255
160 198 255
160 198 255
160 198 255
160 198 255
160 198 255
159 198 255
159 198 255
159 198 255
159 198 255
159 198 255
159 198 255
159 198 255
159 198 255
159 198 255
159 198 255
159 198 255
159 198 255
159 198 255
159 197 255
159 197 255
159 197 255
159 197 255
159 197 255
159 197 255
159 197 255
159 197 255
159 197 255
159 197 255
159 197 255
158 197 255
158 197 255
158 197 255
158 197 255
158 197 255
158 197 255
158 197 255
158 197 255
158 197 255
158 197 255
158 197 255
158 197 255
158 197 255
158 197 255
158 197 255
158 197 255
158 197 255
158 197 255
158 197 255
158 197 255
158 197 255
158 197 255
159 197 255
159 197 255
159 197 255
159 197 255
159 197 255
159 197 255
159 197 255
159 197 255
159 197 255
159 197 255
159 197 255
159 198 255
159 198 255
159 198 255
159 198 255
159 198 255
159 198 255
159 198 255
159 198 255
159 198 255
159 198 255
159 198 255
159 198 255
159 198 255
160 198 255
160 198 255
160 198 255
160 198 255
160 198 255
160 198 255
160 198 255
160 198 255
160 198 255
160 198 255
160 198 255
160 198 255
160 198 255
160 198 255
161 199 255
161 199 255
161 199 255
161 199 255
161 199 255
161 199 255
161 199 255
161 199 255
161 199 255
161 199 255
161 199 255
161 199 255
162 199 255
162 199 255
162 199 255
162 199 255
162 199 255
162 199 255
162 199 255
162 199 255
162 200 255
162 200 255
162 200 255
163 200 255
163 200 255
163 200 255
163 200 255
163 200 255
163 200 255
163 200 255
163 200 255
163 200 255
163 200 255
163 200 255
164 200 255
164 200 255
164 200 255
164 201 255
164 201 255
164 201 255
164 201 255
164 201 255
164 201 255
164 201 255
165 201 255
165 201 255
165 201 255
165 201 255
165 201 255
165 201 255
165 201 255
165 201 255
165 201 255
165 201 255
166 202 255
166 202 255
166 202 255
166 202 255
166 202 255
166 202 255
166 202 255
166 202 255
166 202 255
166 202 255
166 202 255
167 202 255
167 202 255
167 202 255
167 202 255
167 202 255
167 202 255
167 202 255
167 203 255
167 203 255
167 203 255
167 203 255
168 203 255
168 203 255
168 203 255
168 203 255
168 203 255
168 203 255
168 203 255
168 203 255
168 203 255
168 203 255
168 203 255
169 203 255
169 203 255
169 203 255
169 203 255
169 204 255
169 204 255
169 204 255
169 204 255
169 204 255
169 204 255
169 204 255
169 204 255
170 204 255
170 204 255
170 204 255
170 204 255
170 204 255
170 204 255
170 204 255
170 204 255
170 204 255
170 204 255
170 204 255
170 204 255
171 205 255
171 205 255
171 205 255
171 205 255
171 205 255
171 205 255
171 205 255
171 205 255
171 205 255
171 205 255
171 205 255
171 205 255
171 205 255
172 205 255
172 205 255
172 205 255
172 205 255
172 205 255
172 205 255
172 205 255
172 205 255
172 205 255
172 205 255
172 206 255
172 206 255
172 206 255
172 206 255
173 206 255
173 206 255
173 206 255
173 206 255
173 206 255
173 206 255
173 206 255
173 206 255
173 206 255
173 206 255
173 206 255
173 206 255
173 206 255
174 206 255
173 206 255
173 206 255
173 206 255
173 206 255
173 206 255
173 206 255
173 206 255
173 206 255
173 206 255
173 206 255
173 206 255
173 206 255
173 206 255
173 206 255
173 206 255
172 206 255
172 206 255
172 206 255
172 206 255
172 206 255
172 205 255
172 205 255
172 205 255
172 205 255
172 205 255
172 205 255
172 205 255
172 205 255
172 205 255
171 205 255
171 205 255
171 205 255
171 205 255
171 205 255
171 205 255
171 205 255
171 205 255
171 205 255
171 205 255
171 205 255
171 205 255
171 205 255
170 204 255
170 204 255
170 204 255
170 204 255
170 204 255
170 204 255
170 204 255
170 204 255
170 204 255
170 204 255
170 204 255
170 204 255
170 204 255
169 204 255
169 204 255
169 204 255
169 204 255
169 204 255
169 204 255
169 204 255
169 203 255
169 203 255
169 203 255
169 203 255
168 203 255
168 203 255
168 203 255
168 203 255
168 203 255
168 203 255
168 203 255
168 203 255
168 203 255
168 203 255
168 203 255
167 203 255
167 203 255
167 203 255
167 203 255
167 202 255
167 202 255
167 202 255
167 202 255
167 202 255
167 202 255
167 202 255
166 202 255
166 202 255
166 202 255
166 202 255
166 202 255
166 202 255
166 202 255
166 202 255
166 202 255
166 202 255
166 202 255
165 201 255
165 201 255
165 201 255
165 201 255
165 201 255
165 201 255
165 201 255
165 201 255
165 201 255
165 201 255
164 201 255
164 201 255
164 201 255
164 201 255
164 201 255
164 201 255
164 201 255
164 200 255
164 200 255
164 200 255
164 200 255
163 200 255
163 200 255
163 200 255
163 200 255
163 200 255
163 200 255
163 200 255
163 200 255
163 200 255
163 200 255
162 200 255
162 200 255
162 200 255
162 200 255
162 199 255
162 199 255
162 199 255
162 199 255
162 199 255
162 199 255
162 199 255
162 199 255
161 199 255
161 199 255
161 199 255
161 199 255
161 199 255
161 199 255
161 199 255
161 199 255
161 199 255
161 199 255
161 199 255
161 199 255
160 198 255
160 198 255
160 198 255
160 198 255
160 198 255
160 198 255
160 198 255
160 198 255
160 198 255
160 198 255
160 198 255
160 198 255
160 198 255
160 198 255
160 198 255
160 198 255
159 198 255
159 198 255
159 198 255
159 198 255
159 198 255
159 198 255
159 198 255
159 198 255
159 198 255
159 198 255
159 198 255
159 198 255
159 198 255
159 198 255
159 198 255
159 198 255
159 198 255
159 198 255
159 198 255
159 197 255
159 198 255
159 197 255
159 197 255
159 197 255
159 197 255
159 197 255
159 197 255
159 197 255
159 197 255
159 197 255
159 197 255
159 197 255
159 197 255
159 197 255
159 197 255
159 197 255
159 197 255
159 197 255
159 198 255
159 198 255
159 198 255
159 198 255
159 198 255
159 198 255
159 198 255
159 198 255
159 198 255
159 198 255
159 198 255
159 198 255
159 198 255
159 198 255
159 198 255
159 198 255
159 198 255
159 198 255
159 198 255
159 198 255
160 198 255
160 198 255
160 198 255
160 198 255
160 198 255
160 198 255
160 198 255
160 198 255
160 198 255
160 198 255
160 198 255
160 198 255
160 198 255
160 198 255
160 198 255
160 198 255
161 199 255
161 199 255
161 199 255
161 199 255
161 199 255
161 199 255
161 199 255
161 199 255
161 199 255
161 199 255
161 199 255
161 199 255
162 199 255
162 199 255
162 199 255
162 199 255
162 199 255
162 199 255
162 199 255
162 199 255
162 200 255
162 200 255
162 200 255
162 200 255
163 200 255
163 200 255
163 200 255
163 200 255
163 200 255
163 200 255
163 200 255
163 200 255
163 200 255
163 200 255
164 200 255
164 200 255
164 200 255
164 200 255
164 201 255
164 201 255
164 201 255
164 201 255
164 201 255
164 201 255
164 201 255
165 201 255
165 201 255
165 201 255
165 201 255
165 201 255
165 201 255
165 201 255
165 201 255
165 201 255
165 201 255
166 202 255
166 202 255
166 202 255
166 202 255
166 202 255
166 202 255
166 202 255
166 202 255
166 202 255
166 202 255
166 202 255
167 202 255
167 202 255
167 202 255
167 202 255
167 202 255
167 202 255
167 202 255
167 203 255
167 203 255
167 203 255
167 203 255
168 203 255
168 203 255
168 203 255
168 203 255
168 203 255
168 203 255
168 203 255
168 203 255
168 203 255
168 203 255
169 203 255
169 203 255
169 203 255
169 203 255
169 204 255
169 204 255
169 204 255
169 204 255
169 204 255
169 204 255
169 204 255
169 204 255
170 204 255
170 204 255
170 204 255
170 204 255
170 204 255
170 204 255
170 204 255
170 204 255
170 204 255
170 204 255
170 204 255
170 204 255
170 204 255
171 205 255
171 205 255
171 205 255
171 205 255
171 205 255
171 205 255
171 205 255
171 205 255
171 205 255
171 205 255
171 205 255
171 205 255
171 205 255
172 205 255
172 205 255
172 205 255
172 205 255
172 205 255
172 205 255
172 205 255
172 205 255
172 205 255
172 206 255
172 206 255
172 206 255
172 206 255
172 206 255
173 206 255
173 206 255
173 206 255
173 206 255
173 206 255
173 206 255
173 206 255
173 206 255
173 206 255
173 206 255
173 206 255
173 206 255
173 206 255
173 206 255
173 206 255
174 206 255
174 206 255
174 206 255
174 206 255
174 206 255
174 206 255
173 206 255
173 206 255
173 206 255
173 206 255
173 206 255
173 206 255
173 206 255
173 206 255
173 206 255
173 206 255
173 206 255
173 206 255
173 206 255
173 206 255
173 206 255
172 206 255
172 206 255
172 206 255
172 206 255
172 206 255
172 205 255
172 205 255
172 205 255
172 205 255
172 205 255
172 205 255
172 205 255
172 205 255
172 205 255
171 205 255
171 205 255
171 205 255
171 205 255
171 205 255
171 205 255
171 205 255
171 205 255
171 205 255
171 205 255
171 205 255
171 205 255
171 205 255
170 204 255
170 204 255
170 204 255
170 204 255
170 204 255
170 204 255
170 204 255
170 204 255
170 204 255
170 204 255
170 204 255
170 204 255
169 204 255
169 204 255
169 204 255
169 204 255
169 204 255
169 204 255
169 204 255
169 204 255
169 203 255
169 203 255
169 203 255
169 203 255
168 203 255
168 203 255
168 203 255
168 203 255
168 203 255
168 203 255
168 203 255
168 203 255
168 203 255
168 203 255
168 203 255
167 203 255
167 203 255
167 203 255
167 203 255
167 202 255
167 202 255
167 202 255
167 202 255
167 202 255
167 202 255
167 202 255
166 202 255
166 202 255
166 202 255
166 202 255
166 202 255
166 202 255
166 202 255
166 202 255
166 202 255
166 202 255
165 201 255
165 201 255
165 201 255
165 201 255
165 201 255
165 201 255
165 201 255
165 201 255
165 201 255
165 201 255
165 201 255
164 201 255
164 201 255
164 201 255
164 201 255
164 201 255
164 201 255
164 201 255
164 200 255
164 200 255
164 200 255
163 200 255
163 200 255
163 200 255
163 200 255
163 200 255
163 200 255
163 200 255
163 200 255
163 200 255
163 200 255
163 200 255
162 200 255
162 200 255
162 200 255
162 200 255
162 199 255
162 199 255
162 199 255
162 199 255
162 199 255
162 199 255
162 199 255
162 199 255
161 199 255
161 199 255
161 199 255
161 199 255
161 199 255
161 199 255
161 199 255
161 199 255
161 199 255
161 199 255
161 199 255
161 199 255
161 199 255
160 198 255
160 198 255
160 198 255
160 198 255
160 198 255
160 198 255
160 198 255
160 198 255
160 198 255
160 198 255
160 198 255
160 198 255
160 198 255
160 198 255
160 198 255
160 198 255
160 198 255
160 198 255
160 198 255
160 198 255
159 198 255
159 198 255
159 198 255
159 198 255
159 198 255
159 198 255
159 198 255
159 198 255
159 198 255
159 198 255
159 198 255
159 198 255
159 198 255
159 198 255
159 198 255
159 198 255
159 198 255
159 198 255
159 198 255
159 198 255
159 198 255
159 198 255
159 198 255
159 198 255
159 198 255
159 198 255
159 198 255
159 198 255
159 198 255
159 198 255
159 198 255
159 198 255
159 198 255
159 198 255
159 198 255
159 198 255
159 198 255
159 198 255
159 198 255
159 198 255
160 198 255
160 198 255
160 198 255
160 198 255
160 198 255
160 198 255
160 198 255
160 198 255
160 198 255
160 198 255
160 198 255
160 198 255
160 198 255
160 198 255
160 198 255
160 198 255
160 198 255
160 198 255
160 198 255
161 199 255
161 199 255
161 199 255
161 199 255
161 199 255
161 199 255
161 199 255
161 199 255
161 199 255
161 199 255
161 199 255
161 199 255
161 199 255
161 199 255
162 199 255
162 199 255
162 199 255
162 199 255
162 199 255
162 199 255
162 199 255
162 199 255
162 200 255
162 200 255
162 200 255
162 200 255
163 200 255
163 200 255
163 200 255
163 200 255
163 200 255
163 200 255
163 200 255
163 200 255
163 200 255
163 200 255
163 200 255
164 200 255
164 200 255
164 200 255
164 201 255
164 201 255
164 201 255
164 201 255
164 201 255
164 201 255
164 201 255
165 201 255
165 201 255
165 201 255
165 201 255
165 201 255
165 201 255
165 201 255
165 201 255
165 201 255
165 201 255
165 201 255
166 202 255
166 202 255
166 202 255
166 202 255
166 202 255
166 202 255
166 202 255
166 202 255
166 202 255
166 202 255
167 202 255
167 202 255
167 202 255
167 202 255
167 202 255
167 202 255
167 202 255
167 203 255
167 203 255
167 203 255
167 203 255
168 203 255
168 203 255
168 203 255
168 203 255
168 203 255
168 203 255
168 203 255
168 203 255
168 203 255
168 203 255
168 203 255
169 203 255
169 203 255
169 203 255
169 203 255
169 204 255
169 204 255
169 204 255
169 204 255
169 204 255
169 204 255
169 204 255
169 204 255
170 204 255
170 204 255
170 204 255
170 204 255
170 204 255
170 204 255
170 204 255
170 204 255
170 204 255
170 204 255
170 204 255
170 204 255
171 205 255
171 205 255
171 205 255
171 205 255
171 205 255
171 205 255
171 205 255
171 205 255
171 205 255
171 205 255
171 205 255
171 205 255
171 205 255
172 205 255
172 205 255
172 205 255
172 205 255
172 205 255
172 205 255
172 205 255
172 205 255
172 205 255
172 206 255
172 206 255
172 206 255
172 206 255
172 206 255
173 206 255
173 206 255
173 206 255
173 206 255
173 206 255
173 206 255
173 206 255
173 206 255
173 206 255
173 206 255
173 206 255
173 206 255
173 206 255
173 206 255
173 206 255
174 206 255
174 206 255
174 206 255
174 206 255
174 206 255
174 207 255
174 207 255
174 207 255
174 207 255
174 206 255
174 206 255
174 206 255
174 206 255
174 206 255
173 206 255
173 206 255
173 206 255
173 206 255
173 206 255
173 206 255
173 206 255
173 206 255
173 206 255
173 206 255
173 206 255
173 206 255
173 206 255
173 206 255
173 206 255
172 206 255
172 206 255
172 206 255
172 206 255
172 206 255
172 205 255
172 205 255
172 205 255
172 205 255
172 205 255
172 205 255
172 205 255
172 205 255
172 205 255
171 205 255
171 205 255
171 205 255
171 205 255
171 205 255
171 205 255
171 205 255
171 205 255
171 205 255
171 205 255
171 205 255
171 205 255
170 204 255
170 204 255
170 204 255
170 204 255
170 204 255
170 204 255
170 204 255
170 204 255
170 204 255
170 204 255
170 204 255
170 204 255
170 204 255
169 204 255
169 204 255
169 204 255
169 204 255
169 204 255
169 204 255
169 204 255
169 203 255
169 203 255
169 203 255
169 203 255
168 203 255
168 203 255
168 203 255
168 203 255
168 203 255
168 203 255
168 203 255
168 203 255
168 203 255
168 203 255
168 203 255
167 203 255
167 203 255
167 203 255
167 203 255
167 202 255
167 202 255
167 202 255
167 202 255
167 202 255
167 202 255
167 202 255
166 202 255
166 202 255
166 202 255
166 202 255
166 202 255
166 202 255
166 202 255
166 202 255
166 202 255
166 202 255
166 202 255
165 201 255
165 201 255
165 201 255
165 201 255
165 201 255
165 201 255
165 201 255
165 201 255
165 201 255
165 201 255
164 201 255
164 201 255
164 201 255
164 201 255
164 201 255
164 201 255
164 201 255
164 200 255
164 200 255
164 200 255
164 200 255
163 200 255
163 200 255
163 200 255
163 200 255
163 200 255
163 200 255
163 200 255
163 200 255
163 200 255
163 200 255
163 200 255
162 200 255
162 200 255
162 200 255
162 200 255
162 199 255
162 199 255
162 199 255
162 199 255
162 199 255
162 199 255
162 199 255
162 199 255
161 199 255
161 199 255
161 199 255
161 199 255
161 199 255
161 199 255
161 199 255
161 199 255
161 199 255
161 199 255
161 199 255
161 199 255
161 199 255
161 199 255
161 199 255
160 198 255
160 198 255
160 198 255
160 198 255
160 198 255
160 198 255
160 198 255
160 198 255
160 198 255
160 198 255
160 198 255
160 198 255
160 198 255
160 198 255
160 198 255
160 198 255
160 198 255
160 198 255
160 198 255
160 198 255
160 198 255
160 198 255
160 198 255
160 198 255
160 198 255
160 198 255
158 196 253
150 187 241
140 174 225
137 171 222
129 161 209
123 153 199
121 152 199
118 148 192
124 154 200
119 149 193
125 156 202
133 166 216
132 166 215
138 172 222
151 188 243
156 194 250
160 198 255
160 198 255
160 198 255
160 198 255
160 198 255
160 198 255
160 198 255
160 198 255
160 198 255
160 198 255
160 198 255
160 198 255
160 198 255
160 198 255
160 198 255
160 198 255
160 198 255
160 198 255
160 198 255
160 198 255
160 198 255
160 198 255
160 198 255
160 198 255
160 198 255
160 198 255
161 199 255
161 199 255
161 199 255
161 199 255
161 199 255
161 199 255
161 199 255
161 199 255
161 199 255
161 199 255
161 199 255
161 199 255
161 199 255
161 199 255
162 199 255
162 199 255
162 199 255
162 199 255
162 199 255
162 199 255
162 199 255
162 199 255
162 199 255
162 200 255
162 200 255
162 200 255
162 200 255
163 200 255
163 200 255
163 200 255
163 200 255
163 200 255
163 200 255
163 200 255
163 200 255
163 200 255
163 200 255
163 200 255
164 200 255
164 200 255
164 200 255
164 200 255
164 201 255
164 201 255
164 201 255
164 201 255
164 201 255
164 201 255
164 201 255
165 201 255
165 201 255
165 201 255
165 201 255
165 201 255
165 201 255
165 201 255
165 201 255
165 201 255
165 201 255
166 202 255
166 202 255
166 202 255
166 202 255
166 202 255
166 202 255
166 202 255
166 202 255
166 202 255
166 202 255
166 202 255
167 202 255
167 202 255
167 202 255
167 202 255
167 202 255
167 202 255
167 202 255
167 203 255
167 203 255
167 203 255
167 203 255
168 203 255
168 203 255
168 203 255
168 203 255
168 203 255
168 203 255
168 203 255
168 203 255
168 203 255
168 203 255
168 203 255
169 203 255
169 203 255
169 203 255
169 203 255
169 204 255
169 204 255
169 204 255
169 204 255
169 204 255
169 204 255
169 204 255
170 204 255
170 204 255
170 204 255
170 204 255
170 204 255
170 204 255
170 204 255
170 204 255
170 204 255
170 204 255
170 204 255
170 204 255
170 204 255
171 205 255
171 205 255
171 205 255
171 205 255
171 205 255
171 205 255
171 205 255
171 205 255
171 205 255
171 205 255
171 205 255
171 205 255
172 205 255
172 205 255
172 205 255
172 205 255
172 205 255
172 205 255
172 205 255
172 205 255
172 205 255
172 205 255
172 206 255
172 206 255
172 206 255
172 206 255
173 206 255
173 206 255
173 206 255
173 206 255
173 206 255
173 206 255
173 206 255
173 206 255
173 206 255
173 206 255
173 206 255
173 206 255
173 206 255
173 206 255
173 206 255
174 206 255
174 206 255
174 206 255
174 206 255
174 206 255
174 207 255
174 207 255
174 207 255
174 207 255
174 207 255
174 207 255
174 207 255
174 207 255
174 207 255
174 207 255
174 207 255
174 207 255
174 206 255
174 206 255
174 206 255
174 206 255
174 206 255
173 206 255
173 206 255
173 206 255
173 206 255
173 206 255
173 206 255
173 206 255
173 206 255
173 206 255
173 206 255
173 206 255
173 206 255
173 206 255
173 206 255
172 206 255
172 206 255
172 206 255
172 206 255
172 206 255
172 205 255
172 205 255
172 205 255
172 205 255
172 205 255
172 205 255
172 205 255
172 205 255
172 205 255
171 205 255
171 205 255
171 205 255
171 205 255
171 205 255
171 205 255
171 205 255
171 205 255
171 205 255
171 205 255
171 205 255
171 205 255
171 205 255
170 204 255
170 204 255
170 204 255
170 204 255
170 204 255
170 204 255
170 204 255
170 204 255
170 204 255
170 204 255
170 204 255
170 204 255
169 204 255
169 204 255
169 204 255
169 204 255
169 204 255
169 204 255
169 204 255
169 204 255
169 203 255
169 203 255
169 203 255
169 203 255
168 203 255
168 203 255
168 203 255
168 203 255
168 203 255
168 203 255
168 203 255
168 203 255
168 203 255
168 203 255
168 203 255
167 203 255
167 203 255
167 203 255
167 202 255
167 202 255
167 202 255
167 202 255
167 202 255
167 202 255
167 202 255
167 202 255
166 202 255
166 202 255
166 202 255
166 202 255
166 202 255
166 202 255
166 202 255
166 202 255
166 202 255
166 202 255
165 201 255
165 201 255
165 201 255
165 201 255
165 201 255
165 201 255
165 201 255
165 201 255
165 201 255
165 201 255
165 201 255
164 201 255
164 201 255
164 201 255
164 201 255
164 201 255
164 201 255
164 201 255
164 200 255
164 200 255
164 200 255
164 200 255
163 200 255
163 200 255
163 200 255
163 200 255
163 200 255
163 200 255
163 200 255
163 200 255
163 200 255
163 200 255
163 200 255
163 200 255
162 200 255
162 200 255
162 200 255
162 200 255
162 199 255
162 199 255
162 199 255
162 199 255
162 199 255
162 199 255
162 199 255
162 199 255
161 199 255
161 199 255
161 199 255
161 199 255
161 199 255
161 199 255
161 199 255
161 199 255
161 199 255
161 199 255
161 199 255
161 199 255
161 199 255
161 199 255
161 199 255
161 199 255
161 199 255
160 198 255
160 198 255
160 198 255
160 198 255
160 198 255
160 198 255
160 198 255
160 198 255
160 198 255
160 198 255
160 198 255
160 198 255
160 198 255
154 191 247
133 165 215
123 153 199
107 135 177
99 125 163
86 108 140
76 96 126
75 94 123
75 95 125
73 94 124
75 95 126
76 96 126
74 94 124
77 97 126
73 93 122
77 96 126
77 96 125
75 94 124
75 95 125
76 95 124
75 95 124
74 94 124
77 98 129
99 123 160
105 132 174
123 154 200
138 172 222
153 190 245
160 198 255
160 198 255
160 198 255
160 198 255
160 198 255
160 198 255
160 198 255
160 198 255
160 198 255
160 198 255
160 198 255
160 198 255
160 198 255
161 199 255
161 199 255
161 199 255
161 199 255
161 199 255
161 199 255
161 199 255
161 199 255
161 199 255
161 199 255
161 199 255
161 199 255
161 199 255
161 199 255
161 199 255
161 199 255
161 199 255
162 199 255
162 199 255
162 199 255
162 199 255
162 199 255
162 199 255
162 199 255
162 199 255
162 199 255
162 200 255
162 200 255
162 200 255
162 200 255
163 200 255
163 200 255
163 200 255
163 200 255
163 200 255
163 200 255
163 200 255
163 200 255
163 200 255
163 200 255
163 200 255
164 200 255
164 200 255
164 200 255
164 200 255
164 201 255
164 201 255
164 201 255
164 201 255
164 201 255
164 201 255
164 201 255
165 201 255
165 201 255
165 201 255
165 201 255
165 201 255
165 201 255
165 201 255
165 201 255
165 201 255
165 201 255
165 201 255
166 202 255
166 202 255
166 202 255
166 202 255
166 202 255
166 202 255
166 202 255
166 202 255
166 202 255
166 202 255
167 202 255
167 202 255
167 202 255
167 202 255
167 202 255
167 202 255
167 202 255
167 203 255
167 203 255
167 203 255
167 203 255
168 203 255
168 203 255
168 203 255
168 203 255
168 203 255
168 203 255
168 203 255
168 203 255
168 203 255
168 203 255
168 203 255
169 203 255
169 203 255
169 203 255
169 203 255
169 204 255
169 204 255
169 204 255
169 204 255
169 204 255
169 204 255
169 204 255
169 204 255
170 204 255
170 204 255
170 204 255
170 204 255
170 204 255
170 204 255
170 204 255
170 204 255
170 204 255
170 204 255
170 204 255
170 204 255
171 205 255
171 205 255
171 205 255
171 205 255
171 205 255
171 205 255
171 205 255
171 205 255
171 205 255
171 205 255
171 205 255
171 205 255
171 205 255
172 205 255
172 205 255
172 205 255
172 205 255
172 205 255
172 205 255
172 205 255
172 205 255
172 205 255
172 206 255
172 206 255
172 206 255
172 206 255
172 206 255
173 206 255
173 206 255
173 206 255
173 206 255
173 206 255
173 206 255
173 206 255
173 206 255
173 206 255
173 206 255
173 206 255
173 206 255
173 206 255
173 206 255
174 206 255
174 206 255
174 206 255
174 206 255
174 206 255
174 207 255
174 207 255
174 207 255
174 207 255
174 207 255
174 207 255
174 207 255
174 207 255
175 207 255
174 207 255
174 207 255
174 207 255
174 207 255
174 207 255
174 207 255
174 207 255
174 207 255
174 207 255
174 207 255
174 207 255
174 206 255
174 206 255
174 206 255
174 206 255
174 206 255
173 206 255
173 206 255
173 206 255
173 206 255
173 206 255
173 206 255
173 206 255
173 206 255
173 206 255
173 206 255
173 206 255
173 206 255
173 206 255
173 206 255
172 206 255
172 206 255
172 206 255
172 206 255
172 206 255
172 205 255
172 205 255
172 205 255
172 205 255
172 205 255
172 205 255
172 205 255
172 205 255
172 205 255
171 205 255
171 205 255
171 205 255
171 205 255
171 205 255
171 205 255
171 205 255
171 205 255
171 205 255
171 205 255
171 205 255
171 205 255
171 205 255
170 204 255
170 204 255
170 204 255
170 204 255
170 204 255
170 204 255
170 204 255
170 204 255
170 204 255
170 204 255
170 204 255
170 204 255
169 204 255
169 204 255
169 204 255
169 204 255
169 204 255
169 204 255
169 204 255
169 203 255
169 203 255
169 203 255
169 203 255
168 203 255
168 203 255
168 203 255
168 203 255
168 203 255
168 203 255
168 203 255
168 203 255
168 203 255
168 203 255
168 203 255
167 203 255
167 203 255
167 203 255
167 203 255
167 202 255
167 202 255
167 202 255
167 202 255
167 202 255
167 202 255
167 202 255
166 202 255
166 202 255
166 202 255
166 202 255
166 202 255
166 202 255
166 202 255
166 202 255
166 202 255
166 202 255
166 202 255
165 201 255
165 201 255
165 201 255
165 201 255
165 201 255
165 201 255
165 201 255
165 201 255
165 201 255
165 201 255
165 201 255
164 201 255
164 201 255
164 201 255
164 201 255
164 201 255
164 201 255
164 201 255
164 200 255
164 200 255
164 200 255
164 200 255
163 200 255
163 200 255
163 200 255
163 200 255
163 200 255
163 200 255
163 200 255
163 200 255
163 200 255
163 200 255
163 200 255
163 200 255
162 200 255
162 200 255
162 200 255
162 200 255
162 199 255
162 199 255
162 199 255
162 199 255
162 199 255
162 199 255
162 199 255
162 199 255
162 199 255
162 199 255
161 199 255
161 199 255
161 199 255
161 199 255
161 199 255
161 199 255
161 199 255
161 199 255
161 199 255
161 199 255
161 199 255
161 199 255
161 199 255
161 199 255
161 199 255
161 199 255
161 199 255
161 199 255
161 199 255
161 199 255
156 193 248
141 175 225
120 150 195
92 115 149
75 96 127
77 96 124
75 95 124
73 93 122
75 95 125
76 94 122
75 94 123
73 92 121
74 94 125
74 93 122
76 95 124
74 93 122
77 95 124
74 94 124
78 96 124
74 94 124
78 97 126
74 94 124
74 94 123
74 93 122
75 94 122
76 96 125
74 94 123
76 95 124
76 95 124
76 96 125
75 95 124
78 98 128
91 114 148
117 146 190
131 162 210
155 192 248
161 199 255
161 199 255
161 199 255
161 199 255
161 199 255
161 199 255
161 199 255
161 199 255
161 199 255
161 199 255
161 199 255
161 199 255
161 199 255
161 199 255
161 199 255
161 199 255
161 199 255
161 199 255
161 199 255
161 199 255
162 199 255
162 199 255
162 199 255
162 199 255
162 199 255
162 199 255
162 199 255
162 199 255
162 199 255
162 199 255
162 200 255
162 200 255
162 200 255
162 200 255
163 200 255
163 200 255
163 200 255
163 200 255
163 200 255
163 200 255
163 200 255
163 200 255
163 200 255
163 200 255
163 200 255
163 200 255
164 200 255
164 200 255
164 200 255
164 200 255
164 201 255
164 201 255
164 201 255
164 201 255
164 201 255
164 201 255
164 201 255
165 201 255
165 201 255
165 201 255
165 201 255
165 201 255
165 201 255
165 201 255
165 201 255
165 201 255
165 201 255
165 201 255
166 202 255
166 202 255
166 202 255
166 202 255
166 202 255
166 202 255
166 202 255
166 202 255
166 202 255
166 202 255
166 202 255
167 202 255
167 202 255
167 202 255
167 202 255
167 202 255
167 202 255
167 202 255
167 203 255
167 203 255
167 203 255
167 203 255
168 203 255
168 203 255
168 203 255
168 203 255
168 203 255
168 203 255
168 203 255
168 203 255
168 203 255
168 203 255
168 203 255
169 203 255
169 203 255
169 203 255
169 203 255
169 204 255
169 204 255
169 204 255
169 204 255
169 204 255
169 204 255
169 204 255
170 204 255
170 204 255
170 204 255
170 204 255
170 204 255
170 204 255
170 204 255
170 204 255
170 204 255
170 204 255
170 204 255
170 204 255
171 205 255
171 205 255
171 205 255
171 205 255
171 205 255
171 205 255
171 205 255
171 205 255
171 205 255
171 205 255
171 205 255
171 205 255
171 205 255
172 205 255
172 205 255
172 205 255
172 205 255
172 205 255
172 205 255
172 205 255
172 205 255
172 205 255
172 206 255
172 206 255
172 206 255
172 206 255
173 206 255
173 206 255
173 206 255
173 206 255
173 206 255
173 206 255
173 206 255
173 206 255
173 206 255
173 206 255
173 206 255
173 206 255
173 206 255
173 206 255
173 206 255
174 206 255
174 206 255
174 206 255
174 206 255
174 206 255
174 207 255
174 207 255
174 207 255
174 207 255
174 207 255
174 207 255
174 207 255
174 207 255
174 207 255
174 207 255
174 207 255
175 207 255
175 207 255
175 207 255
175 207 255
175 207 255
175 207 255
174 207 255
174 207 255
174 207 255
174 207 255
174 207 255
174 207 255
174 207 255
174 207 255
174 207 255
174 207 255
174 207 255
174 206 255
174 206 255
174 206 255
174 206 255
174 206 255
173 206 255
173 206 255
173 206 255
173 206 255
173 206 255
173 206 255
173 206 255
173 206 255
173 206 255
173 206 255
173 206 255
173 206 255
173 206 255
173 206 255
172 206 255
172 206 255
172 206 255
172 206 255
172 206 255
172 205 255
172 205 255
172 205 255
172 205 255
172 205 255
172 205 255
172 205 255
172 205 255
172 205 255
171 205 255
171 205 255
171 205 255
171 205 255
171 205 255
171 205 255
171 205 255
171 205 255
171 205 255
171 205 255
171 205 255
171 205 255
170 204 255
170 204 255
170 204 255
170 204 255
170 204 255
170 204 255
170 204 255
170 204 255
170 204 255
170 204 255
170 204 255
170 204 255
169 204 255
169 204 255
169 204 255
169 204 255
169 204 255
169 204 255
169 204 255
169 204 255
169 203 255
169 203 255
169 203 255
169 203 255
168 203 255
168 203 255
168 203 255
168 203 255
168 203 255
168 203 255
168 203 255
168 203 255
168 203 255
168 203 255
168 203 255
167 203 255
167 203 255
167 203 255
167 203 255
167 202 255
167 202 255
167 202 255
167 202 255
167 202 255
167 202 255
167 202 255
166 202 255
166 202 255
166 202 255
166 202 255
166 202 255
166 202 255
166 202 255
166 202 255
166 202 255
166 202 255
166 202 255
165 201 255
165 201 255
165 201 255
165 201 255
165 201 255
165 201 255
165 201 255
165 201 255
165 201 255
165 201 255
165 201 255
164 201 255
164 201 255
164 201 255
164 201 255
164 201 255
164 201 255
164 201 255
164 200 255
164 200 255
164 200 255
164 200 255
163 200 255
163 200 255
163 200 255
163 200 255
163 200 255
163 200 255
163 200 255
163 200 255
163 200 255
163 200 255
163 200 255
163 200 255
163 200 255
162 200 255
162 200 255
162 200 255
162 200 255
162 200 255
162 199 255
162 199 255
162 199 255
162 199 255
162 199 255
162 199 255
162 199 255
162 199 255
162 199 255
162 199 255
161 199 255
161 199 255
161 199 255
161 199 255
161 199 255
161 199 255
161 199 255
161 199 255
161 199 255
161 199 255
161 199 255
148 183 235
117 147 190
90 113 147
77 97 128
74 93 123
74 93 122
72 91 120
76 96 125
76 96 125
74 93 123
74 93 121
75 94 123
74 94 123
75 94 122
74 93 122
74 93 121
72 92 120
74 92 119
75 94 122
76 94 122
75 93 122
73 92 121
76 95 124
76 96 125
70 89 117
74 92 119
75 94 122
75 93 121
75 95 124
75 94 123
73 92 120
73 92 120
77 96 124
77 95 123
75 94 124
74 93 122
74 93 123
76 95 125
76 96 128
93 116 151
123 154 199
149 185 238
161 199 255
161 199 255
161 199 255
161 199 255
161 199 255
161 199 255
161 199 255
161 199 255
161 199 255
161 199 255
162 199 255
162 199 255
162 199 255
162 199 255
162 199 255
162 199 255
162 199 255
162 199 255
162 199 255
162 199 255
162 199 255
162 199 255
162 200 255
162 200 255
162 200 255
162 200 255
163 200 255
163 200 255
163 200 255
163 200 255
163 200 255
163 200 255
163 200 255
163 200 255
163 200 255
163 200 255
163 200 255
163 200 255
163 200 255
164 200 255
164 200 255
164 200 255
164 200 255
164 201 255
164 201 255
164 201 255
164 201 255
164 201 255
164 201 255
164 201 255
165 201 255
165 201 255
165 201 255
165 201 255
165 201 255
165 201 255
165 201 255
165 201 255
165 201 255
165 201 255
165 201 255
166 202 255
166 202 255
166 202 255
166 202 255
166 202 255
166 202 255
166 202 255
166 202 255
166 202 255
166 202 255
166 202 255
167 202 255
167 202 255
167 202 255
167 202 255
167 202 255
167 202 255
167 202 255
167 202 255
167 203 255
167 203 255
167 203 255
168 203 255
168 203 255
168 203 255
168 203 255
168 203 255
168 203 255
168 203 255
168 203 255
168 203 255
168 203 255
168 203 255
169 203 255
169 203 255
169 203 255
169 203 255
169 204 255
169 204 255
169 204 255
169 204 255
169 204 255
169 204 255
169 204 255
169 204 255
170 204 255
170 204 255
170 204 255
170 204 255
170 204 255
170 204 255
170 204 255
170 204 255
170 204 255
170 204 255
170 204 255
170 204 255
171 205 255
171 205 255
171 205 255
171 205 255
171 205 255
171 205 255
171 205 255
171 205 255
171 205 255
171 205 255
171 205 255
171 205 255
172 205 255
172 205 255
172 205 255
172 205 255
172 205 255
172 205 255
172 205 255
172 205 255
172 205 255
172 206 255
172 206 255
172 206 255
172 206 255
172 206 255
173 206 255
173 206 255
173 206 255
173 206 255
173 206 255
173 206 255
173 206 255
173 206 255
173 206 255
173 206 255
173 206 255
173 206 255
173 206 255
173 206 255
174 206 255
174 206 255
174 206 255
174 206 255
174 206 255
174 207 255
174 207 255
174 207 255
174 207 255
174 207 255
174 207 255
174 207 255
174 207 255
174 207 255
174 207 255
174 207 255
175 207 255
175 207 255
175 207 255
175 207 255
175 207 255
175 207 255
175 207 255
175 207 255
175 207 255
175 207 255
175 207 255
175 207 255
175 207 255
175 207 255
174 207 255
174 207 255
174 207 255
174 207 255
174 207 255
174 207 255
174 207 255
174 207 255
174 207 255
174 207 255
174 207 255
174 206 255
174 206 255
174 206 255
174 206 255
174 206 255
173 206 255
173 206 255
173 206 255
173 206 255
173 206 255
173 206 255
173 206 255
173 206 255
173 206 255
173 206 255
173 206 255
173 206 255
173 206 255
173 206 255
172 206 255
172 206 255
172 206 255
172 206 255
172 206 255
172 205 255
172 205 255
172 205 255
172 205 255
172 205 255
172 205 255
172 205 255
172 205 255
172 205 255
171 205 255
171 205 255
171 205 255
171 205 255
171 205 255
171 205 255
171 205 255
171 205 255
171 205 255
171 205 255
171 205 255
171 205 255
170 204 255
170 204 255
170 204 255
170 204 255
170 204 255
170 204 255
170 204 255
170 204 255
170 204 255
170 204 255
170 204 255
170 204 255
169 204 255
169 204 255
169 204 255
169 204 255
169 204 255
169 204 255
169 204 255
169 204 255
169 203 255
169 203 255
169 203 255
168 203 255
168 203 255
168 203 255
168 203 255
168 203 255
168 203 255
168 203 255
168 203 255
168 203 255
168 203 255
168 203 255
168 203 255
167 203 255
167 203 255
167 203 255
167 202 255
167 202 255
167 202 255
167 202 255
167 202 255
167 202 255
167 202 255
166 202 255
166 202 255
166 202 255
166 202 255
166 202 255
166 202 255
166 202 255
166 202 255
166 202 255
166 202 255
166 202 255
165 201 255
165 201 255
165 201 255
165 201 255
165 201 255
165 201 255
165 201 255
165 201 255
165 201 255
165 201 255
165 201 255
165 201 255
164 201 255
164 201 255
164 201 255
164 201 255
164 201 255
164 201 255
164 201 255
164 201 255
164 200 255
164 200 255
164 200 255
164 200 255
163 200 255
163 200 255
163 200 255
163 200 255
163 200 255
163 200 255
163 200 255
163 200 255
163 200 255
163 200 255
163 200 255
163 200 255
163 200 255
162 200 255
162 200 255
162 200 255
162 200 255
162 200 255
162 200 255
162 199 255
162 199 255
162 199 255
162 199 255
162 199 255
162 199 255
162 199 255
162 199 255
162 199 255
162 199 255
162 199 255
162 199 255
155 191 245
129 160 206
91 115 149
74 94 122
72 91 120
76 95 124
76 95 125
73 93 122
74 91 118
74 93 122
73 93 122
76 95 123
75 95 124
76 95 123
76 95 123
73 92 120
76 95 122
75 94 122
74 93 120
77 95 123
72 90 119
75 94 123
74 92 119
74 93 120
74 93 121
73 92 121
74 92 120
74 93 121
73 93 122
75 93 120
76 95 122
72 92 120
72 92 121
71 90 118
75 93 120
76 96 124
73 92 122
74 93 122
77 95 123
73 92 120
75 94 123
74 93 122
76 96 124
72 91 120
75 94 123
90 114 150
122 151 196
156 193 248
162 199 255
162 199 255
162 199 255
162 199 255
162 199 255
162 199 255
162 199 255
162 199 255
162 199 255
162 199 255
162 199 255
162 199 255
162 199 255
162 200 255
162 200 255
162 200 255
162 200 255
162 200 255
163 200 255
163 200 255
163 200 255
163 200 255
163 200 255
163 200 255
163 200 255
163 200 255
163 200 255
163 200 255
163 200 255
163 200 255
163 200 255
164 200 255
164 200 255
164 200 255
164 200 255
164 201 255
164 201 255
164 201 255
164 201 255
164 201 255
164 201 255
164 201 255
164 201 255
164 201 255
165 201 255
165 201 255
165 201 255
165 201 255
165 201 255
165 201 255
165 201 255
165 201 255
165 201 255
165 201 255
165 201 255
166 202 255
166 202 255
166 202 255
166 202 255
166 202 255
166 202 255
166 202 255
166 202 255
166 202 255
166 202 255
167 202 255
167 202 255
167 202 255
167 202 255
167 202 255
167 202 255
167 202 255
167 202 255
167 203 255
167 203 255
167 203 255
167 203 255
168 203 255
168 203 255
168 203 255
168 203 255
168 203 255
168 203 255
168 203 255
168 203 255
168 203 255
168 203 255
168 203 255
169 203 255
169 203 255
169 203 255
169 204 255
169 204 255
169 204 255
169 204 255
169 204 255
169 204 255
169 204 255
169 204 255
170 204 255
170 204 255
170 204 255
170 204 255
170 204 255
170 204 255
170 204 255
170 204 255
170 204 255
170 204 255
170 204 255
170 204 255
171 205 255
171 205 255
171 205 255
171 205 255
171 205 255
171 205 255
171 205 255
171 205 255
171 205 255
171 205 255
171 205 255
171 205 255
172 205 255
172 205 255
172 205 255
172 205 255
172 205 255
172 205 255
172 205 255
172 205 255
172 205 255
172 206 255
172 206 255
172 206 255
172 206 255
172 206 255
173 206 255
173 206 255
173 206 255
173 206 255
173 206 255
173 206 255
173 206 255
173 206 255
173 206 255
173 206 255
173 206 255
173 206 255
173 206 255
173 206 255
174 206 255
174 206 255
174 206 255
174 206 255
174 206 255
174 207 255
174 207 255
174 207 255
174 207 255
174 207 255
174 207 255
174 207 255
174 207 255
174 207 255
174 207 255
174 207 255
175 207 255
175 207 255
175 207 255
175 207 255
175 207 255
175 207 255
175 207 255
175 207 255
175 207 255
175 207 255
175 207 255
175 207 255
175 207 255
175 207 255
175 207 255
175 207 255
175 207 255
175 207 255
175 207 255
175 207 255
175 207 255
175 207 255
175 207 255
174 207 255
174 207 255
174 207 255
174 207 255
174 207 255
174 207 255
174 207 255
174 207 255
174 207 255
174 207 255
174 206 255
174 206 255
174 206 255
174 206 255
174 206 255
173 206 255
173 206 255
173 206 255
173 206 255
173 206 255
173 206 255
173 206 255
173 206 255
173 206 255
173 206 255
173 206 255
173 206 255
173 206 255
173 206 255
172 206 255
172 206 255
172 206 255
172 206 255
172 206 255
172 205 255
172 205 255
172 205 255
172 205 255
172 205 255
172 205 255
172 205 255
172 205 255
171 205 255
171 205 255
171 205 255
171 205 255
171 205 255
171 205 255
171 205 255
171 205 255
171 205 255
171 205 255
171 205 255
171 205 255
171 205 255
170 204 255
170 204 255
170 204 255
170 204 255
170 204 255
170 204 255
170 204 255
170 204 255
170 204 255
170 204 255
170 204 255
170 204 255
169 204 255
169 204 255
169 204 255
169 204 255
169 204 255
169 204 255
169 204 255
169 203 255
169 203 255
169 203 255
169 203 255
168 203 255
168 203 255
168 203 255
168 203 255
168 203 255
168 203 255
168 203 255
168 203 255
168 203 255
168 203 255
168 203 255
167 203 255
167 203 255
167 203 255
167 203 255
167 202 255
167 202 255
167 202 255
167 202 255
167 202 255
167 202 255
167 202 255
166 202 255
166 202 255
166 202 255
166 202 255
166 202 255
166 202 255
166 202 255
166 202 255
166 202 255
166 202 255
166 202 255
166 202 255
165 201 255
165 201 255
165 201 255
165 201 255
165 201 255
165 201 255
165 201 255
165 201 255
165 201 255
165 201 255
165 201 255
164 201 255
164 201 255
164 201 255
164 201 255
164 201 255
164 201 255
164 201 255
164 201 255
164 200 255
164 200 255
164 200 255
164 200 255
164 200 255
163 200 255
163 200 255
163 200 255
163 200 255
163 200 255
163 200 255
163 200 255
163 200 255
163 200 255
163 200 255
163 200 255
163 200 255
163 200 255
163 200 255
162 200 255
162 200 255
162 200 255
162 200 255
162 200 255
162 200 255
162 199 255
162 199 255
162 199 255
162 199 255
142 176 227
102 127 164
74 95 125
74 93 121
75 93 121
72 92 120
74 93 122
75 93 122
74 94 123
73 93 122
76 94 122
72 91 119
73 92 120
76 95 122
75 93 120
73 92 120
75 95 124
75 93 120
75 93 120
74 93 122
73 92 120
73 92 121
71 89 117
74 93 123
75 93 120
74 93 122
76 95 124
73 92 121
72 91 119
73 92 120
75 95 124
74 92 119
74 93 121
75 94 121
73 92 122
73 91 119
73 92 120
76 95 123
74 92 120
72 90 118
77 96 124
76 95 122
74 93 122
74 93 121
72 91 119
75 94 122
77 95 124
74 93 122
74 93 121
80 100 129
105 131 169
142 175 225
162 199 255
162 199 255
162 199 255
162 199 255
162 200 255
162 200 255
162 200 255
162 200 255
162 200 255
162 200 255
163 200 255
163 200 255
163 200 255
163 200 255
163 200 255
163 200 255
163 200 255
163 200 255
163 200 255
163 200 255
163 200 255
163 200 255
163 200 255
163 200 255
163 200 255
164 200 255
164 200 255
164 200 255
164 200 255
164 201 255
164 201 255
164 201 255
164 201 255
164 201 255
164 201 255
164 201 255
164 201 255
165 201 255
165 201 255
165 201 255
165 201 255
165 201 255
165 201 255
165 201 255
165 201 255
165 201 255
165 201 255
165 201 255
166 202 255
166 202 255
166 202 255
166 202 255
166 202 255
166 202 255
166 202 255
166 202 255
166 202 255
166 202 255
166 202 255
166 202 255
167 202 255
167 202 255
167 202 255
167 202 255
167 202 255
167 202 255
167 202 255
167 203 255
167 203 255
167 203 255
167 203 255
168 203 255
168 203 255
168 203 255
168 203 255
168 203 255
168 203 255
168 203 255
168 203 255
168 203 255
168 203 255
168 203 255
169 203 255
169 203 255
169 203 255
169 203 255
169 204 255
169 204 255
169 204 255
169 204 255
169 204 255
169 204 255
169 204 255
170 204 255
170 204 255
170 204 255
170 204 255
170 204 255
170 204 255
170 204 255
170 204 255
170 204 255
170 204 255
170 204 255
170 204 255
171 205 255
171 205 255
171 205 255
171 205 255
171 205 255
171 205 255
171 205 255
171 205 255
171 205 255
171 205 255
171 205 255
171 205 255
172 205 255
172 205 255
172 205 255
172 205 255
172 205 255
172 205 255
172 205 255
172 205 255
172 205 255
172 206 255
172 206 255
172 206 255
172 206 255
172 206 255
173 206 255
173 206 255
173 206 255
173 206 255
173 206 255
173 206 255
173 206 255
173 206 255
173 206 255
173 206 255
173 206 255
173 206 255
173 206 255
173 206 255
174 206 255
174 206 255
174 206 255
174 206 255
174 206 255
174 207 255
174 207 255
174 207 255
174 207 255
174 207 255
174 207 255
174 207 255
174 207 255
174 207 255
174 207 255
175 207 255
175 207 255
175 207 255
175 207 255
175 207 255
175 207 255
175 207 255
175 207 255
175 207 255
175 207 255
175 207 255
175 207 255
175 207 255
175 207 255
176 208 255
175 207 255
175 207 255
175 207 255
175 207 255
175 207 255
175 207 255
175 207 255
175 207 255
175 207 255
175 207 255
175 207 255
175 207 255
175 207 255
175 207 255
175 207 255
175 207 255
175 207 255
174 207 255
174 207 255
174 207 255
174 207 255
174 207 255
174 207 255
174 207 255
174 207 255
174 207 255
174 207 255
174 206 255
174 206 255
174 206 255
174 206 255
174 206 255
173 206 255
173 206 255
173 206 255
173 206 255
173 206 255
173 206 255
173 206 255
173 206 255
173 206 255
173 206 255
173 206 255
173 206 255
173 206 255
173 206 255
172 206 255
172 206 255
172 206 255
172 206 255
172 206 255
172 205 255
172 205 255
172 205 255
172 205 255
172 205 255
172 205 255
172 205 255
172 205 255
171 205 255
171 205 255
171 205 255
171 205 255
171 205 255
171 205 255
171 205 255
171 205 255
171 205 255
171 205 255
171 205 255
171 205 255
171 205 255
170 204 255
170 204 255
170 204 255
170 204 255
170 204 255
170 204 255
170 204 255
170 204 255
170 204 255
170 204 255
170 204 255
170 204 255
169 204 255
169 204 255
169 204 255
169 204 255
169 204 255
169 204 255
169 204 255
169 203 255
169 203 255
169 203 255
169 203 255
168 203 255
168 203 255
168 203 255
168 203 255
168 203 255
168 203 255
168 203 255
168 203 255
168 203 255
168 203 255
168 203 255
167 203 255
167 203 255
167 203 255
167 203 255
167 202 255
167 202 255
167 202 255
167 202 255
167 202 255
167 202 255
167 202 255
166 202 255
166 202 255
166 202 255
166 202 255
166 202 255
166 202 255
166 202 255
166 202 255
166 202 255
166 202 255
166 202 255
166 202 255
165 201 255
165 201 255
165 201 255
165 201 255
165 201 255
165 201 255
165 201 255
165 201 255
165 201 255
165 201 255
165 201 255
164 201 255
164 201 255
164 201 255
164 201 255
164 201 255
164 201 255
164 201 255
164 201 255
164 201 255
164 200 255
164 200 255
164 200 255
164 200 255
164 200 255
163 200 255
163 200 255
163 200 255
163 200 255
163 200 255
163 200 255
163 200 255
163 200 255
163 200 255
163 200 255
163 200 255
163 200 255
163 200 255
163 200 255
163 200 255
163 200 255
161 198 253
133 163 209
92 115 149
73 92 121
75 94 122
75 94 123
74 93 121
73 91 120
73 92 119
73 93 122
71 90 119
71 89 117
76 95 124
73 92 120
73 92 120
74 93 122
70 88 116
74 93 121
77 95 124
73 91 118
72 91 118
73 92 120
73 91 119
75 93 120
74 92 119
72 90 118
77 96 124
72 90 118
74 93 121
75 93 120
77 95 123
73 91 117
73 92 119
73 92 120
76 94 122
75 93 120
74 93 122
75 95 125
76 94 122
73 91 119
72 91 121
76 96 125
75 93 120
73 91 119
75 95 124
73 91 120
74 93 120
74 93 122
74 93 122
74 93 122
71 92 122
73 92 121
74 94 124
71 90 119
74 93 121
91 115 149
134 166 213
162 199 254
163 200 255
163 200 255
163 200 255
163 200 255
163 200 255
163 200 255
163 200 255
163 200 255
163 200 255
163 200 255
163 200 255
163 200 255
163 200 255
163 200 255
163 200 255
163 200 255
164 200 255
164 200 255
164 200 255
164 200 255
164 200 255
164 201 255
164 201 255
164 201 255
164 201 255
164 201 255
164 201 255
164 201 255
164 201 255
164 201 255
165 201 255
165 201 255
165 201 255
165 201 255
165 201 255
165 201 255
165 201 255
165 201 255
165 201 255
165 201 255
165 201 255
166 202 255
166 202 255
166 202 255
166 202 255
166 202 255
166 202 255
166 202 255
166 202 255
166 202 255
166 202 255
166 202 255
166 202 255
167 202 255
167 202 255
167 202 255
167 202 255
167 202 255
167 202 255
167 202 255
167 203 255
167 203 255
167 203 255
167 203 255
168 203 255
168 203 255
168 203 255
168 203 255
168 203 255
168 203 255
168 203 255
168 203 255
168 203 255
168 203 255
168 203 255
169 203 255
169 203 255
169 203 255
169 203 255
169 204 255
169 204 255
169 204 255
169 204 255
169 204 255
169 204 255
169 204 255
170 204 255
170 204 255
170 204 255
170 204 255
170 204 255
170 204 255
170 204 255
170 204 255
170 204 255
170 204 255
170 204 255
170 204 255
171 205 255
171 205 255
171 205 255
171 205 255
171 205 255
171 205 255
171 205 255
171 205 255
171 205 255
171 205 255
171 205 255
171 205 255
171 205 255
172 205 255
172 205 255
172 205 255
172 205 255
172 205 255
172 205 255
172 205 255
172 205 255
172 206 255
172 206 255
172 206 255
172 206 255
172 206 255
173 206 255
173 206 255
173 206 255
173 206 255
173 206 255
173 206 255
173 206 255
173 206 255
173 206 255
173 206 255
173 206 255
173 206 255
173 206 255
173 206 255
174 206 255
174 206 255
174 206 255
174 206 255
174 206 255
174 207 255
174 207 255
174 207 255
174 207 255
174 207 255
174 207 255
174 207 255
174 207 255
174 207 255
174 207 255
175 207 255
175 207 255
175 207 255
175 207 255
175 207 255
175 207 255
175 207 255
175 207 255
175 207 255
175 207 255
175 207 255
175 207 255
175 207 255
175 207 255
175 207 255
175 207 255
175 207 255
176 208 255
176 208 255
176 208 255
176 208 255
176 208 255
176 208 255
176 208 255
175 207 255
175 207 255
175 207 255
175 207 255
175 207 255
175 207 255
175 207 255
175 207 255
175 207 255
175 207 255
175 207 255
175 207 255
175 207 255
175 207 255
175 207 255
175 207 255
174 207 255
174 207 255
174 207 255
174 207 255
174 207 255
174 207 255
174 207 255
174 207 255
174 207 255
174 207 255
174 206 255
174 206 255
174 206 255
174 206 255
174 206 255
173 206 255
173 206 255
173 206 255
173 206 255
173 206 255
173 206 255
173 206 255
173 206 255
173 206 255
173 206 255
173 206 255
173 206 255
173 206 255
173 206 255
172 206 255
172 206 255
172 206 255
172 206 255
172 206 255
172 205 255
172 205 255
172 205 255
172 205 255
172 205 255
172 205 255
172 205 255
172 205 255
171 205 255
171 205 255
171 205 255
171 205 255
171 205 255
171 205 255
171 205 255
171 205 255
171 205 255
171 205 255
171 205 255
171 205 255
171 205 255
170 204 255
170 204 255
170 204 255
170 204 255
170 204 255
170 204 255
170 204 255
170 204 255
170 204 255
170 204 255
170 204 255
169 204 255
169 204 255
169 204 255
169 204 255
169 204 255
169 204 255
169 204 255
169 204 255
169 203 255
169 203 255
169 203 255
169 203 255
168 203 255
168 203 255
168 203 255
168 203 255
168 203 255
168 203 255
168 203 255
168 203 255
168 203 255
168 203 255
168 203 255
167 203 255
167 203 255
167 203 255
167 203 255
167 202 255
167 202 255
167 202 255
167 202 255
167 202 255
167 202 255
167 202 255
166 202 255
166 202 255
166 202 255
166 202 255
166 202 255
166 202 255
166 202 255
166 202 255
166 202 255
166 202 255
166 202 255
166 202 255
165 201 255
165 201 255
165 201 255
165 201 255
165 201 255
165 201 255
165 201 255
165 201 255
165 201 255
165 201 255
165 201 255
165 201 255
164 201 255
164 201 255
164 201 255
164 201 255
164 201 255
164 201 255
164 201 255
164 201 255
164 201 255
164 201 255
164 200 255
164 200 255
164 200 255
164 200 255
164 200 255
163 200 255
163 200 255
163 200 255
163 200 255
163 200 255
163 200 255
163 200 255
163 200 255
161 198 253
135 166 213
89 111 145
75 94 123
73 91 119
74 93 120
72 90 117
76 96 125
73 92 120
75 93 120
74 92 120
75 93 119
76 95 124
73 91 119
75 92 119
74 93 120
72 91 119
71 90 118
74 93 121
75 94 121
74 92 120
74 92 120
71 90 118
71 90 118
73 92 120
73 91 119
71 89 117
75 94 122
73 90 117
73 92 120
76 95 124
74 91 118
74 92 120
72 92 122
74 93 121
72 91 119
73 92 120
73 90 117
70 89 117
73 92 121
72 90 119
74 93 122
76 95 123
74 93 122
77 95 122
73 93 122
76 94 122
71 88 114
70 88 114
75 93 121
73 91 119
78 96 123
72 91 119
73 92 122
78 96 124
74 92 119
75 94 122
74 92 119
74 94 123
89 111 144
137 169 217
162 199 254
163 200 255
163 200 255
163 200 255
163 200 255
163 200 255
163 200 255
163 200 255
163 200 255
164 200 255
164 200 255
164 200 255
164 200 255
164 200 255
164 200 255
164 201 255
164 201 255
164 201 255
164 201 255
164 201 255
164 201 255
164 201 255
164 201 255
164 201 255
165 201 255
165 201 255
165 201 255
165 201 255
165 201 255
165 201 255
165 201 255
165 201 255
165 201 255
165 201 255
165 201 255
165 201 255
166 202 255
166 202 255
166 202 255
166 202 255
166 202 255
166 202 255
166 202 255
166 202 255
166 202 255
166 202 255
166 202 255
166 202 255
167 202 255
167 202 255
167 202 255
167 202 255
167 202 255
167 202 255
167 202 255
167 203 255
167 203 255
167 203 255
167 203 255
168 203 255
168 203 255
168 203 255
168 203 255
168 203 255
168 203 255
168 203 255
168 203 255
168 203 255
168 203 255
168 203 255
169 203 255
169 203 255
169 203 255
169 203 255
169 204 255
169 204 255
169 204 255
169 204 255
169 204 255
169 204 255
169 204 255
169 204 255
170 204 255
170 204 255
170 204 255
170 204 255
170 204 255
170 204 255
170 204 255
170 204 255
170 204 255
170 204 255
170 204 255
171 205 255
171 205 255
171 205 255
171 205 255
171 205 255
171 205 255
171 205 255
171 205 255
171 205 255
171 205 255
171 205 255
171 205 255
171 205 255
172 205 255
172 205 255
172 205 255
172 205 255
172 205 255
172 205 255
172 205 255
172 205 255
172 206 255
172 206 255
172 206 255
172 206 255
172 206 255
173 206 255
173 206 255
173 206 255
173 206 255
173 206 255
173 206 255
173 206 255
173 206 255
173 206 255
173 206 255
173 206 255
173 206 255
173 206 255
173 206 255
174 206 255
174 206 255
174 206 255
174 206 255
174 206 255
174 207 255
174 207 255
174 207 255
174 207 255
174 207 255
174 207 255
174 207 255
174 207 255
174 207 255
174 207 255
175 207 255
175 207 255
175 207 255
175 207 255
175 207 255
175 207 255
175 207 255
175 207 255
175 207 255
175 207 255
175 207 255
175 207 255
175 207 255
175 207 255
175 207 255
175 207 255
176 208 255
176 208 255
176 208 255
176 208 255
176 208 255
176 208 255
176 208 255
176 208 255
176 208 255
176 208 255
176 208 255
176 208 255
176 208 255
176 208 255
176 208 255
176 208 255
175 207 255
175 207 255
175 207 255
175 207 255
175 207 255
175 207 255
175 207 255
175 207 255
175 207 255
175 207 255
175 207 255
175 207 255
175 207 255
175 207 255
175 207 255
175 207 255
174 207 255
174 207 255
174 207 255
174 207 255
174 207 255
174 207 255
174 207 255
174 207 255
174 207 255
174 207 255
174 206 255
174 206 255
174 206 255
174 206 255
174 206 255
173 206 255
173 206 255
173 206 255
173 206 255
173 206 255
173 206 255
173 206 255
173 206 255
173 206 255
173 206 255
173 206 255
173 206 255
173 206 255
173 206 255
172 206 255
172 206 255
172 206 255
172 206 255
172 206 255
172 205 255
172 205 255
172 205 255
172 205 255
172 205 255
172 205 255
172 205 255
172 205 255
171 205 255
171 205 255
171 205 255
171 205 255
171 205 255
171 205 255
171 205 255
171 205 255
171 205 255
171 205 255
171 205 255
171 205 255
171 205 255
170 204 255
170 204 255
170 204 255
170 204 255
170 204 255
170 204 255
170 204 255
170 204 255
170 204 255
170 204 255
170 204 255
169 204 255
169 204 255
169 204 255
169 204 255
169 204 255
169 204 255
169 204 255
169 204 255
169 203 255
169 203 255
169 203 255
169 203 255
168 203 255
168 203 255
168 203 255
168 203 255
168 203 255
168 203 255
168 203 255
168 203 255
168 203 255
168 203 255
168 203 255
167 203 255
167 203 255
167 203 255
167 203 255
167 202 255
167 202 255
167 202 255
167 202 255
167 202 255
167 202 255
167 202 255
166 202 255
166 202 255
166 202 255
166 202 255
166 202 255
166 202 255
166 202 255
166 202 255
166 202 255
166 202 255
166 202 255
166 202 255
165 201 255
165 201 255
165 201 255
165 201 255
165 201 255
165 201 255
165 201 255
165 201 255
165 201 255
165 201 255
165 201 255
165 201 255
165 201 255
165 201 255
164 201 255
164 201 255
164 201 255
164 201 255
164 201 255
164 201 255
164 201 255
164 201 255
164 201 255
164 201 255
164 200 255
164 200 255
164 200 255
164 200 255
164 200 255
163 200 255
136 167 215
89 111 144
73 92 120
76 94 122
76 95 123
74 93 122
74 93 122
76 95 122
75 93 122
72 90 117
76 94 122
74 92 120
71 90 119
74 93 120
73 91 117
73 92 119
76 95 124
73 92 119
73 91 119
73 92 120
75 93 121
76 94 122
72 90 118
73 91 118
74 93 120
68 86 112
72 91 119
73 91 117
74 92 120
73 93 122
73 92 120
71 90 117
77 95 122
72 90 118
71 89 116
70 88 117
74 93 121
75 93 120
73 90 116
75 93 119
76 94 121
77 95 123
72 90 118
74 92 119
76 94 120
71 90 118
72 91 119
73 91 119
74 93 120
74 92 120
73 91 119
72 90 117
73 92 120
74 93 122
77 95 123
74 92 120
74 93 121
75 94 123
72 91 120
75 94 122
73 91 119
74 93 121
92 115 149
131 161 207
163 200 255
164 200 255
164 200 255
164 200 255
164 200 255
164 200 255
164 201 255
164 201 255
164 201 255
164 201 255
164 201 255
164 201 255
164 201 255
164 201 255
164 201 255
164 201 255
164 201 255
165 201 255
165 201 255
165 201 255
165 201 255
165 201 255
165 201 255
165 201 255
165 201 255
165 201 255
165 201 255
165 201 255
165 201 255
166 202 255
166 202 255
166 202 255
166 202 255
166 202 255
166 202 255
166 202 255
166 202 255
166 202 255
166 202 255
166 202 255
166 202 255
167 202 255
167 202 255
167 202 255
167 202 255
167 202 255
167 202 255
167 202 255
167 202 255
167 203 255
167 203 255
167 203 255
167 203 255
168 203 255
168 203 255
168 203 255
168 203 255
168 203 255
168 203 255
168 203 255
168 203 255
168 203 255
168 203 255
168 203 255
169 203 255
169 203 255
169 203 255
169 203 255
169 204 255
169 204 255
169 204 255
169 204 255
169 204 255
169 204 255
169 204 255
169 204 255
170 204 255
170 204 255
170 204 255
170 204 255
170 204 255
170 204 255
170 204 255
170 204 255
170 204 255
170 204 255
170 204 255
170 204 255
171 205 255
171 205 255
171 205 255
171 205 255
171 205 255
171 205 255
171 205 255
171 205 255
171 205 255
171 205 255
171 205 255
171 205 255
172 205 255
172 205 255
172 205 255
172 205 255
172 205 255
172 205 255
172 205 255
172 205 255
172 205 255
172 206 255
172 206 255
172 206 255
172 206 255
173 206 255
173 206 255
173 206 255
173 206 255
173 206 255
173 206 255
173 206 255
173 206 255
173 206 255
173 206 255
173 206 255
173 206 255
173 206 255
173 206 255
174 206 255
174 206 255
174 206 255
174 206 255
174 206 255
174 207 255
174 207 255
174 207 255
174 207 255
174 207 255
174 207 255
174 207 255
174 207 255
174 207 255
174 207 255
175 207 255
175 207 255
175 207 255
175 207 255
175 207 255
175 207 255
175 207 255
175 207 255
175 207 255
175 207 255
175 207 255
175 207 255
175 207 255
175 207 255
175 207 255
175 207 255
176 208 255
176 208 255
176 208 255
176 208 255
176 208 255
176 208 255
176 208 255
176 208 255
176 208 255
176 208 255
176 208 255
176 208 255
176 208 255
176 208 255
176 208 255
176 208 255
176 208 255
176 208 255
176 208 255
176 208 255
176 208 255
176 208 255
176 208 255
176 208 255
176 208 255
175 207 255
175 207 255
175 207 255
175 207 255
175 207 255
175 207 255
175 207 255
175 207 255
175 207 255
175 207 255
175 207 255
175 207 255
175 207 255
175 207 255
175 207 255
175 207 255
174 207 255
174 207 255
174 207 255
174 207 255
174 207 255
174 207 255
174 207 255
174 207 255
174 207 255
174 207 255
174 206 255
174 206 255
174 206 255
174 206 255
173 206 255
173 206 255
173 206 255
173 206 255
173 206 255
173 206 255
173 206 255
173 206 255
173 206 255
173 206 255
173 206 255
173 206 255
173 206 255
173 206 255
172 206 255
172 206 255
172 206 255
172 206 255
172 206 255
172 205 255
172 205 255
172 205 255
172 205 255
172 205 255
172 205 255
172 205 255
172 205 255
171 205 255
171 205 255
171 205 255
171 205 255
171 205 255
171 205 255
171 205 255
171 205 255
171 205 255
171 205 255
171 205 255
171 205 255
170 204 255
170 204 255
170 204 255
170 204 255
170 204 255
170 204 255
170 204 255
170 204 255
170 204 255
170 204 255
170 204 255
170 204 255
169 204 255
169 204 255
169 204 255
169 204 255
169 204 255
169 204 255
169 204 255
169 204 255
169 203 255
169 203 255
169 203 255
169 203 255
168 203 255
168 203 255
168 203 255
168 203 255
168 203 255
168 203 255
168 203 255
168 203 255
168 203 255
168 203 255
168 203 255
167 203 255
167 203 255
167 203 255
167 203 255
167 202 255
167 202 255
167 202 255
167 202 255
167 202 255
167 202 255
167 202 255
167 202 255
166 202 255
166 202 255
166 202 255
166 202 255
166 202 255
166 202 255
166 202 255
166 202 255
166 202 255
166 202 255
166 202 255
166 202 255
165 201 255
165 201 255
165 201 255
165 201 255
165 201 255
165 201 255
165 201 255
165 201 255
165 201 255
165 201 255
165 201 255
165 201 255
165 201 255
165 201 255
164 201 255
164 201 255
164 201 255
164 201 255
164 201 255
164 201 255
164 201 255
164 201 255
164 201 255
142 174 222
97 121 156
74 93 122
76 95 122
77 95 124
73 92 121
74 93 122
74 92 119
74 92 120
76 94 120
74 93 122
70 89 116
76 94 121
74 91 118
77 95 123
71 89 117
73 91 118
72 90 118
74 92 117
70 89 116
71 90 118
70 89 117
72 90 117
71 90 119
76 94 121
74 92 119
70 89 116
73 91 118
72 90 117
72 90 117
72 91 118
74 92 119
72 90 117
74 92 119
73 92 119
69 88 116
73 91 119
74 92 119
75 94 121
72 90 118
74 93 121
76 94 121
72 89 116
71 90 119
76 94 121
74 93 120
74 92 120
73 92 120
73 92 121
73 92 119
75 93 120
74 92 119
74 92 120
72 91 119
72 91 119
71 90 119
73 92 121
72 91 119
73 93 122
73 92 120
74 92 120
72 90 118
74 93 120
73 92 119
75 93 120
73 92 121
106 131 170
152 186 238
164 201 255
164 201 255
164 201 255
164 201 255
164 201 255
164 201 255
164 201 255
164 201 255
164 201 255
165 201 255
165 201 255
165 201 255
165 201 255
165 201 255
165 201 255
165 201 255
165 201 255
165 201 255
165 201 255
165 201 255
165 201 255
165 201 255
166 202 255
166 202 255
166 202 255
166 202 255
166 202 255
166 202 255
166 202 255
166 202 255
166 202 255
166 202 255
166 202 255
166 202 255
166 202 255
167 202 255
167 202 255
167 202 255
167 202 255
167 202 255
167 202 255
167 202 255
167 202 255
167 203 255
167 203 255
167 203 255
167 203 255
168 203 255
168 203 255
168 203 255
168 203 255
168 203 255
168 203 255
168 203 255
168 203 255
168 203 255
168 203 255
168 203 255
169 203 255
169 203 255
169 203 255
169 203 255
169 204 255
169 204 255
169 204 255
169 204 255
169 204 255
169 204 255
169 204 255
169 204 255
170 204 255
170 204 255
170 204 255
170 204 255
170 204 255
170 204 255
170 204 255
170 204 255
170 204 255
170 204 255
170 204 255
171 205 255
171 205 255
171 205 255
171 205 255
171 205 255
171 205 255
171 205 255
171 205 255
171 205 255
171 205 255
171 205 255
171 205 255
171 205 255
172 205 255
172 205 255
172 205 255
172 205 255
172 205 255
172 205 255
172 205 255
172 205 255
172 206 255
172 206 255
172 206 255
172 206 255
172 206 255
173 206 255
173 206 255
173 206 255
173 206 255
173 206 255
173 206 255
173 206 255
173 206 255
173 206 255
173 206 255
173 206 255
173 206 255
173 206 255
174 206 255
174 206 255
174 206 255
174 206 255
174 206 255
174 207 255
174 207 255
174 207 255
174 207 255
174 207 255
174 207 255
174 207 255
174 207 255
174 207 255
174 207 255
175 207 255
175 207 255
175 207 255
175 207 255
175 207 255
175 207 255
175 207 255
175 207 255
175 207 255
175 207 255
175 207 255
175 207 255
175 207 255
175 207 255
175 207 255
175 207 255
175 207 255
176 208 255
176 208 255
176 208 255
176 208 255
176 208 255
176 208 255
176 208 255
176 208 255
176 208 255
176 208 255
176 208 255
176 208 255
176 208 255
176 208 255
177 208 255
176 208 255
176 208 255
176 208 255
176 208 255
176 208 255
176 208 255
176 208 255
176 208 255
176 208 255
176 208 255
176 208 255
176 208 255
176 208 255
176 208 255
176 208 255
176 208 255
176 208 255
176 208 255
176 208 255
175 207 255
175 207 255
175 207 255
175 207 255
175 207 255
175 207 255
175 207 255
175 207 255
175 207 255
175 207 255
175 207 255
175 207 255
175 207 255
175 207 255
175 207 255
174 207 255
174 207 255
174 207 255
174 207 255
174 207 255
174 207 255
174 207 255
174 207 255
174 207 255
174 207 255
174 206 255
174 206 255
174 206 255
174 206 255
174 206 255
173 206 255
173 206 255
173 206 255
173 206 255
173 206 255
173 206 255
173 206 255
173 206 255
173 206 255
173 206 255
173 206 255
173 206 255
173 206 255
172 206 255
172 206 255
172 206 255
172 206 255
172 206 255
172 205 255
172 205 255
172 205 255
172 205 255
172 205 255
172 205 255
172 205 255
172 205 255
171 205 255
171 205 255
171 205 255
171 205 255
171 205 255
171 205 255
171 205 255
171 205 255
171 205 255
171 205 255
171 205 255
171 205 255
170 204 255
170 204 255
170 204 255
170 204 255
170 204 255
170 204 255
170 204 255
170 204 255
170 204 255
170 204 255
170 204 255
170 204 255
170 204 255
169 204 255
169 204 255
169 204 255
169 204 255
169 204 255
169 204 255
169 204 255
169 203 255
169 203 255
169 203 255
169 203 255
168 203 255
168 203 255
168 203 255
168 203 255
168 203 255
168 203 255
168 203 255
168 203 255
168 203 255
168 203 255
168 203 255
168 203 255
167 203 255
167 203 255
167 203 255
167 203 255
167 202 255
167 202 255
167 202 255
167 202 255
167 202 255
167 202 255
167 202 255
167 202 255
166 202 255
166 202 255
166 202 255
166 202 255
166 202 255
166 202 255
166 202 255
166 202 255
166 202 255
166 202 255
166 202 255
166 202 255
165 201 255
165 201 255
165 201 255
165 201 255
165 201 255
165 201 255
165 201 255
165 201 255
165 201 255
165 201 255
165 201 255
165 201 255
165 201 255
165 201 255
165 201 255
165 201 255
159 194 247
120 149 191
76 96 126
75 94 122
73 91 118
72 91 119
74 92 119
74 93 122
72 90 118
72 90 118
77 96 124
73 92 120
75 93 120
73 91 117
76 94 120
77 95 122
76 94 121
75 93 120
72 90 117
72 91 119
73 91 119
73 90 116
72 90 119
73 92 119
72 90 117
74 93 122
73 92 119
75 93 119
71 89 116
71 89 117
72 89 116
73 90 117
71 90 118
72 90 117
73 91 118
73 91 118
72 91 119
72 91 119
76 93 119
72 89 116
72 90 117
74 91 117
70 88 115
73 90 116
73 90 117
71 90 118
71 89 115
73 91 117
74 92 119
72 90 117
74 92 119
73 91 118
73 91 119
71 89 117
75 93 120
73 92 120
72 90 116
72 90 117
72 91 119
72 90 117
74 92 119
73 93 121
74 92 119
73 92 121
75 93 120
75 93 122
75 94 122
75 93 121
73 91 118
73 92 120
115 141 181
160 195 249
165 201 255
165 201 255
165 201 255
165 201 255
165 201 255
165 201 255
165 201 255
165 201 255
165 201 255
165 201 255
165 201 255
165 201 255
165 201 255
165 201 255
165 201 255
166 202 255
166 202 255
166 202 255
166 202 255
166 202 255
166 202 255
166 202 255
166 202 255
166 202 255
166 202 255
166 202 255
166 202 255
166 202 255
167 202 255
167 202 255
167 202 255
167 202 255
167 202 255
167 202 255
167 202 255
167 202 255
167 202 255
167 203 255
167 203 255
167 203 255
168 203 255
168 203 255
168 203 255
168 203 255
168 203 255
168 203 255
168 203 255
168 203 255
168 203 255
168 203 255
168 203 255
168 203 255
169 203 255
169 203 255
169 203 255
169 203 255
169 204 255
169 204 255
169 204 255
169 204 255
169 204 255
169 204 255
169 204 255
169 204 255
170 204 255
170 204 255
170 204 255
170 204 255
170 204 255
170 204 255
170 204 255
170 204 255
170 204 255
170 204 255
170 204 255
170 204 255
171 205 255
171 205 255
171 205 255
171 205 255
171 205 255
171 205 255
171 205 255
171 205 255
171 205 255
171 205 255
171 205 255
172 205 255
172 205 255
172 205 255
172 205 255
172 205 255
172 205 255
172 205 255
172 205 255
172 205 255
172 206 255
172 206 255
172 206 255
172 206 255
172 206 255
173 206 255
173 206 255
173 206 255
173 206 255
173 206 255
173 206 255
173 206 255
173 206 255
173 206 255
173 206 255
173 206 255
173 206 255
173 206 255
174 206 255
174 206 255
174 206 255
174 206 255
174 206 255
174 207 255
174 207 255
174 207 255
174 207 255
174 207 255
174 207 255
174 207 255
174 207 255
174 207 255
174 207 255
175 207 255
175 207 255
175 207 255
175 207 255
175 207 255
175 207 255
175 207 255
175 207 255
175 207 255
175 207 255
175 207 255
175 207 255
175 207 255
175 207 255
175 207 255
175 207 255
176 208 255
176 208 255
176 208 255
176 208 255
176 208 255
176 208 255
176 208 255
176 208 255
176 208 255
176 208 255
176 208 255
176 208 255
176 208 255
176 208 255
176 208 255
176 208 255
176 208 255
177 208 255
177 208 255
177 208 255
177 208 255
177 208 255
177 208 255
177 208 255
177 208 255
176 208 255
176 208 255
176 208 255
176 208 255
176 208 255
176 208 255
176 208 255
176 208 255
176 208 255
176 208 255
176 208 255
176 208 255
176 208 255
176 208 255
176 208 255
176 208 255
176 208 255
176 208 255
175 207 255
175 207 255
175 207 255
175 207 255
175 207 255
175 207 255
175 207 255
175 207 255
175 207 255
175 207 255
175 207 255
175 207 255
175 207 255
175 207 255
175 207 255
174 207 255
174 207 255
174 207 255
174 207 255
174 207 255
174 207 255
174 207 255
174 207 255
174 207 255
174 207 255
174 206 255
174 206 255
174 206 255
174 206 255
174 206 255
173 206 255
173 206 255
173 206 255
173 206 255
173 206 255
173 206 255
173 206 255
173 206 255
173 206 255
173 206 255
173 206 255
173 206 255
173 206 255
173 206 255
172 206 255
172 206 255
172 206 255
172 206 255
172 205 255
172 205 255
172 205 255
172 205 255
172 205 255
172 205 255
172 205 255
172 205 255
172 205 255
171 205 255
171 205 255
171 205 255
171 205 255
171 205 255
171 205 255
171 205 255
171 205 255
171 205 255
171 205 255
171 205 255
171 205 255
170 204 255
170 204 255
170 204 255
170 204 255
170 204 255
170 204 255
170 204 255
170 204 255
170 204 255
170 204 255
170 204 255
170 204 255
169 204 255
169 204 255
169 204 255
169 204 255
169 204 255
169 204 255
169 204 255
169 203 255
169 203 255
169 203 255
169 203 255
168 203 255
168 203 255
168 203 255
168 203 255
168 203 255
168 203 255
168 203 255
168 203 255
168 203 255
168 203 255
168 203 255
168 203 255
167 203 255
167 203 255
167 203 255
167 203 255
167 202 255
167 202 255
167 202 255
167 202 255
167 202 255
167 202 255
167 202 255
167 202 255
166 202 255
166 202 255
166 202 255
166 202 255
166 202 255
166 202 255
166 202 255
166 202 255
166 202 255
166 202 255
166 202 255
166 202 255
166 202 255
166 202 255
165 201 255
165 201 255
165 201 255
165 201 255
165 201 255
165 201 255
165 201 255
165 201 255
165 201 255
149 182 232
86 107 138
73 92 119
71 90 119
73 92 120
73 92 120
75 93 120
73 92 120
69 86 113
74 92 119
72 91 118
71 89 117
74 91 117
72 90 117
70 87 114
72 91 119
71 89 115
75 94 122
74 93 120
71 88 113
74 91 118
69 87 114
74 92 119
77 94 121
71 89 117
71 90 118
70 88 114
72 89 116
67 84 110
74 92 120
72 90 118
69 86 113
74 92 120
73 91 119
72 90 116
74 92 120
73 92 120
73 91 119
72 90 117
72 89 116
71 89 116
76 94 121
73 91 117
76 95 123
73 91 118
75 93 120
72 91 118
68 86 113
72 91 118
73 91 118
76 94 120
69 88 115
74 92 119
74 92 119
73 91 118
76 93 120
74 92 119
75 93 121
71 90 118
74 92 119
73 92 120
70 89 117
75 93 122
74 92 120
72 91 119
75 93 121
71 89 118
75 93 120
75 94 123
77 95 121
75 94 124
74 93 121
84 104 136
144 176 225
165 201 255
165 201 255
165 201 255
165 201 255
165 201 255
165 201 255
165 201 255
165 201 255
165 201 255
166 202 255
166 202 255
166 202 255
166 202 255
166 202 255
166 202 255
166 202 255
166 202 255
166 202 255
166 202 255
166 202 255
166 202 255
166 202 255
166 202 255
167 202 255
167 202 255
167 202 255
167 202 255
167 202 255
167 202 255
167 202 255
167 202 255
167 203 255
167 203 255
167 203 255
167 203 255
168 203 255
168 203 255
168 203 255
168 203 255
168 203 255
168 203 255
168 203 255
168 203 255
168 203 255
168 203 255
168 203 255
168 203 255
169 203 255
169 203 255
169 203 255
169 203 255
169 204 255
169 204 255
169 204 255
169 204 255
169 204 255
169 204 255
169 204 255
169 204 255
170 204 255
170 204 255
170 204 255
170 204 255
170 204 255
170 204 255
170 204 255
170 204 255
170 204 255
170 204 255
170 204 255
171 205 255
171 205 255
171 205 255
171 205 255
171 205 255
171 205 255
171 205 255
171 205 255
171 205 255
171 205 255
171 205 255
171 205 255
171 205 255
172 205 255
172 205 255
172 205 255
172 205 255
172 205 255
172 205 255
172 205 255
172 205 255
172 206 255
172 206 255
172 206 255
172 206 255
173 206 255
173 206 255
173 206 255
173 206 255
173 206 255
173 206 255
173 206 255
173 206 255
173 206 255
173 206 255
173 206 255
173 206 255
173 206 255
173 206 255
174 206 255
174 206 255
174 206 255
174 206 255
174 206 255
174 207 255
174 207 255
174 207 255
174 207 255
174 207 255
174 207 255
174 207 255
174 207 255
174 207 255
175 207 255
175 207 255
175 207 255
175 207 255
175 207 255
175 207 255
175 207 255
175 207 255
175 207 255
175 207 255
175 207 255
175 207 255
175 207 255
175 207 255
175 207 255
175 207 255
176 208 255
176 208 255
176 208 255
176 208 255
176 208 255
176 208 255
176 208 255
176 208 255
176 208 255
176 208 255
176 208 255
176 208 255
176 208 255
176 208 255
176 208 255
176 208 255
176 208 255
176 208 255
177 208 255
177 208 255
177 208 255
177 208 255
177 208 255
177 208 255
177 208 255
177 208 255
177 208 255
177 208 255
177 208 255
177 208 255
177 208 255
177 208 255
177 208 255
177 208 255
177 208 255
176 208 255
176 208 255
176 208 255
176 208 255
176 208 255
176 208 255
176 208 255
176 208 255
176 208 255
176 208 255
176 208 255
176 208 255
176 208 255
176 208 255
176 208 255
176 208 255
176 208 255
175 207 255
175 207 255
175 207 255
175 207 255
175 207 255
175 207 255
175 207 255
175 207 255
175 207 255
175 207 255
175 207 255
175 207 255
175 207 255
175 207 255
175 207 255
175 207 255
174 207 255
174 207 255
174 207 255
174 207 255
174 207 255
174 207 255
174 207 255
174 207 255
174 207 255
174 207 255
174 206 255
174 206 255
174 206 255
174 206 255
174 206 255
173 206 255
173 206 255
173 206 255
173 206 255
173 206 255
173 206 255
173 206 255
173 206 255
173 206 255
173 206 255
173 206 255
173 206 255
173 206 255
172 206 255
172 206 255
172 206 255
172 206 255
172 205 255
172 205 255
172 205 255
172 205 255
172 205 255
172 205 255
172 205 255
172 205 255
172 205 255
171 205 255
171 205 255
171 205 255
171 205 255
171 205 255
171 205 255
171 205 255
171 205 255
171 205 255
171 205 255
171 205 255
171 205 255
170 204 255
170 204 255
170 204 255
170 204 255
170 204 255
170 204 255
170 204 255
170 204 255
170 204 255
170 204 255
170 204 255
170 204 255
169 204 255
169 204 255
169 204 255
169 204 255
169 204 255
169 204 255
169 204 255
169 204 255
169 203 255
169 203 255
169 203 255
169 203 255
168 203 255
168 203 255
168 203 255
168 203 255
168 203 255
168 203 255
168 203 255
168 203 255
168 203 255
168 203 255
168 203 255
168 203 255
167 203 255
167 203 255
167 203 255
167 203 255
167 202 255
167 202 255
167 202 255
167 202 255
167 202 255
167 202 255
167 202 255
167 202 255
167 202 255
166 202 255
166 202 255
166 202 255
166 202 255
166 202 255
166 202 255
166 202 255
166 202 255
166 202 255
166 202 255
166 202 255
166 202 255
166 202 255
166 202 255
165 201 255
165 200 254
116 142 183
75 94 122
75 94 124
72 90 117
75 93 122
75 93 121
74 92 119
71 89 116
74 93 120
73 91 119
71 89 115
70 89 117
69 87 115
72 89 115
71 90 119
70 88 115
72 90 118
74 92 120
74 91 117
72 89 116
71 89 115
70 88 115
73 91 119
71 88 114
74 91 118
76 95 124
72 89 115
71 89 117
72 90 117
72 89 114
73 91 118
75 93 120
71 89 117
74 91 117
68 85 111
69 86 112
70 88 114
68 86 114
72 91 118
74 93 121
73 90 116
75 93 119
72 90 117
70 87 114
70 87 112
72 90 117
71 88 114
71 89 117
72 90 116
71 90 117
74 91 117
74 92 118
74 91 118
74 92 119
72 90 115
70 87 113
71 90 117
69 86 113
72 91 119
71 88 115
74 92 119
72 90 117
73 91 118
70 88 114
75 93 122
75 94 123
72 89 116
72 90 117
73 92 120
71 89 116
74 92 120
75 93 120
73 91 119
73 92 120
73 92 121
115 141 181
162 197 250
166 202 255
166 202 255
166 202 255
166 202 255
166 202 255
166 202 255
166 202 255
166 202 255
166 202 255
166 202 255
166 202 255
166 202 255
166 202 255
166 202 255
166 202 255
167 202 255
167 202 255
167 202 255
167 202 255
167 202 255
167 202 255
167 202 255
167 202 255
167 202 255
167 203 255
167 203 255
167 203 255
167 203 255
168 203 255
168 203 255
168 203 255
168 203 255
168 203 255
168 203 255
168 203 255
168 203 255
168 203 255
168 203 255
168 203 255
168 203 255
169 203 255
169 203 255
169 203 255
169 203 255
169 204 255
169 204 255
169 204 255
169 204 255
169 204 255
169 204 255
169 204 255
169 204 255
170 204 255
170 204 255
170 204 255
170 204 255
170 204 255
170 204 255
170 204 255
170 204 255
170 204 255
170 204 255
170 204 255
170 204 255
171 205 255
171 205 255
171 205 255
171 205 255
171 205 255
171 205 255
171 205 255
171 205 255
171 205 255
171 205 255
171 205 255
171 205 255
172 205 255
172 205 255
172 205 255
172 205 255
172 205 255
172 205 255
172 205 255
172 205 255
172 205 255
172 206 255
172 206 255
172 206 255
172 206 255
173 206 255
173 206 255
173 206 255
173 206 255
173 206 255
173 206 255
173 206 255
173 206 255
173 206 255
173 206 255
173 206 255
173 206 255
173 206 255
173 206 255
174 206 255
174 206 255
174 206 255
174 206 255
174 207 255
174 207 255
174 207 255
174 207 255
174 207 255
174 207 255
174 207 255
174 207 255
174 207 255
174 207 255
175 207 255
175 207 255
175 207 255
175 207 255
175 207 255
175 207 255
175 207 255
175 207 255
175 207 255
175 207 255
175 207 255
175 207 255
175 207 255
175 207 255
175 207 255
175 207 255
176 208 255
176 208 255
176 208 255
176 208 255
176 208 255
176 208 255
176 208 255
176 208 255
176 208 255
176 208 255
176 208 255
176 208 255
176 208 255
176 208 255
176 208 255
176 208 255
176 208 255
177 208 255
177 208 255
177 208 255
177 208 255
177 208 255
177 208 255
177 208 255
177 208 255
177 208 255
177 208 255
177 208 255
177 209 255
177 209 255
177 209 255
177 209 255
177 208 255
177 208 255
177 208 255
177 208 255
177 208 255
177 208 255
177 208 255
177 208 255
177 208 255
177 208 255
177 208 255
177 208 255
176 208 255
176 208 255
176 208 255
176 208 255
176 208 255
176 208 255
176 208 255
176 208 255
176 208 255
176 208 255
176 208 255
176 208 255
176 208 255
176 208 255
176 208 255
176 208 255
176 208 255
175 207 255
175 207 255
175 207 255
175 207 255
175 207 255
175 207 255
175 207 255
175 207 255
175 207 255
175 207 255
175 207 255
175 207 255
175 207 255
175 207 255
175 207 255
174 207 255
174 207 255
174 207 255
174 207 255
174 207 255
174 207 255
174 207 255
174 207 255
174 207 255
174 207 255
174 206 255
174 206 255
174 206 255
174 206 255
174 206 255
173 206 255
173 206 255
173 206 255
173 206 255
173 206 255
173 206 255
173 206 255
173 206 255
173 206 255
173 206 255
173 206 255
173 206 255
173 206 255
172 206 255
172 206 255
172 206 255
172 206 255
172 206 255
172 205 255
172 205 255
172 205 255
172 205 255
172 205 255
172 205 255
172 205 255
172 205 255
171 205 255
171 205 255
171 205 255
171 205 255
171 205 255
171 205 255
171 205 255
171 205 255
171 205 255
171 205 255
171 205 255
171 205 255
170 204 255
170 204 255
170 204 255
170 204 255
170 204 255
170 204 255
170 204 255
170 204 255
170 204 255
170 204 255
170 204 255
170 204 255
169 204 255
169 204 255
169 204 255
169 204 255
169 204 255
169 204 255
169 204 255
169 204 255
169 203 255
169 203 255
169 203 255
169 203 255
168 203 255
168 203 255
168 203 255
168 203 255
168 203 255
168 203 255
168 203 255
168 203 255
168 203 255
168 203 255
168 203 255
168 203 255
168 203 255
167 203 255
167 203 255
167 203 255
167 203 255
167 202 255
167 202 255
167 202 255
167 202 255
167 202 255
167 202 255
167 202 255
167 202 255
167 202 255
166 202 255
166 202 255
166 202 255
166 202 255
166 202 255
166 202 255
166 202 255
166 202 255
166 202 255
147 180 229
92 115 149
74 92 119
73 92 120
74 92 119
71 89 117
72 91 119
73 91 119
73 90 117
72 91 119
72 89 114
73 90 116
77 94 121
74 92 120
70 87 113
76 94 120
72 91 118
72 90 117
73 91 119
73 91 119
75 92 118
74 92 119
73 92 120
72 90 117
75 92 119
74 93 122
71 88 114
74 92 119
70 88 114
72 90 116
71 89 115
76 95 122
69 87 113
71 89 115
75 93 121
72 90 117
75 93 120
73 89 114
74 91 117
77 95 121
74 91 118
75 93 120
75 93 120
73 92 119
70 88 115
72 90 117
75 93 120
75 93 120
74 91 117
72 90 118
73 91 118
73 91 118
72 91 119
74 92 119
72 90 117
72 90 117
72 90 117
69 86 112
69 87 114
73 90 117
72 90 117
71 89 115
73 92 119
75 94 121
72 91 119
73 90 116
76 94 122
76 93 119
76 94 120
72 89 116
72 90 118
75 93 120
73 91 117
73 92 120
75 93 120
72 90 117
74 92 119
73 90 117
93 115 149
159 193 245
166 202 255
166 202 255
166 202 255
166 202 255
166 202 255
166 202 255
166 202 255
166 202 255
166 202 255
167 202 255
167 202 255
167 202 255
167 202 255
167 202 255
167 202 255
167 202 255
167 202 255
167 202 255
167 203 255
167 203 255
167 203 255
167 203 255
168 203 255
168 203 255
168 203 255
168 203 255
168 203 255
168 203 255
168 203 255
168 203 255
168 203 255
168 203 255
168 203 255
168 203 255
168 203 255
169 203 255
169 203 255
169 203 255
169 203 255
169 204 255
169 204 255
169 204 255
169 204 255
169 204 255
169 204 255
169 204 255
169 204 255
170 204 255
170 204 255
170 204 255
170 204 255
170 204 255
170 204 255
170 204 255
170 204 255
170 204 255
170 204 255
170 204 255
170 204 255
171 205 255
171 205 255
171 205 255
171 205 255
171 205 255
171 205 255
171 205 255
171 205 255
171 205 255
171 205 255
171 205 255
171 205 255
172 205 255
172 205 255
172 205 255
172 205 255
172 205 255
172 205 255
172 205 255
172 205 255
172 205 255
172 206 255
172 206 255
172 206 255
172 206 255
173 206 255
173 206 255
173 206 255
173 206 255
173 206 255
173 206 255
173 206 255
173 206 255
173 206 255
173 206 255
173 206 255
173 206 255
173 206 255
174 206 255
174 206 255
174 206 255
174 206 255
174 206 255
174 207 255
174 207 255
174 207 255
174 207 255
174 207 255
174 207 255
174 207 255
174 207 255
174 207 255
174 207 255
175 207 255
175 207 255
175 207 255
175 207 255
175 207 255
175 207 255
175 207 255
175 207 255
175 207 255
175 207 255
175 207 255
175 207 255
175 207 255
175 207 255
175 207 255
176 208 255
176 208 255
176 208 255
176 208 255
176 208 255
176 208 255
176 208 255
176 208 255
176 208 255
176 208 255
176 208 255
176 208 255
176 208 255
176 208 255
176 208 255
176 208 255
176 208 255
177 208 255
177 208 255
177 208 255
177 208 255
177 208 255
177 208 255
177 208 255
177 208 255
177 208 255
177 208 255
177 208 255
177 208 255
177 209 255
177 209 255
177 209 255
177 209 255
178 209 255
178 209 255
177 209 255
177 209 255
177 209 255
177 209 255
177 209 255
177 209 255
177 208 255
177 208 255
177 208 255
177 208 255
177 208 255
177 208 255
177 208 255
177 208 255
177 208 255
177 208 255
177 208 255
177 208 255
177 208 255
176 208 255
176 208 255
176 208 255
176 208 255
176 208 255
176 208 255
176 208 255
176 208 255
176 208 255
176 208 255
176 208 255
176 208 255
176 208 255
176 208 255
176 208 255
176 208 255
176 208 255
175 207 255
175 207 255
175 207 255
175 207 255
175 207 255
175 207 255
175 207 255
175 207 255
175 207 255
175 207 255
175 207 255
175 207 255
175 207 255
175 207 255
175 207 255
174 207 255
174 207 255
174 207 255
174 207 255
174 207 255
174 207 255
174 207 255
174 207 255
174 207 255
174 206 255
174 206 255
174 206 255
174 206 255
174 206 255
173 206 255
173 206 255
173 206 255
173 206 255
173 206 255
173 206 255
173 206 255
173 206 255
173 206 255
173 206 255
173 206 255
173 206 255
173 206 255
173 206 255
172 206 255
172 206 255
172 206 255
172 206 255
172 205 255
172 205 255
172 205 255
172 205 255
172 205 255
172 205 255
172 205 255
172 205 255
171 205 255
171 205 255
171 205 255
171 205 255
171 205 255
171 205 255
171 205 255
171 205 255
171 205 255
171 205 255
171 205 255
171 205 255
171 205 255
170 204 255
170 204 255
170 204 255
170 204 255
170 204 255
170 204 255
170 204 255
170 204 255
170 204 255
170 204 255
170 204 255
170 204 255
169 204 255
169 204 255
169 204 255
169 204 255
169 204 255
169 204 255
169 204 255
169 204 255
169 203 255
169 203 255
169 203 255
169 203 255
168 203 255
168 203 255
168 203 255
168 203 255
168 203 255
168 203 255
168 203 255
168 203 255
168 203 255
168 203 255
168 203 255
168 203 255
168 203 255
167 203 255
167 203 255
167 203 255
167 203 255
167 203 255
167 202 255
167 202 255
167 202 255
167 202 255
167 202 255
167 202 255
167 202 255
167 202 255
167 202 255
167 202 255
166 202 255
138 169 215
78 97 127
71 89 116
72 90 118
72 91 119
76 95 124
72 90 118
76 94 120
76 94 121
74 92 120
70 88 115
71 88 113
74 92 119
73 91 117
75 93 119
72 90 117
73 91 119
71 88 115
71 90 117
73 90 117
70 87 114
69 87 113
74 93 121
73 92 120
74 92 118
75 92 119
72 90 117
73 90 116
76 94 120
68 85 112
76 95 122
74 92 119
69 86 112
71 88 115
72 91 118
71 89 117
73 91 117
73 91 118
73 91 117
74 92 120
70 88 115
71 90 117
72 90 117
72 90 117
68 86 112
71 89 115
74 92 119
73 91 117
72 90 117
68 87 115
74 93 120
70 88 115
70 89 117
73 91 119
74 92 120
74 92 119
76 95 123
71 90 118
73 90 116
72 89 115
73 91 117
73 90 115
72 90 117
77 96 124
69 86 112
69 87 114
70 88 115
74 92 119
73 91 117
72 91 118
68 86 113
73 91 117
72 90 117
70 88 115
72 89 115
74 92 120
72 91 119
71 89 116
74 92 119
74 92 119
82 102 132
141 172 218
166 202 255
167 202 255
167 202 255
167 202 255
167 202 255
167 202 255
167 202 255
167 202 255
167 202 255
167 202 255
167 202 255
167 203 255
167 203 255
167 203 255
167 203 255
167 203 255
168 203 255
168 203 255
168 203 255
168 203 255
168 203 255
168 203 255
168 203 255
168 203 255
168 203 255
168 203 255
168 203 255
168 203 255
168 203 255
169 203 255
169 203 255
169 203 255
169 203 255
169 204 255
169 204 255
169 204 255
169 204 255
169 204 255
169 204 255
169 204 255
169 204 255
170 204 255
170 204 255
170 204 255
170 204 255
170 204 255
170 204 255
170 204 255
170 204 255
170 204 255
170 204 255
170 204 255
170 204 255
170 204 255
171 205 255
171 205 255
171 205 255
171 205 255
171 205 255
171 205 255
171 205 255
171 205 255
171 205 255
171 205 255
171 205 255
171 205 255
172 205 255
172 205 255
172 205 255
172 205 255
172 205 255
172 205 255
172 205 255
172 205 255
172 206 255
172 206 255
172 206 255
172 206 255
172 206 255
173 206 255
173 206 255
173 206 255
173 206 255
173 206 255
173 206 255
173 206 255
173 206 255
173 206 255
173 206 255
173 206 255
173 206 255
173 206 255
174 206 255
174 206 255
174 206 255
174 206 255
174 207 255
174 207 255
174 207 255
174 207 255
174 207 255
174 207 255
174 207 255
174 207 255
174 207 255
174 207 255
175 207 255
175 207 255
175 207 255
175 207 255
175 207 255
175 207 255
175 207 255
175 207 255
175 207 255
175 207 255
175 207 255
175 207 255
175 207 255
175 207 255
175 207 255
176 208 255
176 208 255
176 208 255
176 208 255
176 208 255
176 208 255
176 208 255
176 208 255
176 208 255
176 208 255
176 208 255
176 208 255
176 208 255
176 208 255
176 208 255
176 208 255
176 208 255
177 208 255
177 208 255
177 208 255
177 208 255
177 208 255
177 208 255
177 208 255
177 208 255
177 208 255
177 208 255
177 208 255
177 208 255
177 209 255
177 209 255
177 209 255
177 209 255
177 209 255
177 209 255
177 209 255
178 209 255
178 209 255
178 209 255
178 209 255
178 209 255
178 209 255
178 209 255
178 209 255
178 209 255
178 209 255
177 209 255
177 209 255
177 209 255
177 209 255
177 209 255
177 209 255
177 208 255
177 208 255
177 208 255
177 208 255
177 208 255
177 208 255
177 208 255
177 208 255
177 208 255
177 208 255
177 208 255
177 208 255
176 208 255
176 208 255
176 208 255
176 208 255
176 208 255
176 208 255
176 208 255
176 208 255
176 208 255
176 208 255
176 208 255
176 208 255
176 208 255
176 208 255
176 208 255
176 208 255
175 207 255
175 207 255
175 207 255
175 207 255
175 207 255
175 207 255
175 207 255
175 207 255
175 207 255
175 207 255
175 207 255
175 207 255
175 207 255
175 207 255
175 207 255
175 207 255
174 207 255
174 207 255
174 207 255
174 207 255
174 207 255
174 207 255
174 207 255
174 207 255
174 207 255
174 206 255
174 206 255
174 206 255
174 206 255
174 206 255
173 206 255
173 206 255
173 206 255
173 206 255
173 206 255
173 206 255
173 206 255
173 206 255
173 206 255
173 206 255
173 206 255
173 206 255
173 206 255
172 206 255
172 206 255
172 206 255
172 206 255
172 205 255
172 205 255
172 205 255
172 205 255
172 205 255
172 205 255
172 205 255
172 205 255
172 205 255
171 205 255
171 205 255
171 205 255
171 205 255
171 205 255
171 205 255
171 205 255
171 205 255
171 205 255
171 205 255
171 205 255
171 205 255
170 204 255
170 204 255
170 204 255
170 204 255
170 204 255
170 204 255
170 204 255
170 204 255
170 204 255
170 204 255
170 204 255
170 204 255
170 204 255
169 204 255
169 204 255
169 204 255
169 204 255
169 204 255
169 204 255
169 204 255
169 204 255
169 203 255
169 203 255
169 203 255
169 203 255
168 203 255
168 203 255
168 203 255
168 203 255
168 203 255
168 203 255
168 203 255
168 203 255
168 203 255
168 203 255
168 203 255
168 203 255
168 203 255
168 203 255
167 203 255
167 203 255
167 203 255
167 203 255
167 203 255
167 202 255
167 202 255
167 202 255
167 202 255
135 165 209
73 91 118
76 94 121
71 89 115
74 94 123
74 92 119
74 92 119
72 90 116
76 94 121
73 92 120
75 93 120
75 93 121
72 90 117
73 91 119
74 92 120
72 89 115
72 90 116
73 91 119
69 87 114
70 87 113
71 89 114
72 89 115
74 92 118
75 93 119
75 93 120
74 92 119
70 87 113
71 89 116
70 88 114
69 86 111
69 88 116
70 87 113
73 91 119
70 87 111
73 91 117
71 88 114
72 90 117
73 91 117
74 91 117
74 91 117
72 89 115
73 91 118
68 84 110
70 87 112
71 90 118
72 89 116
74 91 117
74 93 120
72 90 117
70 87 112
68 86 112
72 90 117
72 90 117
72 89 115
71 88 113
75 93 120
74 92 119
71 90 117
72 89 115
72 89 115
73 91 118
72 89 115
69 87 114
72 90 116
72 91 118
72 90 117
74 92 119
73 91 117
71 89 116
73 92 120
72 90 118
72 90 118
74 93 121
72 90 117
72 90 116
73 90 117
70 88 115
73 92 120
71 90 119
73 91 117
76 95 123
74 92 120
71 90 118
126 154 196
166 201 254
167 202 255
167 202 255
167 202 255
167 203 255
167 203 255
167 203 255
167 203 255
167 203 255
168 203 255
168 203 255
168 203 255
168 203 255
168 203 255
168 203 255
168 203 255
168 203 255
168 203 255
168 203 255
168 203 255
168 203 255
168 203 255
168 203 255
169 203 255
169 203 255
169 203 255
169 203 255
169 204 255
169 204 255
169 204 255
169 204 255
169 204 255
169 204 255
169 204 255
169 204 255
169 204 255
170 204 255
170 204 255
170 204 255
170 204 255
170 204 255
170 204 255
170 204 255
170 204 255
170 204 255
170 204 255
170 204 255
170 204 255
171 205 255
171 205 255
171 205 255
171 205 255
171 205 255
171 205 255
171 205 255
171 205 255
171 205 255
171 205 255
171 205 255
171 205 255
172 205 255
172 205 255
172 205 255
172 205 255
172 205 255
172 205 255
172 205 255
172 205 255
172 205 255
172 206 255
172 206 255
172 206 255
172 206 255
173 206 255
173 206 255
173 206 255
173 206 255
173 206 255
173 206 255
173 206 255
173 206 255
173 206 255
173 206 255
173 206 255
173 206 255
173 206 255
174 206 255
174 206 255
174 206 255
174 206 255
174 206 255
174 207 255
174 207 255
174 207 255
174 207 255
174 207 255
174 207 255
174 207 255
174 207 255
174 207 255
175 207 255
175 207 255
175 207 255
175 207 255
175 207 255
175 207 255
175 207 255
175 207 255
175 207 255
175 207 255
175 207 255
175 207 255
175 207 255
175 207 255
175 207 255
175 207 255
176 208 255
176 208 255
176 208 255
176 208 255
176 208 255
176 208 255
176 208 255
176 208 255
176 208 255
176 208 255
176 208 255
176 208 255
176 208 255
176 208 255
176 208 255
176 208 255
177 208 255
177 208 255
177 208 255
177 208 255
177 208 255
177 208 255
177 208 255
177 208 255
177 208 255
177 208 255
177 208 255
177 208 255
177 209 255
177 209 255
177 209 255
177 209 255
177 209 255
177 209 255
177 209 255
178 209 255
178 209 255
178 209 255
178 209 255
178 209 255
178 209 255
178 209 255
178 209 255
178 209 255
178 209 255
178 209 255
178 209 255
178 209 255
178 209 255
178 209 255
178 209 255
178 209 255
178 209 255
178 209 255
177 209 255
177 209 255
177 209 255
177 209 255
177 209 255
177 209 255
177 209 255
177 208 255
177 208 255
177 208 255
177 208 255
177 208 255
177 208 255
177 208 255
177 208 255
177 208 255
177 208 255
177 208 255
177 208 255
176 208 255
176 208 255
176 208 255
176 208 255
176 208 255
176 208 255
176 208 255
176 208 255
176 208 255
176 208 255
176 208 255
176 208 255
176 208 255
176 208 255
176 208 255
176 208 255
175 207 255
175 207 255
175 207 255
175 207 255
175 207 255
175 207 255
175 207 255
175 207 255
175 207 255
175 207 255
175 207 255
175 207 255
175 207 255
175 207 255
175 207 255
174 207 255
174 207 255
174 207 255
174 207 255
174 207 255
174 207 255
174 207 255
174 207 255
174 207 255
174 207 255
174 206 255
174 206 255
174 206 255
174 206 255
173 206 255
173 206 255
173 206 255
173 206 255
173 206 255
173 206 255
173 206 255
173 206 255
173 206 255
173 206 255
173 206 255
173 206 255
173 206 255
173 206 255
172 206 255
172 206 255
172 206 255
172 206 255
172 205 255
172 205 255
172 205 255
172 205 255
172 205 255
172 205 255
172 205 255
172 205 255
171 205 255
171 205 255
171 205 255
171 205 255
171 205 255
171 205 255
171 205 255
171 205 255
171 205 255
171 205 255
171 205 255
171 205 255
171 205 255
170 204 255
170 204 255
170 204 255
170 204 255
170 204 255
170 204 255
170 204 255
170 204 255
170 204 255
170 204 255
170 204 255
170 204 255
170 204 255
169 204 255
169 204 255
169 204 255
169 204 255
169 204 255
169 204 255
169 204 255
169 204 255
169 203 255
169 203 255
169 203 255
169 203 255
168 203 255
168 203 255
168 203 255
168 203 255
168 203 255
168 203 255
168 203 255
168 203 255
168 203 255
168 203 255
168 203 255
168 203 255
168 203 255
168 203 255
168 203 255
167 203 255
167 203 255
104 129 165
70 89 118
76 94 121
71 90 118
75 93 119
72 90 117
73 91 117
74 92 119
76 93 120
71 89 115
71 88 114
72 89 114
74 92 119
69 87 114
71 89 116
70 88 115
71 89 116
70 87 113
72 89 114
69 87 113
71 88 114
70 87 112
72 89 115
69 88 115
70 86 112
72 89 115
71 88 113
70 87 113
74 91 117
70 87 114
70 87 114
70 87 112
74 92 119
73 91 119
72 88 113
67 84 110
70 88 115
75 92 119
73 91 117
73 90 116
72 90 115
72 90 117
75 93 120
70 88 114
70 88 115
76 93 119
71 89 116
69 85 110
70 87 113
73 91 117
71 89 115
74 91 118
77 95 121
74 91 117
68 86 112
70 88 114
75 93 120
74 92 119
74 92 119
73 91 117
72 89 115
75 92 119
75 94 122
72 89 116
70 88 114
72 90 117
72 91 120
69 86 112
73 90 115
73 91 117
73 91 118
72 90 118
71 87 112
70 86 112
72 90 116
71 88 113
76 94 120
71 89 116
75 92 119
75 94 121
73 90 115
74 93 121
77 95 122
71 89 117
72 90 117
112 138 176
164 199 250
167 203 255
168 203 255
168 203 255
168 203 255
168 203 255
168 203 255
168 203 255
168 203 255
168 203 255
168 203 255
168 203 255
168 203 255
168 203 255
168 203 255
168 203 255
169 203 255
169 203 255
169 203 255
169 203 255
169 203 255
169 204 255
169 204 255
169 204 255
169 204 255
169 204 255
169 204 255
169 204 255
169 204 255
170 204 255
170 204 255
170 204 255
170 204 255
170 204 255
170 204 255
170 204 255
170 204 255
170 204 255
170 204 255
170 204 255
170 204 255
170 204 255
171 205 255
171 205 255
171 205 255
171 205 255
171 205 255
171 205 255
171 205 255
171 205 255
171 205 255
171 205 255
171 205 255
171 205 255
171 205 255
172 205 255
172 205 255
172 205 255
172 205 255
172 205 255
172 205 255
172 205 255
172 205 255
172 206 255
172 206 255
172 206 255
172 206 255
173 206 255
173 206 255
173 206 255
173 206 255
173 206 255
173 206 255
173 206 255
173 206 255
173 206 255
173 206 255
173 206 255
173 206 255
173 206 255
173 206 255
174 206 255
174 206 255
174 206 255
174 206 255
174 207 255
174 207 255
174 207 255
174 207 255
174 207 255
174 207 255
174 207 255
174 207 255
174 207 255
174 207 255
175 207 255
175 207 255
175 207 255
175 207 255
175 207 255
175 207 255
175 207 255
175 207 255
175 207 255
175 207 255
175 207 255
175 207 255
175 207 255
175 207 255
175 207 255
176 208 255
176 208 255
176 208 255
176 208 255
176 208 255
176 208 255
176 208 255
176 208 255
176 208 255
176 208 255
176 208 255
176 208 255
176 208 255
176 208 255
176 208 255
176 208 255
177 208 255
177 208 255
177 208 255
177 208 255
177 208 255
177 208 255
177 208 255
177 208 255
177 208 255
177 208 255
177 208 255
177 208 255
177 209 255
177 209 255
177 209 255
177 209 255
177 209 255
177 209 255
178 209 255
178 209 255
178 209 255
178 209 255
178 209 255
178 209 255
178 209 255
178 209 255
178 209 255
178 209 255
178 209 255
178 209 255
178 209 255
178 209 255
178 209 255
178 209 255
178 209 255
178 209 255
178 209 255
178 209 255
178 209 255
178 209 255
178 209 255
178 209 255
178 209 255
178 209 255
178 209 255
178 209 255
178 209 255
178 209 255
178 209 255
177 209 255
177 209 255
177 209 255
177 209 255
177 209 255
177 209 255
177 208 255
177 208 255
177 208 255
177 208 255
177 208 255
177 208 255
177 208 255
177 208 255
177 208 255
177 208 255
177 208 255
177 208 255
176 208 255
176 208 255
176 208 255
176 208 255
176 208 255
176 208 255
176 208 255
176 208 255
176 208 255
176 208 255
176 208 255
176 208 255
176 208 255
176 208 255
176 208 255
176 208 255
175 207 255
175 207 255
175 207 255
175 207 255
175 207 255
175 207 255
175 207 255
175 207 255
175 207 255
175 207 255
175 207 255
175 207 255
175 207 255
175 207 255
175 207 255
174 207 255
174 207 255
174 207 255
174 207 255
174 207 255
174 207 255
174 207 255
174 207 255
174 207 255
174 206 255
174 206 255
174 206 255
174 206 255
174 206 255
173 206 255
173 206 255
173 206 255
173 206 255
173 206 255
173 206 255
173 206 255
173 206 255
173 206 255
173 206 255
173 206 255
173 206 255
173 206 255
173 206 255
172 206 255
172 206 255
172 206 255
172 206 255
172 205 255
172 205 255
172 205 255
172 205 255
172 205 255
172 205 255
172 205 255
172 205 255
171 205 255
171 205 255
171 205 255
171 205 255
171 205 255
171 205 255
171 205 255
171 205 255
171 205 255
171 205 255
171 205 255
171 205 255
171 205 255
170 204 255
170 204 255
170 204 255
170 204 255
170 204 255
170 204 255
170 204 255
170 204 255
170 204 255
170 204 255
170 204 255
170 204 255
170 204 255
169 204 255
169 204 255
169 204 255
169 204 255
169 204 255
169 204 255
169 204 255
169 204 255
169 204 255
169 203 255
169 203 255
169 203 255
169 203 255
169 203 255
168 203 255
168 203 255
168 203 255
168 203 255
168 203 255
168 203 255
168 203 255
168 203 255
160 194 245
94 116 149
75 92 119
72 91 120
71 90 117
72 90 117
74 93 120
72 90 118
71 88 115
73 91 117
74 92 119
73 90 115
73 91 118
68 86 112
68 85 110
70 88 113
71 89 115
71 89 117
73 91 118
73 91 119
70 87 112
69 87 114
70 88 114
75 93 121
72 90 117
69 86 112
70 88 114
72 89 115
74 92 119
71 88 115
71 89 115
71 89 115
76 94 122
71 90 118
71 88 113
73 91 117
72 90 117
71 89 116
71 88 113
75 93 119
72 89 116
72 89 115
68 85 110
71 89 117
70 88 115
72 90 117
71 88 114
73 91 117
70 87 113
75 92 118
71 89 117
69 87 114
72 89 115
70 88 115
72 89 114
68 85 110
72 90 116
71 88 113
71 88 115
73 91 119
73 91 117
71 87 112
71 89 117
73 91 117
70 88 114
72 89 115
73 90 117
74 92 118
74 93 120
69 86 112
70 87 113
71 88 114
72 89 114
74 92 120
75 93 120
74 93 120
70 88 114
72 90 117
74 93 121
73 90 117
75 92 119
73 90 116
71 89 117
75 93 121
76 93 119
73 91 118
76 94 120
69 87 114
100 123 157
164 199 250
168 203 255
168 203 255
168 203 255
168 203 255
168 203 255
168 203 255
168 203 255
168 203 255
168 203 255
169 203 255
169 203 255
169 203 255
169 203 255
169 204 255
169 204 255
169 204 255
169 204 255
169 204 255
169 204 255
169 204 255
169 204 255
169 204 255
170 204 255
170 204 255
170 204 255
170 204 255
170 204 255
170 204 255
170 204 255
170 204 255
170 204 255
170 204 255
170 204 255
170 204 255
170 204 255
171 205 255
171 205 255
171 205 255
171 205 255
171 205 255
171 205 255
171 205 255
171 205 255
171 205 255
171 205 255
171 205 255
171 205 255
171 205 255
172 205 255
172 205 255
172 205 255
172 205 255
172 205 255
172 205 255
172 205 255
172 205 255
172 205 255
172 206 255
172 206 255
172 206 255
172 206 255
173 206 255
173 206 255
173 206 255
173 206 255
173 206 255
173 206 255
173 206 255
173 206 255
173 206 255
173 206 255
173 206 255
173 206 255
173 206 255
174 206 255
174 206 255
174 206 255
174 206 255
174 207 255
174 207 255
174 207 255
174 207 255
174 207 255
174 207 255
174 207 255
174 207 255
174 207 255
174 207 255
175 207 255
175 207 255
175 207 255
175 207 255
175 207 255
175 207 255
175 207 255
175 207 255
175 207 255
175 207 255
175 207 255
175 207 255
175 207 255
175 207 255
175 207 255
176 208 255
176 208 255
176 208 255
176 208 255
176 208 255
176 208 255
176 208 255
176 208 255
176 208 255
176 208 255
176 208 255
176 208 255
176 208 255
176 208 255
176 208 255
176 208 255
177 208 255
177 208 255
177 208 255
177 208 255
177 208 255
177 208 255
177 208 255
177 208 255
177 208 255
177 208 255
177 208 255
177 208 255
177 209 255
177 209 255
177 209 255
177 209 255
177 209 255
177 209 255
178 209 255
178 209 255
178 209 255
178 209 255
178 209 255
178 209 255
178 209 255
178 209 255
178 209 255
178 209 255
178 209 255
178 209 255
178 209 255
178 209 255
178 209 255
178 209 255
178 209 255
178 209 255
179 209 255
179 209 255
179 209 255
178 209 255
178 209 255
178 209 255
178 209 255
178 209 255
178 209 255
178 209 255
178 209 255
178 209 255
178 209 255
178 209 255
178 209 255
178 209 255
178 209 255
178 209 255
178 209 255
178 209 255
178 209 255
178 209 255
178 209 255
177 209 255
177 209 255
177 209 255
177 209 255
177 209 255
177 209 255
177 208 255
177 208 255
177 208 255
177 208 255
177 208 255
177 208 255
177 208 255
177 208 255
177 208 255
177 208 255
177 208 255
177 208 255
176 208 255
176 208 255
176 208 255
176 208 255
176 208 255
176 208 255
176 208 255
176 208 255
176 208 255
176 208 255
176 208 255
176 208 255
176 208 255
176 208 255
176 208 255
176 208 255
175 207 255
175 207 255
175 207 255
175 207 255
175 207 255
175 207 255
175 207 255
175 207 255
175 207 255
175 207 255
175 207 255
175 207 255
175 207 255
175 207 255
175 207 255
174 207 255
174 207 255
174 207 255
174 207 255
174 207 255
174 207 255
174 207 255
174 207 255
174 207 255
174 206 255
174 206 255
174 206 255
174 206 255
174 206 255
173 206 255
173 206 255
173 206 255
173 206 255
173 206 255
173 206 255
173 206 255
173 206 255
173 206 255
173 206 255
173 206 255
173 206 255
173 206 255
172 206 255
172 206 255
172 206 255
172 206 255
172 205 255
172 205 255
172 205 255
172 205 255
172 205 255
172 205 255
172 205 255
172 205 255
172 205 255
171 205 255
171 205 255
171 205 255
171 205 255
171 205 255
171 205 255
171 205 255
171 205 255
171 205 255
171 205 255
171 205 255
171 205 255
171 205 255
170 204 255
170 204 255
170 204 255
170 204 255
170 204 255
170 204 255
170 204 255
170 204 255
170 204 255
170 204 255
170 204 255
170 204 255
170 204 255
169 204 255
169 204 255
169 204 255
169 204 255
169 204 255
169 204 255
169 204 255
169 204 255
169 204 255
169 203 255
169 203 255
169 203 255
169 203 255
169 203 255
168 203 255
168 203 255
162 196 247
96 119 152
74 92 121
71 88 114
73 91 117
72 90 117
72 91 119
72 88 114
70 87 113
71 89 115
72 90 117
70 87 113
70 88 116
70 87 112
71 88 114
74 92 118
72 89 116
72 90 116
72 89 115
70 88 115
74 92 119
75 91 116
72 89 115
73 91 118
71 88 114
68 85 111
76 94 120
69 87 113
68 85 110
72 89 115
70 88 115
69 85 109
71 89 115
71 89 116
73 90 116
70 87 113
70 88 115
75 92 118
71 88 114
73 90 117
71 89 115
71 90 118
73 91 118
76 93 119
75 92 118
69 87 113
73 91 118
71 88 114
73 92 119
71 87 113
72 88 113
71 88 113
72 90 117
74 91 118
73 90 116
75 92 119
70 88 114
71 87 112
72 89 114
70 87 113
72 89 115
73 90 115
73 89 115
68 86 112
73 90 117
68 85 109
74 92 120
72 89 115
73 91 118
72 90 117
72 89 115
73 91 119
70 87 113
71 89 116
70 88 113
72 90 117
72 91 120
70 88 114
71 89 116
70 88 114
71 88 115
70 88 114
74 92 119
70 87 112
75 93 119
73 91 119
71 89 115
73 90 116
75 93 120
73 91 118
90 111 142
164 198 248
168 203 255
169 203 255
169 203 255
169 203 255
169 203 255
169 203 255
169 204 255
169 204 255
169 204 255
169 204 255
169 204 255
169 204 255
169 204 255
169 204 255
169 204 255
169 204 255
170 204 255
170 204 255
170 204 255
170 204 255
170 204 255
170 204 255
170 204 255
170 204 255
170 204 255
170 204 255
170 204 255
170 204 255
170 204 255
171 205 255
171 205 255
171 205 255
171 205 255
171 205 255
171 205 255
171 205 255
171 205 255
171 205 255
171 205 255
171 205 255
171 205 255
171 205 255
172 205 255
172 205 255
172 205 255
172 205 255
172 205 255
172 205 255
172 205 255
172 205 255
172 205 255
172 206 255
172 206 255
172 206 255
172 206 255
173 206 255
173 206 255
173 206 255
173 206 255
173 206 255
173 206 255
173 206 255
173 206 255
173 206 255
173 206 255
173 206 255
173 206 255
173 206 255
174 206 255
174 206 255
174 206 255
174 206 255
174 206 255
174 207 255
174 207 255
174 207 255
174 207 255
174 207 255
174 207 255
174 207 255
174 207 255
174 207 255
175 207 255
175 207 255
175 207 255
175 207 255
175 207 255
175 207 255
175 207 255
175 207 255
175 207 255
175 207 255
175 207 255
175 207 255
175 207 255
175 207 255
175 207 255
176 208 255
176 208 255
176 208 255
176 208 255
176 208 255
176 208 255
176 208 255
176 208 255
176 208 255
176 208 255
176 208 255
176 208 255
176 208 255
176 208 255
176 208 255
176 208 255
177 208 255
177 208 255
177 208 255
177 208 255
177 208 255
177 208 255
177 208 255
177 208 255
177 208 255
177 208 255
177 208 255
177 208 255
177 209 255
177 209 255
177 209 255
177 209 255
177 209 255
177 209 255
178 209 255
178 209 255
178 209 255
178 209 255
178 209 255
178 209 255
178 209 255
178 209 255
178 209 255
178 209 255
178 209 255
178 209 255
178 209 255
178 209 255
178 209 255
178 209 255
178 209 255
178 209 255
178 209 255
178 209 255
179 209 255
179 209 255
179 209 255
179 210 255
179 210 255
179 209 255
179 209 255
179 209 255
179 209 255
179 209 255
179 209 255
179 209 255
178 209 255
178 209 255
178 209 255
178 209 255
178 209 255
178 209 255
178 209 255
178 209 255
178 209 255
178 209 255
178 209 255
178 209 255
178 209 255
178 209 255
178 209 255
178 209 255
178 209 255
178 209 255
178 209 255
178 209 255
177 209 255
177 209 255
177 209 255
177 209 255
177 209 255
177 208 255
177 208 255
177 208 255
177 208 255
177 208 255
177 208 255
177 208 255
177 208 255
177 208 255
177 208 255
177 208 255
177 208 255
176 208 255
176 208 255
176 208 255
176 208 255
176 208 255
176 208 255
176 208 255
176 208 255
176 208 255
176 208 255
176 208 255
176 208 255
176 208 255
176 208 255
176 208 255
176 208 255
175 207 255
175 207 255
175 207 255
175 207 255
175 207 255
175 207 255
175 207 255
175 207 255
175 207 255
175 207 255
175 207 255
175 207 255
175 207 255
175 207 255
175 207 255
174 207 255
174 207 255
174 207 255
174 207 255
174 207 255
174 207 255
174 207 255
174 207 255
174 207 255
174 206 255
174 206 255
174 206 255
174 206 255
173 206 255
173 206 255
173 206 255
173 206 255
173 206 255
173 206 255
173 206 255
173 206 255
173 206 255
173 206 255
173 206 255
173 206 255
173 206 255
173 206 255
172 206 255
172 206 255
172 206 255
172 206 255
172 205 255
172 205 255
172 205 255
172 205 255
172 205 255
172 205 255
172 205 255
172 205 255
172 205 255
171 205 255
171 205 255
171 205 255
171 205 255
171 205 255
171 205 255
171 205 255
171 205 255
171 205 255
171 205 255
171 205 255
171 205 255
171 205 255
170 204 255
170 204 255
170 204 255
170 204 255
170 204 255
170 204 255
170 204 255
170 204 255
170 204 255
170 204 255
170 204 255
170 204 255
170 204 255
170 204 255
169 204 255
169 204 255
169 204 255
169 204 255
169 204 255
169 204 255
169 204 255
169 204 255
169 204 255
163 196 247
94 116 147
73 91 119
73 91 118
72 89 115
72 89 116
72 90 117
71 88 114
74 92 118
72 90 116
72 90 116
71 88 113
71 89 116
73 90 117
69 85 111
69 87 113
68 85 110
70 88 115
70 87 113
73 90 116
73 92 120
72 90 117
72 90 115
73 90 115
73 91 118
71 88 115
69 86 111
70 87 112
73 91 117
71 88 114
71 89 116
70 88 115
71 89 115
73 90 116
69 85 109
71 89 115
68 85 111
72 90 116
73 90 115
72 89 115
73 90 115
72 90 115
72 89 115
69 87 113
67 84 110
71 89 116
68 85 111
71 89 115
70 87 112
70 88 115
69 86 112
71 88 113
76 93 119
70 87 112
74 91 118
71 89 116
69 86 112
76 93 119
68 85 110
73 91 118
69 85 108
70 89 117
73 90 117
71 88 114
73 90 115
71 88 114
72 89 114
72 89 115
72 89 113
69 85 111
70 88 114
72 90 117
69 86 113
71 88 114
70 87 114
72 90 117
70 87 113
71 88 115
73 91 119
71 88 114
71 88 114
70 87 112
73 91 118
73 91 118
72 91 120
71 88 114
73 92 120
74 92 118
71 89 117
72 89 115
70 88 115
73 90 117
94 116 150
167 201 252
169 204 255
169 204 255
169 204 255
169 204 255
169 204 255
169 204 255
169 204 255
169 204 255
169 204 255
170 204 255
170 204 255
170 204 255
170 204 255
170 204 255
170 204 255
170 204 255
170 204 255
170 204 255
170 204 255
170 204 255
170 204 255
170 204 255
170 204 255
171 205 255
171 205 255
171 205 255
171 205 255
171 205 255
171 205 255
171 205 255
171 205 255
171 205 255
171 205 255
171 205 255
171 205 255
171 205 255
172 205 255
172 205 255
172 205 255
172 205 255
172 205 255
172 205 255
172 205 255
172 205 255
172 205 255
172 206 255
172 206 255
172 206 255
172 206 255
173 206 255
173 206 255
173 206 255
173 206 255
173 206 255
173 206 255
173 206 255
173 206 255
173 206 255
173 206 255
173 206 255
173 206 255
173 206 255
174 206 255
174 206 255
174 206 255
174 206 255
174 206 255
174 207 255
174 207 255
174 207 255
174 207 255
174 207 255
174 207 255
174 207 255
174 207 255
174 207 255
175 207 255
175 207 255
175 207 255
175 207 255
175 207 255
175 207 255
175 207 255
175 207 255
175 207 255
175 207 255
175 207 255
175 207 255
175 207 255
175 207 255
175 207 255
176 208 255
176 208 255
176 208 255
176 208 255
176 208 255
176 208 255
176 208 255
176 208 255
176 208 255
176 208 255
176 208 255
176 208 255
176 208 255
176 208 255
176 208 255
176 208 255
177 208 255
177 208 255
177 208 255
177 208 255
177 208 255
177 208 255
177 208 255
177 208 255
177 208 255
177 208 255
177 208 255
177 209 255
177 209 255
177 209 255
177 209 255
177 209 255
177 209 255
177 209 255
178 209 255
178 209 255
178 209 255
178 209 255
178 209 255
178 209 255
178 209 255
178 209 255
178 209 255
178 209 255
178 209 255
178 209 255
178 209 255
178 209 255
178 209 255
178 209 255
178 209 255
178 209 255
178 209 255
179 209 255
179 209 255
179 209 255
179 209 255
179 209 255
179 209 255
179 209 255
179 210 255
179 210 255
179 210 255
179 210 255
179 210 255
179 210 255
179 210 255
179 210 255
179 210 255
179 210 255
179 209 255
179 209 255
179 209 255
179 209 255
179 209 255
179 209 255
178 209 255
178 209 255
178 209 255
178 209 255
178 209 255
178 209 255
178 209 255
178 209 255
178 209 255
178 209 255
178 209 255
178 209 255
178 209 255
178 209 255
178 209 255
178 209 255
178 209 255
178 209 255
178 209 255
178 209 255
177 209 255
177 209 255
177 209 255
177 209 255
177 209 255
177 209 255
177 208 255
177 208 255
177 208 255
177 208 255
177 208 255
177 208 255
177 208 255
177 208 255
177 208 255
177 208 255
177 208 255
176 208 255
176 208 255
176 208 255
176 208 255
176 208 255
176 208 255
176 208 255
176 208 255
176 208 255
176 208 255
176 208 255
176 208 255
176 208 255
176 208 255
176 208 255
176 208 255
175 207 255
175 207 255
175 207 255
175 207 255
175 207 255
175 207 255
175 207 255
175 207 255
175 207 255
175 207 255
175 207 255
175 207 255
175 207 255
175 207 255
174 207 255
174 207 255
174 207 255
174 207 255
174 207 255
174 207 255
174 207 255
174 207 255
174 207 255
174 207 255
174 206 255
174 206 255
174 206 255
174 206 255
174 206 255
173 206 255
173 206 255
173 206 255
173 206 255
173 206 255
173 206 255
173 206 255
173 206 255
173 206 255
173 206 255
173 206 255
173 206 255
173 206 255
172 206 255
172 206 255
172 206 255
172 206 255
172 205 255
172 205 255
172 205 255
172 205 255
172 205 255
172 205 255
172 205 255
172 205 255
172 205 255
171 205 255
171 205 255
171 205 255
171 205 255
171 205 255
171 205 255
171 205 255
171 205 255
171 205 255
171 205 255
171 205 255
171 205 255
171 205 255
171 205 255
170 204 255
170 204 255
170 204 255
170 204 255
170 204 255
170 204 255
170 204 255
170 204 255
170 204 255
170 204 255
170 204 255
170 204 255
170 204 255
170 204 255
169 204 255
169 204 255
164 198 248
90 111 142
75 93 119
74 92 119
72 90 117
72 90 117
72 91 118
73 91 118
69 87 112
71 88 115
69 86 112
74 91 117
71 89 115
74 91 116
72 90 116
71 89 115
74 90 115
72 89 115
74 91 117
73 91 117
73 90 115
72 89 115
68 85 112
71 89 114
67 84 110
74 91 118
72 91 118
71 88 113
73 90 115
70 88 115
66 83 109
68 85 110
68 84 109
71 87 112
70 89 116
74 91 118
72 89 114
72 88 113
71 88 114
68 85 110
69 86 112
70 88 115
68 85 110
70 87 113
71 89 117
68 85 112
69 86 111
68 85 110
70 87 113
73 90 117
72 88 113
71 89 115
73 90 115
73 91 118
69 86 113
67 83 108
71 89 115
68 85 111
72 90 115
70 87 114
73 90 116
71 88 113
71 88 114
72 89 115
74 91 117
70 87 112
71 88 114
71 88 113
74 92 119
71 89 114
70 88 115
67 85 112
69 87 113
68 85 110
69 86 113
69 87 112
68 85 110
70 87 112
70 87 113
72 90 117
72 90 117
74 92 118
74 91 116
71 88 113
69 86 112
73 92 119
73 91 118
72 89 115
72 90 117
73 91 119
76 93 119
72 90 116
73 91 117
73 91 118
95 118 152
165 199 249
169 204 255
170 204 255
170 204 255
170 204 255
170 204 255
170 204 255
170 204 255
170 204 255
170 204 255
170 204 255
170 204 255
170 204 255
170 204 255
170 204 255
170 204 255
170 204 255
171 205 255
171 205 255
171 205 255
171 205 255
171 205 255
171 205 255
171 205 255
171 205 255
171 205 255
171 205 255
171 205 255
171 205 255
171 205 255
171 205 255
172 205 255
172 205 255
172 205 255
172 205 255
172 205 255
172 205 255
172 205 255
172 205 255
172 205 255
172 206 255
172 206 255
172 206 255
172 206 255
173 206 255
173 206 255
173 206 255
173 206 255
173 206 255
173 206 255
173 206 255
173 206 255
173 206 255
173 206 255
173 206 255
173 206 255
173 206 255
174 206 255
174 206 255
174 206 255
174 206 255
174 206 255
174 207 255
174 207 255
174 207 255
174 207 255
174 207 255
174 207 255
174 207 255
174 207 255
174 207 255
174 207 255
175 207 255
175 207 255
175 207 255
175 207 255
175 207 255
175 207 255
175 207 255
175 207 255
175 207 255
175 207 255
175 207 255
175 207 255
175 207 255
175 207 255
176 208 255
176 208 255
176 208 255
176 208 255
176 208 255
176 208 255
176 208 255
176 208 255
176 208 255
176 208 255
176 208 255
176 208 255
176 208 255
176 208 255
176 208 255
176 208 255
177 208 255
177 208 255
177 208 255
177 208 255
177 208 255
177 208 255
177 208 255
177 208 255
177 208 255
177 208 255
177 208 255
177 209 255
177 209 255
177 209 255
177 209 255
177 209 255
177 209 255
178 209 255
178 209 255
178 209 255
178 209 255
178 209 255
178 209 255
178 209 255
178 209 255
178 209 255
178 209 255
178 209 255
178 209 255
178 209 255
178 209 255
178 209 255
178 209 255
178 209 255
178 209 255
178 209 255
179 209 255
179 209 255
179 209 255
179 209 255
179 209 255
179 209 255
179 209 255
179 210 255
179 210 255
179 210 255
179 210 255
179 210 255
179 210 255
179 210 255
179 210 255
179 210 255
179 210 255
179 210 255
179 210 255
179 210 255
179 210 255
179 210 255
179 210 255
179 210 255
179 210 255
179 210 255
179 210 255
179 210 255
179 209 255
179 209 255
179 209 255
179 209 255
179 209 255
179 209 255
179 209 255
178 209 255
178 209 255
178 209 255
178 209 255
178 209 255
178 209 255
178 209 255
178 209 255
178 209 255
178 209 255
178 209 255
178 209 255
178 209 255
178 209 255
178 209 255
178 209 255
178 209 255
178 209 255
178 209 255
177 209 255
177 209 255
177 209 255
177 209 255
177 209 255
177 209 255
177 208 255
177 208 255
177 208 255
177 208 255
177 208 255
177 208 255
177 208 255
177 208 255
177 208 255
177 208 255
177 208 255
176 208 255
176 208 255
176 208 255
176 208 255
176 208 255
176 208 255
176 208 255
176 208 255
176 208 255
176 208 255
176 208 255
176 208 255
176 208 255
176 208 255
176 208 255
176 208 255
175 207 255
175 207 255
175 207 255
175 207 255
175 207 255
175 207 255
175 207 255
175 207 255
175 207 255
175 207 255
175 207 255
175 207 255
175 207 255
175 207 255
175 207 255
174 207 255
174 207 255
174 207 255
174 207 255
174 207 255
174 207 255
174 207 255
174 207 255
174 207 255
174 206 255
174 206 255
174 206 255
174 206 255
174 206 255
173 206 255
173 206 255
173 206 255
173 206 255
173 206 255
173 206 255
173 206 255
173 206 255
173 206 255
173 206 255
173 206 255
173 206 255
173 206 255
172 206 255
172 206 255
172 206 255
172 206 255
172 206 255
172 205 255
172 205 255
172 205 255
172 205 255
172 205 255
172 205 255
172 205 255
172 205 255
172 205 255
171 205 255
171 205 255
171 205 255
171 205 255
171 205 255
171 205 255
171 205 255
171 205 255
171 205 255
171 205 255
171 205 255
171 205 255
171 205 255
171 205 255
170 204 255
170 204 255
170 204 255
170 204 255
170 204 255
170 204 255
170 204 255
170 204 255
170 204 255
168 202 253
103 126 161
71 89 115
74 91 117
68 86 114
72 89 115
74 92 118
70 87 113
73 89 114
72 90 117
70 87 112
72 89 116
69 87 113
72 89 116
73 91 119
72 88 113
72 89 115
72 89 115
71 89 116
72 89 114
68 85 110
73 89 114
68 84 108
72 91 118
72 90 116
72 89 113
71 88 114
68 85 110
72 90 117
72 89 115
69 86 111
67 84 110
71 88 114
73 90 117
70 88 113
71 89 116
71 88 113
70 87 112
72 89 114
72 88 113
73 91 117
69 85 110
70 87 112
68 86 112
73 91 117
69 85 110
73 89 114
72 89 115
70 87 113
70 88 114
71 89 116
71 88 114
69 85 111
67 83 107
72 89 116
70 88 115
72 89 115
70 87 112
71 88 114
70 87 113
74 90 115
71 87 112
72 88 112
70 88 114
70 87 111
69 86 112
73 90 115
70 87 113
70 87 113
73 90 115
68 85 110
69 86 113
70 88 113
72 89 114
73 91 117
69 86 112
70 86 112
71 87 112
72 89 115
72 89 115
75 93 119
69 87 113
70 87 112
72 89 115
68 86 112
69 87 112
72 90 117
70 88 115
71 87 111
70 88 115
70 88 116
72 89 116
72 90 119
72 90 117
75 93 119
70 87 113
98 120 153
168 202 253
170 204 255
170 204 255
170 204 255
170 204 255
170 204 255
170 204 255
170 204 255
170 204 255
170 204 255
171 205 255
171 205 255
171 205 255
171 205 255
171 205 255
171 205 255
171 205 255
171 205 255
171 205 255
171 205 255
171 205 255
171 205 255
171 205 255
171 205 255
171 205 255
172 205 255
172 205 255
172 205 255
172 205 255
172 205 255
172 205 255
172 205 255
172 205 255
172 206 255
172 206 255
172 206 255
172 206 255
172 206 255
173 206 255
173 206 255
173 206 255
173 206 255
173 206 255
173 206 255
173 206 255
173 206 255
173 206 255
173 206 255
173 206 255
173 206 255
173 206 255
174 206 255
174 206 255
174 206 255
174 206 255
174 206 255
174 207 255
174 207 255
174 207 255
174 207 255
174 207 255
174 207 255
174 207 255
174 207 255
174 207 255
174 207 255
175 207 255
175 207 255
175 207 255
175 207 255
175 207 255
175 207 255
175 207 255
175 207 255
175 207 255
175 207 255
175 207 255
175 207 255
175 207 255
175 207 255
176 208 255
176 208 255
176 208 255
176 208 255
176 208 255
176 208 255
176 208 255
176 208 255
176 208 255
176 208 255
176 208 255
176 208 255
176 208 255
176 208 255
176 208 255
176 208 255
177 208 255
177 208 255
177 208 255
177 208 255
177 208 255
177 208 255
177 208 255
177 208 255
177 208 255
177 208 255
177 208 255
177 209 255
177 209 255
177 209 255
177 209 255
177 209 255
177 209 255
178 209 255
178 209 255
178 209 255
178 209 255
178 209 255
178 209 255
178 209 255
178 209 255
178 209 255
178 209 255
178 209 255
178 209 255
178 209 255
178 209 255
178 209 255
178 209 255
178 209 255
178 209 255
178 209 255
179 209 255
179 209 255
179 209 255
179 209 255
179 209 255
179 209 255
179 209 255
179 210 255
179 210 255
179 210 255
179 210 255
179 210 255
179 210 255
179 210 255
179 210 255
179 210 255
179 210 255
179 210 255
179 210 255
179 210 255
180 210 255
180 210 255
180 210 255
180 210 255
180 210 255
179 210 255
179 210 255
179 210 255
179 210 255
179 210 255
179 210 255
179 210 255
179 210 255
179 210 255
179 210 255
179 210 255
179 210 255
179 210 255
179 210 255
179 210 255
179 209 255
179 209 255
179 209 255
179 209 255
179 209 255
179 209 255
178 209 255
178 209 255
178 209 255
178 209 255
178 209 255
178 209 255
178 209 255
178 209 255
178 209 255
178 209 255
178 209 255
178 209 255
178 209 255
178 209 255
178 209 255
178 209 255
178 209 255
178 209 255
178 209 255
177 209 255
177 209 255
177 209 255
177 209 255
177 209 255
177 208 255
177 208 255
177 208 255
177 208 255
177 208 255
177 208 255
177 208 255
177 208 255
177 208 255
177 208 255
177 208 255
177 208 255
176 208 255
176 208 255
176 208 255
176 208 255
176 208 255
176 208 255
176 208 255
176 208 255
176 208 255
176 208 255
176 208 255
176 208 255
176 208 255
176 208 255
176 208 255
175 207 255
175 207 255
175 207 255
175 207 255
175 207 255
175 207 255
175 207 255
175 207 255
175 207 255
175 207 255
175 207 255
175 207 255
175 207 255
175 207 255
175 207 255
174 207 255
174 207 255
174 207 255
174 207 255
174 207 255
174 207 255
174 207 255
174 207 255
174 207 255
174 206 255
174 206 255
174 206 255
174 206 255
174 206 255
173 206 255
173 206 255
173 206 255
173 206 255
173 206 255
173 206 255
173 206 255
173 206 255
173 206 255
173 206 255
173 206 255
173 206 255
173 206 255
172 206 255
172 206 255
172 206 255
172 206 255
172 206 255
172 205 255
172 205 255
172 205 255
172 205 255
172 205 255
172 205 255
172 205 255
172 205 255
172 205 255
172 205 255
171 205 255
171 205 255
171 205 255
171 205 255
171 205 255
171 205 255
171 205 255
171 205 255
171 205 255
171 205 255
171 205 255
171 205 255
171 205 255
171 205 255
171 205 255
170 204 255
170 204 255
102 125 160
69 87 113
70 88 115
71 88 113
71 87 112
74 91 117
73 90 117
72 90 117
74 91 118
71 88 114
72 89 114
70 87 112
71 88 114
72 90 117
74 92 119
72 89 114
69 86 112
73 89 114
68 85 112
70 87 112
66 84 110
71 88 113
72 88 114
72 89 115
71 87 112
72 88 113
74 92 118
69 86 112
70 86 112
72 90 117
74 91 117
72 89 115
67 84 110
68 85 111
71 88 113
70 86 110
72 89 115
71 89 116
69 87 113
71 88 113
77 94 120
71 89 116
69 86 112
67 83 108
71 88 113
71 89 115
69 88 116
72 89 115
69 86 112
71 89 116
71 89 115
71 87 112
67 82 105
73 91 117
68 86 112
71 88 112
69 87 113
72 91 119
70 88 113
72 89 115
70 86 110
69 86 112
70 86 110
71 88 112
74 92 118
70 88 114
72 90 117
72 90 117
70 87 111
73 90 117
71 88 113
71 88 114
70 86 112
70 87 112
74 92 119
75 92 119
72 90 116
73 91 117
71 87 112
69 86 110
73 91 119
72 89 115
69 85 111
73 91 117
71 89 115
73 90 115
70 89 116
71 87 111
72 89 115
72 90 117
73 90 116
69 85 111
71 89 115
72 90 117
71 89 116
73 91 117
70 87 113
106 130 165
170 204 255
170 204 255
170 204 255
171 205 255
171 205 255
171 205 255
171 205 255
171 205 255
171 205 255
171 205 255
171 205 255
171 205 255
171 205 255
171 205 255
171 205 255
171 205 255
171 205 255
171 205 255
172 205 255
172 205 255
172 205 255
172 205 255
172 205 255
172 205 255
172 205 255
172 205 255
172 205 255
172 206 255
172 206 255
172 206 255
172 206 255
173 206 255
173 206 255
173 206 255
173 206 255
173 206 255
173 206 255
173 206 255
173 206 255
173 206 255
173 206 255
173 206 255
173 206 255
173 206 255
173 206 255
174 206 255
174 206 255
174 206 255
174 206 255
174 206 255
174 207 255
174 207 255
174 207 255
174 207 255
174 207 255
174 207 255
174 207 255
174 207 255
174 207 255
174 207 255
175 207 255
175 207 255
175 207 255
175 207 255
175 207 255
175 207 255
175 207 255
175 207 255
175 207 255
175 207 255
175 207 255
175 207 255
175 207 255
175 207 255
176 208 255
176 208 255
176 208 255
176 208 255
176 208 255
176 208 255
176 208 255
176 208 255
176 208 255
176 208 255
176 208 255
176 208 255
176 208 255
176 208 255
176 208 255
177 208 255
177 208 255
177 208 255
177 208 255
177 208 255
177 208 255
177 208 255
177 208 255
177 208 255
177 208 255
177 208 255
177 208 255
177 209 255
177 209 255
177 209 255
177 209 255
177 209 255
178 209 255
178 209 255
178 209 255
178 209 255
178 209 255
178 209 255
178 209 255
178 209 255
178 209 255
178 209 255
178 209 255
178 209 255
178 209 255
178 209 255
178 209 255
178 209 255
178 209 255
178 209 255
178 209 255
179 209 255
179 209 255
179 209 255
179 209 255
179 209 255
179 209 255
179 209 255
179 210 255
179 210 255
179 210 255
179 210 255
179 210 255
179 210 255
179 210 255
179 210 255
179 210 255
179 210 255
179 210 255
179 210 255
179 210 255
179 210 255
180 210 255
180 210 255
180 210 255
180 210 255
180 210 255
180 210 255
180 210 255
180 210 255
180 210 255
180 210 255
180 210 255
180 210 255
180 210 255
180 210 255
180 210 255
180 210 255
179 210 255
179 210 255
179 210 255
179 210 255
179 210 255
179 210 255
179 210 255
179 210 255
179 210 255
179 210 255
179 210 255
179 210 255
179 210 255
179 210 255
179 209 255
179 209 255
179 209 255
179 209 255
179 209 255
179 209 255
179 209 255
178 209 255
178 209 255
178 209 255
178 209 255
178 209 255
178 209 255
178 209 255
178 209 255
178 209 255
178 209 255
178 209 255
178 209 255
178 209 255
178 209 255
178 209 255
178 209 255
178 209 255
178 209 255
177 209 255
177 209 255
177 209 255
177 209 255
177 209 255
177 209 255
177 208 255
177 208 255
177 208 255
177 208 255
177 208 255
177 208 255
177 208 255
177 208 255
177 208 255
177 208 255
177 208 255
176 208 255
176 208 255
176 208 255
176 208 255
176 208 255
176 208 255
176 208 255
176 208 255
176 208 255
176 208 255
176 208 255
176 208 255
176 208 255
176 208 255
176 208 255
175 207 255
175 207 255
175 207 255
175 207 255
175 207 255
175 207 255
175 207 255
175 207 255
175 207 255
175 207 255
175 207 255
175 207 255
175 207 255
175 207 255
175 207 255
174 207 255
174 207 255
174 207 255
174 207 255
174 207 255
174 207 255
174 207 255
174 207 255
174 207 255
174 207 255
174 206 255
174 206 255
174 206 255
174 206 255
173 206 255
173 206 255
173 206 255
173 206 255
173 206 255
173 206 255
173 206 255
173 206 255
173 206 255
173 206 255
173 206 255
173 206 255
173 206 255
173 206 255
173 206 255
172 206 255
172 206 255
172 206 255
172 206 255
172 205 255
172 205 255
172 205 255
172 205 255
172 205 255
172 205 255
172 205 255
172 205 255
172 205 255
172 205 255
171 205 255
171 205 255
171 205 255
171 205 255
171 205 255
171 205 255
171 205 255
171 205 255
171 205 255
171 205 255
112 137 175
68 85 110
75 92 118
72 88 113
69 85 110
73 90 116
71 88 113
72 90 116
73 90 115
69 85 110
72 90 116
74 90 115
68 85 111
71 89 115
70 88 114
70 88 113
71 88 114
75 92 118
73 90 115
76 92 117
70 88 114
70 88 115
73 91 117
72 88 112
65 83 108
71 90 117
73 90 116
70 86 110
70 86 110
70 86 111
71 89 114
70 87 113
74 91 116
69 85 110
76 93 119
71 90 118
73 91 116
68 85 110
71 88 114
70 87 112
72 90 118
70 87 113
70 87 112
72 90 116
71 87 112
69 86 112
71 88 114
72 89 116
71 88 114
70 88 115
65 81 106
69 86 110
76 94 120
69 85 110
70 87 112
72 89 114
72 89 115
69 86 112
72 89 114
71 88 113
70 86 111
72 90 116
68 84 109
72 89 115
71 88 113
70 87 112
70 86 111
73 91 117
72 89 115
72 89 115
70 86 110
76 93 119
69 86 111
67 84 111
72 90 116
68 84 110
68 84 109
71 88 113
71 88 113
76 94 121
71 88 113
71 88 115
71 89 116
70 87 113
68 85 110
65 82 108
73 90 115
69 88 115
72 90 116
71 89 115
68 85 110
70 86 112
71 88 113
70 88 115
73 91 119
65 82 108
66 83 109
69 86 112
72 90 116
114 139 176
171 205 255
171 205 255
171 205 255
171 205 255
171 205 255
171 205 255
171 205 255
171 205 255
171 205 255
171 205 255
172 205 255
172 205 255
172 205 255
172 205 255
172 205 255
172 205 255
172 205 255
172 205 255
172 205 255
172 205 255
172 206 255
172 206 255
172 206 255
172 206 255
172 206 255
173 206 255
173 206 255
173 206 255
173 206 255
173 206 255
173 206 255
173 206 255
173 206 255
173 206 255
173 206 255
173 206 255
173 206 255
173 206 255
173 206 255
174 206 255
174 206 255
174 206 255
174 206 255
174 206 255
174 207 255
174 207 255
174 207 255
174 207 255
174 207 255
174 207 255
174 207 255
174 207 255
174 207 255
175 207 255
175 207 255
175 207 255
175 207 255
175 207 255
175 207 255
175 207 255
175 207 255
175 207 255
175 207 255
175 207 255
175 207 255
175 207 255
175 207 255
176 208 255
176 208 255
176 208 255
176 208 255
176 208 255
176 208 255
176 208 255
176 208 255
176 208 255
176 208 255
176 208 255
176 208 255
176 208 255
176 208 255
176 208 255
176 208 255
177 208 255
177 208 255
177 208 255
177 208 255
177 208 255
177 208 255
177 208 255
177 208 255
177 208 255
177 208 255
177 208 255
177 209 255
177 209 255
177 209 255
177 209 255
177 209 255
177 209 255
178 209 255
178 209 255
178 209 255
178 209 255
178 209 255
178 209 255
178 209 255
178 209 255
178 209 255
178 209 255
178 209 255
178 209 255
178 209 255
178 209 255
178 209 255
178 209 255
178 209 255
178 209 255
179 209 255
179 209 255
179 209 255
179 209 255
179 209 255
179 209 255
179 209 255
179 210 255
179 210 255
179 210 255
179 210 255
179 210 255
179 210 255
179 210 255
179 210 255
179 210 255
179 210 255
179 210 255
179 210 255
179 210 255
179 210 255
180 210 255
180 210 255
180 210 255
180 210 255
180 210 255
180 210 255
180 210 255
180 210 255
180 210 255
180 210 255
180 210 255
180 210 255
180 210 255
180 210 255
180 210 255
180 210 255
180 210 255
180 210 255
180 210 255
180 210 255
180 210 255
180 210 255
180 210 255
180 210 255
180 210 255
180 210 255
180 210 255
180 210 255
179 210 255
179 210 255
179 210 255
179 210 255
179 210 255
179 210 255
179 210 255
179 210 255
179 210 255
179 210 255
179 210 255
179 210 255
179 210 255
179 210 255
179 209 255
179 209 255
179 209 255
179 209 255
179 209 255
179 209 255
178 209 255
178 209 255
178 209 255
178 209 255
178 209 255
178 209 255
178 209 255
178 209 255
178 209 255
178 209 255
178 209 255
178 209 255
178 209 255
178 209 255
178 209 255
178 209 255
178 209 255
178 209 255
178 209 255
177 209 255
177 209 255
177 209 255
177 209 255
177 209 255
177 209 255
177 208 255
177 208 255
177 208 255
177 208 255
177 208 255
177 208 255
177 208 255
177 208 255
177 208 255
177 208 255
176 208 255
176 208 255
176 208 255
176 208 255
176 208 255
176 208 255
176 208 255
176 208 255
176 208 255
176 208 255
176 208 255
176 208 255
176 208 255
176 208 255
176 208 255
176 208 255
175 207 255
175 207 255
175 207 255
175 207 255
175 207 255
175 207 255
175 207 255
175 207 255
175 207 255
175 207 255
175 207 255
175 207 255
175 207 255
175 207 255
175 207 255
174 207 255
174 207 255
174 207 255
174 207 255
174 207 255
174 207 255
174 207 255
174 207 255
174 207 255
174 206 255
174 206 255
174 206 255
174 206 255
174 206 255
173 206 255
173 206 255
173 206 255
173 206 255
173 206 255
173 206 255
173 206 255
173 206 255
173 206 255
173 206 255
173 206 255
173 206 255
173 206 255
173 206 255
172 206 255
172 206 255
172 206 255
172 206 255
172 206 255
172 205 255
172 205 255
172 205 255
172 205 255
172 205 255
172 205 255
172 205 255
172 205 255
172 205 255
172 205 255
171 205 255
171 205 255
171 205 255
133 161 202
71 88 113
75 94 122
70 86 111
72 91 119
72 90 115
70 87 113
70 87 112
68 85 110
74 92 120
71 88 113
69 85 110
70 88 113
71 88 114
75 92 119
74 90 114
72 88 113
69 86 112
77 93 117
72 89 115
71 88 113
68 83 107
73 91 117
68 86 112
68 84 109
68 84 108
69 86 111
70 87 113
68 86 112
70 86 111
69 86 112
67 84 108
73 90 116
71 87 112
71 87 112
69 86 111
68 85 112
70 88 114
68 85 110
71 88 113
70 86 111
71 87 112
69 86 112
73 90 115
69 87 113
68 85 110
67 84 109
72 89 113
71 87 112
72 89 113
73 90 116
73 90 116
72 89 115
69 85 108
71 87 111
74 92 118
69 86 112
70 88 114
70 87 112
69 86 111
72 88 113
71 88 113
72 89 115
69 85 110
70 87 112
71 89 115
69 85 110
69 86 112
69 87 113
69 87 113
72 89 113
70 86 110
71 88 112
69 86 112
71 88 113
71 88 114
72 89 116
67 83 107
68 86 112
74 92 118
64 82 108
68 85 111
66 83 109
69 86 111
74 91 116
72 89 114
71 87 112
70 87 113
72 90 118
72 90 118
71 88 113
72 89 115
72 90 115
73 89 114
71 88 115
70 87 112
71 89 115
68 84 110
71 88 114
71 88 113
73 90 116
136 165 207
171 205 255
171 205 255
171 205 255
172 205 255
172 205 255
172 205 255
172 205 255
172 205 255
172 205 255
172 205 255
172 205 255
172 205 255
172 205 255
172 206 255
172 206 255
172 206 255
172 206 255
172 206 255
173 206 255
173 206 255
173 206 255
173 206 255
173 206 255
173 206 255
173 206 255
173 206 255
173 206 255
173 206 255
173 206 255
173 206 255
173 206 255
173 206 255
174 206 255
174 206 255
174 206 255
174 206 255
174 206 255
174 207 255
174 207 255
174 207 255
174 207 255
174 207 255
174 207 255
174 207 255
174 207 255
174 207 255
175 207 255
175 207 255
175 207 255
175 207 255
175 207 255
175 207 255
175 207 255
175 207 255
175 207 255
175 207 255
175 207 255
175 207 255
175 207 255
175 207 255
175 207 255
176 208 255
176 208 255
176 208 255
176 208 255
176 208 255
176 208 255
176 208 255
176 208 255
176 208 255
176 208 255
176 208 255
176 208 255
176 208 255
176 208 255
176 208 255
177 208 255
177 208 255
177 208 255
177 208 255
177 208 255
177 208 255
177 208 255
177 208 255
177 208 255
177 208 255
177 208 255
177 208 255
177 209 255
177 209 255
177 209 255
177 209 255
177 209 255
178 209 255
178 209 255
178 209 255
178 209 255
178 209 255
178 209 255
178 209 255
178 209 255
178 209 255
178 209 255
178 209 255
178 209 255
178 209 255
178 209 255
178 209 255
178 209 255
178 209 255
178 209 255
178 209 255
179 209 255
179 209 255
179 209 255
179 209 255
179 209 255
179 209 255
179 210 255
179 210 255
179 210 255
179 210 255
179 210 255
179 210 255
179 210 255
179 210 255
179 210 255
179 210 255
179 210 255
179 210 255
179 210 255
179 210 255
180 210 255
180 210 255
180 210 255
180 210 255
180 210 255
180 210 255
180 210 255
180 210 255
180 210 255
180 210 255
180 210 255
180 210 255
180 210 255
180 210 255
180 210 255
180 210 255
180 210 255
180 210 255
180 210 255
180 210 255
180 210 255
180 210 255
180 210 255
180 210 255
180 210 255
180 210 255
180 210 255
180 210 255
180 210 255
180 210 255
180 210 255
180 210 255
180 210 255
180 210 255
180 210 255
180 210 255
180 210 255
180 210 255
180 210 255
180 210 255
179 210 255
179 210 255
179 210 255
179 210 255
179 210 255
179 210 255
179 210 255
179 210 255
179 210 255
179 210 255
179 210 255
179 210 255
179 210 255
179 210 255
179 209 255
179 209 255
179 209 255
179 209 255
179 209 255
179 209 255
178 209 255
178 209 255
178 209 255
178 209 255
178 209 255
178 209 255
178 209 255
178 209 255
178 209 255
178 209 255
178 209 255
178 209 255
178 209 255
178 209 255
178 209 255
178 209 255
178 209 255
178 209 255
178 209 255
177 209 255
177 209 255
177 209 255
177 209 255
177 209 255
177 208 255
177 208 255
177 208 255
177 208 255
177 208 255
177 208 255
177 208 255
177 208 255
177 208 255
177 208 255
177 208 255
176 208 255
176 208 255
176 208 255
176 208 255
176 208 255
176 208 255
176 208 255
176 208 255
176 208 255
176 208 255
176 208 255
176 208 255
176 208 255
176 208 255
176 208 255
176 208 255
175 207 255
175 207 255
175 207 255
175 207 255
175 207 255
175 207 255
175 207 255
175 207 255
175 207 255
175 207 255
175 207 255
175 207 255
175 207 255
175 207 255
174 207 255
174 207 255
174 207 255
174 207 255
174 207 255
174 207 255
174 207 255
174 207 255
174 207 255
174 207 255
174 206 255
174 206 255
174 206 255
174 206 255
173 206 255
173 206 255
173 206 255
173 206 255
173 206 255
173 206 255
173 206 255
173 206 255
173 206 255
173 206 255
173 206 255
173 206 255
173 206 255
173 206 255
173 206 255
172 206 255
172 206 255
172 206 255
172 206 255
172 206 255
172 206 255
172 205 255
172 205 255
172 205 255
172 205 255
172 205 255
159 191 238
76 94 121
71 88 114
70 88 114
73 90 116
76 95 122
68 85 112
70 87 113
72 90 118
72 88 114
72 90 117
70 87 113
71 88 114
70 87 113
67 85 111
74 92 118
68 84 109
71 88 114
71 88 114
74 91 117
71 88 113
71 88 115
67 84 108
69 85 110
67 84 110
68 85 110
72 88 112
67 84 109
72 89 116
71 88 114
71 87 112
70 87 112
74 91 117
70 87 113
68 85 110
68 84 109
72 90 116
69 86 111
73 90 116
72 89 115
68 84 107
70 88 113
69 86 112
72 89 114
65 82 107
69 86 111
70 87 112
72 89 116
70 87 112
69 86 111
70 87 111
69 86 111
72 88 113
72 88 113
67 84 110
67 84 110
72 89 114
68 85 111
68 85 111
68 86 112
71 87 112
69 85 110
73 89 113
69 86 113
71 88 113
68 85 110
72 88 112
72 88 113
68 84 109
68 85 110
70 86 110
71 88 113
70 87 113
67 84 110
70 87 112
68 84 109
70 87 113
73 90 117
68 85 110
71 88 114
72 88 113
69 86 112
69 85 110
69 87 114
73 89 114
73 90 114
72 90 117
68 86 112
68 85 112
66 82 105
71 87 113
72 88 113
73 91 118
75 92 117
72 89 114
70 87 113
70 88 114
70 87 113
70 87 112
72 90 117
69 87 114
75 93 120
74 93 120
149 179 224
172 205 255
172 205 255
172 205 255
172 205 255
172 205 255
172 206 255
172 206 255
172 206 255
172 206 255
172 206 255
172 206 255
173 206 255
173 206 255
173 206 255
173 206 255
173 206 255
173 206 255
173 206 255
173 206 255
173 206 255
173 206 255
173 206 255
173 206 255
173 206 255
173 206 255
174 206 255
174 206 255
174 206 255
174 206 255
174 206 255
174 207 255
174 207 255
174 207 255
174 207 255
174 207 255
174 207 255
174 207 255
174 207 255
174 207 255
174 207 255
175 207 255
175 207 255
175 207 255
175 207 255
175 207 255
175 207 255
175 207 255
175 207 255
175 207 255
175 207 255
175 207 255
175 207 255
175 207 255
175 207 255
175 207 255
176 208 255
176 208 255
176 208 255
176 208 255
176 208 255
176 208 255
176 208 255
176 208 255
176 208 255
176 208 255
176 208 255
176 208 255
176 208 255
176 208 255
176 208 255
177 208 255
177 208 255
177 208 255
177 208 255
177 208 255
177 208 255
177 208 255
177 208 255
177 208 255
177 208 255
177 208 255
177 209 255
177 209 255
177 209 255
177 209 255
177 209 255
178 209 255
178 209 255
178 209 255
178 209 255
178 209 255
178 209 255
178 209 255
178 209 255
178 209 255
178 209 255
178 209 255
178 209 255
178 209 255
178 209 255
178 209 255
178 209 255
178 209 255
178 209 255
178 209 255
179 209 255
179 209 255
179 209 255
179 209 255
179 209 255
179 209 255
179 210 255
179 210 255
179 210 255
179 210 255
179 210 255
179 210 255
179 210 255
179 210 255
179 210 255
179 210 255
179 210 255
179 210 255
179 210 255
179 210 255
180 210 255
180 210 255
180 210 255
180 210 255
180 210 255
180 210 255
180 210 255
180 210 255
180 210 255
180 210 255
180 210 255
180 210 255
180 210 255
180 210 255
180 210 255
180 210 255
180 210 255
180 210 255
180 210 255
180 210 255
180 210 255
180 210 255
180 210 255
181 211 255
181 211 255
181 211 255
181 211 255
181 211 255
181 211 255
181 211 255
180 210 255
180 210 255
180 210 255
180 210 255
180 210 255
180 210 255
180 210 255
180 210 255
180 210 255
180 210 255
180 210 255
180 210 255
180 210 255
180 210 255
180 210 255
180 210 255
180 210 255
180 210 255
180 210 255
180 210 255
180 210 255
180 210 255
180 210 255
179 210 255
179 210 255
179 210 255
179 210 255
179 210 255
179 210 255
179 210 255
179 210 255
179 210 255
179 210 255
179 210 255
179 210 255
179 210 255
179 209 255
179 209 255
179 209 255
179 209 255
179 209 255
179 209 255
178 209 255
178 209 255
178 209 255
178 209 255
178 209 255
178 209 255
178 209 255
178 209 255
178 209 255
178 209 255
178 209 255
178 209 255
178 209 255
178 209 255
178 209 255
178 209 255
178 209 255
178 209 255
177 209 255
177 209 255
177 209 255
177 209 255
177 209 255
177 209 255
177 208 255
177 208 255
177 208 255
177 208 255
177 208 255
177 208 255
177 208 255
177 208 255
177 208 255
177 208 255
177 208 255
176 208 255
176 208 255
176 208 255
176 208 255
176 208 255
176 208 255
176 208 255
176 208 255
176 208 255
176 208 255
176 208 255
176 208 255
176 208 255
176 208 255
176 208 255
175 207 255
175 207 255
175 207 255
175 207 255
175 207 255
175 207 255
175 207 255
175 207 255
175 207 255
175 207 255
175 207 255
175 207 255
175 207 255
175 207 255
175 207 255
174 207 255
174 207 255
174 207 255
174 207 255
174 207 255
174 207 255
174 207 255
174 207 255
174 207 255
174 207 255
174 206 255
174 206 255
174 206 255
174 206 255
174 206 255
173 206 255
173 206 255
173 206 255
173 206 255
173 206 255
173 206 255
173 206 255
173 206 255
173 206 255
173 206 255
173 206 255
173 206 255
173 206 255
173 206 255
173 206 255
173 206 255
172 206 255
172 206 255
169 202 252
86 106 135
72 89 114
68 85 111
74 91 117
71 89 115
71 88 114
71 87 112
73 90 115
74 92 119
73 89 113
67 84 110
68 85 111
70 87 113
72 89 116
72 89 115
68 86 112
72 89 115
70 88 115
66 82 106
70 87 112
73 91 117
69 86 111
69 85 109
68 85 111
72 87 111
70 87 112
71 88 113
69 87 113
75 92 118
69 86 110
68 84 109
70 87 112
68 84 108
72 89 115
64 81 105
72 89 115
70 87 112
73 90 116
68 85 110
69 86 112
69 86 112
72 89 114
73 90 117
66 83 109
74 90 114
69 86 111
71 87 112
70 87 112
65 81 106
71 88 114
68 85 110
70 86 109
70 88 114
68 85 110
67 84 110
71 88 113
68 84 108
70 87 112
70 86 111
69 86 111
72 88 112
71 88 113
72 89 114
69 86 110
70 87 112
72 90 116
73 90 115
69 86 111
73 90 115
73 91 117
70 86 111
67 84 110
74 90 115
69 85 110
70 88 113
66 82 107
69 86 110
73 90 115
70 87 112
70 86 111
69 86 113
68 86 112
70 88 114
72 90 116
69 86 112
73 91 117
71 87 112
72 88 112
71 88 112
72 89 114
67 83 107
72 89 114
70 87 112
71 87 112
68 85 111
68 84 109
74 91 118
69 86 112
72 89 114
71 88 113
71 88 113
73 89 114
70 87 113
87 107 137
163 195 243
172 206 255
172 206 255
173 206 255
173 206 255
173 206 255
173 206 255
173 206 255
173 206 255
173 206 255
173 206 255
173 206 255
173 206 255
173 206 255
173 206 255
173 206 255
173 206 255
173 206 255
173 206 255
174 206 255
174 206 255
174 206 255
174 206 255
174 206 255
174 207 255
174 207 255
174 207 255
174 207 255
174 207 255
174 207 255
174 207 255
174 207 255
174 207 255
174 207 255
175 207 255
175 207 255
175 207 255
175 207 255
175 207 255
175 207 255
175 207 255
175 207 255
175 207 255
175 207 255
175 207 255
175 207 255
175 207 255
175 207 255
175 207 255
176 208 255
176 208 255
176 208 255
176 208 255
176 208 255
176 208 255
176 208 255
176 208 255
176 208 255
176 208 255
176 208 255
176 208 255
176 208 255
176 208 255
176 208 255
177 208 255
177 208 255
177 208 255
177 208 255
177 208 255
177 208 255
177 208 255
177 208 255
177 208 255
177 208 255
177 208 255
177 209 255
177 209 255
177 209 255
177 209 255
177 209 255
177 209 255
178 209 255
178 209 255
178 209 255
178 209 255
178 209 255
178 209 255
178 209 255
178 209 255
178 209 255
178 209 255
178 209 255
178 209 255
178 209 255
178 209 255
178 209 255
178 209 255
178 209 255
179 209 255
179 209 255
179 209 255
179 209 255
179 209 255
179 209 255
179 209 255
179 210 255
179 210 255
179 210 255
179 210 255
179 210 255
179 210 255
179 210 255
179 210 255
179 210 255
179 210 255
179 210 255
179 210 255
179 210 255
179 210 255
180 210 255
180 210 255
180 210 255
180 210 255
180 210 255
180 210 255
180 210 255
180 210 255
180 210 255
180 210 255
180 210 255
180 210 255
180 210 255
180 210 255
180 210 255
180 210 255
180 210 255
180 210 255
180 210 255
180 210 255
180 210 255
180 210 255
181 211 255
181 211 255
181 211 255
181 211 255
181 211 255
181 211 255
181 211 255
181 211 255
181 211 255
181 211 255
181 211 255
181 211 255
181 211 255
181 211 255
181 211 255
181 211 255
181 211 255
181 211 255
181 211 255
181 211 255
181 211 255
180 210 255
180 210 255
180 210 255
180 210 255
180 210 255
180 210 255
180 210 255
180 210 255
180 210 255
180 210 255
180 210 255
180 210 255
180 210 255
180 210 255
180 210 255
180 210 255
180 210 255
180 210 255
180 210 255
180 210 255
180 210 255
180 210 255
179 210 255
179 210 255
179 210 255
179 210 255
179 210 255
179 210 255
179 210 255
179 210 255
179 210 255
179 210 255
179 210 255
179 210 255
179 210 255
179 209 255
179 209 255
179 209 255
179 209 255
179 209 255
179 209 255
178 209 255
178 209 255
178 209 255
178 209 255
178 209 255
178 209 255
178 209 255
178 209 255
178 209 255
178 209 255
178 209 255
178 209 255
178 209 255
178 209 255
178 209 255
178 209 255
178 209 255
178 209 255
177 209 255
177 209 255
177 209 255
177 209 255
177 209 255
177 209 255
177 208 255
177 208 255
177 208 255
177 208 255
177 208 255
177 208 255
177 208 255
177 208 255
177 208 255
177 208 255
176 208 255
176 208 255
176 208 255
176 208 255
176 208 255
176 208 255
176 208 255
176 208 255
176 208 255
176 208 255
176 208 255
176 208 255
176 208 255
176 208 255
176 208 255
176 208 255
175 207 255
175 207 255
175 207 255
175 207 255
175 207 255
175 207 255
175 207 255
175 207 255
175 207 255
175 207 255
175 207 255
175 207 255
175 207 255
175 207 255
175 207 255
174 207 255
174 207 255
174 207 255
174 207 255
174 207 255
174 207 255
174 207 255
174 207 255
174 207 255
174 207 255
174 206 255
174 206 255
174 206 255
174 206 255
174 206 255
173 206 255
173 206 255
173 206 255
173 206 255
173 206 255
173 206 255
173 206 255
173 206 255
173 206 255
173 206 255
173 206 255
173 206 255
103 126 159
73 90 115
72 89 115
70 87 112
73 90 116
72 89 116
70 87 113
70 88 115
70 88 113
72 89 114
70 87 113
68 85 112
68 85 110
68 85 110
68 85 111
72 89 115
71 87 111
72 90 117
69 85 110
66 83 107
71 88 114
72 89 114
69 85 109
69 85 109
69 86 112
72 89 115
68 84 107
70 87 112
67 85 110
68 85 110
70 87 112
71 89 116
74 92 118
66 82 106
73 90 115
70 87 112
68 85 111
74 89 113
68 85 110
72 89 115
71 88 113
68 83 106
67 84 110
68 84 108
72 88 113
68 83 107
69 86 112
69 86 112
67 83 106
71 88 113
69 86 111
68 83 107
66 83 107
69 85 110
70 86 110
69 85 109
75 92 117
65 82 106
68 85 112
72 89 114
66 82 106
67 83 106
69 86 112
71 88 113
70 87 112
73 90 115
70 88 114
70 88 114
69 86 112
71 89 115
72 89 114
71 88 114
74 91 116
72 88 113
67 83 107
70 87 112
71 87 111
68 85 110
69 86 112
70 86 111
70 86 111
70 87 113
71 89 115
68 85 109
72 89 114
70 87 112
69 85 110
71 88 113
69 85 108
74 91 116
73 90 117
72 89 114
70 87 112
70 87 113
70 87 112
72 89 114
71 88 112
71 88 115
72 89 116
70 87 112
73 91 117
72 89 114
71 88 115
74 91 117
72 89 114
105 128 162
173 206 255
173 206 255
173 206 255
173 206 255
173 206 255
173 206 255
173 206 255
173 206 255
173 206 255
173 206 255
173 206 255
174 206 255
174 206 255
174 206 255
174 206 255
174 206 255
174 206 255
174 207 255
174 207 255
174 207 255
174 207 255
174 207 255
174 207 255
174 207 255
174 207 255
174 207 255
174 207 255
175 207 255
175 207 255
175 207 255
175 207 255
175 207 255
175 207 255
175 207 255
175 207 255
175 207 255
175 207 255
175 207 255
175 207 255
175 207 255
175 207 255
175 207 255
176 208 255
176 208 255
176 208 255
176 208 255
176 208 255
176 208 255
176 208 255
176 208 255
176 208 255
176 208 255
176 208 255
176 208 255
176 208 255
176 208 255
176 208 255
176 208 255
177 208 255
177 208 255
177 208 255
177 208 255
177 208 255
177 208 255
177 208 255
177 208 255
177 208 255
177 208 255
177 209 255
177 209 255
177 209 255
177 209 255
177 209 255
178 209 255
178 209 255
178 209 255
178 209 255
178 209 255
178 209 255
178 209 255
178 209 255
178 209 255
178 209 255
178 209 255
178 209 255
178 209 255
178 209 255
178 209 255
178 209 255
178 209 255
178 209 255
178 209 255
179 209 255
179 209 255
179 209 255
179 209 255
179 209 255
179 209 255
179 210 255
179 210 255
179 210 255
179 210 255
179 210 255
179 210 255
179 210 255
179 210 255
179 210 255
179 210 255
179 210 255
179 210 255
179 210 255
180 210 255
180 210 255
180 210 255
180 210 255
180 210 255
180 210 255
180 210 255
180 210 255
180 210 255
180 210 255
180 210 255
180 210 255
180 210 255
180 210 255
180 210 255
180 210 255
180 210 255
180 210 255
180 210 255
180 210 255
180 210 255
180 210 255
180 210 255
181 211 255
181 211 255
181 211 255
181 211 255
181 211 255
181 211 255
181 211 255
181 211 255
181 211 255
181 211 255
181 211 255
181 211 255
181 211 255
181 211 255
181 211 255
181 211 255
181 211 255
181 211 255
181 211 255
181 211 255
181 211 255
181 211 255
181 211 255
181 211 255
181 211 255
181 211 255
181 211 255
181 211 255
181 211 255
181 211 255
181 211 255
181 211 255
181 211 255
180 210 255
180 210 255
180 210 255
180 210 255
180 210 255
180 210 255
180 210 255
180 210 255
180 210 255
180 210 255
180 210 255
180 210 255
180 210 255
180 210 255
180 210 255
180 210 255
180 210 255
180 210 255
180 210 255
180 210 255
180 210 255
180 210 255
179 210 255
179 210 255
179 210 255
179 210 255
179 210 255
179 210 255
179 210 255
179 210 255
179 210 255
179 210 255
179 210 255
179 210 255
179 210 255
179 209 255
179 209 255
179 209 255
179 209 255
179 209 255
179 209 255
178 209 255
178 209 255
178 209 255
178 209 255
178 209 255
178 209 255
178 209 255
178 209 255
178 209 255
178 209 255
178 209 255
178 209 255
178 209 255
178 209 255
178 209 255
178 209 255
178 209 255
178 209 255
177 209 255
177 209 255
177 209 255
177 209 255
177 209 255
177 209 255
177 208 255
177 208 255
177 208 255
177 208 255
177 208 255
177 208 255
177 208 255
177 208 255
177 208 255
177 208 255
177 208 255
176 208 255
176 208 255
176 208 255
176 208 255
176 208 255
176 208 255
176 208 255
176 208 255
176 208 255
176 208 255
176 208 255
176 208 255
176 208 255
176 208 255
176 208 255
175 207 255
175 207 255
175 207 255
175 207 255
175 207 255
175 207 255
175 207 255
175 207 255
175 207 255
175 207 255
175 207 255
175 207 255
175 207 255
175 207 255
175 207 255
175 207 255
174 207 255
174 207 255
174 207 255
174 207 255
174 207 255
174 207 255
174 207 255
174 207 255
174 207 255
174 207 255
174 206 255
174 206 255
174 206 255
174 206 255
174 206 255
174 206 255
173 206 255
173 206 255
173 206 255
135 162 204
71 88 115
67 84 110
71 88 112
72 90 117
71 88 115
71 88 113
71 87 112
68 84 108
69 86 111
73 90 117
71 88 113
74 91 116
71 87 112
69 85 110
72 90 117
73 89 114
71 88 115
70 87 111
68 84 109
69 86 112
68 85 110
70 87 111
71 88 115
71 88 113
69 85 110
69 85 109
70 87 112
72 89 114
71 87 111
67 84 110
72 89 113
68 85 110
73 90 115
70 86 111
68 86 112
69 85 110
70 86 110
66 82 106
69 85 110
70 88 113
69 86 112
73 90 115
70 87 112
72 88 112
69 86 110
69 86 110
66 83 107
68 85 111
68 85 111
68 84 109
70 87 112
70 86 112
69 86 110
69 85 110
68 84 110
72 89 114
72 89 113
67 83 108
68 84 108
68 84 108
68 84 108
72 89 113
73 89 114
69 85 110
74 90 115
72 89 116
72 89 115
71 87 112
67 83 108
72 89 113
69 85 110
72 89 115
71 87 112
65 81 105
69 87 113
71 87 112
68 84 109
71 88 113
70 86 109
69 86 110
68 85 110
71 88 114
68 84 108
70 86 111
71 88 112
70 86 110
71 88 113
71 89 115
73 91 117
68 85 109
69 85 109
69 85 109
66 82 106
69 87 114
70 87 113
71 89 115
70 87 112
68 85 110
69 86 111
72 89 114
72 89 113
72 90 117
71 87 111
67 84 109
70 87 112
71 88 114
129 155 194
173 206 255
173 206 255
173 206 255
174 206 255
174 206 255
174 206 255
174 206 255
174 206 255
174 206 255
174 207 255
174 207 255
174 207 255
174 207 255
174 207 255
174 207 255
174 207 255
174 207 255
174 207 255
174 207 255
175 207 255
175 207 255
175 207 255
175 207 255
175 207 255
175 207 255
175 207 255
175 207 255
175 207 255
175 207 255
175 207 255
175 207 255
175 207 255
175 207 255
175 207 255
175 207 255
176 208 255
176 208 255
176 208 255
176 208 255
176 208 255
176 208 255
176 208 255
176 208 255
176 208 255
176 208 255
176 208 255
176 208 255
176 208 255
176 208 255
176 208 255
176 208 255
177 208 255
177 208 255
177 208 255
177 208 255
177 208 255
177 208 255
177 208 255
177 208 255
177 208 255
177 208 255
177 209 255
177 209 255
177 209 255
177 209 255
177 209 255
178 209 255
178 209 255
178 209 255
178 209 255
178 209 255
178 209 255
178 209 255
178 209 255
178 209 255
178 209 255
178 209 255
178 209 255
178 209 255
178 209 255
178 209 255
178 209 255
178 209 255
178 209 255
179 209 255
179 209 255
179 209 255
179 209 255
179 209 255
179 209 255
179 209 255
179 210 255
179 210 255
179 210 255
179 210 255
179 210 255
179 210 255
179 210 255
179 210 255
179 210 255
179 210 255
179 210 255
179 210 255
179 210 255
180 210 255
180 210 255
180 210 255
180 210 255
180 210 255
180 210 255
180 210 255
180 210 255
180 210 255
180 210 255
180 210 255
180 210 255
180 210 255
180 210 255
180 210 255
180 210 255
180 210 255
180 210 255
180 210 255
180 210 255
180 210 255
180 210 255
181 211 255
181 211 255
181 211 255
181 211 255
181 211 255
181 211 255
181 211 255
181 211 255
181 211 255
181 211 255
181 211 255
181 211 255
181 211 255
181 211 255
181 211 255
181 211 255
181 211 255
181 211 255
181 211 255
181 211 255
182 211 255
182 211 255
181 211 255
181 211 255
181 211 255
181 211 255
181 211 255
181 211 255
181 211 255
181 211 255
181 211 255
181 211 255
181 211 255
181 211 255
181 211 255
181 211 255
181 211 255
181 211 255
181 211 255
181 211 255
181 211 255
181 211 255
181 211 255
181 211 255
181 211 255
181 211 255
181 211 255
180 210 255
180 210 255
180 210 255
180 210 255
180 210 255
180 210 255
180 210 255
180 210 255
180 210 255
180 210 255
180 210 255
180 210 255
180 210 255
180 210 255
180 210 255
180 210 255
180 210 255
180 210 255
180 210 255
180 210 255
180 210 255
179 210 255
179 210 255
179 210 255
179 210 255
179 210 255
179 210 255
179 210 255
179 210 255
179 210 255
179 210 255
179 210 255
179 210 255
179 210 255
179 210 255
179 209 255
179 209 255
179 209 255
179 209 255
179 209 255
179 209 255
178 209 255
178 209 255
178 209 255
178 209 255
178 209 255
178 209 255
178 209 255
178 209 255
178 209 255
178 209 255
178 209 255
178 209 255
178 209 255
178 209 255
178 209 255
178 209 255
178 209 255
177 209 255
177 209 255
177 209 255
177 209 255
177 209 255
177 209 255
177 208 255
177 208 255
177 208 255
177 208 255
177 208 255
177 208 255
177 208 255
177 208 255
177 208 255
177 208 255
177 208 255
176 208 255
176 208 255
176 208 255
176 208 255
176 208 255
176 208 255
176 208 255
176 208 255
176 208 255
176 208 255
176 208 255
176 208 255
176 208 255
176 208 255
176 208 255
176 208 255
175 207 255
175 207 255
175 207 255
175 207 255
175 207 255
175 207 255
175 207 255
175 207 255
175 207 255
175 207 255
175 207 255
175 207 255
175 207 255
175 207 255
175 207 255
175 207 255
174 207 255
174 207 255
174 207 255
174 207 255
174 207 255
174 207 255
174 207 255
174 207 255
174 207 255
174 207 255
174 207 255
152 181 224
78 96 122
70 87 113
71 88 113
71 88 113
78 95 120
73 91 118
74 91 118
71 87 112
68 84 108
70 86 110
70 87 112
69 86 112
72 89 115
67 83 108
72 89 114
71 88 113
72 89 114
69 86 112
70 87 112
74 92 118
67 83 107
69 86 110
71 88 112
72 88 113
74 91 117
69 85 111
72 89 113
72 89 115
70 87 112
73 91 117
68 84 109
70 86 110
70 88 115
68 85 110
67 83 108
70 87 113
68 85 109
68 84 108
71 88 114
73 90 116
72 88 113
72 89 114
71 89 115
67 83 106
65 81 105
71 87 111
69 85 110
71 87 112
68 85 110
70 87 113
71 87 111
67 83 108
68 84 109
68 85 110
68 84 108
72 89 114
70 88 114
69 85 110
68 84 109
68 84 107
70 87 113
72 88 112
69 85 110
70 87 111
71 88 113
72 88 111
72 89 115
69 85 108
71 88 112
70 86 110
63 79 103
71 87 111
69 86 111
70 87 113
68 84 108
69 85 109
75 93 119
68 84 110
71 87 111
64 80 103
71 86 109
72 89 114
69 86 111
68 84 109
71 87 112
69 86 111
67 84 110
70 87 112
68 85 109
71 86 110
69 86 110
69 85 110
67 84 109
65 82 106
72 88 113
70 86 110
68 85 111
72 88 113
71 88 113
72 89 115
70 87 112
71 87 112
69 86 110
71 88 113
70 86 111
74 91 118
74 91 117
82 101 128
166 197 245
174 206 255
174 207 255
174 207 255
174 207 255
174 207 255
174 207 255
174 207 255
174 207 255
174 207 255
174 207 255
174 207 255
174 207 255
175 207 255
175 207 255
175 207 255
175 207 255
175 207 255
175 207 255
175 207 255
175 207 255
175 207 255
175 207 255
175 207 255
175 207 255
175 207 255
175 207 255
175 207 255
175 207 255
176 208 255
176 208 255
176 208 255
176 208 255
176 208 255
176 208 255
176 208 255
176 208 255
176 208 255
176 208 255
176 208 255
176 208 255
176 208 255
176 208 255
176 208 255
177 208 255
177 208 255
177 208 255
177 208 255
177 208 255
177 208 255
177 208 255
177 208 255
177 208 255
177 208 255
177 208 255
177 209 255
177 209 255
177 209 255
177 209 255
177 209 255
177 209 255
178 209 255
178 209 255
178 209 255
178 209 255
178 209 255
178 209 255
178 209 255
178 209 255
178 209 255
178 209 255
178 209 255
178 209 255
178 209 255
178 209 255
178 209 255
178 209 255
178 209 255
179 209 255
179 209 255
179 209 255
179 209 255
179 209 255
179 209 255
179 209 255
179 210 255
179 210 255
179 210 255
179 210 255
179 210 255
179 210 255
179 210 255
179 210 255
179 210 255
179 210 255
179 210 255
179 210 255
180 210 255
180 210 255
180 210 255
180 210 255
180 210 255
180 210 255
180 210 255
180 210 255
180 210 255
180 210 255
180 210 255
180 210 255
180 210 255
180 210 255
180 210 255
180 210 255
180 210 255
180 210 255
180 210 255
180 210 255
180 210 255
180 210 255
181 211 255
181 211 255
181 211 255
181 211 255
181 211 255
181 211 255
181 211 255
181 211 255
181 211 255
181 211 255
181 211 255
181 211 255
181 211 255
181 211 255
181 211 255
181 211 255
181 211 255
181 211 255
181 211 255
181 211 255
181 211 255
181 211 255
181 211 255
181 211 255
182 211 255
182 211 255
182 211 255
182 211 255
182 211 255
182 211 255
182 211 255
182 211 255
182 211 255
182 211 255
182 211 255
182 211 255
181 211 255
181 211 255
181 211 255
181 211 255
181 211 255
181 211 255
181 211 255
181 211 255
181 211 255
181 211 255
181 211 255
181 211 255
181 211 255
181 211 255
181 211 255
181 211 255
181 211 255
181 211 255
181 211 255
181 211 255
181 211 255
181 211 255
181 211 255
181 211 255
181 211 255
180 210 255
180 210 255
180 210 255
180 210 255
180 210 255
180 210 255
180 210 255
180 210 255
180 210 255
180 210 255
180 210 255
180 210 255
180 210 255
180 210 255
180 210 255
180 210 255
180 210 255
180 210 255
180 210 255
180 210 255
180 210 255
179 210 255
179 210 255
179 210 255
179 210 255
179 210 255
179 210 255
179 210 255
179 210 255
179 210 255
179 210 255
179 210 255
179 210 255
179 210 255
179 209 255
179 209 255
179 209 255
179 209 255
179 209 255
179 209 255
178 209 255
178 209 255
178 209 255
178 209 255
178 209 255
178 209 255
178 209 255
178 209 255
178 209 255
178 209 255
178 209 255
178 209 255
178 209 255
178 209 255
178 209 255
178 209 255
178 209 255
178 209 255
177 209 255
177 209 255
177 209 255
177 209 255
177 209 255
177 208 255
177 208 255
177 208 255
177 208 255
177 208 255
177 208 255
177 208 255
177 208 255
177 208 255
177 208 255
177 208 255
176 208 255
176 208 255
176 208 255
176 208 255
176 208 255
176 208 255
176 208 255
176 208 255
176 208 255
176 208 255
176 208 255
176 208 255
176 208 255
176 208 255
176 208 255
176 208 255
175 207 255
175 207 255
175 207 255
175 207 255
175 207 255
175 207 255
175 207 255
175 207 255
175 207 255
175 207 255
175 207 255
175 207 255
175 207 255
175 207 255
175 207 255
175 207 255
175 207 255
174 207 255
174 207 255
174 207 255
174 207 255
105 127 161
71 88 114
72 88 113
70 88 114
67 84 109
67 83 108
73 90 115
69 85 110
71 88 113
69 86 112
72 89 113
69 86 113
70 86 110
69 87 113
74 92 118
70 87 112
71 87 111
69 85 109
74 91 116
72 89 115
68 86 112
67 84 109
70 87 113
71 88 115
72 88 112
70 86 111
66 82 107
67 84 108
70 86 110
68 84 109
69 85 109
68 84 109
70 86 111
69 86 110
67 84 108
69 85 110
73 89 113
68 85 111
69 85 109
69 86 111
71 89 115
68 84 108
69 86 111
69 85 110
68 85 110
70 85 109
67 83 107
67 83 107
69 86 110
66 82 106
71 87 112
73 90 115
70 86 111
73 90 117
67 83 107
67 83 108
68 84 109
73 90 115
68 84 108
70 86 110
72 88 113
70 86 110
73 90 114
66 83 108
67 83 107
69 86 110
65 81 105
71 87 111
66 82 108
68 84 108
67 83 108
72 89 115
69 85 110
70 86 110
70 86 110
68 84 108
69 86 112
71 88 113
65 82 107
73 90 115
67 83 107
68 83 107
69 85 110
72 89 114
67 84 109
70 86 109
71 86 110
71 88 113
71 89 115
74 91 117
63 79 102
70 87 112
73 90 117
68 84 108
68 84 108
68 84 108
72 90 116
75 93 119
66 82 107
69 86 111
71 87 112
71 87 112
68 85 110
68 84 109
68 85 111
74 91 117
68 86 112
71 88 114
70 86 109
100 121 152
174 207 255
174 207 255
174 207 255
174 207 255
175 207 255
175 207 255
175 207 255
175 207 255
175 207 255
175 207 255
175 207 255
175 207 255
175 207 255
175 207 255
175 207 255
175 207 255
175 207 255
175 207 255
175 207 255
175 207 255
175 207 255
176 208 255
176 208 255
176 208 255
176 208 255
176 208 255
176 208 255
176 208 255
176 208 255
176 208 255
176 208 255
176 208 255
176 208 255
176 208 255
176 208 255
176 208 255
177 208 255
177 208 255
177 208 255
177 208 255
177 208 255
177 208 255
177 208 255
177 208 255
177 208 255
177 208 255
177 208 255
177 209 255
177 209 255
177 209 255
177 209 255
177 209 255
177 209 255
178 209 255
178 209 255
178 209 255
178 209 255
178 209 255
178 209 255
178 209 255
178 209 255
178 209 255
178 209 255
178 209 255
178 209 255
178 209 255
178 209 255
178 209 255
178 209 255
178 209 255
178 209 255
179 209 255
179 209 255
179 209 255
179 209 255
179 209 255
179 209 255
179 210 255
179 210 255
179 210 255
179 210 255
179 210 255
179 210 255
179 210 255
179 210 255
179 210 255
179 210 255
179 210 255
179 210 255
179 210 255
180 210 255
180 210 255
180 210 255
180 210 255
180 210 255
180 210 255
180 210 255
180 210 255
180 210 255
180 210 255
180 210 255
180 210 255
180 210 255
180 210 255
180 210 255
180 210 255
180 210 255
180 210 255
180 210 255
180 210 255
180 210 255
181 211 255
181 211 255
181 211 255
181 211 255
181 211 255
181 211 255
181 211 255
181 211 255
181 211 255
181 211 255
181 211 255
181 211 255
181 211 255
181 211 255
181 211 255
181 211 255
181 211 255
181 211 255
181 211 255
181 211 255
181 211 255
181 211 255
181 211 255
181 211 255
182 211 255
182 211 255
182 211 255
182 211 255
182 211 255
182 211 255
182 211 255
182 211 255
182 211 255
182 211 255
182 211 255
182 211 255
182 211 255
182 211 255
182 211 255
182 211 255
182 211 255
182 211 255
182 211 255
182 211 255
182 211 255
182 211 255
182 211 255
182 211 255
182 211 255
182 211 255
182 211 255
181 211 255
181 211 255
181 211 255
181 211 255
181 211 255
181 211 255
181 211 255
181 211 255
181 211 255
181 211 255
181 211 255
181 211 255
181 211 255
181 211 255
181 211 255
181 211 255
181 211 255
181 211 255
181 211 255
181 211 255
181 211 255
181 211 255
181 211 255
181 211 255
180 210 255
180 210 255
180 210 255
180 210 255
180 210 255
180 210 255
180 210 255
180 210 255
180 210 255
180 210 255
180 210 255
180 210 255
180 210 255
180 210 255
180 210 255
180 210 255
180 210 255
180 210 255
180 210 255
180 210 255
180 210 255
179 210 255
179 210 255
179 210 255
179 210 255
179 210 255
179 210 255
179 210 255
179 210 255
179 210 255
179 210 255
179 210 255
179 210 255
179 210 255
179 209 255
179 209 255
179 209 255
179 209 255
179 209 255
179 209 255
178 209 255
178 209 255
178 209 255
178 209 255
178 209 255
178 209 255
178 209 255
178 209 255
178 209 255
178 209 255
178 209 255
178 209 255
178 209 255
178 209 255
178 209 255
178 209 255
178 209 255
177 209 255
177 209 255
177 209 255
177 209 255
177 209 255
177 209 255
177 208 255
177 208 255
177 208 255
177 208 255
177 208 255
177 208 255
177 208 255
177 208 255
177 208 255
177 208 255
177 208 255
176 208 255
176 208 255
176 208 255
176 208 255
176 208 255
176 208 255
176 208 255
176 208 255
176 208 255
176 208 255
176 208 255
176 208 255
176 208 255
176 208 255
176 208 255
176 208 255
176 208 255
175 207 255
175 207 255
175 207 255
175 207 255
175 207 255
175 207 255
175 207 255
175 207 255
175 207 255
175 207 255
175 207 255
175 207 255
143 171 213
73 90 115
68 84 109
71 88 114
70 87 113
72 89 114
71 89 115
66 82 106
70 87 111
66 82 105
70 86 111
69 86 113
67 84 110
69 85 109
67 83 108
70 87 113
68 84 108
70 88 115
67 83 108
73 90 114
71 88 113
71 88 115
70 85 109
73 90 115
72 88 112
71 87 111
68 85 110
65 82 106
68 86 111
71 88 114
69 86 110
71 87 112
69 86 112
69 86 110
69 85 108
73 89 113
72 89 115
66 83 108
71 87 112
69 85 110
70 86 112
68 83 107
71 87 111
71 88 113
68 84 108
70 86 110
69 85 108
68 84 110
71 88 112
70 86 110
67 83 107
71 88 113
70 86 109
67 83 107
73 90 115
67 83 108
72 88 112
68 84 108
69 85 110
66 83 108
71 87 111
70 86 111
70 86 112
70 86 110
72 89 115
68 85 109
70 87 111
69 85 110
69 85 111
66 82 107
67 83 108
69 85 109
68 84 108
71 88 113
69 86 112
69 86 112
69 85 109
68 85 111
67 84 108
72 89 115
69 86 111
68 85 110
69 85 109
68 85 109
68 84 108
72 88 112
69 86 110
70 87 112
70 87 112
64 80 104
66 83 108
72 88 113
69 84 108
65 81 106
71 87 112
68 85 110
70 87 112
67 83 107
71 87 111
69 85 108
70 86 110
75 92 118
70 87 111
70 86 110
73 90 114
71 87 112
67 82 106
71 88 114
71 87 112
71 88 113
73 90 116
137 164 204
175 207 255
175 207 255
175 207 255
175 207 255
175 207 255
175 207 255
175 207 255
175 207 255
175 207 255
175 207 255
175 207 255
175 207 255
175 207 255
176 208 255
176 208 255
176 208 255
176 208 255
176 208 255
176 208 255
176 208 255
176 208 255
176 208 255
176 208 255
176 208 255
176 208 255
176 208 255
176 208 255
176 208 255
176 208 255
177 208 255
177 208 255
177 208 255
177 208 255
177 208 255
177 208 255
177 208 255
177 208 255
177 208 255
177 208 255
177 208 255
177 209 255
177 209 255
177 209 255
177 209 255
177 209 255
177 209 255
178 209 255
178 209 255
178 209 255
178 209 255
178 209 255
178 209 255
178 209 255
178 209 255
178 209 255
178 209 255
178 209 255
178 209 255
178 209 255
178 209 255
178 209 255
178 209 255
178 209 255
179 209 255
179 209 255
179 209 255
179 209 255
179 209 255
179 209 255
179 209 255
179 210 255
179 210 255
179 210 255
179 210 255
179 210 255
179 210 255
179 210 255
179 210 255
179 210 255
179 210 255
179 210 255
179 210 255
180 210 255
180 210 255
180 210 255
180 210 255
180 210 255
180 210 255
180 210 255
180 210 255
180 210 255
180 210 255
180 210 255
180 210 255
180 210 255
180 210 255
180 210 255
180 210 255
180 210 255
180 210 255
180 210 255
180 210 255
180 210 255
181 211 255
181 211 255
181 211 255
181 211 255
181 211 255
181 211 255
181 211 255
181 211 255
181 211 255
181 211 255
181 211 255
181 211 255
181 211 255
181 211 255
181 211 255
181 211 255
181 211 255
181 211 255
181 211 255
181 211 255
181 211 255
181 211 255
181 211 255
181 211 255
182 211 255
182 211 255
182 211 255
182 211 255
182 211 255
182 211 255
182 211 255
182 211 255
182 211 255
182 211 255
182 211 255
182 211 255
182 211 255
182 211 255
182 211 255
182 211 255
182 211 255
182 212 255
182 212 255
182 212 255
182 212 255
182 212 255
182 212 255
182 211 255
182 211 255
182 211 255
182 211 255
182 211 255
182 211 255
182 211 255
182 211 255
182 211 255
182 211 255
182 211 255
182 211 255
182 211 255
182 211 255
182 211 255
182 211 255
182 211 255
182 211 255
181 211 255
181 211 255
181 211 255
181 211 255
181 211 255
181 211 255
181 211 255
181 211 255
181 211 255
181 211 255
181 211 255
181 211 255
181 211 255
181 211 255
181 211 255
181 211 255
181 211 255
181 211 255
181 211 255
181 211 255
181 211 255
181 211 255
181 211 255
181 211 255
180 210 255
180 210 255
180 210 255
180 210 255
180 210 255
180 210 255
180 210 255
180 210 255
180 210 255
180 210 255
180 210 255
180 210 255
180 210 255
180 210 255
180 210 255
180 210 255
180 210 255
180 210 255
180 210 255
180 210 255
179 210 255
179 210 255
179 210 255
179 210 255
179 210 255
179 210 255
179 210 255
179 210 255
179 210 255
179 210 255
179 210 255
179 210 255
179 210 255
179 210 255
179 209 255
179 209 255
179 209 255
179 209 255
179 209 255
179 209 255
178 209 255
178 209 255
178 209 255
178 209 255
178 209 255
178 209 255
178 209 255
178 209 255
178 209 255
178 209 255
178 209 255
178 209 255
178 209 255
178 209 255
178 209 255
178 209 255
178 209 255
177 209 255
177 209 255
177 209 255
177 209 255
177 209 255
177 208 255
177 208 255
177 208 255
177 208 255
177 208 255
177 208 255
177 208 255
177 208 255
177 208 255
177 208 255
177 208 255
177 208 255
176 208 255
176 208 255
176 208 255
176 208 255
176 208 255
176 208 255
176 208 255
176 208 255
176 208 255
176 208 255
176 208 255
176 208 255
176 208 255
176 208 255
176 208 255
176 208 255
176 208 255
175 207 255
175 207 255
175 207 255
175 207 255
171 203 250
83 101 129
68 85 109
67 83 108
69 86 112
68 84 107
75 91 117
65 82 106
71 87 113
69 85 109
69 86 112
72 89 114
68 84 108
69 86 111
71 87 112
71 89 115
68 84 107
70 87 111
67 83 108
72 89 113
65 82 106
72 88 113
70 87 112
68 84 109
74 91 116
70 86 111
69 86 111
71 88 113
72 89 115
66 82 108
71 87 112
71 87 112
65 81 105
73 89 114
72 88 112
69 85 110
71 88 113
65 81 105
71 88 112
70 85 109
71 87 112
67 83 107
65 80 103
69 86 111
67 83 107
64 79 102
72 88 112
70 87 111
75 92 118
64 80 104
65 81 106
67 84 109
71 87 111
68 85 110
66 83 107
69 85 109
68 83 107
70 86 112
68 85 110
67 83 106
70 87 112
69 85 110
69 86 110
68 85 111
70 86 110
66 81 104
67 84 109
67 83 107
66 81 105
68 84 107
71 87 110
69 85 110
68 85 110
68 84 108
72 88 112
70 86 110
69 86 111
68 84 107
65 82 108
74 91 117
69 85 109
68 85 110
70 87 112
69 86 111
69 86 112
70 87 112
71 88 113
72 89 114
67 84 109
68 84 109
69 86 111
67 82 105
68 85 109
71 89 116
71 88 114
72 90 116
67 83 107
73 90 116
69 86 110
68 83 106
69 85 110
74 91 116
67 84 110
71 86 110
71 88 112
65 81 106
68 85 111
70 86 110
73 90 115
73 91 118
71 87 112
68 85 109
77 96 124
170 202 249
175 207 255
175 207 255
175 207 255
175 207 255
176 208 255
176 208 255
176 208 255
176 208 255
176 208 255
176 208 255
176 208 255
176 208 255
176 208 255
176 208 255
176 208 255
176 208 255
176 208 255
176 208 255
176 208 255
176 208 255
176 208 255
177 208 255
177 208 255
177 208 255
177 208 255
177 208 255
177 208 255
177 208 255
177 208 255
177 208 255
177 208 255
177 208 255
177 209 255
177 209 255
177 209 255
177 209 255
177 209 255
177 209 255
178 209 255
178 209 255
178 209 255
178 209 255
178 209 255
178 209 255
178 209 255
178 209 255
178 209 255
178 209 255
178 209 255
178 209 255
178 209 255
178 209 255
178 209 255
178 209 255
178 209 255
179 209 255
179 209 255
179 209 255
179 209 255
179 209 255
179 209 255
179 209 255
179 210 255
179 210 255
179 210 255
179 210 255
179 210 255
179 210 255
179 210 255
179 210 255
179 210 255
179 210 255
179 210 255
179 210 255
180 210 255
180 210 255
180 210 255
180 210 255
180 210 255
180 210 255
180 210 255
180 210 255
180 210 255
180 210 255
180 210 255
180 210 255
180 210 255
180 210 255
180 210 255
180 210 255
180 210 255
180 210 255
180 210 255
180 210 255
180 210 255
181 211 255
181 211 255
181 211 255
181 211 255
181 211 255
181 211 255
181 211 255
181 211 255
181 211 255
181 211 255
181 211 255
181 211 255
181 211 255
181 211 255
181 211 255
181 211 255
181 211 255
181 211 255
181 211 255
181 211 255
181 211 255
181 211 255
181 211 255
181 211 255
182 211 255
182 211 255
182 211 255
182 211 255
182 211 255
182 211 255
182 211 255
182 211 255
182 211 255
182 211 255
182 211 255
182 211 255
182 211 255
182 211 255
182 211 255
182 211 255
182 211 255
182 212 255
182 212 255
182 212 255
182 212 255
182 212 255
182 212 255
182 212 255
183 212 255
183 212 255
183 212 255
183 212 255
182 212 255
182 212 255
182 212 255
182 212 255
182 212 255
182 212 255
182 212 255
182 212 255
182 212 255
182 212 255
182 211 255
182 211 255
182 211 255
182 211 255
182 211 255
182 211 255
182 211 255
182 211 255
182 211 255
182 211 255
182 211 255
182 211 255
182 211 255
182 211 255
182 211 255
182 211 255
182 211 255
182 211 255
181 211 255
181 211 255
181 211 255
181 211 255
181 211 255
181 211 255
181 211 255
181 211 255
181 211 255
181 211 255
181 211 255
181 211 255
181 211 255
181 211 255
181 211 255
181 211 255
181 211 255
181 211 255
181 211 255
181 211 255
181 211 255
181 211 255
181 211 255
180 210 255
180 210 255
180 210 255
180 210 255
180 210 255
180 210 255
180 210 255
180 210 255
180 210 255
180 210 255
180 210 255
180 210 255
180 210 255
180 210 255
180 210 255
180 210 255
180 210 255
180 210 255
180 210 255
180 210 255
180 210 255
179 210 255
179 210 255
179 210 255
179 210 255
179 210 255
179 210 255
179 210 255
179 210 255
179 210 255
179 210 255
179 210 255
179 210 255
179 209 255
179 209 255
179 209 255
179 209 255
179 209 255
179 209 255
178 209 255
178 209 255
178 209 255
178 209 255
178 209 255
178 209 255
178 209 255
178 209 255
178 209 255
178 209 255
178 209 255
178 209 255
178 209 255
178 209 255
178 209 255
178 209 255
178 209 255
178 209 255
177 209 255
177 209 255
177 209 255
177 209 255
177 209 255
177 209 255
177 208 255
177 208 255
177 208 255
177 208 255
177 208 255
177 208 255
177 208 255
177 208 255
177 208 255
177 208 255
177 208 255
176 208 255
176 208 255
176 208 255
176 208 255
176 208 255
176 208 255
176 208 255
176 208 255
176 208 255
176 208 255
176 208 255
176 208 255
176 208 255
176 208 255
129 154 191
71 89 115
71 88 115
67 84 108
69 86 110
70 86 111
70 87 112
68 85 111
71 87 112
68 84 108
70 87 112
67 84 108
72 90 116
70 86 111
71 88 113
63 78 100
72 88 113
70 86 110
68 84 108
68 85 110
67 84 110
69 86 111
70 86 109
71 87 111
66 82 106
69 85 110
71 88 113
67 83 107
70 87 112
69 86 112
67 84 109
64 79 103
71 87 110
64 79 102
72 88 113
70 87 111
70 86 110
74 91 116
70 86 110
71 87 112
70 86 111
68 84 108
68 85 110
70 86 111
68 83 107
64 80 104
69 85 110
66 83 108
71 88 112
67 83 107
68 84 107
66 82 105
70 86 110
66 82 106
66 81 104
69 85 110
65 81 105
67 83 108
70 87 111
68 83 107
69 86 111
70 86 110
71 87 111
66 81 105
71 88 113
69 86 110
66 82 106
66 82 107
68 83 107
68 84 109
67 84 108
71 87 112
68 83 107
67 83 107
64 81 105
71 87 111
69 85 110
67 84 110
70 86 110
72 90 116
68 85 111
66 82 107
66 83 108
65 81 106
68 84 107
70 86 110
68 84 108
68 84 107
72 89 115
66 82 106
67 84 109
72 89 115
71 88 114
70 87 113
67 83 108
67 83 107
66 83 108
68 84 108
67 84 109
70 87 112
69 86 112
68 84 108
68 85 111
68 85 110
71 88 114
72 89 115
71 88 114
71 87 112
71 88 114
69 86 111
65 82 106
70 87 112
69 87 112
124 148 184
176 208 255
176 208 255
176 208 255
176 208 255
176 208 255
176 208 255
176 208 255
176 208 255
176 208 255
176 208 255
176 208 255
176 208 255
176 208 255
176 208 255
177 208 255
177 208 255
177 208 255
177 208 255
177 208 255
177 208 255
177 208 255
177 208 255
177 208 255
177 208 255
177 208 255
177 209 255
177 209 255
177 209 255
177 209 255
177 209 255
177 209 255
178 209 255
178 209 255
178 209 255
178 209 255
178 209 255
178 209 255
178 209 255
178 209 255
178 209 255
178 209 255
178 209 255
178 209 255
178 209 255
178 209 255
178 209 255
178 209 255
178 209 255
179 209 255
179 209 255
179 209 255
179 209 255
179 209 255
179 209 255
179 210 255
179 210 255
179 210 255
179 210 255
179 210 255
179 210 255
179 210 255
179 210 255
179 210 255
179 210 255
179 210 255
179 210 255
179 210 255
180 210 255
180 210 255
180 210 255
180 210 255
180 210 255
180 210 255
180 210 255
180 210 255
180 210 255
180 210 255
180 210 255
180 210 255
180 210 255
180 210 255
180 210 255
180 210 255
180 210 255
180 210 255
180 210 255
180 210 255
180 210 255
181 211 255
181 211 255
181 211 255
181 211 255
181 211 255
181 211 255
181 211 255
181 211 255
181 211 255
181 211 255
181 211 255
181 211 255
181 211 255
181 211 255
181 211 255
181 211 255
181 211 255
181 211 255
181 211 255
181 211 255
181 211 255
181 211 255
181 211 255
182 211 255
182 211 255
182 211 255
182 211 255
182 211 255
182 211 255
182 211 255
182 211 255
182 211 255
182 211 255
182 211 255
182 211 255
182 211 255
182 211 255
182 211 255
182 211 255
182 211 255
182 211 255
182 212 255
182 212 255
182 212 255
182 212 255
182 212 255
182 212 255
182 212 255
182 212 255
182 212 255
183 212 255
183 212 255
183 212 255
183 212 255
183 212 255
183 212 255
183 212 255
183 212 255
183 212 255
183 212 255
183 212 255
183 212 255
183 212 255
183 212 255
183 212 255
183 212 255
183 212 255
183 212 255
182 212 255
182 212 255
182 212 255
182 212 255
182 212 255
182 212 255
182 212 255
182 212 255
182 212 255
182 211 255
182 211 255
182 211 255
182 211 255
182 211 255
182 211 255
182 211 255
182 211 255
182 211 255
182 211 255
182 211 255
182 211 255
182 211 255
182 211 255
182 211 255
182 211 255
182 211 255
182 211 255
181 211 255
181 211 255
181 211 255
181 211 255
181 211 255
181 211 255
181 211 255
181 211 255
181 211 255
181 211 255
181 211 255
181 211 255
181 211 255
181 211 255
181 211 255
181 211 255
181 211 255
181 211 255
181 211 255
181 211 255
181 211 255
181 211 255
180 210 255
180 210 255
180 210 255
180 210 255
180 210 255
180 210 255
180 210 255
180 210 255
180 210 255
180 210 255
180 210 255
180 210 255
180 210 255
180 210 255
180 210 255
180 210 255
180 210 255
180 210 255
180 210 255
180 210 255
180 210 255
179 210 255
179 210 255
179 210 255
179 210 255
179 210 255
179 210 255
179 210 255
179 210 255
179 210 255
179 210 255
179 210 255
179 210 255
179 209 255
179 209 255
179 209 255
179 209 255
179 209 255
179 209 255
179 209 255
178 209 255
178 209 255
178 209 255
178 209 255
178 209 255
178 209 255
178 209 255
178 209 255
178 209 255
178 209 255
178 209 255
178 209 255
178 209 255
178 209 255
178 209 255
178 209 255
178 209 255
178 209 255
177 209 255
177 209 255
177 209 255
177 209 255
177 209 255
177 209 255
177 208 255
177 208 255
177 208 255
177 208 255
177 208 255
177 208 255
177 208 255
177 208 255
177 208 255
177 208 255
177 208 255
177 208 255
176 208 255
176 208 255
176 208 255
176 208 255
165 195 241
74 90 114
74 91 117
67 84 108
70 87 113
66 82 107
70 87 112
69 84 108
69 86 110
70 87 112
70 87 112
67 84 109
68 84 108
68 84 108
70 86 110
67 84 110
69 85 110
72 88 112
71 88 112
69 85 109
68 84 109
70 87 111
67 82 106
69 87 113
70 86 109
66 82 105
68 85 110
67 83 107
69 85 108
67 83 107
68 85 110
71 88 113
70 86 112
68 84 108
67 84 109
69 86 113
69 86 111
66 82 105
71 88 113
72 88 112
71 88 114
69 85 111
71 87 112
65 80 103
69 85 109
70 86 111
68 84 108
67 83 108
69 85 109
67 83 107
70 87 112
68 85 110
66 82 105
70 86 110
63 79 102
68 83 107
64 80 104
71 87 112
68 84 109
67 84 109
70 87 111
65 81 105
67 83 107
65 81 104
69 86 112
72 88 111
65 81 105
72 88 112
67 83 108
68 84 108
71 88 113
66 82 106
69 84 107
65 81 106
72 88 113
67 83 107
70 87 112
68 85 111
69 87 113
69 85 110
68 85 110
69 85 109
69 85 110
69 86 111
64 80 104
71 88 114
71 88 113
69 86 112
69 85 108
70 87 112
70 86 110
73 91 117
71 88 113
72 89 113
70 87 112
65 81 105
71 87 112
70 86 110
69 86 112
69 85 110
65 81 104
70 86 110
68 83 106
68 84 108
70 86 111
69 85 110
73 90 115
68 84 108
69 85 110
71 86 110
72 88 113
68 85 110
68 85 110
72 87 110
78 96 123
162 191 236
176 208 255
176 208 255
176 208 255
176 208 255
177 208 255
177 208 255
177 208 255
177 208 255
177 208 255
177 208 255
177 208 255
177 208 255
177 208 255
177 208 255
177 208 255
177 208 255
177 208 255
177 209 255
177 209 255
177 209 255
177 209 255
177 209 255
177 209 255
178 209 255
178 209 255
178 209 255
178 209 255
178 209 255
178 209 255
178 209 255
178 209 255
178 209 255
178 209 255
178 209 255
178 209 255
178 209 255
178 209 255
178 209 255
178 209 255
178 209 255
179 209 255
179 209 255
179 209 255
179 209 255
179 209 255
179 209 255
179 209 255
179 210 255
179 210 255
179 210 255
179 210 255
179 210 255
179 210 255
179 210 255
179 210 255
179 210 255
179 210 255
179 210 255
179 210 255
180 210 255
180 210 255
180 210 255
180 210 255
180 210 255
180 210 255
180 210 255
180 210 255
180 210 255
180 210 255
180 210 255
180 210 255
180 210 255
180 210 255
180 210 255
180 210 255
180 210 255
180 210 255
180 210 255
180 210 255
181 211 255
181 211 255
181 211 255
181 211 255
181 211 255
181 211 255
181 211 255
181 211 255
181 211 255
181 211 255
181 211 255
181 211 255
181 211 255
181 211 255
181 211 255
181 211 255
181 211 255
181 211 255
181 211 255
181 211 255
181 211 255
181 211 255
181 211 255
182 211 255
182 211 255
182 211 255
182 211 255
182 211 255
182 211 255
182 211 255
182 211 255
182 211 255
182 211 255
182 211 255
182 211 255
182 211 255
182 211 255
182 211 255
182 211 255
182 211 255
182 211 255
182 212 255
182 212 255
182 212 255
182 212 255
182 212 255
182 212 255
182 212 255
182 212 255
182 212 255
183 212 255
183 212 255
183 212 255
183 212 255
183 212 255
183 212 255
183 212 255
183 212 255
183 212 255
183 212 255
183 212 255
183 212 255
183 212 255
183 212 255
183 212 255
183 212 255
183 212 255
183 212 255
183 212 255
183 212 255
183 212 255
183 212 255
183 212 255
183 212 255
183 212 255
183 212 255
183 212 255
183 212 255
183 212 255
183 212 255
183 212 255
183 212 255
183 212 255
183 212 255
182 212 255
182 212 255
182 212 255
182 212 255
182 212 255
182 212 255
182 212 255
182 212 255
182 212 255
182 212 255
182 211 255
182 211 255
182 211 255
182 211 255
182 211 255
182 211 255
182 211 255
182 211 255
182 211 255
182 211 255
182 211 255
182 211 255
182 211 255
182 211 255
182 211 255
182 211 255
181 211 255
181 211 255
181 211 255
181 211 255
181 211 255
181 211 255
181 211 255
181 211 255
181 211 255
181 211 255
181 211 255
181 211 255
181 211 255
181 211 255
181 211 255
181 211 255
181 211 255
181 211 255
181 211 255
181 211 255
181 211 255
181 211 255
181 211 255
180 210 255
180 210 255
180 210 255
180 210 255
180 210 255
180 210 255
180 210 255
180 210 255
180 210 255
180 210 255
180 210 255
180 210 255
180 210 255
180 210 255
180 210 255
180 210 255
180 210 255
180 210 255
180 210 255
180 210 255
179 210 255
179 210 255
179 210 255
179 210 255
179 210 255
179 210 255
179 210 255
179 210 255
179 210 255
179 210 255
179 210 255
179 210 255
179 210 255
179 209 255
179 209 255
179 209 255
179 209 255
179 209 255
179 209 255
178 209 255
178 209 255
178 209 255
178 209 255
178 209 255
178 209 255
178 209 255
178 209 255
178 209 255
178 209 255
178 209 255
178 209 255
178 209 255
178 209 255
178 209 255
178 209 255
178 209 255
178 209 255
178 209 255
177 209 255
177 209 255
177 209 255
177 209 255
177 209 255
177 209 255
177 208 255
177 208 255
177 208 255
177 208 255
177 208 255
177 208 255
177 208 255
177 208 255
112 135 170
71 87 112
68 85 110
70 87 111
69 86 111
68 85 109
72 89 114
67 83 108
67 83 106
70 86 112
69 85 110
69 84 108
69 85 108
70 86 110
71 87 110
65 80 103
72 89 113
64 81 106
69 86 110
69 85 110
67 84 108
67 83 107
69 85 110
67 84 110
69 85 109
66 83 107
67 84 109
70 86 110
66 82 106
66 82 107
73 89 113
67 82 105
68 84 108
71 88 113
66 82 106
68 83 106
70 86 110
65 80 104
68 85 110
70 87 111
70 86 110
68 83 107
67 82 106
68 84 109
67 82 105
70 86 111
67 83 107
64 80 103
71 88 112
70 86 110
65 81 104
67 83 108
70 86 109
70 86 110
68 85 109
67 83 107
71 88 113
68 84 109
70 86 111
70 86 111
73 89 114
69 85 109
71 87 111
66 82 107
67 83 108
67 84 109
71 87 111
65 80 102
70 86 110
68 85 110
66 81 103
73 90 115
65 82 106
69 84 108
66 82 105
66 82 106
73 89 114
71 88 113
71 88 113
66 82 106
69 84 108
66 82 106
69 85 110
69 85 110
68 85 111
66 83 108
66 81 105
70 87 112
67 83 106
72 88 113
70 86 110
66 82 107
65 81 105
73 89 115
66 81 104
67 82 106
66 82 106
69 85 110
70 87 113
70 86 111
66 82 106
67 83 106
63 79 103
66 82 106
69 85 109
65 81 104
67 83 108
67 83 106
68 84 108
71 88 113
68 84 108
70 86 112
68 85 111
68 85 110
68 84 109
124 149 186
177 208 255
177 208 255
177 208 255
177 208 255
177 208 255
177 208 255
177 208 255
177 208 255
177 209 255
177 209 255
177 209 255
177 209 255
177 209 255
177 209 255
178 209 255
178 209 255
178 209 255
178 209 255
178 209 255
178 209 255
178 209 255
178 209 255
178 209 255
178 209 255
178 209 255
178 209 255
178 209 255
178 209 255
178 209 255
178 209 255
178 209 255
178 209 255
178 209 255
179 209 255
179 209 255
179 209 255
179 209 255
179 209 255
179 209 255
179 210 255
179 210 255
179 210 255
179 210 255
179 210 255
179 210 255
179 210 255
179 210 255
179 210 255
179 210 255
179 210 255
179 210 255
180 210 255
180 210 255
180 210 255
180 210 255
180 210 255
180 210 255
180 210 255
180 210 255
180 210 255
180 210 255
180 210 255
180 210 255
180 210 255
180 210 255
180 210 255
180 210 255
180 210 255
180 210 255
180 210 255
180 210 255
180 210 255
181 211 255
181 211 255
181 211 255
181 211 255
181 211 255
181 211 255
181 211 255
181 211 255
181 211 255
181 211 255
181 211 255
181 211 255
181 211 255
181 211 255
181 211 255
181 211 255
181 211 255
181 211 255
181 211 255
181 211 255
181 211 255
181 211 255
181 211 255
182 211 255
182 211 255
182 211 255
182 211 255
182 211 255
182 211 255
182 211 255
182 211 255
182 211 255
182 211 255
182 211 255
182 211 255
182 211 255
182 211 255
182 211 255
182 211 255
182 211 255
182 212 255
182 212 255
182 212 255
182 212 255
182 212 255
182 212 255
182 212 255
182 212 255
182 212 255
183 212 255
183 212 255
183 212 255
183 212 255
183 212 255
183 212 255
183 212 255
183 212 255
183 212 255
183 212 255
183 212 255
183 212 255
183 212 255
183 212 255
183 212 255
183 212 255
183 212 255
183 212 255
183 212 255
183 212 255
183 212 255
183 212 255
183 212 255
183 212 255
183 212 255
183 212 255
183 212 255
183 212 255
183 212 255
183 212 255
183 212 255
183 212 255
183 212 255
183 212 255
183 212 255
183 212 255
183 212 255
183 212 255
183 212 255
183 212 255
183 212 255
183 212 255
183 212 255
183 212 255
183 212 255
183 212 255
183 212 255
183 212 255
183 212 255
183 212 255
183 212 255
182 212 255
182 212 255
182 212 255
182 212 255
182 212 255
182 212 255
182 212 255
182 212 255
182 212 255
182 211 255
182 211 255
182 211 255
182 211 255
182 211 255
182 211 255
182 211 255
182 211 255
182 211 255
182 211 255
182 211 255
182 211 255
182 211 255
182 211 255
182 211 255
182 211 255
181 211 255
181 211 255
181 211 255
181 211 255
181 211 255
181 211 255
181 211 255
181 211 255
181 211 255
181 211 255
181 211 255
181 211 255
181 211 255
181 211 255
181 211 255
181 211 255
181 211 255
181 211 255
181 211 255
181 211 255
181 211 255
181 211 255
181 211 255
180 210 255
180 210 255
180 210 255
180 210 255
180 210 255
180 210 255
180 210 255
180 210 255
180 210 255
180 210 255
180 210 255
180 210 255
180 210 255
180 210 255
180 210 255
180 210 255
180 210 255
180 210 255
180 210 255
180 210 255
179 210 255
179 210 255
179 210 255
179 210 255
179 210 255
179 210 255
179 210 255
179 210 255
179 210 255
179 210 255
179 210 255
179 210 255
179 210 255
179 209 255
179 209 255
179 209 255
179 209 255
179 209 255
179 209 255
178 209 255
178 209 255
178 209 255
178 209 255
178 209 255
178 209 255
178 209 255
178 209 255
178 209 255
178 209 255
178 209 255
178 209 255
178 209 255
178 209 255
178 209 255
178 209 255
178 209 255
178 209 255
178 209 255
177 209 255
177 209 255
177 209 255
177 209 255
177 209 255
161 190 234
73 91 117
70 87 112
72 90 117
71 87 112
68 84 109
69 86 111
66 83 109
69 85 109
67 84 109
66 83 108
70 86 110
64 80 104
68 85 109
71 88 113
68 85 109
68 84 109
66 81 105
66 83 108
69 85 110
68 84 108
70 87 112
67 83 106
72 89 114
66 82 105
65 80 102
68 84 108
68 84 108
68 84 108
66 82 105
71 87 112
66 81 104
69 86 112
66 82 105
72 88 111
69 85 108
70 87 111
69 85 109
69 85 109
65 80 102
64 79 102
66 82 105
71 87 112
71 87 112
69 84 108
66 81 104
67 84 109
69 85 110
67 83 108
69 85 110
67 82 106
69 86 111
68 83 105
67 83 108
71 87 112
67 82 106
69 85 109
68 84 108
69 85 108
62 77 99
67 84 108
68 84 107
62 78 102
66 82 106
69 86 110
63 79 103
67 83 108
66 80 103
63 78 101
67 83 106
65 80 103
68 83 106
69 85 109
67 84 109
70 87 112
68 84 109
68 83 106
69 85 110
71 87 111
68 83 106
70 86 110
69 85 108
69 86 111
68 85 109
65 81 105
70 87 111
68 84 108
68 84 108
66 83 107
68 85 110
71 88 114
72 88 112
70 86 112
73 89 113
71 87 111
67 83 108
68 85 110
65 81 104
68 84 109
68 83 107
65 82 107
71 88 114
72 88 112
70 87 113
71 87 111
71 87 111
67 83 107
67 82 105
68 85 110
74 91 116
68 85 111
71 88 113
72 89 113
69 85 109
69 85 109
71 87 111
76 92 118
155 184 226
177 209 255
177 209 255
177 209 255
177 209 255
177 209 255
178 209 255
178 209 255
178 209 255
178 209 255
178 209 255
178 209 255
178 209 255
178 209 255
178 209 255
178 209 255
178 209 255
178 209 255
178 209 255
178 209 255
178 209 255
178 209 255
178 209 255
178 209 255
178 209 255
179 209 255
179 209 255
179 209 255
179 209 255
179 209 255
179 209 255
179 210 255
179 210 255
179 210 255
179 210 255
179 210 255
179 210 255
179 210 255
179 210 255
179 210 255
179 210 255
179 210 255
179 210 255
179 210 255
180 210 255
180 210 255
180 210 255
180 210 255
180 210 255
180 210 255
180 210 255
180 210 255
180 210 255
180 210 255
180 210 255
180 210 255
180 210 255
180 210 255
180 210 255
180 210 255
180 210 255
180 210 255
180 210 255
180 210 255
181 211 255
181 211 255
181 211 255
181 211 255
181 211 255
181 211 255
181 211 255
181 211 255
181 211 255
181 211 255
181 211 255
181 211 255
181 211 255
181 211 255
181 211 255
181 211 255
181 211 255
181 211 255
181 211 255
181 211 255
181 211 255
181 211 255
182 211 255
182 211 255
182 211 255
182 211 255
182 211 255
182 211 255
182 211 255
182 211 255
182 211 255
182 211 255
182 211 255
182 211 255
182 211 255
182 211 255
182 211 255
182 211 255
182 211 255
182 212 255
182 212 255
182 212 255
182 212 255
182 212 255
182 212 255
182 212 255
182 212 255
182 212 255
183 212 255
183 212 255
183 212 255
183 212 255
183 212 255
183 212 255
183 212 255
183 212 255
183 212 255
183 212 255
183 212 255
183 212 255
183 212 255
183 212 255
183 212 255
183 212 255
183 212 255
183 212 255
183 212 255
183 212 255
183 212 255
183 212 255
183 212 255
183 212 255
183 212 255
183 212 255
183 212 255
183 212 255
183 212 255
183 212 255
184 212 255
184 212 255
184 212 255
184 212 255
184 212 255
184 212 255
184 212 255
184 212 255
183 212 255
183 212 255
183 212 255
183 212 255
183 212 255
183 212 255
183 212 255
183 212 255
183 212 255
183 212 255
183 212 255
183 212 255
183 212 255
183 212 255
183 212 255
183 212 255
183 212 255
183 212 255
183 212 255
183 212 255
183 212 255
183 212 255
183 212 255
183 212 255
183 212 255
183 212 255
183 212 255
183 212 255
183 212 255
183 212 255
182 212 255
182 212 255
182 212 255
182 212 255
182 212 255
182 212 255
182 212 255
182 212 255
182 212 255
182 211 255
182 211 255
182 211 255
182 211 255
182 211 255
182 211 255
182 211 255
182 211 255
182 211 255
182 211 255
182 211 255
182 211 255
182 211 255
182 211 255
182 211 255
182 211 255
181 211 255
181 211 255
181 211 255
181 211 255
181 211 255
181 211 255
181 211 255
181 211 255
181 211 255
181 211 255
181 211 255
181 211 255
181 211 255
181 211 255
181 211 255
181 211 255
181 211 255
181 211 255
181 211 255
181 211 255
181 211 255
181 211 255
180 210 255
180 210 255
180 210 255
180 210 255
180 210 255
180 210 255
180 210 255
180 210 255
180 210 255
180 210 255
180 210 255
180 210 255
180 210 255
180 210 255
180 210 255
180 210 255
180 210 255
180 210 255
180 210 255
180 210 255
180 210 255
179 210 255
179 210 255
179 210 255
179 210 255
179 210 255
179 210 255
179 210 255
179 210 255
179 210 255
179 210 255
179 210 255
179 210 255
179 210 255
179 209 255
179 209 255
179 209 255
179 209 255
179 209 255
179 209 255
178 209 255
178 209 255
178 209 255
178 209 255
178 209 255
178 209 255
178 209 255
178 209 255
178 209 255
178 209 255
178 209 255
178 209 255
178 209 255
178 209 255
178 209 255
178 209 255
119 142 176
66 83 109
68 85 109
70 86 110
67 83 107
69 86 111
66 81 105
65 80 104
71 89 114
67 83 108
66 83 108
69 85 108
65 80 103
67 83 107
66 82 104
67 83 106
71 87 111
70 87 113
67 84 108
69 86 111
66 82 106
69 85 108
71 87 111
69 87 113
71 87 112
63 79 104
66 83 108
71 87 111
66 82 107
70 87 112
70 86 110
68 85 109
62 77 99
65 81 106
67 82 106
68 83 107
70 86 110
69 85 108
67 83 106
67 83 107
71 88 114
69 84 107
69 85 108
67 84 109
67 83 107
71 87 111
71 88 113
64 80 104
71 88 113
67 83 107
69 85 110
66 81 105
64 80 103
72 89 113
71 87 111
66 82 106
67 83 106
69 85 110
67 82 105
71 87 112
70 86 110
66 82 106
68 84 108
69 85 109
62 78 101
67 84 108
64 80 104
70 86 111
68 84 107
66 82 106
66 83 108
72 88 112
69 85 109
65 80 103
72 89 114
67 84 108
73 89 113
66 82 106
69 85 108
65 81 105
69 86 111
68 85 111
70 87 111
68 84 108
68 84 108
68 83 105
65 80 104
70 87 111
63 79 103
67 84 108
67 84 110
68 84 107
67 83 107
67 83 108
70 86 110
71 88 114
67 83 108
65 81 105
64 80 104
68 84 108
65 80 104
68 84 109
66 82 107
69 87 113
68 84 108
66 82 105
68 85 110
67 83 107
70 86 110
68 85 110
69 85 108
68 84 108
65 81 105
69 86 111
71 88 112
71 88 114
70 87 112
125 149 184
178 209 255
178 209 255
178 209 255
178 209 255
178 209 255
178 209 255
178 209 255
178 209 255
178 209 255
178 209 255
178 209 255
178 209 255
178 209 255
178 209 255
178 209 255
179 209 255
179 209 255
179 209 255
179 209 255
179 209 255
179 209 255
179 209 255
179 210 255
179 210 255
179 210 255
179 210 255
179 210 255
179 210 255
179 210 255
179 210 255
179 210 255
179 210 255
179 210 255
179 210 255
179 210 255
180 210 255
180 210 255
180 210 255
180 210 255
180 210 255
180 210 255
180 210 255
180 210 255
180 210 255
180 210 255
180 210 255
180 210 255
180 210 255
180 210 255
180 210 255
180 210 255
180 210 255
180 210 255
180 210 255
180 210 255
180 210 255
181 211 255
181 211 255
181 211 255
181 211 255
181 211 255
181 211 255
181 211 255
181 211 255
181 211 255
181 211 255
181 211 255
181 211 255
181 211 255
181 211 255
181 211 255
181 211 255
181 211 255
181 211 255
181 211 255
181 211 255
181 211 255
182 211 255
182 211 255
182 211 255
182 211 255
182 211 255
182 211 255
182 211 255
182 211 255
182 211 255
182 211 255
182 211 255
182 211 255
182 211 255
182 211 255
182 211 255
182 211 255
182 211 255
182 212 255
182 212 255
182 212 255
182 212 255
182 212 255
182 212 255
182 212 255
182 212 255
182 212 255
183 212 255
183 212 255
183 212 255
183 212 255
183 212 255
183 212 255
183 212 255
183 212 255
183 212 255
183 212 255
183 212 255
183 212 255
183 212 255
183 212 255
183 212 255
183 212 255
183 212 255
183 212 255
183 212 255
183 212 255
183 212 255
183 212 255
183 212 255
183 212 255
183 212 255
183 212 255
183 212 255
183 212 255
183 212 255
183 212 255
184 212 255
184 212 255
184 212 255
184 212 255
184 212 255
184 212 255
184 212 255
184 212 255
184 213 255
184 213 255
184 213 255
184 213 255
184 213 255
184 213 255
184 213 255
184 212 255
184 212 255
184 212 255
184 212 255
184 212 255
184 212 255
184 212 255
184 212 255
184 212 255
184 212 255
183 212 255
183 212 255
183 212 255
183 212 255
183 212 255
183 212 255
183 212 255
183 212 255
183 212 255
183 212 255
183 212 255
183 212 255
183 212 255
183 212 255
183 212 255
183 212 255
183 212 255
183 212 255
183 212 255
183 212 255
183 212 255
183 212 255
183 212 255
183 212 255
183 212 255
183 212 255
183 212 255
183 212 255
183 212 255
183 212 255
182 212 255
182 212 255
182 212 255
182 212 255
182 212 255
182 212 255
182 212 255
182 212 255
182 212 255
182 211 255
182 211 255
182 211 255
182 211 255
182 211 255
182 211 255
182 211 255
182 211 255
182 211 255
182 211 255
182 211 255
182 211 255
182 211 255
182 211 255
182 211 255
182 211 255
181 211 255
181 211 255
181 211 255
181 211 255
181 211 255
181 211 255
181 211 255
181 211 255
181 211 255
181 211 255
181 211 255
181 211 255
181 211 255
181 211 255
181 211 255
181 211 255
181 211 255
181 211 255
181 211 255
181 211 255
181 211 255
181 211 255
180 210 255
180 210 255
180 210 255
180 210 255
180 210 255
180 210 255
180 210 255
180 210 255
180 210 255
180 210 255
180 210 255
180 210 255
180 210 255
180 210 255
180 210 255
180 210 255
180 210 255
180 210 255
180 210 255
180 210 255
180 210 255
179 210 255
179 210 255
179 210 255
179 210 255
179 210 255
179 210 255
179 210 255
179 210 255
179 210 255
179 210 255
179 210 255
179 210 255
179 210 255
179 209 255
179 209 255
179 209 255
179 209 255
179 209 255
179 209 255
178 209 255
178 209 255
178 209 255
178 209 255
178 209 255
178 209 255
167 196 240
72 89 114
68 84 109
71 88 114
70 87 112
68 84 107
69 85 110
65 82 106
70 87 112
66 82 105
68 84 108
66 82 106
66 83 107
69 85 109
69 84 108
66 82 106
69 85 110
71 88 113
67 83 106
70 86 110
73 88 112
71 88 113
69 84 106
69 85 110
70 87 112
64 79 102
68 85 110
70 86 111
67 83 107
68 84 108
68 85 109
70 86 110
64 80 103
67 83 108
63 77 99
67 83 108
67 84 108
71 88 113
72 89 115
66 81 105
68 84 108
67 82 106
69 84 108
67 82 105
69 86 110
71 87 110
68 83 107
69 87 112
72 88 112
72 89 114
70 85 108
60 75 98
70 87 112
69 85 110
67 83 106
68 84 107
73 89 113
64 79 102
69 85 108
64 80 103
68 83 106
72 88 113
66 82 108
68 84 109
61 77 101
66 82 106
68 83 106
67 82 105
68 85 110
66 82 105
67 82 105
69 85 110
63 79 103
67 83 106
65 80 103
65 80 103
67 83 107
68 85 110
68 84 108
72 89 115
69 85 110
69 84 107
70 87 112
68 83 105
68 84 107
70 86 111
64 81 106
68 84 110
68 85 110
67 82 106
66 82 106
71 87 112
66 82 107
70 86 110
66 83 108
67 84 109
62 78 102
71 88 112
70 87 112
68 85 109
63 79 101
72 88 112
68 85 109
71 87 112
69 85 109
67 83 108
65 81 105
70 86 110
70 87 112
69 85 110
67 83 106
71 88 113
66 81 105
65 80 104
68 83 106
71 87 112
68 85 111
71 88 113
74 91 116
169 198 243
178 209 255
178 209 255
178 209 255
178 209 255
178 209 255
179 209 255
179 209 255
179 209 255
179 209 255
179 209 255
179 209 255
179 209 255
179 210 255
179 210 255
179 210 255
179 210 255
179 210 255
179 210 255
179 210 255
179 210 255
179 210 255
179 210 255
179 210 255
179 210 255
179 210 255
179 210 255
180 210 255
180 210 255
180 210 255
180 210 255
180 210 255
180 210 255
180 210 255
180 210 255
180 210 255
180 210 255
180 210 255
180 210 255
180 210 255
180 210 255
180 210 255
180 210 255
180 210 255
180 210 255
180 210 255
180 210 255
181 211 255
181 211 255
181 211 255
181 211 255
181 211 255
181 211 255
181 211 255
181 211 255
181 211 255
181 211 255
181 211 255
181 211 255
181 211 255
181 211 255
181 211 255
181 211 255
181 211 255
181 211 255
181 211 255
181 211 255
181 211 255
181 211 255
182 211 255
182 211 255
182 211 255
182 211 255
182 211 255
182 211 255
182 211 255
182 211 255
182 211 255
182 211 255
182 211 255
182 211 255
182 211 255
182 211 255
182 211 255
182 211 255
182 212 255
182 212 255
182 212 255
182 212 255
182 212 255
182 212 255
182 212 255
182 212 255
182 212 255
183 212 255
183 212 255
183 212 255
183 212 255
183 212 255
183 212 255
183 212 255
183 212 255
183 212 255
183 212 255
183 212 255
183 212 255
183 212 255
183 212 255
183 212 255
183 212 255
183 212 255
183 212 255
183 212 255
183 212 255
183 212 255
183 212 255
183 212 255
183 212 255
183 212 255
183 212 255
183 212 255
183 212 255
183 212 255
184 212 255
184 212 255
184 212 255
184 212 255
184 212 255
184 212 255
184 212 255
184 212 255
184 212 255
184 212 255
184 212 255
184 212 255
184 213 255
184 213 255
184 213 255
184 213 255
184 213 255
184 213 255
184 213 255
184 213 255
184 213 255
184 213 255
184 213 255
184 213 255
184 213 255
184 213 255
184 213 255
184 213 255
184 213 255
184 213 255
184 213 255
184 213 255
184 213 255
184 213 255
184 212 255
184 212 255
184 212 255
184 212 255
184 212 255
184 212 255
184 212 255
184 212 255
184 212 255
184 212 255
184 212 255
183 212 255
183 212 255
183 212 255
183 212 255
183 212 255
183 212 255
183 212 255
183 212 255
183 212 255
183 212 255
183 212 255
183 212 255
183 212 255
183 212 255
183 212 255
183 212 255
183 212 255
183 212 255
183 212 255
183 212 255
183 212 255
183 212 255
183 212 255
183 212 255
183 212 255
183 212 255
183 212 255
183 212 255
182 212 255
182 212 255
182 212 255
182 212 255
182 212 255
182 212 255
182 212 255
182 212 255
182 212 255
182 211 255
182 211 255
182 211 255
182 211 255
182 211 255
182 211 255
182 211 255
182 211 255
182 211 255
182 211 255
182 211 255
182 211 255
182 211 255
182 211 255
182 211 255
182 211 255
181 211 255
181 211 255
181 211 255
181 211 255
181 211 255
181 211 255
181 211 255
181 211 255
181 211 255
181 211 255
181 211 255
181 211 255
181 211 255
181 211 255
181 211 255
181 211 255
181 211 255
181 211 255
181 211 255
181 211 255
181 211 255
181 211 255
180 210 255
180 210 255
180 210 255
180 210 255
180 210 255
180 210 255
180 210 255
180 210 255
180 210 255
180 210 255
180 210 255
180 210 255
180 210 255
180 210 255
180 210 255
180 210 255
180 210 255
180 210 255
180 210 255
180 210 255
180 210 255
179 210 255
179 210 255
179 210 255
179 210 255
179 210 255
179 210 255
179 210 255
179 210 255
179 210 255
179 210 255
179 210 255
179 210 255
179 210 255
179 210 255
179 209 255
179 209 255
179 209 255
119 143 178
69 86 110
69 85 109
74 91 115
64 80 104
66 82 106
71 87 111
69 85 108
70 86 110
70 86 111
67 82 105
69 85 108
69 85 110
67 83 106
69 84 108
68 84 109
70 86 110
64 79 102
68 83 107
68 83 107
69 85 110
66 81 103
66 82 106
68 83 107
67 83 107
68 85 110
67 83 106
67 83 107
66 81 105
70 86 110
69 85 110
70 86 110
67 82 104
65 81 106
68 83 107
72 88 112
68 84 108
68 85 109
66 82 105
68 84 108
67 83 107
70 86 110
67 84 109
67 83 106
66 81 104
72 89 114
71 87 111
71 87 112
66 82 106
66 81 105
69 85 109
70 87 112
71 87 111
64 79 103
66 81 104
73 89 113
62 78 101
68 84 108
68 84 108
65 81 105
69 86 110
66 82 106
65 81 105
65 81 104
70 86 109
66 82 106
69 85 109
64 79 102
66 81 105
70 86 109
67 82 106
68 83 107
69 86 110
65 81 105
65 81 105
63 78 101
71 87 111
68 84 109
69 86 111
68 83 107
70 86 110
67 83 106
66 82 106
69 85 110
74 90 114
69 85 108
70 85 108
70 86 112
65 81 104
67 82 106
69 84 107
65 80 103
69 85 110
68 84 107
69 84 108
70 87 113
62 77 99
70 87 112
69 86 110
68 85 110
69 85 110
66 81 104
68 85 109
65 82 106
70 87 112
71 86 110
70 86 111
72 88 113
68 84 108
67 83 107
68 83 107
66 82 106
70 86 111
68 85 109
66 82 106
67 84 110
71 86 110
66 81 104
67 84 108
114 136 169
179 209 255
179 209 255
179 209 255
179 210 255
179 210 255
179 210 255
179 210 255
179 210 255
179 210 255
179 210 255
179 210 255
179 210 255
179 210 255
179 210 255
179 210 255
179 210 255
179 210 255
180 210 255
180 210 255
180 210 255
180 210 255
180 210 255
180 210 255
180 210 255
180 210 255
180 210 255
180 210 255
180 210 255
180 210 255
180 210 255
180 210 255
180 210 255
180 210 255
180 210 255
180 210 255
180 210 255
180 210 255
180 210 255
181 211 255
181 211 255
181 211 255
181 211 255
181 211 255
181 211 255
181 211 255
181 211 255
181 211 255
181 211 255
181 211 255
181 211 255
181 211 255
181 211 255
181 211 255
181 211 255
181 211 255
181 211 255
181 211 255
181 211 255
181 211 255
181 211 255
182 211 255
182 211 255
182 211 255
182 211 255
182 211 255
182 211 255
182 211 255
182 211 255
182 211 255
182 211 255
182 211 255
182 211 255
182 211 255
182 211 255
182 211 255
182 211 255
182 212 255
182 212 255
182 212 255
182 212 255
182 212 255
182 212 255
182 212 255
182 212 255
183 212 255
183 212 255
183 212 255
183 212 255
183 212 255
183 212 255
183 212 255
183 212 255
183 212 255
183 212 255
183 212 255
183 212 255
183 212 255
183 212 255
183 212 255
183 212 255
183 212 255
183 212 255
183 212 255
183 212 255
183 212 255
183 212 255
183 212 255
183 212 255
183 212 255
183 212 255
183 212 255
183 212 255
183 212 255
184 212 255
184 212 255
184 212 255
184 212 255
184 212 255
184 212 255
184 212 255
184 212 255
184 212 255
184 212 255
184 212 255
184 213 255
184 213 255
184 213 255
184 213 255
184 213 255
184 213 255
184 213 255
184 213 255
184 213 255
184 213 255
184 213 255
184 213 255
184 213 255
184 213 255
184 213 255
184 213 255
185 213 255
185 213 255
185 213 255
184 213 255
184 213 255
184 213 255
184 213 255
184 213 255
184 213 255
184 213 255
184 213 255
184 213 255
184 213 255
184 213 255
184 213 255
184 213 255
184 213 255
184 213 255
184 213 255
184 213 255
184 213 255
184 213 255
184 213 255
184 213 255
184 213 255
184 213 255
184 212 255
184 212 255
184 212 255
184 212 255
184 212 255
184 212 255
184 212 255
184 212 255
184 212 255
184 212 255
184 212 255
183 212 255
183 212 255
183 212 255
183 212 255
183 212 255
183 212 255
183 212 255
183 212 255
183 212 255
183 212 255
183 212 255
183 212 255
183 212 255
183 212 255
183 212 255
183 212 255
183 212 255
183 212 255
183 212 255
183 212 255
183 212 255
183 212 255
183 212 255
183 212 255
183 212 255
183 212 255
183 212 255
183 212 255
182 212 255
182 212 255
182 212 255
182 212 255
182 212 255
182 212 255
182 212 255
182 212 255
182 211 255
182 211 255
182 211 255
182 211 255
182 211 255
182 211 255
182 211 255
182 211 255
182 211 255
182 211 255
182 211 255
182 211 255
182 211 255
182 211 255
182 211 255
182 211 255
181 211 255
181 211 255
181 211 255
181 211 255
181 211 255
181 211 255
181 211 255
181 211 255
181 211 255
181 211 255
181 211 255
181 211 255
181 211 255
181 211 255
181 211 255
181 211 255
181 211 255
181 211 255
181 211 255
181 211 255
181 211 255
181 211 255
180 210 255
180 210 255
180 210 255
180 210 255
180 210 255
180 210 255
180 210 255
180 210 255
180 210 255
180 210 255
180 210 255
180 210 255
180 210 255
180 210 255
180 210 255
180 210 255
180 210 255
180 210 255
180 210 255
180 210 255
180 210 255
180 210 255
179 210 255
179 210 255
179 210 255
179 210 255
179 210 255
179 210 255
177 208 253
78 95 120
69 86 111
65 81 105
68 85 109
70 87 111
74 90 114
65 81 105
68 83 106
70 87 112
67 82 105
66 82 105
66 82 105
68 84 109
68 83 106
65 81 104
68 84 109
66 82 106
63 79 104
65 81 104
64 79 102
69 85 109
69 85 110
66 81 104
68 84 107
66 82 106
67 83 107
72 87 111
66 82 105
63 78 100
68 83 106
70 86 111
68 84 108
66 80 102
67 84 108
71 87 112
67 84 108
64 80 104
66 82 105
64 79 102
66 81 104
71 87 111
69 86 111
69 86 112
67 83 108
64 79 102
65 80 103
64 80 105
66 81 104
63 78 100
66 82 106
66 82 104
65 81 106
69 84 107
65 80 102
63 78 101
68 84 107
64 80 104
68 84 107
71 86 110
65 81 104
66 82 105
69 85 109
68 83 107
66 82 107
69 86 110
69 85 109
68 85 110
64 79 101
66 82 105
72 88 112
64 80 102
71 87 110
69 85 109
63 78 101
68 84 108
69 84 107
70 85 109
66 82 104
67 83 107
67 83 106
72 88 112
66 82 105
71 88 113
70 86 110
68 84 109
66 82 106
67 83 108
67 83 107
66 83 107
67 83 107
66 81 104
69 85 108
67 83 107
69 85 108
65 81 104
62 77 100
63 78 101
66 82 107
65 81 105
64 80 103
68 83 106
68 84 108
65 81 104
71 88 114
65 81 105
67 83 107
70 85 108
70 87 111
64 79 102
67 82 106
69 85 109
68 84 110
67 83 106
63 78 101
68 83 107
68 84 107
69 86 111
70 86 111
70 86 110
76 93 119
177 207 252
179 210 255
179 210 255
179 210 255
179 210 255
179 210 255
179 210 255
180 210 255
180 210 255
180 210 255
180 210 255
180 210 255
180 210 255
180 210 255
180 210 255
180 210 255
180 210 255
180 210 255
180 210 255
180 210 255
180 210 255
180 210 255
180 210 255
180 210 255
180 210 255
180 210 255
180 210 255
180 210 255
180 210 255
181 211 255
181 211 255
181 211 255
181 211 255
181 211 255
181 211 255
181 211 255
181 211 255
181 211 255
181 211 255
181 211 255
181 211 255
181 211 255
181 211 255
181 211 255
181 211 255
181 211 255
181 211 255
181 211 255
181 211 255
181 211 255
182 211 255
182 211 255
182 211 255
182 211 255
182 211 255
182 211 255
182 211 255
182 211 255
182 211 255
182 211 255
182 211 255
182 211 255
182 211 255
182 211 255
182 211 255
182 211 255
182 211 255
182 212 255
182 212 255
182 212 255
182 212 255
182 212 255
182 212 255
182 212 255
182 212 255
183 212 255
183 212 255
183 212 255
183 212 255
183 212 255
183 212 255
183 212 255
183 212 255
183 212 255
183 212 255
183 212 255
183 212 255
183 212 255
183 212 255
183 212 255
183 212 255
183 212 255
183 212 255
183 212 255
183 212 255
183 212 255
183 212 255
183 212 255
183 212 255
183 212 255
183 212 255
183 212 255
183 212 255
184 212 255
184 212 255
184 212 255
184 212 255
184 212 255
184 212 255
184 212 255
184 212 255
184 212 255
184 212 255
184 212 255
184 213 255
184 213 255
184 213 255
184 213 255
184 213 255
184 213 255
184 213 255
184 213 255
184 213 255
184 213 255
184 213 255
184 213 255
184 213 255
184 213 255
184 213 255
184 213 255
184 213 255
184 213 255
184 213 255
184 213 255
184 213 255
184 213 255
184 213 255
184 213 255
185 213 255
185 213 255
185 213 255
185 213 255
185 213 255
185 213 255
185 213 255
185 213 255
185 213 255
185 213 255
185 213 255
185 213 255
185 213 255
185 213 255
185 213 255
185 213 255
184 213 255
184 213 255
184 213 255
184 213 255
184 213 255
184 213 255
184 213 255
184 213 255
184 213 255
184 213 255
184 213 255
184 213 255
184 213 255
184 213 255
184 213 255
184 213 255
184 213 255
184 213 255
184 213 255
184 213 255
184 213 255
184 213 255
184 212 255
184 212 255
184 212 255
184 212 255
184 212 255
184 212 255
184 212 255
184 212 255
184 212 255
184 212 255
184 212 255
183 212 255
183 212 255
183 212 255
183 212 255
183 212 255
183 212 255
183 212 255
183 212 255
183 212 255
183 212 255
183 212 255
183 212 255
183 212 255
183 212 255
183 212 255
183 212 255
183 212 255
183 212 255
183 212 255
183 212 255
183 212 255
183 212 255
183 212 255
183 212 255
183 212 255
183 212 255
183 212 255
183 212 255
182 212 255
182 212 255
182 212 255
182 212 255
182 212 255
182 212 255
182 212 255
182 211 255
182 211 255
182 211 255
182 211 255
182 211 255
182 211 255
182 211 255
182 211 255
182 211 255
182 211 255
182 211 255
182 211 255
182 211 255
182 211 255
182 211 255
182 211 255
181 211 255
181 211 255
181 211 255
181 211 255
181 211 255
181 211 255
181 211 255
181 211 255
181 211 255
181 211 255
181 211 255
181 211 255
181 211 255
181 211 255
181 211 255
181 211 255
181 211 255
181 211 255
181 211 255
181 211 255
181 211 255
181 211 255
181 211 255
180 210 255
180 210 255
180 210 255
180 210 255
180 210 255
180 210 255
180 210 255
180 210 255
180 210 255
180 210 255
180 210 255
180 210 255
180 210 255
180 210 255
180 210 255
180 210 255
180 210 255
180 210 255
143 169 209
67 83 106
69 85 109
66 82 107
68 84 109
68 84 108
67 83 108
67 83 108
68 84 108
68 85 110
65 81 105
71 88 112
70 86 110
70 86 110
68 84 108
69 85 109
65 81 104
69 86 112
71 87 111
69 84 108
68 84 108
67 84 110
65 81 105
70 87 112
66 81 104
70 85 108
68 84 107
69 85 109
66 82 105
70 86 110
67 82 106
66 82 105
67 83 107
66 82 105
67 82 106
65 81 104
72 88 112
69 85 109
67 83 107
66 81 104
65 81 104
70 85 109
65 82 107
69 85 110
65 81 105
69 85 108
66 81 104
67 83 107
68 84 110
64 80 104
65 82 106
65 81 104
65 80 103
70 87 111
60 74 96
67 83 106
69 85 108
68 83 107
68 84 108
67 84 108
63 79 102
68 84 108
66 82 106
70 86 111
70 86 110
67 83 107
61 77 100
66 82 105
64 80 103
71 87 111
64 80 104
69 86 112
68 84 107
67 83 106
69 85 109
66 82 106
70 85 109
63 79 102
68 83 106
67 82 105
67 83 108
69 85 109
69 85 109
69 85 109
64 79 103
63 77 99
65 80 103
67 82 105
70 87 111
62 78 101
66 82 106
69 85 110
70 86 110
69 84 107
71 87 110
66 82 107
68 83 106
66 82 105
69 85 107
66 81 105
65 81 104
64 79 102
66 82 106
69 84 108
70 88 114
67 83 107
71 88 112
70 87 112
67 83 105
70 86 110
69 86 110
64 80 103
65 81 104
69 84 107
68 84 107
65 80 102
73 89 113
68 84 107
67 82 106
65 82 107
71 87 110
142 167 206
180 210 255
180 210 255
180 210 255
180 210 255
180 210 255
180 210 255
180 210 255
180 210 255
180 210 255
180 210 255
180 210 255
180 210 255
180 210 255
180 210 255
180 210 255
180 210 255
180 210 255
180 210 255
181 211 255
181 211 255
181 211 255
181 211 255
181 211 255
181 211 255
181 211 255
181 211 255
181 211 255
181 211 255
181 211 255
181 211 255
181 211 255
181 211 255
181 211 255
181 211 255
181 211 255
181 211 255
181 211 255
181 211 255
181 211 255
181 211 255
181 211 255
182 211 255
182 211 255
182 211 255
182 211 255
182 211 255
182 211 255
182 211 255
182 211 255
182 211 255
182 211 255
182 211 255
182 211 255
182 211 255
182 211 255
182 211 255
182 211 255
182 212 255
182 212 255
182 212 255
182 212 255
182 212 255
182 212 255
182 212 255
182 212 255
183 212 255
183 212 255
183 212 255
183 212 255
183 212 255
183 212 255
183 212 255
183 212 255
183 212 255
183 212 255
183 212 255
183 212 255
183 212 255
183 212 255
183 212 255
183 212 255
183 212 255
183 212 255
183 212 255
183 212 255
183 212 255
183 212 255
183 212 255
183 212 255
183 212 255
183 212 255
183 212 255
183 212 255
184 212 255
184 212 255
184 212 255
184 212 255
184 212 255
184 212 255
184 212 255
184 212 255
184 212 255
184 212 255
184 213 255
184 213 255
184 213 255
184 213 255
184 213 255
184 213 255
184 213 255
184 213 255
184 213 255
184 213 255
184 213 255
184 213 255
184 213 255
184 213 255
184 213 255
184 213 255
184 213 255
184 213 255
184 213 255
184 213 255
184 213 255
184 213 255
184 213 255
185 213 255
185 213 255
185 213 255
185 213 255
185 213 255
185 213 255
185 213 255
185 213 255
185 213 255
185 213 255
185 213 255
185 213 255
185 213 255
185 213 255
185 213 255
185 213 255
185 213 255
185 213 255
185 213 255
185 213 255
185 213 255
185 213 255
185 213 255
185 213 255
185 213 255
185 213 255
185 213 255
185 213 255
185 213 255
185 213 255
185 213 255
185 213 255
185 213 255
185 213 255
185 213 255
185 213 255
185 213 255
184 213 255
184 213 255
184 213 255
184 213 255
184 213 255
184 213 255
184 213 255
184 213 255
184 213 255
184 213 255
184 213 255
184 213 255
184 213 255
184 213 255
184 213 255
184 213 255
184 213 255
184 213 255
184 213 255
184 213 255
184 213 255
184 213 255
184 212 255
184 212 255
184 212 255
184 212 255
184 212 255
184 212 255
184 212 255
184 212 255
184 212 255
184 212 255
183 212 255
183 212 255
183 212 255
183 212 255
183 212 255
183 212 255
183 212 255
183 212 255
183 212 255
183 212 255
183 212 255
183 212 255
183 212 255
183 212 255
183 212 255
183 212 255
183 212 255
183 212 255
183 212 255
183 212 255
183 212 255
183 212 255
183 212 255
183 212 255
183 212 255
183 212 255
183 212 255
183 212 255
182 212 255
182 212 255
182 212 255
182 212 255
182 212 255
182 212 255
182 212 255
182 212 255
182 211 255
182 211 255
182 211 255
182 211 255
182 211 255
182 211 255
182 211 255
182 211 255
182 211 255
182 211 255
182 211 255
182 211 255
182 211 255
182 211 255
182 211 255
182 211 255
182 211 255
181 211 255
181 211 255
181 211 255
181 211 255
181 211 255
181 211 255
181 211 255
181 211 255
181 211 255
181 211 255
181 211 255
181 211 255
181 211 255
181 211 255
181 211 255
181 211 255
181 211 255
181 211 255
181 211 255
181 211 255
181 211 255
181 211 255
180 210 255
180 210 255
180 210 255
180 210 255
180 210 255
180 210 255
180 210 255
180 210 255
94 114 144
65 81 104
69 85 110
66 83 108
68 84 108
68 84 108
66 82 106
72 87 111
65 81 105
67 83 107
69 85 110
70 85 109
68 85 109
69 86 112
72 88 112
71 87 112
70 86 110
69 85 110
65 80 103
72 88 113
70 85 109
69 84 107
70 86 110
68 84 108
63 78 101
67 82 106
68 85 109
72 88 112
64 80 103
66 83 108
68 84 107
70 86 109
68 84 107
71 88 112
65 82 106
69 85 110
67 83 107
63 78 102
68 82 105
69 84 108
69 84 108
71 87 111
64 80 103
69 85 109
65 81 105
71 87 112
66 82 105
67 83 107
66 82 106
67 83 106
63 78 101
64 79 101
69 84 108
66 81 104
68 83 106
63 78 101
67 83 107
66 82 105
67 82 106
61 75 98
68 83 106
65 80 102
61 77 101
67 82 104
67 84 109
68 82 104
64 79 101
72 88 111
69 85 107
63 79 103
63 79 102
67 83 107
67 83 106
66 81 104
69 86 110
65 80 102
66 81 104
66 81 103
67 83 107
72 87 111
64 79 102
69 85 109
65 80 104
63 78 102
70 86 110
69 85 109
69 84 108
65 80 102
65 80 104
66 82 106
69 84 107
67 83 106
67 83 106
70 86 112
70 87 112
66 82 105
64 79 102
70 87 111
63 78 102
63 79 102
66 82 105
70 87 111
67 83 107
68 84 109
69 85 109
70 86 110
65 81 106
69 84 108
66 83 108
68 84 108
64 78 100
70 86 109
68 85 110
64 79 102
66 82 106
65 81 103
69 85 108
73 89 113
65 81 104
70 86 111
69 85 111
92 111 140
180 210 255
180 210 255
180 210 255
180 210 255
180 210 255
180 210 255
180 210 255
180 210 255
181 211 255
181 211 255
181 211 255
181 211 255
181 211 255
181 211 255
181 211 255
181 211 255
181 211 255
181 211 255
181 211 255
181 211 255
181 211 255
181 211 255
181 211 255
181 211 255
181 211 255
181 211 255
181 211 255
181 211 255
181 211 255
181 211 255
181 211 255
182 211 255
182 211 255
182 211 255
182 211 255
182 211 255
182 211 255
182 211 255
182 211 255
182 211 255
182 211 255
182 211 255
182 211 255
182 211 255
182 211 255
182 211 255
182 211 255
182 211 255
182 212 255
182 212 255
182 212 255
182 212 255
182 212 255
182 212 255
182 212 255
182 212 255
183 212 255
183 212 255
183 212 255
183 212 255
183 212 255
183 212 255
183 212 255
183 212 255
183 212 255
183 212 255
183 212 255
183 212 255
183 212 255
183 212 255
183 212 255
183 212 255
183 212 255
183 212 255
183 212 255
183 212 255
183 212 255
183 212 255
183 212 255
183 212 255
183 212 255
183 212 255
183 212 255
184 212 255
184 212 255
184 212 255
184 212 255
184 212 255
184 212 255
184 212 255
184 212 255
184 212 255
184 213 255
184 213 255
184 213 255
184 213 255
184 213 255
184 213 255
184 213 255
184 213 255
184 213 255
184 213 255
184 213 255
184 213 255
184 213 255
184 213 255
184 213 255
184 213 255
184 213 255
184 213 255
184 213 255
184 213 255
184 213 255
184 213 255
184 213 255
185 213 255
185 213 255
185 213 255
185 213 255
185 213 255
185 213 255
185 213 255
185 213 255
185 213 255
185 213 255
185 213 255
185 213 255
185 213 255
185 213 255
185 213 255
185 213 255
185 213 255
185 213 255
185 213 255
185 213 255
185 213 255
185 213 255
185 213 255
185 213 255
185 213 255
185 213 255
185 213 255
185 213 255
185 213 255
185 213 255
185 213 255
185 213 255
185 213 255
185 213 255
185 213 255
185 213 255
185 213 255
185 213 255
185 213 255
185 213 255
185 213 255
185 213 255
185 213 255
185 213 255
185 213 255
185 213 255
185 213 255
185 213 255
185 213 255
185 213 255
185 213 255
185 213 255
185 213 255
185 213 255
185 213 255
185 213 255
185 213 255
185 213 255
185 213 255
184 213 255
184 213 255
184 213 255
184 213 255
184 213 255
184 213 255
184 213 255
184 213 255
184 213 255
184 213 255
184 213 255
184 213 255
184 213 255
184 213 255
184 213 255
184 213 255
184 213 255
184 213 255
184 213 255
184 213 255
184 213 255
184 213 255
184 212 255
184 212 255
184 212 255
184 212 255
184 212 255
184 212 255
184 212 255
184 212 255
184 212 255
183 212 255
183 212 255
183 212 255
183 212 255
183 212 255
183 212 255
183 212 255
183 212 255
183 212 255
183 212 255
183 212 255
183 212 255
183 212 255
183 212 255
183 212 255
183 212 255
183 212 255
183 212 255
183 212 255
183 212 255
183 212 255
183 212 255
183 212 255
183 212 255
183 212 255
183 212 255
183 212 255
183 212 255
182 212 255
182 212 255
182 212 255
182 212 255
182 212 255
182 212 255
182 212 255
182 212 255
182 211 255
182 211 255
182 211 255
182 211 255
182 211 255
182 211 255
182 211 255
182 211 255
182 211 255
182 211 255
182 211 255
182 211 255
182 211 255
182 211 255
182 211 255
182 211 255
182 211 255
181 211 255
181 211 255
181 211 255
181 211 255
181 211 255
181 211 255
181 211 255
181 211 255
181 211 255
181 211 255
181 211 255
181 211 255
181 211 255
181 211 255
181 211 255
181 211 255
181 211 255
181 211 255
181 211 255
170 199 243
70 86 111
66 83 107
71 86 110
63 80 104
70 87 112
68 84 107
61 76 99
73 89 112
70 86 110
64 80 103
69 85 110
65 81 105
64 79 101
66 82 106
70 86 110
62 77 101
68 84 109
70 86 109
66 82 105
69 85 109
66 81 104
69 85 109
67 83 106
69 85 109
64 80 104
66 81 104
66 82 105
68 83 106
69 84 108
63 78 102
63 78 101
64 79 101
66 83 108
69 85 108
64 80 104
65 81 105
67 83 107
70 86 111
64 79 102
69 85 109
67 83 106
62 77 100
64 80 104
71 87 110
69 85 111
65 80 102
64 78 101
67 82 106
67 83 108
67 81 104
69 85 110
74 90 113
64 78 100
67 82 105
68 83 105
70 85 109
65 80 104
64 79 102
67 83 107
67 83 107
71 87 111
67 83 106
66 82 105
66 82 106
67 82 105
72 89 113
69 85 109
67 82 104
66 81 104
67 83 107
73 89 113
69 85 109
68 84 107
66 82 107
69 85 108
65 80 102
65 80 102
69 84 108
66 81 104
67 83 106
67 83 106
64 79 102
67 83 107
72 88 112
62 78 100
66 81 104
70 85 107
68 84 108
69 86 110
64 80 103
65 81 104
68 84 108
66 81 103
62 77 99
67 83 107
67 83 106
70 86 111
68 84 108
70 86 110
67 83 107
65 81 104
65 81 104
62 77 100
69 86 111
66 82 106
68 84 108
63 79 103
70 85 109
67 83 108
67 83 108
66 83 107
67 82 105
66 83 107
65 80 103
68 85 109
67 83 108
69 85 110
71 87 112
67 84 108
65 81 105
69 86 110
70 86 110
167 195 237
181 211 255
181 211 255
181 211 255
181 211 255
181 211 255
181 211 255
181 211 255
181 211 255
181 211 255
181 211 255
181 211 255
181 211 255
181 211 255
181 211 255
181 211 255
181 211 255
181 211 255
181 211 255
181 211 255
181 211 255
182 211 255
182 211 255
182 211 255
182 211 255
182 211 255
182 211 255
182 211 255
182 211 255
182 211 255
182 211 255
182 211 255
182 211 255
182 211 255
182 211 255
182 211 255
182 211 255
182 212 255
182 212 255
182 212 255
182 212 255
182 212 255
182 212 255
182 212 255
182 212 255
183 212 255
183 212 255
183 212 255
183 212 255
183 212 255
183 212 255
183 212 255
183 212 255
183 212 255
183 212 255
183 212 255
183 212 255
183 212 255
183 212 255
183 212 255
183 212 255
183 212 255
183 212 255
183 212 255
183 212 255
183 212 255
183 212 255
183 212 255
183 212 255
183 212 255
183 212 255
183 212 255
184 212 255
184 212 255
184 212 255
184 212 255
184 212 255
184 212 255
184 212 255
184 212 255
184 212 255
184 212 255
184 212 255
184 213 255
184 213 255
184 213 255
184 213 255
184 213 255
184 213 255
184 213 255
184 213 255
184 213 255
184 213 255
184 213 255
184 213 255
184 213 255
184 213 255
184 213 255
184 213 255
184 213 255
184 213 255
184 213 255
184 213 255
184 213 255
185 213 255
185 213 255
185 213 255
185 213 255
185 213 255
185 213 255
185 213 255
185 213 255
185 213 255
185 213 255
185 213 255
185 213 255
185 213 255
185 213 255
185 213 255
185 213 255
185 213 255
185 213 255
185 213 255
185 213 255
185 213 255
185 213 255
185 213 255
185 213 255
185 213 255
185 213 255
185 213 255
185 213 255
185 213 255
185 213 255
185 213 255
185 213 255
185 213 255
185 213 255
185 213 255
186 214 255
186 214 255
186 214 255
186 214 255
186 214 255
186 214 255
186 214 255
185 213 255
185 213 255
185 213 255
185 213 255
185 213 255
185 213 255
185 213 255
185 213 255
185 213 255
185 213 255
185 213 255
185 213 255
185 213 255
185 213 255
185 213 255
185 213 255
185 213 255
185 213 255
185 213 255
185 213 255
185 213 255
185 213 255
185 213 255
185 213 255
185 213 255
185 213 255
185 213 255
185 213 255
185 213 255
185 213 255
185 213 255
185 213 255
185 213 255
185 213 255
185 213 255
185 213 255
185 213 255
185 213 255
185 213 255
184 213 255
184 213 255
184 213 255
184 213 255
184 213 255
184 213 255
184 213 255
184 213 255
184 213 255
184 213 255
184 213 255
184 213 255
184 213 255
184 213 255
184 213 255
184 213 255
184 213 255
184 213 255
184 213 255
184 213 255
184 213 255
184 212 255
184 212 255
184 212 255
184 212 255
184 212 255
184 212 255
184 212 255
184 212 255
184 212 255
184 212 255
183 212 255
183 212 255
183 212 255
183 212 255
183 212 255
183 212 255
183 212 255
183 212 255
183 212 255
183 212 255
183 212 255
183 212 255
183 212 255
183 212 255
183 212 255
183 212 255
183 212 255
183 212 255
183 212 255
183 212 255
183 212 255
183 212 255
183 212 255
183 212 255
183 212 255
183 212 255
183 212 255
182 212 255
182 212 255
182 212 255
182 212 255
182 212 255
182 212 255
182 212 255
182 212 255
182 212 255
182 211 255
182 211 255
182 211 255
182 211 255
182 211 255
182 211 255
182 211 255
182 211 255
182 211 255
182 211 255
182 211 255
182 211 255
182 211 255
182 211 255
182 211 255
182 211 255
182 211 255
181 211 255
181 211 255
181 211 255
181 211 255
181 211 255
181 211 255
181 211 255
181 211 255
132 156 192
65 80 103
65 80 103
64 80 104
72 88 111
68 83 105
70 86 111
70 86 110
68 84 107
67 83 107
67 84 108
62 77 101
65 81 105
67 82 105
66 82 105
66 81 105
65 81 104
67 82 106
68 84 108
66 81 105
66 82 107
68 83 107
66 82 106
69 85 109
70 85 109
64 79 102
68 84 108
65 81 105
68 84 108
62 76 98
66 82 106
69 84 108
72 89 113
69 84 108
68 83 105
68 84 108
67 81 103
70 86 110
70 86 110
66 82 105
67 84 109
70 86 110
66 82 105
62 77 99
62 78 101
65 80 103
65 81 104
69 84 108
68 82 104
64 80 103
62 78 101
68 85 109
66 82 105
66 81 104
62 77 100
67 83 108
69 84 108
65 81 104
69 85 108
70 86 111
70 86 109
67 82 106
62 78 101
69 84 107
68 84 108
67 83 106
68 84 108
68 84 108
68 83 106
69 84 108
65 80 102
65 81 104
67 84 108
63 77 99
68 84 107
67 82 105
63 78 101
66 81 104
63 78 101
64 80 103
69 85 109
67 82 106
66 82 106
67 82 104
65 81 105
64 79 103
63 79 103
61 75 97
67 82 105
69 84 108
71 86 108
64 80 102
66 81 103
62 77 100
67 83 105
67 82 105
64 79 103
65 80 103
69 84 108
59 74 96
67 82 106
64 80 103
70 86 110
64 79 102
66 81 104
69 84 107
65 81 104
72 88 112
69 84 108
65 81 104
66 83 107
69 85 110
65 79 101
69 85 109
67 83 106
64 80 103
68 83 107
67 82 104
67 83 106
70 86 110
68 84 107
67 82 105
68 83 107
124 147 181
181 211 255
181 211 255
181 211 255
181 211 255
181 211 255
181 211 255
181 211 255
181 211 255
182 211 255
182 211 255
182 211 255
182 211 255
182 211 255
182 211 255
182 211 255
182 211 255
182 211 255
182 211 255
182 211 255
182 211 255
182 211 255
182 211 255
182 211 255
182 211 255
182 211 255
182 212 255
182 212 255
182 212 255
182 212 255
182 212 255
182 212 255
182 212 255
182 212 255
182 212 255
183 212 255
183 212 255
183 212 255
183 212 255
183 212 255
183 212 255
183 212 255
183 212 255
183 212 255
183 212 255
183 212 255
183 212 255
183 212 255
183 212 255
183 212 255
183 212 255
183 212 255
183 212 255
183 212 255
183 212 255
183 212 255
183 212 255
183 212 255
183 212 255
183 212 255
183 212 255
183 212 255
184 212 255
184 212 255
184 212 255
184 212 255
184 212 255
184 212 255
184 212 255
184 212 255
184 212 255
184 212 255
184 213 255
184 213 255
184 213 255
184 213 255
184 213 255
184 213 255
184 213 255
184 213 255
184 213 255
184 213 255
184 213 255
184 213 255
184 213 255
184 213 255
184 213 255
184 213 255
184 213 255
184 213 255
184 213 255
184 213 255
184 213 255
185 213 255
185 213 255
185 213 255
185 213 255
185 213 255
185 213 255
185 213 255
185 213 255
185 213 255
185 213 255
185 213 255
185 213 255
185 213 255
185 213 255
185 213 255
185 213 255
185 213 255
185 213 255
185 213 255
185 213 255
185 213 255
185 213 255
185 213 255
185 213 255
185 213 255
185 213 255
185 213 255
185 213 255
185 213 255
185 213 255
185 213 255
185 213 255
185 213 255
185 213 255
185 213 255
185 213 255
185 213 255
185 213 255
185 213 255
186 214 255
186 214 255
186 214 255
186 214 255
186 214 255
186 214 255
186 214 255
186 214 255
186 214 255
186 214 255
186 214 255
186 214 255
186 214 255
186 214 255
186 214 255
186 214 255
186 214 255
186 214 255
186 214 255
186 214 255
186 214 255
186 214 255
186 214 255
186 214 255
186 214 255
186 214 255
186 214 255
185 213 255
185 213 255
185 213 255
185 213 255
185 213 255
185 213 255
185 213 255
185 213 255
185 213 255
185 213 255
185 213 255
185 213 255
185 213 255
185 213 255
185 213 255
185 213 255
185 213 255
185 213 255
185 213 255
185 213 255
185 213 255
185 213 255
185 213 255
185 213 255
185 213 255
185 213 255
185 213 255
185 213 255
185 213 255
185 213 255
185 213 255
185 213 255
185 213 255
185 213 255
185 213 255
185 213 255
185 213 255
184 213 255
184 213 255
184 213 255
184 213 255
184 213 255
184 213 255
184 213 255
184 213 255
184 213 255
184 213 255
184 213 255
184 213 255
184 213 255
184 213 255
184 213 255
184 213 255
184 213 255
184 213 255
184 213 255
184 213 255
184 213 255
184 212 255
184 212 255
184 212 255
184 212 255
184 212 255
184 212 255
184 212 255
184 212 255
184 212 255
184 212 255
184 212 255
183 212 255
183 212 255
183 212 255
183 212 255
183 212 255
183 212 255
183 212 255
183 212 255
183 212 255
183 212 255
183 212 255
183 212 255
183 212 255
183 212 255
183 212 255
183 212 255
183 212 255
183 212 255
183 212 255
183 212 255
183 212 255
183 212 255
183 212 255
183 212 255
183 212 255
183 212 255
182 212 255
182 212 255
182 212 255
182 212 255
182 212 255
182 212 255
182 212 255
182 212 255
182 212 255
182 211 255
182 211 255
182 211 255
182 211 255
182 211 255
182 211 255
182 211 255
182 211 255
182 211 255
182 211 255
182 211 255
182 211 255
182 211 255
182 211 255
85 104 132
69 85 109
66 82 106
69 85 110
69 84 108
69 85 109
67 83 107
62 77 100
63 78 101
65 81 104
65 81 105
65 80 104
67 83 106
67 82 105
68 84 107
67 82 105
64 79 102
69 86 111
66 82 106
70 87 112
65 81 105
68 84 107
68 84 108
61 76 98
66 82 105
68 83 105
67 83 107
66 81 104
62 77 99
66 82 105
68 84 107
65 81 104
65 81 105
66 81 105
64 78 101
68 85 109
67 83 106
66 82 105
62 76 98
69 85 108
69 85 108
64 80 104
64 80 103
66 81 104
67 82 104
65 81 105
70 85 109
66 81 104
65 81 105
66 82 106
70 86 110
65 80 103
65 81 104
68 84 107
62 77 99
69 85 108
67 83 108
70 86 110
61 77 100
69 85 109
70 87 112
67 84 108
69 85 108
65 80 103
65 80 103
66 82 106
68 84 107
68 85 109
64 80 103
69 85 110
69 85 108
62 76 98
70 86 110
64 80 104
65 80 104
69 84 106
64 79 103
68 84 108
67 83 107
63 79 102
67 83 107
68 83 106
67 83 106
70 85 109
64 79 103
69 84 108
67 83 107
67 83 106
69 85 108
65 81 105
69 85 109
67 83 106
63 78 100
62 77 100
68 84 108
67 83 106
67 82 105
67 82 106
68 84 109
67 83 108
70 86 111
63 79 102
64 79 101
69 85 109
64 79 102
63 77 99
64 80 103
67 84 108
67 84 109
69 84 107
63 78 101
71 87 110
72 87 111
68 83 106
69 85 109
70 85 109
62 77 100
66 82 106
65 81 105
68 85 110
68 83 107
72 88 113
73 88 112
86 104 131
182 211 255
182 211 255
182 211 255
182 211 255
182 211 255
182 211 255
182 211 255
182 211 255
182 211 255
182 211 255
182 211 255
182 211 255
182 211 255
182 212 255
182 212 255
182 212 255
182 212 255
182 212 255
182 212 255
182 212 255
182 212 255
182 212 255
182 212 255
183 212 255
183 212 255
183 212 255
183 212 255
183 212 255
183 212 255
183 212 255
183 212 255
183 212 255
183 212 255
183 212 255
183 212 255
183 212 255
183 212 255
183 212 255
183 212 255
183 212 255
183 212 255
183 212 255
183 212 255
183 212 255
183 212 255
183 212 255
183 212 255
183 212 255
183 212 255
184 212 255
184 212 255
184 212 255
184 212 255
184 212 255
184 212 255
184 212 255
184 212 255
184 212 255
184 212 255
184 212 255
184 213 255
184 213 255
184 213 255
184 213 255
184 213 255
184 213 255
184 213 255
184 213 255
184 213 255
184 213 255
184 213 255
184 213 255
184 213 255
184 213 255
184 213 255
184 213 255
184 213 255
184 213 255
184 213 255
184 213 255
184 213 255
185 213 255
185 213 255
185 213 255
185 213 255
185 213 255
185 213 255
185 213 255
185 213 255
185 213 255
185 213 255
185 213 255
185 213 255
185 213 255
185 213 255
185 213 255
185 213 255
185 213 255
185 213 255
185 213 255
185 213 255
185 213 255
185 213 255
185 213 255
185 213 255
185 213 255
185 213 255
185 213 255
185 213 255
185 213 255
185 213 255
185 213 255
185 213 255
185 213 255
185 213 255
185 213 255
185 213 255
185 213 255
186 214 255
186 214 255
186 214 255
186 214 255
186 214 255
186 214 255
186 214 255
186 214 255
186 214 255
186 214 255
186 214 255
186 214 255
186 214 255
186 214 255
186 214 255
186 214 255
186 214 255
186 214 255
186 214 255
186 214 255
186 214 255
186 214 255
186 214 255
186 214 255
186 214 255
186 214 255
186 214 255
186 214 255
186 214 255
186 214 255
186 214 255
186 214 255
186 214 255
186 214 255
186 214 255
186 214 255
186 214 255
186 214 255
186 214 255
186 214 255
186 214 255
186 214 255
186 214 255
186 214 255
186 214 255
186 214 255
186 214 255
186 214 255
186 214 255
186 214 255
186 214 255
186 214 255
186 214 255
185 213 255
185 213 255
185 213 255
185 213 255
185 213 255
185 213 255
185 213 255
185 213 255
185 213 255
185 213 255
185 213 255
185 213 255
185 213 255
185 213 255
185 213 255
185 213 255
185 213 255
185 213 255
185 213 255
185 213 255
185 213 255
185 213 255
185 213 255
185 213 255
185 213 255
185 213 255
185 213 255
185 213 255
185 213 255
185 213 255
185 213 255
185 213 255
185 213 255
185 213 255
185 213 255
184 213 255
184 213 255
184 213 255
184 213 255
184 213 255
184 213 255
184 213 255
184 213 255
184 213 255
184 213 255
184 213 255
184 213 255
184 213 255
184 213 255
184 213 255
184 213 255
184 213 255
184 213 255
184 213 255
184 213 255
184 213 255
184 213 255
184 212 255
184 212 255
184 212 255
184 212 255
184 212 255
184 212 255
184 212 255
184 212 255
184 212 255
184 212 255
183 212 255
183 212 255
183 212 255
183 212 255
183 212 255
183 212 255
183 212 255
183 212 255
183 212 255
183 212 255
183 212 255
183 212 255
183 212 255
183 212 255
183 212 255
183 212 255
183 212 255
183 212 255
183 212 255
183 212 255
183 212 255
183 212 255
183 212 255
183 212 255
183 212 255
183 212 255
183 212 255
183 212 255
182 212 255
182 212 255
182 212 255
182 212 255
182 212 255
182 212 255
182 212 255
182 212 255
182 212 255
170 198 240
72 88 112
65 80 104
64 79 102
66 81 104
65 80 103
64 79 101
64 80 103
69 84 107
68 84 108
65 81 104
66 81 105
65 81 105
67 82 105
65 81 105
70 86 110
68 83 107
69 84 107
64 80 103
68 83 105
62 77 99
71 86 110
64 80 102
69 85 108
66 81 105
67 82 104
63 78 102
69 85 109
69 85 108
67 83 106
64 79 102
67 82 104
64 79 103
65 80 103
70 86 110
70 86 109
65 80 104
64 79 101
64 79 102
69 85 108
73 89 112
65 81 104
64 79 103
68 84 107
66 82 105
67 83 106
67 82 105
66 81 104
72 88 112
64 79 103
65 80 103
64 79 102
66 81 104
67 83 108
67 82 105
66 81 104
64 80 103
65 81 104
62 78 101
64 79 101
66 81 104
67 82 104
69 85 109
66 81 103
68 84 107
65 80 103
64 79 103
63 79 101
65 81 104
67 83 106
65 81 105
66 81 105
70 86 110
68 84 107
64 79 102
67 83 108
65 80 103
65 80 103
67 82 106
69 85 108
71 86 108
65 80 104
65 81 104
62 77 99
70 85 109
64 79 103
65 80 102
69 84 107
68 84 108
67 81 103
67 82 105
71 88 112
69 85 108
68 83 105
71 87 111
67 83 108
72 88 112
66 81 103
61 76 98
68 83 106
68 84 107
67 82 106
66 81 104
66 81 103
68 84 108
67 82 106
65 80 103
69 85 109
67 82 106
63 79 103
63 78 100
66 81 105
65 80 102
66 81 104
68 83 106
67 83 107
66 82 106
65 81 104
70 86 110
66 82 105
65 81 105
73 89 113
64 79 101
72 88 111
65 79 101
168 196 238
182 212 255
182 212 255
182 212 255
182 212 255
182 212 255
182 212 255
182 212 255
182 212 255
182 212 255
183 212 255
183 212 255
183 212 255
183 212 255
183 212 255
183 212 255
183 212 255
183 212 255
183 212 255
183 212 255
183 212 255
183 212 255
183 212 255
183 212 255
183 212 255
183 212 255
183 212 255
183 212 255
183 212 255
183 212 255
183 212 255
183 212 255
183 212 255
183 212 255
183 212 255
183 212 255
183 212 255
183 212 255
184 212 255
184 212 255
184 212 255
184 212 255
184 212 255
184 212 255
184 212 255
184 212 255
184 212 255
184 212 255
184 213 255
184 213 255
184 213 255
184 213 255
184 213 255
184 213 255
184 213 255
184 213 255
184 213 255
184 213 255
184 213 255
184 213 255
184 213 255
184 213 255
184 213 255
184 213 255
184 213 255
184 213 255
184 213 255
184 213 255
184 213 255
185 213 255
185 213 255
185 213 255
185 213 255
185 213 255
185 213 255
185 213 255
185 213 255
185 213 255
185 213 255
185 213 255
185 213 255
185 213 255
185 213 255
185 213 255
185 213 255
185 213 255
185 213 255
185 213 255
185 213 255
185 213 255
185 213 255
185 213 255
185 213 255
185 213 255
185 213 255
185 213 255
185 213 255
185 213 255
185 213 255
185 213 255
185 213 255
185 213 255
185 213 255
185 213 255
185 213 255
185 213 255
186 214 255
186 214 255
186 214 255
186 214 255
186 214 255
186 214 255
186 214 255
186 214 255
186 214 255
186 214 255
186 214 255
186 214 255
186 214 255
186 214 255
186 214 255
186 214 255
186 214 255
186 214 255
186 214 255
186 214 255
186 214 255
186 214 255
186 214 255
186 214 255
186 214 255
186 214 255
186 214 255
186 214 255
186 214 255
186 214 255
186 214 255
186 214 255
186 214 255
186 214 255
186 214 255
186 214 255
186 214 255
186 214 255
186 214 255
186 214 255
186 214 255
186 214 255
186 214 255
186 214 255
186 214 255
186 214 255
186 214 255
186 214 255
186 214 255
186 214 255
186 214 255
186 214 255
186 214 255
186 214 255
186 214 255
186 214 255
186 214 255
186 214 255
186 214 255
186 214 255
186 214 255
186 214 255
186 214 255
186 214 255
186 214 255
186 214 255
186 214 255
186 214 255
186 214 255
186 214 255
186 214 255
186 214 255
186 214 255
186 214 255
186 214 255
186 214 255
186 214 255
186 214 255
185 213 255
185 213 255
185 213 255
185 213 255
185 213 255
185 213 255
185 213 255
185 213 255
185 213 255
185 213 255
185 213 255
185 213 255
185 213 255
185 213 255
185 213 255
185 213 255
185 213 255
185 213 255
185 213 255
185 213 255
185 213 255
185 213 255
185 213 255
185 213 255
185 213 255
185 213 255
185 213 255
185 213 255
185 213 255
185 213 255
185 213 255
185 213 255
185 213 255
185 213 255
185 213 255
184 213 255
184 213 255
184 213 255
184 213 255
184 213 255
184 213 255
184 213 255
184 213 255
184 213 255
184 213 255
184 213 255
184 213 255
184 213 255
184 213 255
184 213 255
184 213 255
184 213 255
184 213 255
184 213 255
184 213 255
184 213 255
184 212 255
184 212 255
184 212 255
184 212 255
184 212 255
184 212 255
184 212 255
184 212 255
184 212 255
184 212 255
183 212 255
183 212 255
183 212 255
183 212 255
183 212 255
183 212 255
183 212 255
183 212 255
183 212 255
183 212 255
183 212 255
183 212 255
183 212 255
183 212 255
183 212 255
183 212 255
183 212 255
183 212 255
183 212 255
183 212 255
183 212 255
183 212 255
183 212 255
183 212 255
183 212 255
132 155 191
68 84 108
68 82 104
67 82 104
65 82 106
66 81 104
66 81 104
66 81 103
68 83 106
66 82 106
68 84 109
65 80 104
67 83 106
61 76 98
68 83 107
68 84 109
66 81 105
66 82 104
69 85 110
64 79 102
70 86 109
70 85 107
64 79 101
65 81 104
65 80 102
66 81 103
65 80 102
67 83 107
63 79 103
69 85 108
66 81 104
65 80 103
64 79 103
66 81 104
64 79 101
66 81 104
66 82 105
70 85 108
68 84 107
68 84 108
65 81 105
64 79 102
68 83 106
65 81 104
69 85 108
66 81 103
62 78 101
67 82 104
66 82 104
67 82 105
66 82 105
64 78 100
69 84 107
65 80 103
67 82 104
69 85 108
66 80 103
68 83 106
68 83 106
66 81 102
66 81 104
65 80 104
70 86 109
67 82 106
69 84 108
66 81 104
64 79 103
61 76 99
62 77 100
68 83 106
63 79 102
67 83 106
70 86 110
67 82 105
67 82 105
62 77 100
69 85 110
67 82 105
69 85 108
66 82 105
63 78 101
68 83 106
68 84 108
70 86 111
66 82 106
66 82 105
63 78 101
69 84 108
68 83 106
67 83 106
71 86 110
65 81 106
63 79 103
65 80 102
64 79 102
61 76 98
67 83 106
64 80 105
70 85 109
68 83 107
67 83 107
66 81 104
66 81 104
65 81 104
65 81 105
65 80 103
70 86 109
69 84 107
65 81 105
69 85 108
67 83 108
66 82 105
69 85 110
66 83 108
71 87 110
68 84 108
67 82 105
67 82 105
70 87 112
67 82 105
67 82 105
69 85 108
73 91 116
69 84 107
70 86 109
132 156 191
183 212 255
183 212 255
183 212 255
183 212 255
183 212 255
183 212 255
183 212 255
183 212 255
183 212 255
183 212 255
183 212 255
183 212 255
183 212 255
183 212 255
183 212 255
183 212 255
183 212 255
183 212 255
183 212 255
183 212 255
183 212 255
183 212 255
183 212 255
183 212 255
183 212 255
184 212 255
184 212 255
184 212 255
184 212 255
184 212 255
184 212 255
184 212 255
184 212 255
184 212 255
184 213 255
184 213 255
184 213 255
184 213 255
184 213 255
184 213 255
184 213 255
184 213 255
184 213 255
184 213 255
184 213 255
184 213 255
184 213 255
184 213 255
184 213 255
184 213 255
184 213 255
184 213 255
184 213 255
184 213 255
184 213 255
184 213 255
185 213 255
185 213 255
185 213 255
185 213 255
185 213 255
185 213 255
185 213 255
185 213 255
185 213 255
185 213 255
185 213 255
185 213 255
185 213 255
185 213 255
185 213 255
185 213 255
185 213 255
185 213 255
185 213 255
185 213 255
185 213 255
185 213 255
185 213 255
185 213 255
185 213 255
185 213 255
185 213 255
185 213 255
185 213 255
185 213 255
185 213 255
185 213 255
185 213 255
185 213 255
185 213 255
185 213 255
186 214 255
186 214 255
186 214 255
186 214 255
186 214 255
186 214 255
186 214 255
186 214 255
186 214 255
186 214 255
186 214 255
186 214 255
186 214 255
186 214 255
186 214 255
186 214 255
186 214 255
186 214 255
186 214 255
186 214 255
186 214 255
186 214 255
186 214 255
186 214 255
186 214 255
186 214 255
186 214 255
186 214 255
186 214 255
186 214 255
186 214 255
186 214 255
186 214 255
186 214 255
186 214 255
186 214 255
186 214 255
186 214 255
186 214 255
186 214 255
186 214 255
186 214 255
186 214 255
186 214 255
186 214 255
187 214 255
187 214 255
187 214 255
187 214 255
187 214 255
187 214 255
187 214 255
187 214 255
187 214 255
187 214 255
187 214 255
187 214 255
187 214 255
187 214 255
187 214 255
186 214 255
186 214 255
186 214 255
186 214 255
186 214 255
186 214 255
186 214 255
186 214 255
186 214 255
186 214 255
186 214 255
186 214 255
186 214 255
186 214 255
186 214 255
186 214 255
186 214 255
186 214 255
186 214 255
186 214 255
186 214 255
186 214 255
186 214 255
186 214 255
186 214 255
186 214 255
186 214 255
186 214 255
186 214 255
186 214 255
186 214 255
186 214 255
186 214 255
186 214 255
186 214 255
186 214 255
186 214 255
186 214 255
186 214 255
186 214 255
186 214 255
186 214 255
186 214 255
186 214 255
185 213 255
185 213 255
185 213 255
185 213 255
185 213 255
185 213 255
185 213 255
185 213 255
185 213 255
185 213 255
185 213 255
185 213 255
185 213 255
185 213 255
185 213 255
185 213 255
185 213 255
185 213 255
185 213 255
185 213 255
185 213 255
185 213 255
185 213 255
185 213 255
185 213 255
185 213 255
185 213 255
185 213 255
185 213 255
185 213 255
185 213 255
185 213 255
185 213 255
185 213 255
185 213 255
184 213 255
184 213 255
184 213 255
184 213 255
184 213 255
184 213 255
184 213 255
184 213 255
184 213 255
184 213 255
184 213 255
184 213 255
184 213 255
184 213 255
184 213 255
184 213 255
184 213 255
184 213 255
184 213 255
184 213 255
184 213 255
184 212 255
184 212 255
184 212 255
184 212 255
184 212 255
184 212 255
184 212 255
184 212 255
184 212 255
184 212 255
184 212 255
183 212 255
183 212 255
183 212 255
183 212 255
183 212 255
183 212 255
183 212 255
183 212 255
183 212 255
183 212 255
183 212 255
103 124 154
66 82 107
68 83 106
70 86 110
69 86 110
67 83 106
66 81 105
66 82 104
67 82 105
66 81 102
66 81 104
68 84 108
67 83 106
63 78 101
67 82 105
69 86 110
65 81 105
63 79 104
68 84 108
69 84 106
63 78 101
63 78 99
68 84 107
67 82 105
61 75 97
64 80 103
66 81 104
67 81 103
64 79 101
64 79 102
65 80 104
69 85 109
64 79 101
64 80 104
63 78 100
69 85 108
69 85 109
68 83 107
64 79 101
70 85 109
63 78 100
65 81 105
68 83 105
65 81 104
68 83 106
65 81 104
62 78 101
65 81 104
66 82 106
63 79 103
69 84 108
65 80 102
63 78 100
66 81 104
64 79 101
64 80 104
67 84 108
65 81 104
63 78 101
66 81 104
63 78 100
66 81 102
69 85 107
65 80 103
64 79 101
66 82 106
63 79 102
66 81 104
69 84 106
66 81 104
64 80 103
67 82 106
66 82 106
67 82 105
68 84 107
69 85 109
65 80 103
72 88 112
65 81 104
66 81 104
68 85 110
63 78 102
65 80 102
67 82 105
65 80 102
64 79 102
63 78 101
69 85 108
65 81 104
69 85 109
67 82 104
64 80 104
67 82 105
67 83 106
69 84 107
64 79 103
68 83 105
67 82 105
68 83 105
66 82 106
69 85 109
72 88 112
67 83 106
66 82 106
64 79 101
66 82 106
69 85 110
68 84 108
65 81 105
68 83 107
70 87 112
64 80 102
68 84 108
61 76 99
65 81 104
70 86 110
68 83 107
64 78 100
62 77 100
69 85 109
69 85 108
67 83 106
66 81 105
67 82 105
67 83 107
110 131 161
183 212 255
183 212 255
183 212 255
183 212 255
183 212 255
183 212 255
183 212 255
183 212 255
183 212 255
183 212 255
183 212 255
183 212 255
184 212 255
184 212 255
184 212 255
184 212 255
184 212 255
184 212 255
184 212 255
184 212 255
184 212 255
184 212 255
184 213 255
184 213 255
184 213 255
184 213 255
184 213 255
184 213 255
184 213 255
184 213 255
184 213 255
184 213 255
184 213 255
184 213 255
184 213 255
184 213 255
184 213 255
184 213 255
184 213 255
184 213 255
184 213 255
184 213 255
184 213 255
185 213 255
185 213 255
185 213 255
185 213 255
185 213 255
185 213 255
185 213 255
185 213 255
185 213 255
185 213 255
185 213 255
185 213 255
185 213 255
185 213 255
185 213 255
185 213 255
185 213 255
185 213 255
185 213 255
185 213 255
185 213 255
185 213 255
185 213 255
185 213 255
185 213 255
185 213 255
185 213 255
185 213 255
185 213 255
185 213 255
185 213 255
185 213 255
185 213 255
185 213 255
185 213 255
186 214 255
186 214 255
186 214 255
186 214 255
186 214 255
186 214 255
186 214 255
186 214 255
186 214 255
186 214 255
186 214 255
186 214 255
186 214 255
186 214 255
186 214 255
186 214 255
186 214 255
186 214 255
186 214 255
186 214 255
186 214 255
186 214 255
186 214 255
186 214 255
186 214 255
186 214 255
186 214 255
186 214 255
186 214 255
186 214 255
186 214 255
186 214 255
186 214 255
186 214 255
186 214 255
186 214 255
186 214 255
186 214 255
186 214 255
186 214 255
186 214 255
186 214 255
186 214 255
186 214 255
186 214 255
187 214 255
187 214 255
187 214 255
187 214 255
187 214 255
187 214 255
187 214 255
187 214 255
187 214 255
187 214 255
187 214 255
187 214 255
187 214 255
187 214 255
187 214 255
187 214 255
187 214 255
187 214 255
187 214 255
187 214 255
187 214 255
187 214 255
187 214 255
187 214 255
187 214 255
187 214 255
187 214 255
187 214 255
187 214 255
187 214 255
187 214 255
187 214 255
187 214 255
187 214 255
187 214 255
187 214 255
187 214 255
187 214 255
187 214 255
187 214 255
187 214 255
187 214 255
187 214 255
187 214 255
186 214 255
186 214 255
186 214 255
186 214 255
186 214 255
186 214 255
186 214 255
186 214 255
186 214 255
186 214 255
186 214 255
186 214 255
186 214 255
186 214 255
186 214 255
186 214 255
186 214 255
186 214 255
186 214 255
186 214 255
186 214 255
186 214 255
186 214 255
186 214 255
186 214 255
186 214 255
186 214 255
186 214 255
186 214 255
186 214 255
186 214 255
186 214 255
186 214 255
186 214 255
186 214 255
186 214 255
186 214 255
186 214 255
186 214 255
186 214 255
186 214 255
186 214 255
186 214 255
185 213 255
185 213 255
185 213 255
185 213 255
185 213 255
185 213 255
185 213 255
185 213 255
185 213 255
185 213 255
185 213 255
185 213 255
185 213 255
185 213 255
185 213 255
185 213 255
185 213 255
185 213 255
185 213 255
185 213 255
185 213 255
185 213 255
185 213 255
185 213 255
185 213 255
185 213 255
185 213 255
185 213 255
185 213 255
185 213 255
185 213 255
185 213 255
185 213 255
185 213 255
185 213 255
184 213 255
184 213 255
184 213 255
184 213 255
184 213 255
184 213 255
184 213 255
184 213 255
184 213 255
184 213 255
184 213 255
184 213 255
184 213 255
184 213 255
184 213 255
184 213 255
184 213 255
184 213 255
184 213 255
184 213 255
184 213 255
184 213 255
184 212 255
184 212 255
184 212 255
184 212 255
184 212 255
184 212 255
182 211 254
73 88 112
67 83 106
69 86 111
66 81 105
68 83 106
65 80 103
69 85 108
63 78 100
67 83 106
67 83 107
67 83 106
64 80 103
62 77 100
65 80 103
66 83 107
67 83 106
65 80 103
65 79 101
62 78 100
67 82 105
64 80 104
68 83 106
68 84 106
66 82 105
64 80 103
66 82 105
67 82 105
63 77 97
69 85 109
63 78 100
66 81 104
60 76 98
68 83 106
61 76 97
65 80 103
69 84 107
62 78 101
65 80 104
64 80 103
63 78 100
67 83 107
65 80 103
61 76 98
68 84 107
68 83 107
64 78 101
65 80 103
64 79 102
64 79 100
64 79 102
67 83 106
68 84 107
67 81 104
62 77 99
66 82 106
66 81 103
63 77 100
66 81 104
67 83 106
65 80 101
68 84 107
65 80 103
64 79 103
63 78 100
62 77 100
70 85 109
65 80 102
69 83 105
67 82 106
67 81 103
64 79 102
68 82 104
67 83 107
65 80 103
68 84 107
62 77 99
62 78 100
65 80 102
63 77 99
65 81 104
66 81 104
62 77 99
64 80 105
65 80 102
67 82 105
65 80 103
68 83 107
63 78 99
68 84 107
66 81 105
63 78 100
64 80 103
65 80 102
64 78 100
66 81 103
64 79 102
67 82 105
63 79 102
63 78 101
68 83 106
65 81 105
70 86 109
65 79 101
64 79 102
62 77 100
63 78 100
71 87 110
67 81 104
69 85 108
68 84 108
64 80 104
66 82 106
69 84 106
66 81 104
67 82 105
69 84 106
70 85 108
68 83 107
69 84 108
70 85 108
68 84 107
66 81 104
64 79 100
64 79 101
65 81 104
73 89 112
183 211 254
184 212 255
184 212 255
184 212 255
184 212 255
184 212 255
184 212 255
184 213 255
184 213 255
184 213 255
184 213 255
184 213 255
184 213 255
184 213 255
184 213 255
184 213 255
184 213 255
184 213 255
184 213 255
184 213 255
184 213 255
184 213 255
184 213 255
184 213 255
184 213 255
184 213 255
184 213 255
184 213 255
184 213 255
185 213 255
185 213 255
185 213 255
185 213 255
185 213 255
185 213 255
185 213 255
185 213 255
185 213 255
185 213 255
185 213 255
185 213 255
185 213 255
185 213 255
185 213 255
185 213 255
185 213 255
185 213 255
185 213 255
185 213 255
185 213 255
185 213 255
185 213 255
185 213 255
185 213 255
185 213 255
185 213 255
185 213 255
185 213 255
185 213 255
185 213 255
185 213 255
185 213 255
185 213 255
185 213 255
186 214 255
186 214 255
186 214 255
186 214 255
186 214 255
186 214 255
186 214 255
186 214 255
186 214 255
186 214 255
186 214 255
186 214 255
186 214 255
186 214 255
186 214 255
186 214 255
186 214 255
186 214 255
186 214 255
186 214 255
186 214 255
186 214 255
186 214 255
186 214 255
186 214 255
186 214 255
186 214 255
186 214 255
186 214 255
186 214 255
186 214 255
186 214 255
186 214 255
186 214 255
186 214 255
186 214 255
186 214 255
186 214 255
186 214 255
186 214 255
186 214 255
186 214 255
186 214 255
187 214 255
187 214 255
187 214 255
187 214 255
187 214 255
187 214 255
187 214 255
187 214 255
187 214 255
187 214 255
187 214 255
187 214 255
187 214 255
187 214 255
187 214 255
187 214 255
187 214 255
187 214 255
187 214 255
187 214 255
187 214 255
187 214 255
187 214 255
187 214 255
187 214 255
187 214 255
187 214 255
187 214 255
187 214 255
187 214 255
187 215 255
187 215 255
187 215 255
187 215 255
187 215 255
187 215 255
187 215 255
187 215 255
187 215 255
187 214 255
187 214 255
187 214 255
187 214 255
187 214 255
187 214 255
187 214 255
187 214 255
187 214 255
187 214 255
187 214 255
187 214 255
187 214 255
187 214 255
187 214 255
187 214 255
187 214 255
187 214 255
187 214 255
187 214 255
187 214 255
187 214 255
187 214 255
187 214 255
187 214 255
187 214 255
187 214 255
187 214 255
187 214 255
187 214 255
187 214 255
187 214 255
187 214 255
187 214 255
187 214 255
187 214 255
187 214 255
186 214 255
186 214 255
186 214 255
186 214 255
186 214 255
186 214 255
186 214 255
186 214 255
186 214 255
186 214 255
186 214 255
186 214 255
186 214 255
186 214 255
186 214 255
186 214 255
186 214 255
186 214 255
186 214 255
186 214 255
186 214 255
186 214 255
186 214 255
186 214 255
186 214 255
186 214 255
186 214 255
186 214 255
186 214 255
186 214 255
186 214 255
186 214 255
186 214 255
186 214 255
186 214 255
186 214 255
186 214 255
186 214 255
186 214 255
186 214 255
186 214 255
185 213 255
185 213 255
185 213 255
185 213 255
185 213 255
185 213 255
185 213 255
185 213 255
185 213 255
185 213 255
185 213 255
185 213 255
185 213 255
185 213 255
185 213 255
185 213 255
185 213 255
185 213 255
185 213 255
185 213 255
185 213 255
185 213 255
185 213 255
185 213 255
185 213 255
185 213 255
185 213 255
185 213 255
185 213 255
185 213 255
185 213 255
185 213 255
185 213 255
185 213 255
185 213 255
184 213 255
184 213 255
184 213 255
184 213 255
184 213 255
184 213 255
184 213 255
184 213 255
184 213 255
184 213 255
184 213 255
184 213 255
184 213 255
184 213 255
157 182 220
64 79 102
57 72 94
71 87 110
63 79 101
67 82 105
67 83 107
71 87 112
63 78 101
66 82 105
63 79 102
64 79 102
66 81 104
65 81 104
64 79 102
66 81 103
62 78 100
66 81 103
64 78 100
67 83 107
64 80 104
69 85 108
67 83 106
68 83 107
68 83 105
67 82 106
67 83 106
66 81 103
64 79 101
63 77 99
65 80 104
66 81 105
66 80 103
72 88 113
68 83 106
65 80 101
64 79 102
63 78 100
66 81 103
63 78 100
68 84 107
64 80 103
69 85 108
63 79 102
63 78 101
66 81 103
66 82 105
67 83 106
65 81 104
65 80 103
64 79 101
65 80 103
70 86 110
64 78 100
67 82 105
63 78 101
63 78 101
66 81 103
60 74 96
65 80 103
68 84 108
59 73 95
65 80 104
69 85 108
63 79 102
67 82 105
67 81 104
67 81 103
61 75 97
70 85 108
69 84 107
64 79 103
64 78 100
66 82 104
65 80 104
65 80 104
65 80 103
63 78 101
69 85 109
62 78 101
69 84 107
70 87 112
67 82 104
69 84 106
63 77 100
66 81 104
69 85 109
64 79 101
65 80 102
65 79 101
67 83 106
66 81 103
66 81 104
63 77 99
67 82 105
70 86 109
67 82 104
64 80 103
64 78 100
66 81 104
67 82 104
67 82 104
67 83 106
66 81 103
66 81 104
67 83 107
64 78 99
65 80 102
67 82 104
70 86 110
66 81 104
60 74 96
62 76 98
72 88 112
63 78 100
66 81 104
66 81 103
66 81 104
67 82 104
67 82 105
60 76 100
69 85 108
70 86 110
70 85 109
66 81 105
65 80 102
71 87 112
161 187 226
184 213 255
184 213 255
184 213 255
184 213 255
184 213 255
184 213 255
184 213 255
184 213 255
184 213 255
184 213 255
184 213 255
184 213 255
184 213 255
185 213 255
185 213 255
185 213 255
185 213 255
185 213 255
185 213 255
185 213 255
185 213 255
185 213 255
185 213 255
185 213 255
185 213 255
185 213 255
185 213 255
185 213 255
185 213 255
185 213 255
185 213 255
185 213 255
185 213 255
185 213 255
185 213 255
185 213 255
185 213 255
185 213 255
185 213 255
185 213 255
185 213 255
185 213 255
185 213 255
185 213 255
185 213 255
185 213 255
185 213 255
185 213 255
185 213 255
186 214 255
186 214 255
186 214 255
186 214 255
186 214 255
186 214 255
186 214 255
186 214 255
186 214 255
186 214 255
186 214 255
186 214 255
186 214 255
186 214 255
186 214 255
186 214 255
186 214 255
186 214 255
186 214 255
186 214 255
186 214 255
186 214 255
186 214 255
186 214 255
186 214 255
186 214 255
186 214 255
186 214 255
186 214 255
186 214 255
186 214 255
186 214 255
186 214 255
186 214 255
186 214 255
186 214 255
186 214 255
186 214 255
186 214 255
186 214 255
186 214 255
186 214 255
187 214 255
187 214 255
187 214 255
187 214 255
187 214 255
187 214 255
187 214 255
187 214 255
187 214 255
187 214 255
187 214 255
187 214 255
187 214 255
187 214 255
187 214 255
187 214 255
187 214 255
187 214 255
187 214 255
187 214 255
187 214 255
187 214 255
187 214 255
187 214 255
187 214 255
187 214 255
187 214 255
187 214 255
187 214 255
187 214 255
187 214 255
187 214 255
187 214 255
187 214 255
187 214 255
187 214 255
187 215 255
187 215 255
187 215 255
187 215 255
187 215 255
187 215 255
187 215 255
187 215 255
187 215 255
188 215 255
188 215 255
188 215 255
188 215 255
188 215 255
188 215 255
187 215 255
188 215 255
187 215 255
187 215 255
187 215 255
187 215 255
187 215 255
187 215 255
187 215 255
187 215 255
187 215 255
187 215 255
187 215 255
187 215 255
187 215 255
187 215 255
187 215 255
187 215 255
187 215 255
187 215 255
187 215 255
187 214 255
187 214 255
187 214 255
187 214 255
187 214 255
187 214 255
187 214 255
187 214 255
187 214 255
187 214 255
187 214 255
187 214 255
187 214 255
187 214 255
187 214 255
187 214 255
187 214 255
187 214 255
187 214 255
187 214 255
187 214 255
187 214 255
187 214 255
187 214 255
187 214 255
187 214 255
187 214 255
187 214 255
187 214 255
187 214 255
187 214 255
187 214 255
187 214 255
187 214 255
186 214 255
186 214 255
186 214 255
186 214 255
186 214 255
186 214 255
186 214 255
186 214 255
186 214 255
186 214 255
186 214 255
186 214 255
186 214 255
186 214 255
186 214 255
186 214 255
186 214 255
186 214 255
186 214 255
186 214 255
186 214 255
186 214 255
186 214 255
186 214 255
186 214 255
186 214 255
186 214 255
186 214 255
186 214 255
186 214 255
186 214 255
186 214 255
186 214 255
186 214 255
186 214 255
186 214 255
186 214 255
186 214 255
186 214 255
186 214 255
186 214 255
186 214 255
185 213 255
185 213 255
185 213 255
185 213 255
185 213 255
185 213 255
185 213 255
185 213 255
185 213 255
185 213 255
185 213 255
185 213 255
185 213 255
185 213 255
185 213 255
185 213 255
185 213 255
185 213 255
185 213 255
185 213 255
185 213 255
185 213 255
185 213 255
185 213 255
185 213 255
185 213 255
185 213 255
185 213 255
185 213 255
185 213 255
185 213 255
185 213 255
185 213 255
139 162 198
65 79 101
63 78 101
68 84 109
68 84 107
64 79 102
67 83 108
66 82 106
63 79 102
64 80 104
64 78 99
61 77 100
65 80 102
61 76 98
64 79 102
66 81 104
70 85 108
67 82 105
66 81 104
60 74 96
65 80 103
68 84 107
69 85 108
64 78 101
68 84 106
68 83 106
67 82 106
64 79 101
63 79 102
63 78 100
66 82 106
64 79 102
59 74 96
67 83 105
68 83 107
65 81 103
64 78 100
65 81 103
65 80 103
63 78 100
69 85 110
69 85 109
65 80 103
64 79 102
67 83 106
64 79 102
69 84 107
62 77 98
69 85 109
70 85 107
65 80 103
64 79 102
61 75 97
64 80 103
65 80 103
63 77 99
65 80 103
66 81 103
65 80 103
67 82 105
69 85 108
65 80 103
64 78 100
66 82 105
63 77 100
67 82 105
64 79 102
63 78 100
65 80 102
66 82 106
65 80 102
59 74 96
65 80 103
64 79 102
68 84 107
62 77 99
63 79 102
67 84 109
66 82 106
73 88 112
63 78 101
64 79 102
65 80 103
63 78 99
65 79 101
67 82 105
65 80 102
68 84 109
65 80 103
61 75 96
67 82 105
65 80 102
66 81 104
64 79 101
66 81 103
61 75 96
65 80 103
67 82 105
62 77 99
66 82 105
67 82 106
65 81 104
65 80 102
66 81 103
66 80 102
63 78 99
69 84 106
65 80 103
67 82 105
65 80 104
65 80 101
61 75 96
68 83 105
66 82 105
64 79 103
66 81 102
69 84 107
66 81 104
63 79 102
67 83 106
66 81 104
66 82 106
68 84 109
63 79 103
65 81 104
66 81 104
67 83 106
123 145 177
185 213 255
185 213 255
185 213 255
185 213 255
185 213 255
185 213 255
185 213 255
185 213 255
185 213 255
185 213 255
185 213 255
185 213 255
185 213 255
185 213 255
185 213 255
185 213 255
185 213 255
185 213 255
185 213 255
185 213 255
185 213 255
185 213 255
185 213 255
185 213 255
185 213 255
185 213 255
185 213 255
185 213 255
185 213 255
185 213 255
185 213 255
185 213 255
185 213 255
186 214 255
186 214 255
186 214 255
186 214 255
186 214 255
186 214 255
186 214 255
186 214 255
186 214 255
186 214 255
186 214 255
186 214 255
186 214 255
186 214 255
186 214 255
186 214 255
186 214 255
186 214 255
186 214 255
186 214 255
186 214 255
186 214 255
186 214 255
186 214 255
186 214 255
186 214 255
186 214 255
186 214 255
186 214 255
186 214 255
186 214 255
186 214 255
186 214 255
186 214 255
186 214 255
186 214 255
186 214 255
186 214 255
186 214 255
186 214 255
186 214 255
186 214 255
187 214 255
187 214 255
187 214 255
187 214 255
187 214 255
187 214 255
187 214 255
187 214 255
187 214 255
187 214 255
187 214 255
187 214 255
187 214 255
187 214 255
187 214 255
187 214 255
187 214 255
187 214 255
187 214 255
187 214 255
187 214 255
187 214 255
187 214 255
187 214 255
187 214 255
187 214 255
187 214 255
187 214 255
187 214 255
187 214 255
187 214 255
187 214 255
187 214 255
187 215 255
187 215 255
187 215 255
187 215 255
187 215 255
187 215 255
187 215 255
187 215 255
187 215 255
187 215 255
187 215 255
187 215 255
187 215 255
187 215 255
187 215 255
187 215 255
187 215 255
187 215 255
187 215 255
187 215 255
188 215 255
188 215 255
188 215 255
188 215 255
188 215 255
188 215 255
188 215 255
188 215 255
188 215 255
188 215 255
188 215 255
188 215 255
188 215 255
188 215 255
188 215 255
188 215 255
188 215 255
188 215 255
188 215 255
188 215 255
188 215 255
188 215 255
188 215 255
188 215 255
188 215 255
188 215 255
188 215 255
188 215 255
188 215 255
188 215 255
188 215 255
188 215 255
188 215 255
188 215 255
187 215 255
187 215 255
187 215 255
187 215 255
187 215 255
187 215 255
187 215 255
187 215 255
187 215 255
187 215 255
187 215 255
187 215 255
187 215 255
187 215 255
187 215 255
187 215 255
187 215 255
187 215 255
187 215 255
187 214 255
187 214 255
187 214 255
187 214 255
187 214 255
187 214 255
187 214 255
187 214 255
187 214 255
187 214 255
187 214 255
187 214 255
187 214 255
187 214 255
187 214 255
187 214 255
187 214 255
187 214 255
187 214 255
187 214 255
187 214 255
187 214 255
187 214 255
187 214 255
187 214 255
187 214 255
187 214 255
187 214 255
187 214 255
187 214 255
187 214 255
187 214 255
187 214 255
186 214 255
186 214 255
186 214 255
186 214 255
186 214 255
186 214 255
186 214 255
186 214 255
186 214 255
186 214 255
186 214 255
186 214 255
186 214 255
186 214 255
186 214 255
186 214 255
186 214 255
186 214 255
186 214 255
186 214 255
186 214 255
186 214 255
186 214 255
186 214 255
186 214 255
186 214 255
186 214 255
186 214 255
186 214 255
186 214 255
186 214 255
186 214 255
186 214 255
186 214 255
186 214 255
186 214 255
186 214 255
186 214 255
186 214 255
186 214 255
186 214 255
186 214 255
185 213 255
185 213 255
185 213 255
185 213 255
185 213 255
185 213 255
185 213 255
185 213 255
185 213 255
185 213 255
185 213 255
185 213 255
185 213 255
185 213 255
185 213 255
185 213 255
107 126 156
65 81 105
61 75 97
66 82 105
65 79 102
63 78 100
65 81 104
65 81 104
66 81 104
63 78 101
69 85 108
67 82 105
65 79 101
67 83 106
64 79 102
66 81 103
66 82 105
67 82 105
68 83 107
64 78 100
66 81 104
64 78 100
65 81 104
66 80 101
68 83 106
67 82 105
63 78 100
70 86 110
63 77 100
70 85 107
66 82 105
64 79 102
63 78 100
68 83 107
62 76 97
67 82 105
67 82 104
67 83 106
67 82 105
63 77 99
67 81 104
65 80 104
67 83 106
69 85 108
61 77 99
66 81 105
69 85 109
66 81 105
66 81 103
65 80 103
65 80 103
62 77 100
67 83 105
66 81 104
58 71 92
62 77 99
64 79 102
64 80 103
64 80 103
66 81 105
63 78 100
67 82 105
68 83 106
64 79 102
68 83 106
61 75 97
63 77 98
67 82 105
67 83 106
64 79 102
65 81 104
63 77 98
63 77 99
70 85 109
58 73 94
62 78 101
67 83 105
63 78 99
67 83 107
65 81 105
71 86 108
70 86 109
64 79 102
61 76 98
67 82 104
67 83 106
69 84 107
61 75 97
63 77 99
69 84 107
64 79 101
66 81 105
68 83 107
60 75 98
63 78 100
71 86 109
67 82 104
64 80 102
66 81 103
67 82 104
64 79 101
62 77 100
63 78 101
63 78 100
69 83 105
68 85 109
65 80 103
61 76 99
70 85 109
66 82 104
65 80 103
67 83 107
66 82 105
64 79 102
64 79 101
66 82 105
66 81 104
65 80 103
67 82 105
67 82 104
65 80 103
68 84 107
63 77 98
66 82 105
66 81 104
61 76 97
68 84 108
110 130 161
185 213 255
185 213 255
185 213 255
185 213 255
185 213 255
185 213 255
185 213 255
185 213 255
185 213 255
185 213 255
185 213 255
185 213 255
185 213 255
185 213 255
185 213 255
185 213 255
186 214 255
186 214 255
186 214 255
186 214 255
186 214 255
186 214 255
186 214 255
186 214 255
186 214 255
186 214 255
186 214 255
186 214 255
186 214 255
186 214 255
186 214 255
186 214 255
186 214 255
186 214 255
186 214 255
186 214 255
186 214 255
186 214 255
186 214 255
186 214 255
186 214 255
186 214 255
186 214 255
186 214 255
186 214 255
186 214 255
186 214 255
186 214 255
186 214 255
186 214 255
186 214 255
186 214 255
186 214 255
186 214 255
186 214 255
186 214 255
186 214 255
186 214 255
187 214 255
187 214 255
187 214 255
187 214 255
187 214 255
187 214 255
187 214 255
187 214 255
187 214 255
187 214 255
187 214 255
187 214 255
187 214 255
187 214 255
187 214 255
187 214 255
187 214 255
187 214 255
187 214 255
187 214 255
187 214 255
187 214 255
187 214 255
187 214 255
187 214 255
187 214 255
187 214 255
187 214 255
187 214 255
187 214 255
187 214 255
187 214 255
187 214 255
187 214 255
187 215 255
187 215 255
187 215 255
187 215 255
187 215 255
187 215 255
187 215 255
187 215 255
187 215 255
187 215 255
187 215 255
187 215 255
187 215 255
187 215 255
187 215 255
187 215 255
187 215 255
187 215 255
187 215 255
188 215 255
188 215 255
188 215 255
188 215 255
188 215 255
188 215 255
188 215 255
188 215 255
188 215 255
188 215 255
188 215 255
188 215 255
188 215 255
188 215 255
188 215 255
188 215 255
188 215 255
188 215 255
188 215 255
188 215 255
188 215 255
188 215 255
188 215 255
188 215 255
188 215 255
188 215 255
188 215 255
188 215 255
188 215 255
188 215 255
188 215 255
188 215 255
188 215 255
188 215 255
188 215 255
188 215 255
188 215 255
188 215 255
188 215 255
188 215 255
188 215 255
188 215 255
188 215 255
188 215 255
188 215 255
188 215 255
188 215 255
188 215 255
188 215 255
188 215 255
188 215 255
188 215 255
188 215 255
188 215 255
188 215 255
188 215 255
188 215 255
188 215 255
188 215 255
188 215 255
188 215 255
188 215 255
188 215 255
188 215 255
188 215 255
188 215 255
188 215 255
188 215 255
188 215 255
188 215 255
187 215 255
187 215 255
187 215 255
187 215 255
187 215 255
187 215 255
187 215 255
187 215 255
187 215 255
187 215 255
187 215 255
187 215 255
187 215 255
187 215 255
187 215 255
187 215 255
187 215 255
187 215 255
187 214 255
187 214 255
187 214 255
187 214 255
187 214 255
187 214 255
187 214 255
187 214 255
187 214 255
187 214 255
187 214 255
187 214 255
187 214 255
187 214 255
187 214 255
187 214 255
187 214 255
187 214 255
187 214 255
187 214 255
187 214 255
187 214 255
187 214 255
187 214 255
187 214 255
187 214 255
187 214 255
187 214 255
187 214 255
187 214 255
187 214 255
187 214 255
186 214 255
187 214 255
186 214 255
186 214 255
186 214 255
186 214 255
186 214 255
186 214 255
186 214 255
186 214 255
186 214 255
186 214 255
186 214 255
186 214 255
186 214 255
186 214 255
186 214 255
186 214 255
186 214 255
186 214 255
186 214 255
186 214 255
186 214 255
186 214 255
186 214 255
186 214 255
186 214 255
186 214 255
186 214 255
186 214 255
186 214 255
186 214 255
186 214 255
186 214 255
186 214 255
186 214 255
186 214 255
186 214 255
186 214 255
186 214 255
186 214 255
96 114 142
67 82 106
65 80 104
67 83 106
63 77 100
69 85 108
62 77 99
66 81 104
66 82 106
66 80 102
68 83 107
67 83 106
64 79 102
64 79 102
70 86 109
70 85 107
65 80 103
67 83 106
68 82 103
70 86 110
65 81 104
67 82 105
63 78 101
64 79 100
67 83 106
65 81 104
64 79 102
62 77 100
59 73 95
65 80 102
62 77 99
67 83 106
66 81 104
68 83 107
65 80 102
63 77 99
66 81 102
68 83 105
68 84 107
65 80 103
68 82 104
67 83 106
65 80 103
67 82 106
69 85 110
64 80 103
68 84 109
68 84 107
69 84 107
65 79 101
69 85 109
65 80 103
64 80 103
64 79 102
65 80 103
67 83 106
64 79 101
62 77 100
59 74 96
63 78 100
67 82 104
69 86 110
65 80 103
69 84 106
69 84 106
62 77 101
65 80 103
63 78 100
62 77 99
62 77 99
64 79 101
65 80 104
68 83 106
63 78 101
66 81 104
63 78 101
68 84 107
68 82 105
64 78 101
66 81 104
69 85 108
66 81 103
67 82 105
62 77 99
64 78 100
67 81 103
69 85 108
63 78 100
65 81 104
72 88 113
65 81 104
63 78 100
63 77 98
65 80 102
63 78 100
64 79 102
66 82 104
64 80 102
62 76 98
65 79 101
64 80 103
65 80 103
66 81 103
65 81 105
64 79 101
62 76 98
67 82 106
62 77 98
62 77 99
68 83 105
66 82 105
62 77 99
65 80 102
64 79 102
67 82 105
67 82 104
63 78 101
70 86 109
65 80 103
67 83 108
66 81 103
68 84 107
66 81 103
64 79 101
68 84 107
67 83 107
62 76 98
87 104 130
186 214 255
186 214 255
186 214 255
186 214 255
186 214 255
186 214 255
186 214 255
186 214 255
186 214 255
186 214 255
186 214 255
186 214 255
186 214 255
186 214 255
186 214 255
186 214 255
186 214 255
186 214 255
186 214 255
186 214 255
186 214 255
186 214 255
186 214 255
186 214 255
186 214 255
186 214 255
186 214 255
186 214 255
186 214 255
186 214 255
186 214 255
186 214 255
186 214 255
186 214 255
186 214 255
186 214 255
186 214 255
186 214 255
186 214 255
186 214 255
187 214 255
187 214 255
187 214 255
187 214 255
187 214 255
187 214 255
187 214 255
187 214 255
187 214 255
187 214 255
187 214 255
187 214 255
187 214 255
187 214 255
187 214 255
187 214 255
187 214 255
187 214 255
187 214 255
187 214 255
187 214 255
187 214 255
187 214 255
187 214 255
187 214 255
187 214 255
187 214 255
187 214 255
187 214 255
187 214 255
187 214 255
187 214 255
187 214 255
187 215 255
187 215 255
187 215 255
187 215 255
187 215 255
187 215 255
187 215 255
187 215 255
187 215 255
187 215 255
187 215 255
187 215 255
187 215 255
187 215 255
187 215 255
187 215 255
187 215 255
188 215 255
188 215 255
188 215 255
188 215 255
188 215 255
188 215 255
188 215 255
188 215 255
188 215 255
188 215 255
188 215 255
188 215 255
188 215 255
188 215 255
188 215 255
188 215 255
188 215 255
188 215 255
188 215 255
188 215 255
188 215 255
188 215 255
188 215 255
188 215 255
188 215 255
188 215 255
188 215 255
188 215 255
188 215 255
188 215 255
188 215 255
188 215 255
188 215 255
188 215 255
188 215 255
188 215 255
188 215 255
188 215 255
188 215 255
188 215 255
188 215 255
188 215 255
188 215 255
188 215 255
188 215 255
188 215 255
188 215 255
188 215 255
188 215 255
188 215 255
188 215 255
188 215 255
188 215 255
188 215 255
188 215 255
188 215 255
188 215 255
188 215 255
188 215 255
188 215 255
188 215 255
188 215 255
188 215 255
188 215 255
188 215 255
188 215 255
188 215 255
188 215 255
188 215 255
188 215 255
188 215 255
188 215 255
188 215 255
188 215 255
188 215 255
188 215 255
188 215 255
188 215 255
188 215 255
188 215 255
188 215 255
188 215 255
188 215 255
188 215 255
188 215 255
188 215 255
188 215 255
188 215 255
188 215 255
188 215 255
188 215 255
188 215 255
188 215 255
188 215 255
188 215 255
188 215 255
188 215 255
188 215 255
188 215 255
188 215 255
188 215 255
188 215 255
188 215 255
188 215 255
188 215 255
188 215 255
188 215 255
188 215 255
188 215 255
188 215 255
188 215 255
187 215 255
187 215 255
187 215 255
187 215 255
187 215 255
187 215 255
187 215 255
187 215 255
187 215 255
187 215 255
187 215 255
187 215 255
187 215 255
187 215 255
187 215 255
187 215 255
187 215 255
187 215 255
187 214 255
187 214 255
187 214 255
187 214 255
187 214 255
187 214 255
187 214 255
187 214 255
187 214 255
187 214 255
187 214 255
187 214 255
187 214 255
187 214 255
187 214 255
187 214 255
187 214 255
187 214 255
187 214 255
187 214 255
187 214 255
187 214 255
187 214 255
187 214 255
187 214 255
187 214 255
187 214 255
187 214 255
187 214 255
187 214 255
187 214 255
187 214 255
186 214 255
186 214 255
186 214 255
186 214 255
186 214 255
186 214 255
186 214 255
186 214 255
186 214 255
186 214 255
186 214 255
186 214 255
186 214 255
186 214 255
186 214 255
186 214 255
186 214 255
186 214 255
186 214 255
186 214 255
186 214 255
62 78 101
67 81 104
68 83 106
62 77 99
64 79 101
65 79 101
63 78 100
62 78 101
63 77 98
64 79 101
63 77 99
66 81 103
63 78 100
64 79 101
65 81 104
62 77 99
66 81 103
64 79 102
65 80 103
62 78 101
66 81 104
67 82 106
66 81 105
65 79 101
63 78 101
66 81 104
59 74 96
63 77 100
62 78 102
63 78 102
65 80 103
63 78 100
66 81 104
65 80 103
62 76 99
63 78 100
64 79 100
66 81 104
68 84 107
63 78 101
65 80 102
64 80 104
63 77 98
64 78 100
61 76 98
67 83 105
65 80 103
66 81 104
64 79 101
66 82 105
62 76 97
64 79 101
67 82 105
65 81 103
68 82 105
67 82 105
66 81 103
64 79 102
66 81 104
64 78 100
71 86 110
66 80 102
67 81 102
69 84 107
67 82 103
66 80 102
69 85 109
65 80 103
68 83 106
68 83 105
67 82 105
69 84 107
62 77 100
60 74 96
65 80 103
66 82 106
68 82 105
59 73 93
65 80 101
64 79 100
61 76 98
69 85 108
68 83 106
68 84 107
65 79 101
66 80 102
64 78 100
62 77 99
70 85 109
68 84 108
60 75 96
66 82 106
68 83 106
64 78 100
62 77 99
62 76 96
66 82 105
66 82 106
65 80 102
66 81 103
69 84 108
67 82 104
67 82 104
66 81 103
66 81 103
63 78 101
71 87 111
65 79 101
62 77 100
65 80 104
66 81 104
65 80 102
64 79 101
62 77 99
66 81 104
67 82 104
62 77 100
66 82 105
59 73 94
69 84 107
69 85 108
62 76 97
68 84 107
63 78 100
67 83 106
63 78 101
67 82 106
73 89 114
183 211 252
186 214 255
186 214 255
186 214 255
186 214 255
186 214 255
186 214 255
186 214 255
186 214 255
186 214 255
186 214 255
186 214 255
186 214 255
186 214 255
186 214 255
186 214 255
186 214 255
186 214 255
186 214 255
186 214 255
187 214 255
187 214 255
187 214 255
187 214 255
187 214 255
187 214 255
187 214 255
187 214 255
187 214 255
187 214 255
187 214 255
187 214 255
187 214 255
187 214 255
187 214 255
187 214 255
187 214 255
187 214 255
187 214 255
187 214 255
187 214 255
187 214 255
187 214 255
187 214 255
187 214 255
187 214 255
187 214 255
187 214 255
187 214 255
187 214 255
187 214 255
187 214 255
187 214 255
187 215 255
187 215 255
187 215 255
187 215 255
187 215 255
187 215 255
187 215 255
187 215 255
187 215 255
187 215 255
187 215 255
187 215 255
187 215 255
187 215 255
187 215 255
187 215 255
187 215 255
187 215 255
187 215 255
188 215 255
188 215 255
188 215 255
188 215 255
188 215 255
188 215 255
188 215 255
188 215 255
188 215 255
188 215 255
188 215 255
188 215 255
188 215 255
188 215 255
188 215 255
188 215 255
188 215 255
188 215 255
188 215 255
188 215 255
188 215 255
188 215 255
188 215 255
188 215 255
188 215 255
188 215 255
188 215 255
188 215 255
188 215 255
188 215 255
188 215 255
188 215 255
188 215 255
188 215 255
188 215 255
188 215 255
188 215 255
188 215 255
188 215 255
188 215 255
188 215 255
188 215 255
188 215 255
188 215 255
188 215 255
188 215 255
188 215 255
188 215 255
188 215 255
188 215 255
188 215 255
188 215 255
188 215 255
188 215 255
188 215 255
188 215 255
188 215 255
188 215 255
188 215 255
188 215 255
188 215 255
188 215 255
188 215 255
188 215 255
189 215 255
189 215 255
189 215 255
189 215 255
189 215 255
189 215 255
189 215 255
189 215 255
189 215 255
189 215 255
189 215 255
189 215 255
189 215 255
189 215 255
189 215 255
189 215 255
189 215 255
189 215 255
189 215 255
188 215 255
188 215 255
188 215 255
188 215 255
188 215 255
188 215 255
188 215 255
188 215 255
188 215 255
188 215 255
188 215 255
188 215 255
188 215 255
188 215 255
188 215 255
188 215 255
188 215 255
188 215 255
188 215 255
188 215 255
188 215 255
188 215 255
188 215 255
188 215 255
188 215 255
188 215 255
188 215 255
188 215 255
188 215 255
188 215 255
188 215 255
188 215 255
188 215 255
188 215 255
188 215 255
188 215 255
188 215 255
188 215 255
188 215 255
188 215 255
188 215 255
188 215 255
188 215 255
188 215 255
188 215 255
188 215 255
188 215 255
188 215 255
188 215 255
188 215 255
188 215 255
188 215 255
188 215 255
188 215 255
188 215 255
188 215 255
188 215 255
188 215 255
188 215 255
188 215 255
188 215 255
188 215 255
188 215 255
188 215 255
188 215 255
188 215 255
188 215 255
188 215 255
187 215 255
187 215 255
187 215 255
187 215 255
187 215 255
187 215 255
187 215 255
187 215 255
187 215 255
187 215 255
187 215 255
187 215 255
187 215 255
187 215 255
187 215 255
187 215 255
187 215 255
187 214 255
187 215 255
187 214 255
187 214 255
187 214 255
187 214 255
187 214 255
187 214 255
187 214 255
187 214 255
187 214 255
187 214 255
187 214 255
187 214 255
187 214 255
187 214 255
187 214 255
187 214 255
187 214 255
187 214 255
187 214 255
187 214 255
187 214 255
187 214 255
187 214 255
187 214 255
187 214 255
187 214 255
187 214 255
187 214 255
187 214 255
161 186 224
64 79 102
66 81 103
71 87 111
67 82 105
68 83 106
64 79 101
67 82 105
66 81 103
66 82 105
64 80 103
62 77 98
65 80 103
66 81 104
63 78 100
67 82 104
67 83 106
63 79 101
70 86 109
71 87 110
65 80 103
69 84 108
67 83 106
65 79 101
66 81 104
67 81 103
63 78 101
65 80 103
68 84 108
63 78 101
66 81 103
67 81 102
64 80 102
62 76 98
72 88 112
71 86 109
64 80 103
67 81 103
63 77 99
65 80 102
64 79 100
65 80 102
66 81 104
68 82 103
61 76 97
67 81 103
70 86 111
66 81 104
68 84 108
66 81 103
68 83 105
66 81 105
63 78 100
64 78 100
66 81 104
64 79 101
67 82 104
66 81 104
65 81 103
63 78 100
67 82 104
68 83 106
71 86 109
68 83 106
62 77 99
66 81 103
61 76 98
66 81 103
62 77 100
62 76 97
68 82 104
67 81 103
64 79 102
65 81 104
70 85 107
61 75 97
66 81 102
67 81 103
61 76 98
61 75 97
63 78 100
65 79 101
64 79 102
68 82 104
70 85 108
64 79 101
69 83 105
66 81 105
63 77 99
65 80 101
61 76 98
61 76 97
65 80 103
60 73 94
66 81 104
67 82 106
60 74 95
65 79 101
64 79 101
64 78 100
61 75 96
67 81 103
64 79 102
66 81 104
65 80 102
64 79 100
63 78 101
67 83 107
60 75 98
70 86 110
63 78 100
70 86 109
64 79 102
64 79 100
64 79 101
64 79 102
60 75 96
64 79 101
61 76 99
70 86 109
64 78 100
67 82 104
68 83 106
64 79 102
65 80 103
70 86 110
64 79 102
64 79 101
67 82 105
163 188 226
187 214 255
187 214 255
187 214 255
187 214 255
187 214 255
187 214 255
187 214 255
187 214 255
187 214 255
187 214 255
187 214 255
187 214 255
187 214 255
187 214 255
187 214 255
187 214 255
187 214 255
187 214 255
187 214 255
187 214 255
187 214 255
187 214 255
187 214 255
187 214 255
187 214 255
187 214 255
187 214 255
187 214 255
187 214 255
187 214 255
187 215 255
187 214 255
187 215 255
187 215 255
187 215 255
187 215 255
187 215 255
187 215 255
187 215 255
187 215 255
187 215 255
187 215 255
187 215 255
187 215 255
187 215 255
187 215 255
187 215 255
187 215 255
188 215 255
188 215 255
188 215 255
188 215 255
188 215 255
188 215 255
188 215 255
188 215 255
188 215 255
188 215 255
188 215 255
188 215 255
188 215 255
188 215 255
188 215 255
188 215 255
188 215 255
188 215 255
188 215 255
188 215 255
188 215 255
188 215 255
188 215 255
188 215 255
188 215 255
188 215 255
188 215 255
188 215 255
188 215 255
188 215 255
188 215 255
188 215 255
188 215 255
188 215 255
188 215 255
188 215 255
188 215 255
188 215 255
188 215 255
188 215 255
188 215 255
188 215 255
188 215 255
188 215 255
188 215 255
188 215 255
188 215 255
188 215 255
188 215 255
188 215 255
188 215 255
188 215 255
188 215 255
188 215 255
188 215 255
188 215 255
188 215 255
188 215 255
188 215 255
188 215 255
188 215 255
188 215 255
188 215 255
188 215 255
188 215 255
188 215 255
188 215 255
188 215 255
189 215 255
189 215 255
189 215 255
189 215 255
189 215 255
189 215 255
189 215 255
189 215 255
189 215 255
189 215 255
189 215 255
189 215 255
189 215 255
189 215 255
189 215 255
189 215 255
189 215 255
189 215 255
189 215 255
189 216 255
189 216 255
189 216 255
189 216 255
189 216 255
189 216 255
189 216 255
189 216 255
189 216 255
189 216 255
189 216 255
189 216 255
189 216 255
189 216 255
189 216 255
189 216 255
189 216 255
189 215 255
189 215 255
189 215 255
189 215 255
189 215 255
189 215 255
189 215 255
189 215 255
189 215 255
189 215 255
189 215 255
189 215 255
189 215 255
189 215 255
189 215 255
189 215 255
189 215 255
189 215 255
189 215 255
189 215 255
189 215 255
189 215 255
189 215 255
189 215 255
189 215 255
189 215 255
189 215 255
188 215 255
188 215 255
188 215 255
188 215 255
188 215 255
188 215 255
188 215 255
188 215 255
188 215 255
188 215 255
188 215 255
188 215 255
188 215 255
188 215 255
188 215 255
188 215 255
188 215 255
188 215 255
188 215 255
188 215 255
188 215 255
188 215 255
188 215 255
188 215 255
188 215 255
188 215 255
188 215 255
188 215 255
188 215 255
188 215 255
188 215 255
188 215 255
188 215 255
188 215 255
188 215 255
188 215 255
188 215 255
188 215 255
188 215 255
188 215 255
188 215 255
188 215 255
188 215 255
188 215 255
188 215 255
188 215 255
188 215 255
188 215 255
188 215 255
188 215 255
188 215 255
188 215 255
188 215 255
188 215 255
188 215 255
188 215 255
188 215 255
188 215 255
188 215 255
188 215 255
188 215 255
188 215 255
188 215 255
188 215 255
188 215 255
188 215 255
188 215 255
187 215 255
187 215 255
187 215 255
187 215 255
187 215 255
187 215 255
187 215 255
187 215 255
187 215 255
187 215 255
187 215 255
187 215 255
187 215 255
187 215 255
187 215 255
187 215 255
187 215 255
187 215 255
187 215 255
187 214 255
187 214 255
187 214 255
187 214 255
187 214 255
144 166 200
68 83 106
64 78 100
64 79 102
70 86 110
69 84 106
64 79 101
61 76 98
68 83 107
63 78 100
66 81 103
64 79 101
62 78 101
69 84 105
66 80 102
61 75 96
61 76 97
63 79 102
63 78 99
66 82 104
62 76 98
62 77 99
59 74 96
60 74 94
69 85 108
65 80 103
65 80 102
65 80 101
64 79 103
67 83 105
65 80 102
67 83 106
59 73 95
66 81 105
68 83 105
61 75 95
62 76 97
67 83 107
62 78 100
65 81 104
65 80 101
65 80 102
60 75 98
59 73 94
63 78 100
62 77 99
68 83 106
62 76 98
62 76 98
67 81 103
60 74 95
67 82 105
67 82 105
64 79 100
65 80 103
64 79 102
64 78 99
59 73 95
67 82 105
68 83 105
64 79 102
67 82 106
68 84 107
65 80 103
69 84 106
66 81 104
70 85 107
65 80 102
64 79 102
66 81 104
60 74 95
64 78 100
60 74 96
63 78 101
69 85 108
66 81 104
65 80 102
69 84 108
65 79 101
66 81 103
66 81 103
65 80 102
64 79 101
59 72 92
65 80 103
63 78 100
64 78 101
64 79 101
63 77 99
64 79 102
64 79 101
67 83 106
61 76 98
66 82 107
60 75 96
65 80 102
62 77 100
61 76 99
61 76 99
67 82 105
63 77 98
67 83 105
64 79 101
63 78 101
62 76 98
63 78 101
64 79 100
64 79 101
61 75 96
66 80 102
61 76 98
62 78 100
65 80 103
69 84 107
66 81 104
68 84 109
65 80 102
70 85 109
59 73 94
65 80 103
68 84 108
64 78 99
67 82 104
67 81 103
69 85 108
68 84 107
66 81 104
61 76 99
61 76 98
156 180 217
187 214 255
187 214 255
187 214 255
187 214 255
187 214 255
187 215 255
187 215 255
187 215 255
187 215 255
187 215 255
187 215 255
187 215 255
187 215 255
187 215 255
187 215 255
187 215 255
187 215 255
187 215 255
187 215 255
187 215 255
187 215 255
187 215 255
187 215 255
187 215 255
187 215 255
188 215 255
188 215 255
188 215 255
188 215 255
188 215 255
188 215 255
188 215 255
188 215 255
188 215 255
188 215 255
188 215 255
188 215 255
188 215 255
188 215 255
188 215 255
188 215 255
188 215 255
188 215 255
188 215 255
188 215 255
188 215 255
188 215 255
188 215 255
188 215 255
188 215 255
188 215 255
188 215 255
188 215 255
188 215 255
188 215 255
188 215 255
188 215 255
188 215 255
188 215 255
188 215 255
188 215 255
188 215 255
188 215 255
188 215 255
188 215 255
188 215 255
188 215 255
188 215 255
188 215 255
188 215 255
188 215 255
188 215 255
188 215 255
188 215 255
188 215 255
188 215 255
188 215 255
188 215 255
188 215 255
188 215 255
188 215 255
188 215 255
188 215 255
188 215 255
188 215 255
188 215 255
188 215 255
188 215 255
188 215 255
188 215 255
188 215 255
189 215 255
189 215 255
189 215 255
189 215 255
189 215 255
189 215 255
189 215 255
189 215 255
189 215 255
189 215 255
189 215 255
189 215 255
189 215 255
189 215 255
189 215 255
189 215 255
189 215 255
189 215 255
189 215 255
189 215 255
189 215 255
189 215 255
189 215 255
189 215 255
189 215 255
189 215 255
189 215 255
189 216 255
189 216 255
189 215 255
189 216 255
189 216 255
189 216 255
189 216 255
189 216 255
189 216 255
189 216 255
189 216 255
189 216 255
189 216 255
189 216 255
189 216 255
189 216 255
189 216 255
189 216 255
189 216 255
189 216 255
189 216 255
189 216 255
189 216 255
189 216 255
189 216 255
189 216 255
189 216 255
189 216 255
189 216 255
189 216 255
189 216 255
189 216 255
189 216 255
189 216 255
189 216 255
189 216 255
189 216 255
189 216 255
189 216 255
189 216 255
189 216 255
189 216 255
189 216 255
189 216 255
189 216 255
189 216 255
189 216 255
189 216 255
189 216 255
189 216 255
189 216 255
189 216 255
189 216 255
189 216 255
189 216 255
189 216 255
189 216 255
189 216 255
189 216 255
189 216 255
189 216 255
189 215 255
189 215 255
189 215 255
189 215 255
189 215 255
189 215 255
189 215 255
189 215 255
189 215 255
189 215 255
189 215 255
189 215 255
189 215 255
189 215 255
189 215 255
189 215 255
189 215 255
189 215 255
189 215 255
189 215 255
189 215 255
189 215 255
189 215 255
189 215 255
189 215 255
189 215 255
189 215 255
189 215 255
188 215 255
188 215 255
188 215 255
188 215 255
188 215 255
188 215 255
188 215 255
188 215 255
188 215 255
188 215 255
188 215 255
188 215 255
188 215 255
188 215 255
188 215 255
188 215 255
188 215 255
188 215 255
188 215 255
188 215 255
188 215 255
188 215 255
188 215 255
188 215 255
188 215 255
188 215 255
188 215 255
188 215 255
188 215 255
188 215 255
188 215 255
188 215 255
188 215 255
188 215 255
188 215 255
188 215 255
188 215 255
188 215 255
188 215 255
188 215 255
188 215 255
188 215 255
188 215 255
188 215 255
188 215 255
188 215 255
188 215 255
188 215 255
188 215 255
188 215 255
188 215 255
188 215 255
188 215 255
188 215 255
188 215 255
188 215 255
188 215 255
188 215 255
188 215 255
188 215 255
188 215 255
188 215 255
188 215 255
144 167 201
68 84 108
65 80 103
63 78 100
64 79 102
60 75 96
67 82 105
67 82 104
65 80 101
60 76 99
66 81 104
62 76 98
67 82 104
65 80 102
64 78 100
66 81 104
66 81 103
65 80 103
65 80 102
62 77 98
64 78 101
64 79 102
61 76 99
65 81 104
67 82 104
66 81 102
57 71 91
68 82 104
64 78 100
62 77 98
64 78 100
65 80 103
65 80 103
68 83 106
64 78 101
66 81 104
61 75 96
63 77 99
61 76 98
66 81 104
65 81 105
62 78 100
67 82 105
63 78 100
67 82 106
63 77 99
66 80 102
67 81 102
65 80 102
70 85 108
67 83 106
62 77 99
62 77 100
65 80 102
62 77 99
65 80 103
66 80 103
64 78 100
67 82 104
66 80 102
66 81 103
63 78 100
67 81 103
66 81 103
64 79 100
64 79 101
60 73 94
66 81 103
57 72 93
69 85 108
65 81 104
63 79 103
62 76 98
65 80 102
66 81 103
68 83 105
65 80 102
61 75 96
65 80 102
64 79 102
66 81 103
67 83 106
65 80 104
63 78 100
64 79 101
67 82 104
63 77 100
65 81 104
64 79 100
66 80 102
65 80 103
68 83 105
67 82 105
65 80 103
61 75 96
60 75 97
64 79 101
58 72 93
65 80 103
63 77 98
65 80 103
65 80 102
65 81 105
63 78 100
58 72 94
68 83 104
65 80 101
68 83 105
62 77 99
65 80 103
68 84 107
63 78 99
65 79 101
62 77 98
63 77 99
69 85 109
64 79 102
63 78 100
61 76 99
67 83 106
65 80 102
65 80 102
71 86 108
62 77 100
67 82 105
66 80 103
63 79 102
63 78 100
62 77 99
119 139 169
188 215 255
188 215 255
188 215 255
188 215 255
188 215 255
188 215 255
188 215 255
188 215 255
188 215 255
188 215 255
188 215 255
188 215 255
188 215 255
188 215 255
188 215 255
188 215 255
188 215 255
188 215 255
188 215 255
188 215 255
188 215 255
188 215 255
188 215 255
188 215 255
188 215 255
188 215 255
188 215 255
188 215 255
188 215 255
188 215 255
188 215 255
188 215 255
188 215 255
188 215 255
188 215 255
188 215 255
188 215 255
188 215 255
188 215 255
188 215 255
188 215 255
188 215 255
188 215 255
188 215 255
188 215 255
188 215 255
188 215 255
188 215 255
188 215 255
188 215 255
188 215 255
188 215 255
188 215 255
188 215 255
188 215 255
188 215 255
188 215 255
188 215 255
188 215 255
188 215 255
188 215 255
188 215 255
188 215 255
189 215 255
189 215 255
189 215 255
189 215 255
189 215 255
189 215 255
189 215 255
189 215 255
189 215 255
189 215 255
189 215 255
189 215 255
189 215 255
189 215 255
189 215 255
189 215 255
189 215 255
189 215 255
189 215 255
189 215 255
189 215 255
189 215 255
189 215 255
189 215 255
189 215 255
189 215 255
189 215 255
189 216 255
189 216 255
189 216 255
189 216 255
189 216 255
189 216 255
189 216 255
189 216 255
189 216 255
189 216 255
189 216 255
189 216 255
189 216 255
189 216 255
189 216 255
189 216 255
189 216 255
189 216 255
189 216 255
189 216 255
189 216 255
189 216 255
189 216 255
189 216 255
189 216 255
189 216 255
189 216 255
189 216 255
189 216 255
189 216 255
189 216 255
189 216 255
189 216 255
189 216 255
189 216 255
189 216 255
189 216 255
189 216 255
189 216 255
189 216 255
189 216 255
189 216 255
189 216 255
189 216 255
189 216 255
190 216 255
190 216 255
190 216 255
190 216 255
190 216 255
190 216 255
189 216 255
189 216 255
189 216 255
189 216 255
189 216 255
189 216 255
189 216 255
189 216 255
189 216 255
189 216 255
189 216 255
189 216 255
189 216 255
189 216 255
189 216 255
189 216 255
189 216 255
189 216 255
189 216 255
189 216 255
189 216 255
189 216 255
189 216 255
189 216 255
189 216 255
189 216 255
189 216 255
189 216 255
189 216 255
189 216 255
189 216 255
189 216 255
189 216 255
189 216 255
189 216 255
189 216 255
189 216 255
189 216 255
189 216 255
189 216 255
189 216 255
189 216 255
189 216 255
189 216 255
189 216 255
189 216 255
189 216 255
189 216 255
189 216 255
189 216 255
189 216 255
189 216 255
189 216 255
189 216 255
189 216 255
189 216 255
189 216 255
189 216 255
189 216 255
189 216 255
189 216 255
189 216 255
189 216 255
189 216 255
189 216 255
189 216 255
189 216 255
189 216 255
189 216 255
189 215 255
189 215 255
189 215 255
189 215 255
189 215 255
189 215 255
189 215 255
189 215 255
189 215 255
189 215 255
189 215 255
189 215 255
189 215 255
189 215 255
189 215 255
189 215 255
189 215 255
189 215 255
189 215 255
189 215 255
189 215 255
189 215 255
189 215 255
189 215 255
189 215 255
189 215 255
188 215 255
188 215 255
188 215 255
188 215 255
188 215 255
188 215 255
188 215 255
188 215 255
188 215 255
188 215 255
188 215 255
188 215 255
188 215 255
188 215 255
188 215 255
188 215 255
188 215 255
188 215 255
188 215 255
188 215 255
188 215 255
188 215 255
188 215 255
188 215 255
188 215 255
188 215 255
188 215 255
188 215 255
188 215 255
188 215 255
188 215 255
188 215 255
188 215 255
188 215 255
113 132 161
63 77 99
65 81 104
64 78 100
64 79 101
66 79 100
63 77 98
65 79 100
64 79 102
67 82 105
64 78 100
64 79 101
63 78 101
65 79 102
66 80 102
59 73 95
64 79 101
60 75 97
64 79 101
64 79 102
67 81 103
67 82 104
62 77 99
67 82 105
67 82 104
64 78 99
62 76 97
65 81 104
58 71 91
65 80 103
68 82 104
66 80 102
61 75 97
63 77 98
67 82 104
64 79 101
64 79 100
67 83 106
66 81 103
60 74 94
61 76 97
63 78 102
67 82 104
62 78 101
63 78 100
62 76 98
66 80 102
60 74 95
63 78 101
65 81 105
67 82 104
61 76 98
66 81 105
63 77 99
64 79 102
67 83 106
61 75 98
57 71 92
65 80 103
63 79 101
63 78 99
65 81 104
59 73 93
63 78 99
63 78 100
63 78 100
63 76 96
66 80 102
63 77 99
67 82 104
66 82 105
64 80 103
65 80 102
67 82 104
63 78 101
66 82 107
63 78 101
66 82 104
63 77 98
70 85 108
68 85 109
65 80 102
63 78 100
59 74 96
65 80 102
67 82 104
68 84 108
64 78 100
61 75 96
67 82 104
64 79 102
67 82 105
71 86 109
62 76 97
64 79 102
64 79 100
62 77 100
64 79 101
67 83 106
64 79 101
63 78 100
61 75 97
66 81 103
66 81 104
67 81 103
65 79 101
69 85 108
62 76 98
69 85 108
58 72 93
62 76 98
65 80 103
65 80 103
65 81 105
62 77 100
63 78 101
64 78 98
68 82 104
69 84 106
66 82 105
63 79 102
63 77 99
66 82 105
67 82 104
67 81 102
64 78 100
66 82 106
68 83 105
63 78 100
113 132 160
188 215 255
188 215 255
188 215 255
188 215 255
188 215 255
188 215 255
188 215 255
188 215 255
188 215 255
188 215 255
188 215 255
188 215 255
188 215 255
188 215 255
188 215 255
188 215 255
188 215 255
188 215 255
188 215 255
188 215 255
188 215 255
188 215 255
188 215 255
188 215 255
188 215 255
188 215 255
188 215 255
188 215 255
188 215 255
188 215 255
188 215 255
188 215 255
188 215 255
188 215 255
189 215 255
189 215 255
189 215 255
189 215 255
189 215 255
189 215 255
189 215 255
189 215 255
189 215 255
189 215 255
189 215 255
189 215 255
189 215 255
189 215 255
189 215 255
189 215 255
189 215 255
189 215 255
189 215 255
189 215 255
189 215 255
189 215 255
189 215 255
189 215 255
189 215 255
189 215 255
189 216 255
189 216 255
189 216 255
189 216 255
189 216 255
189 216 255
189 216 255
189 216 255
189 216 255
189 216 255
189 216 255
189 216 255
189 216 255
189 216 255
189 216 255
189 216 255
189 216 255
189 216 255
189 216 255
189 216 255
189 216 255
189 216 255
189 216 255
189 216 255
189 216 255
189 216 255
189 216 255
189 216 255
189 216 255
189 216 255
189 216 255
189 216 255
189 216 255
189 216 255
189 216 255
189 216 255
189 216 255
189 216 255
189 216 255
189 216 255
189 216 255
189 216 255
189 216 255
189 216 255
189 216 255
189 216 255
189 216 255
189 216 255
189 216 255
189 216 255
189 216 255
189 216 255
189 216 255
189 216 255
189 216 255
189 216 255
189 216 255
189 216 255
189 216 255
189 216 255
189 216 255
189 216 255
189 216 255
189 216 255
189 216 255
189 216 255
189 216 255
189 216 255
189 216 255
189 216 255
190 216 255
190 216 255
190 216 255
190 216 255
190 216 255
190 216 255
190 216 255
190 216 255
190 216 255
190 216 255
190 216 255
190 216 255
190 216 255
190 216 255
190 216 255
190 216 255
190 216 255
190 216 255
190 216 255
190 216 255
190 216 255
190 216 255
190 216 255
190 216 255
190 216 255
190 216 255
190 216 255
190 216 255
190 216 255
190 216 255
190 216 255
190 216 255
190 216 255
190 216 255
190 216 255
190 216 255
190 216 255
190 216 255
190 216 255
190 216 255
190 216 255
190 216 255
190 216 255
190 216 255
190 216 255
190 216 255
190 216 255
190 216 255
190 216 255
189 216 255
189 216 255
189 216 255
189 216 255
189 216 255
189 216 255
189 216 255
189 216 255
189 216 255
189 216 255
189 216 255
189 216 255
189 216 255
189 216 255
189 216 255
189 216 255
189 216 255
189 216 255
189 216 255
189 216 255
189 216 255
189 216 255
189 216 255
189 216 255
189 216 255
189 216 255
189 216 255
189 216 255
189 216 255
189 216 255
189 216 255
189 216 255
189 216 255
189 216 255
189 216 255
189 216 255
189 216 255
189 216 255
189 216 255
189 216 255
189 216 255
189 216 255
189 216 255
189 216 255
189 216 255
189 216 255
189 216 255
189 216 255
189 216 255
189 216 255
189 216 255
189 216 255
189 216 255
189 216 255
189 216 255
189 216 255
189 216 255
189 216 255
189 216 255
189 216 255
189 216 255
189 216 255
189 216 255
189 216 255
189 216 255
189 216 255
189 216 255
189 215 255
189 215 255
189 215 255
189 215 255
189 215 255
189 215 255
189 215 255
189 215 255
189 215 255
189 215 255
189 215 255
189 215 255
189 215 255
189 215 255
189 215 255
189 215 255
189 215 255
189 215 255
189 215 255
189 215 255
189 215 255
189 215 255
189 215 255
189 215 255
107 126 156
65 80 102
58 73 95
63 77 100
59 74 97
63 78 100
68 84 107
62 76 97
63 78 100
66 81 103
62 77 99
60 75 96
64 78 99
62 77 98
63 79 102
61 75 97
65 80 101
64 79 101
64 79 102
62 77 99
64 79 102
64 79 101
64 79 101
64 78 99
64 80 102
68 83 106
62 77 99
66 81 104
65 79 101
68 83 105
62 77 100
64 78 99
61 75 97
68 83 107
68 83 105
67 82 105
67 83 106
63 77 99
65 80 102
62 76 98
67 81 103
64 78 100
64 79 102
59 73 94
60 74 95
62 77 100
60 74 96
65 80 103
61 76 97
66 81 104
64 79 100
59 74 96
64 79 102
62 76 97
64 79 101
66 80 102
64 78 99
61 75 95
60 75 98
62 75 96
63 77 99
60 73 93
62 77 99
64 78 100
65 80 103
66 81 103
64 78 99
59 73 95
67 82 104
62 76 97
65 80 101
65 80 102
64 79 102
67 82 105
65 80 103
66 81 104
60 75 96
63 79 103
62 77 99
64 79 101
67 81 103
67 81 104
68 84 106
62 77 98
66 81 103
63 77 99
61 75 96
63 78 100
67 82 103
68 83 105
67 83 106
64 79 101
65 79 101
62 77 100
65 80 102
67 82 106
64 79 101
65 80 103
59 73 94
61 75 96
65 79 101
65 79 100
63 77 99
61 75 97
62 77 99
62 77 98
64 78 99
66 81 103
60 74 95
67 81 104
62 77 98
65 80 102
68 82 105
64 80 104
63 78 100
64 78 99
67 82 104
66 79 100
60 74 95
67 82 103
63 78 100
65 79 101
65 81 105
67 82 106
63 77 97
64 78 100
65 81 104
63 79 102
67 82 105
101 120 147
189 215 255
189 215 255
189 215 255
189 215 255
189 215 255
189 215 255
189 215 255
189 215 255
189 215 255
189 215 255
189 215 255
189 215 255
189 215 255
189 215 255
189 215 255
189 215 255
189 215 255
189 215 255
189 215 255
189 215 255
189 215 255
189 215 255
189 215 255
189 215 255
189 215 255
189 216 255
189 216 255
189 216 255
189 216 255
189 216 255
189 216 255
189 216 255
189 216 255
189 216 255
189 216 255
189 216 255
189 216 255
189 216 255
189 216 255
189 216 255
189 216 255
189 216 255
189 216 255
189 216 255
189 216 255
189 216 255
189 216 255
189 216 255
189 216 255
189 216 255
189 216 255
189 216 255
189 216 255
189 216 255
189 216 255
189 216 255
189 216 255
189 216 255
189 216 255
189 216 255
189 216 255
189 216 255
189 216 255
189 216 255
189 216 255
189 216 255
189 216 255
189 216 255
189 216 255
189 216 255
189 216 255
189 216 255
189 216 255
189 216 255
189 216 255
189 216 255
189 216 255
189 216 255
189 216 255
189 216 255
189 216 255
189 216 255
189 216 255
189 216 255
189 216 255
189 216 255
189 216 255
189 216 255
189 216 255
189 216 255
190 216 255
190 216 255
190 216 255
190 216 255
190 216 255
190 216 255
190 216 255
190 216 255
190 216 255
190 216 255
190 216 255
190 216 255
190 216 255
190 216 255
190 216 255
190 216 255
190 216 255
190 216 255
190 216 255
190 216 255
190 216 255
190 216 255
190 216 255
190 216 255
190 216 255
190 216 255
190 216 255
190 216 255
190 216 255
190 216 255
190 216 255
190 216 255
190 216 255
190 216 255
190 216 255
190 216 255
190 216 255
190 216 255
190 216 255
190 216 255
190 216 255
190 216 255
190 216 255
190 216 255
190 216 255
190 216 255
190 216 255
190 216 255
190 216 255
190 216 255
190 216 255
190 216 255
190 216 255
190 216 255
190 216 255
190 216 255
190 216 255
190 216 255
190 216 255
190 216 255
190 216 255
190 216 255
190 216 255
190 216 255
190 216 255
190 216 255
190 216 255
190 216 255
190 216 255
190 216 255
190 216 255
190 216 255
190 216 255
190 216 255
190 216 255
190 216 255
190 216 255
190 216 255
190 216 255
190 216 255
190 216 255
190 216 255
190 216 255
190 216 255
190 216 255
190 216 255
190 216 255
190 216 255
190 216 255
190 216 255
190 216 255
190 216 255
190 216 255
190 216 255
190 216 255
190 216 255
190 216 255
190 216 255
190 216 255
190 216 255
190 216 255
190 216 255
190 216 255
190 216 255
190 216 255
190 216 255
190 216 255
190 216 255
190 216 255
190 216 255
190 216 255
190 216 255
190 216 255
190 216 255
190 216 255
190 216 255
190 216 255
190 216 255
190 216 255
190 216 255
190 216 255
190 216 255
190 216 255
190 216 255
190 216 255
190 216 255
190 216 255
190 216 255
190 216 255
190 216 255
190 216 255
190 216 255
189 216 255
189 216 255
189 216 255
189 216 255
189 216 255
189 216 255
189 216 255
189 216 255
189 216 255
189 216 255
189 216 255
189 216 255
189 216 255
189 216 255
189 216 255
189 216 255
189 216 255
189 216 255
189 216 255
189 216 255
189 216 255
189 216 255
189 216 255
189 216 255
189 216 255
189 216 255
189 216 255
189 216 255
189 216 255
189 216 255
189 216 255
189 216 255
189 216 255
189 216 255
189 216 255
189 216 255
189 216 255
189 216 255
189 216 255
189 216 255
189 216 255
189 216 255
189 216 255
189 216 255
189 216 255
189 216 255
189 216 255
189 216 255
106 125 153
63 78 100
64 80 103
62 77 99
61 76 99
63 79 102
63 78 100
67 83 106
63 77 100
64 78 101
60 75 96
65 81 105
62 77 99
68 83 106
62 76 98
60 75 96
67 83 107
66 80 102
61 75 96
62 76 97
61 76 98
67 82 105
63 77 100
63 78 100
68 84 107
61 76 98
67 82 104
63 78 100
64 78 99
67 82 104
64 79 101
63 77 99
66 81 104
64 78 101
63 78 100
64 78 100
67 82 106
62 77 99
67 82 105
64 79 101
63 77 99
62 75 96
68 83 105
62 77 100
64 78 100
60 74 96
55 68 89
63 78 101
55 68 88
60 75 96
69 84 107
62 77 100
69 84 107
61 75 97
66 80 102
61 75 96
66 81 104
61 75 97
61 77 100
61 76 98
63 78 100
62 76 97
65 80 101
63 77 98
64 78 100
66 81 103
68 83 106
65 81 104
62 76 97
64 79 101
65 79 101
67 83 107
61 76 98
64 79 101
63 77 99
61 75 97
65 80 102
66 81 104
65 79 101
64 78 99
65 81 104
59 74 95
64 79 101
65 80 102
62 76 98
62 76 98
58 72 94
64 78 100
64 79 102
64 79 102
62 76 98
62 76 99
64 78 100
63 78 100
63 78 101
67 82 105
63 78 99
65 79 101
62 76 97
70 85 106
59 73 95
64 79 101
64 78 99
65 80 103
64 77 98
67 82 105
64 79 101
64 78 99
63 78 100
63 78 100
61 75 96
65 79 101
62 76 97
61 76 99
68 82 104
64 79 101
68 83 105
62 77 98
69 85 108
61 76 97
64 79 101
62 76 97
67 81 103
64 79 101
61 76 98
60 75 98
63 79 103
67 81 104
63 77 97
94 111 137
189 216 255
189 216 255
189 216 255
189 216 255
189 216 255
189 216 255
189 216 255
189 216 255
189 216 255
189 216 255
189 216 255
189 216 255
189 216 255
189 216 255
189 216 255
189 216 255
189 216 255
189 216 255
189 216 255
189 216 255
189 216 255
189 216 255
189 216 255
189 216 255
189 216 255
189 216 255
189 216 255
189 216 255
189 216 255
189 216 255
189 216 255
189 216 255
189 216 255
189 216 255
189 216 255
189 216 255
189 216 255
189 216 255
189 216 255
189 216 255
189 216 255
189 216 255
189 216 255
189 216 255
189 216 255
189 216 255
189 216 255
189 216 255
189 216 255
190 216 255
190 216 255
190 216 255
190 216 255
190 216 255
190 216 255
190 216 255
190 216 255
190 216 255
190 216 255
190 216 255
190 216 255
190 216 255
190 216 255
190 216 255
190 216 255
190 216 255
190 216 255
190 216 255
190 216 255
190 216 255
190 216 255
190 216 255
190 216 255
190 216 255
190 216 255
190 216 255
190 216 255
190 216 255
190 216 255
190 216 255
190 216 255
190 216 255
190 216 255
190 216 255
190 216 255
190 216 255
190 216 255
190 216 255
190 216 255
190 216 255
190 216 255
190 216 255
190 216 255
190 216 255
190 216 255
190 216 255
190 216 255
190 216 255
190 216 255
190 216 255
190 216 255
190 216 255
190 216 255
190 216 255
190 216 255
190 216 255
190 216 255
190 216 255
190 216 255
190 216 255
190 216 255
190 216 255
190 216 255
190 216 255
190 216 255
190 216 255
190 216 255
190 216 255
190 216 255
190 216 255
190 216 255
190 216 255
190 216 255
190 216 255
190 216 255
190 216 255
190 216 255
190 216 255
190 216 255
190 216 255
190 216 255
190 216 255
190 216 255
190 216 255
190 216 255
190 216 255
190 216 255
190 216 255
190 216 255
190 216 255
190 216 255
190 216 255
190 216 255
190 216 255
190 216 255
190 216 255
190 216 255
190 216 255
190 216 255
190 216 255
190 216 255
190 216 255
190 216 255
190 216 255
190 216 255
190 216 255
190 216 255
190 216 255
190 216 255
190 216 255
190 216 255
190 216 255
190 216 255
190 216 255
190 216 255
190 216 255
190 216 255
190 216 255
190 216 255
190 216 255
190 216 255
190 216 255
190 216 255
190 216 255
190 216 255
190 216 255
190 216 255
190 216 255
190 216 255
190 216 255
190 216 255
190 216 255
190 216 255
190 216 255
190 216 255
190 216 255
190 216 255
190 216 255
190 216 255
190 216 255
190 216 255
190 216 255
190 216 255
190 216 255
190 216 255
190 216 255
190 216 255
190 216 255
190 216 255
190 216 255
190 216 255
190 216 255
190 216 255
190 216 255
190 216 255
190 216 255
190 216 255
190 216 255
190 216 255
190 216 255
190 216 255
190 216 255
190 216 255
190 216 255
190 216 255
190 216 255
190 216 255
190 216 255
190 216 255
190 216 255
190 216 255
190 216 255
190 216 255
190 216 255
190 216 255
190 216 255
190 216 255
190 216 255
190 216 255
190 216 255
190 216 255
190 216 255
190 216 255
190 216 255
190 216 255
190 216 255
190 216 255
190 216 255
190 216 255
190 216 255
190 216 255
190 216 255
190 216 255
190 216 255
190 216 255
190 216 255
190 216 255
190 216 255
190 216 255
190 216 255
190 216 255
190 216 255
190 216 255
190 216 255
190 216 255
190 216 255
190 216 255
190 216 255
190 216 255
190 216 255
190 216 255
190 216 255
190 216 255
190 216 255
190 216 255
190 216 255
190 216 255
190 216 255
190 216 255
190 216 255
84 101 126
62 77 99
63 78 100
61 76 98
62 76 98
67 82 105
65 79 101
67 82 104
64 79 102
62 76 97
64 80 103
63 78 100
65 79 102
62 76 99
61 75 96
64 80 103
64 79 101
59 73 94
62 77 99
66 81 103
62 77 100
63 78 100
64 78 99
58 72 93
63 77 99
63 78 100
64 78 100
67 81 103
65 80 103
65 80 102
62 77 99
61 76 97
62 77 99
66 80 102
60 74 96
63 77 98
66 81 103
69 84 107
66 81 104
64 78 100
67 83 106
58 72 94
60 75 97
60 74 96
54 67 87
65 80 102
63 77 98
69 84 107
67 82 104
64 78 100
66 81 105
62 75 96
65 80 102
62 77 99
64 78 99
62 77 98
68 82 105
63 77 99
61 75 96
62 77 98
67 82 105
63 77 97
61 76 98
61 75 96
65 79 100
65 80 101
63 78 101
63 78 101
63 77 98
69 85 108
62 76 97
67 82 105
66 81 104
63 78 99
70 85 107
64 78 100
65 80 102
61 75 95
65 80 102
68 83 105
60 75 96
63 78 99
60 74 96
59 73 95
62 76 97
61 75 96
60 74 95
65 79 99
65 80 103
68 83 106
58 72 93
65 80 102
64 79 101
63 78 100
67 82 105
67 82 104
60 74 95
61 75 96
63 79 101
62 77 99
64 78 100
61 75 96
65 79 101
64 79 100
62 76 97
63 78 101
63 78 101
60 74 95
66 81 103
62 76 98
65 80 102
65 80 103
66 80 101
63 78 99
66 82 105
64 78 100
64 79 100
65 80 102
65 79 100
62 76 98
65 79 100
64 79 101
63 78 100
66 81 104
65 80 102
64 79 101
64 79 101
62 76 98
66 81 104
74 90 114
190 216 255
190 216 255
190 216 255
190 216 255
190 216 255
190 216 255
190 216 255
190 216 255
190 216 255
190 216 255
190 216 255
190 216 255
190 216 255
190 216 255
190 216 255
190 216 255
190 216 255
190 216 255
190 216 255
190 216 255
190 216 255
190 216 255
190 216 255
190 216 255
190 216 255
190 216 255
190 216 255
190 216 255
190 216 255
190 216 255
190 216 255
190 216 255
190 216 255
190 216 255
190 216 255
190 216 255
190 216 255
190 216 255
190 216 255
190 216 255
190 216 255
190 216 255
190 216 255
190 216 255
190 216 255
190 216 255
190 216 255
190 216 255
190 216 255
190 216 255
190 216 255
190 216 255
190 216 255
190 216 255
190 216 255
190 216 255
190 216 255
190 216 255
190 216 255
190 216 255
190 216 255
190 216 255
190 216 255
190 216 255
190 216 255
190 216 255
190 216 255
190 216 255
190 216 255
190 216 255
190 216 255
190 216 255
190 216 255
190 216 255
190 216 255
190 216 255
190 216 255
190 216 255
190 216 255
190 216 255
190 216 255
190 216 255
190 216 255
190 216 255
190 216 255
190 216 255
190 216 255
190 216 255
190 216 255
190 216 255
190 216 255
190 216 255
190 216 255
190 216 255
190 216 255
190 216 255
190 216 255
190 216 255
190 216 255
190 216 255
190 216 255
190 216 255
190 216 255
190 216 255
190 216 255
190 216 255
190 216 255
190 216 255
190 216 255
190 216 255
190 216 255
190 216 255
190 216 255
190 216 255
190 216 255
190 216 255
190 216 255
190 216 255
190 216 255
190 216 255
190 216 255
190 216 255
190 216 255
190 216 255
190 216 255
190 216 255
190 216 255
190 216 255
190 216 255
190 216 255
190 216 255
190 216 255
190 216 255
190 216 255
190 216 255
191 217 255
191 217 255
191 217 255
191 217 255
191 217 255
191 217 255
191 217 255
191 217 255
191 217 255
191 217 255
191 217 255
191 217 255
191 217 255
191 217 255
191 217 255
191 217 255
191 217 255
191 217 255
191 217 255
191 217 255
191 217 255
191 217 255
191 217 255
191 217 255
191 217 255
191 217 255
191 217 255
191 217 255
191 217 255
191 217 255
191 217 255
191 217 255
191 217 255
191 217 255
191 217 255
191 217 255
191 217 255
191 217 255
191 217 255
191 217 255
191 217 255
191 217 255
191 217 255
191 217 255
191 217 255
190 216 255
190 216 255
191 217 255
190 216 255
190 216 255
190 216 255
190 216 255
190 216 255
190 216 255
190 216 255
190 216 255
190 216 255
190 216 255
190 216 255
190 216 255
190 216 255
190 216 255
190 216 255
190 216 255
190 216 255
190 216 255
190 216 255
190 216 255
190 216 255
190 216 255
190 216 255
190 216 255
190 216 255
190 216 255
190 216 255
190 216 255
190 216 255
190 216 255
190 216 255
190 216 255
190 216 255
190 216 255
190 216 255
190 216 255
190 216 255
190 216 255
190 216 255
190 216 255
190 216 255
190 216 255
190 216 255
190 216 255
190 216 255
190 216 255
190 216 255
190 216 255
190 216 255
190 216 255
190 216 255
190 216 255
190 216 255
190 216 255
190 216 255
190 216 255
190 216 255
190 216 255
190 216 255
190 216 255
190 216 255
190 216 255
190 216 255
190 216 255
190 216 255
190 216 255
190 216 255
190 216 255
190 216 255
190 216 255
190 216 255
190 216 255
190 216 255
190 216 255
190 216 255
190 216 255
190 216 255
190 216 255
190 216 255
190 216 255
190 216 255
190 216 255
190 216 255
190 216 255
190 216 255
190 216 255
190 216 255
85 102 128
61 75 97
60 74 95
62 76 98
66 80 101
64 78 99
64 78 99
66 81 103
66 81 104
60 74 95
67 81 103
61 76 97
67 82 104
71 87 110
63 78 99
65 81 105
64 79 101
66 81 103
61 76 97
62 76 97
65 79 102
64 78 101
68 83 106
63 78 100
66 81 103
61 75 96
64 78 99
63 78 100
59 73 95
64 78 99
60 75 96
60 74 96
64 79 103
65 79 101
66 81 104
65 80 102
63 78 101
65 80 102
60 75 98
62 76 98
61 75 96
65 80 102
65 79 101
62 76 97
64 78 100
62 76 98
63 78 100
64 77 98
59 72 92
62 76 98
64 79 102
71 86 109
68 83 106
70 85 109
66 81 103
64 78 99
61 74 95
69 83 105
62 76 98
63 77 100
64 78 100
67 82 104
62 76 97
61 76 97
62 77 99
64 79 102
64 78 99
62 77 98
66 81 104
64 78 99
64 79 101
64 78 99
65 80 102
64 79 101
62 76 98
57 71 92
67 83 106
62 77 99
63 78 100
59 74 96
64 79 101
64 78 98
62 76 97
63 77 100
67 82 104
67 81 103
62 77 99
61 75 96
62 76 98
63 78 100
66 81 104
63 77 99
62 76 97
64 78 100
66 81 103
65 80 102
61 76 98
62 77 99
70 84 106
63 78 99
65 79 101
62 76 97
68 83 107
64 78 99
69 83 105
65 79 101
65 79 101
61 76 97
62 77 99
64 80 103
67 82 104
61 75 96
64 79 101
58 72 93
63 77 99
59 73 94
63 77 99
65 80 102
63 78 100
63 77 98
61 76 99
60 74 96
56 70 91
64 78 99
64 80 103
65 79 101
68 83 104
60 74 96
64 78 100
82 98 122
190 216 255
190 216 255
190 216 255
190 216 255
190 216 255
190 216 255
190 216 255
190 216 255
190 216 255
190 216 255
190 216 255
190 216 255
190 216 255
190 216 255
190 216 255
190 216 255
190 216 255
190 216 255
190 216 255
190 216 255
190 216 255
190 216 255
190 216 255
190 216 255
190 216 255
190 216 255
190 216 255
190 216 255
190 216 255
190 216 255
190 216 255
190 216 255
190 216 255
190 216 255
190 216 255
190 216 255
190 216 255
190 216 255
190 216 255
190 216 255
190 216 255
190 216 255
190 216 255
190 216 255
190 216 255
190 216 255
190 216 255
190 216 255
190 216 255
190 216 255
190 216 255
190 216 255
190 216 255
190 216 255
190 216 255
190 216 255
190 216 255
190 216 255
190 216 255
190 216 255
190 216 255
190 216 255
190 216 255
190 216 255
190 216 255
190 216 255
190 216 255
190 216 255
190 216 255
190 216 255
190 216 255
190 216 255
190 216 255
190 216 255
190 216 255
190 216 255
190 216 255
190 216 255
190 216 255
190 216 255
190 216 255
190 216 255
190 216 255
190 216 255
190 216 255
190 216 255
190 216 255
190 216 255
190 216 255
190 216 255
191 217 255
191 217 255
191 217 255
191 217 255
191 217 255
191 217 255
191 217 255
191 217 255
191 217 255
191 217 255
191 217 255
191 217 255
191 217 255
191 217 255
191 217 255
191 217 255
191 217 255
191 217 255
191 217 255
191 217 255
191 217 255
191 217 255
191 217 255
191 217 255
191 217 255
191 217 255
191 217 255
191 217 255
191 217 255
191 217 255
191 217 255
191 217 255
191 217 255
191 217 255
191 217 255
191 217 255
191 217 255
191 217 255
191 217 255
191 217 255
191 217 255
191 217 255
191 217 255
191 217 255
191 217 255
191 217 255
191 217 255
191 217 255
191 217 255
191 217 255
191 217 255
191 217 255
191 217 255
191 217 255
191 217 255
191 217 255
191 217 255
191 217 255
191 217 255
191 217 255
191 217 255
191 217 255
191 217 255
191 217 255
191 217 255
191 217 255
191 217 255
191 217 255
191 217 255
191 217 255
191 217 255
191 217 255
191 217 255
191 217 255
191 217 255
191 217 255
191 217 255
191 217 255
191 217 255
191 217 255
191 217 255
191 217 255
191 217 255
191 217 255
191 217 255
191 217 255
191 217 255
191 217 255
191 217 255
191 217 255
191 217 255
191 217 255
191 217 255
191 217 255
191 217 255
191 217 255
191 217 255
191 217 255
191 217 255
191 217 255
191 217 255
191 217 255
191 217 255
191 217 255
191 217 255
191 217 255
191 217 255
191 217 255
191 217 255
191 217 255
191 217 255
191 217 255
191 217 255
191 217 255
191 217 255
191 217 255
191 217 255
191 217 255
191 217 255
191 217 255
191 217 255
191 217 255
191 217 255
191 217 255
191 217 255
191 217 255
191 217 255
191 217 255
191 217 255
191 217 255
191 217 255
191 217 255
191 217 255
191 217 255
191 217 255
191 217 255
191 217 255
191 217 255
191 217 255
191 217 255
191 217 255
191 217 255
191 217 255
191 217 255
191 217 255
191 217 255
191 217 255
191 217 255
191 217 255
191 217 255
191 217 255
191 217 255
191 217 255
191 217 255
191 217 255
191 217 255
191 217 255
191 217 255
191 217 255
191 217 255
191 217 255
191 217 255
191 217 255
191 217 255
191 217 255
191 217 255
191 217 255
191 217 255
191 217 255
191 217 255
191 217 255
191 217 255
191 217 255
191 217 255
191 217 255
191 217 255
191 217 255
191 217 255
191 217 255
191 217 255
76 91 115
66 80 101
65 80 102
62 76 98
64 79 102
65 79 101
59 73 93
60 74 95
61 76 99
62 76 97
63 77 98
61 75 97
65 80 103
66 81 104
66 81 103
65 78 99
59 74 95
67 81 103
63 77 99
65 79 100
63 77 98
57 71 91
65 80 103
65 80 102
63 77 100
65 80 102
67 82 105
62 76 97
62 77 99
62 76 96
63 77 98
64 79 101
62 76 98
65 79 100
65 80 102
62 77 98
63 77 99
59 74 96
63 77 98
61 76 98
59 74 95
58 72 92
61 76 98
64 78 100
63 77 99
63 78 100
62 76 97
65 80 102
66 81 102
64 78 100
61 75 97
65 80 101
63 77 99
65 80 102
59 73 94
67 82 104
63 77 99
64 78 100
66 81 103
65 79 101
62 76 96
62 77 99
65 79 101
64 79 101
66 81 103
60 74 95
66 81 103
58 72 92
65 80 103
65 80 102
61 75 96
62 75 96
63 77 99
63 77 100
62 77 99
66 80 101
64 79 100
63 78 99
65 80 102
63 77 98
61 75 97
57 71 92
62 77 99
60 74 95
62 76 97
60 75 96
64 79 100
67 81 102
66 81 103
66 81 104
66 81 103
62 76 98
68 84 106
60 74 96
60 74 95
63 78 100
63 76 97
64 79 102
64 79 101
65 79 101
60 74 94
61 75 96
63 78 101
64 78 100
60 75 96
63 78 99
64 79 102
62 78 101
62 77 98
63 77 100
64 79 101
58 72 93
64 79 101
65 80 103
65 79 101
64 79 102
59 73 95
62 77 99
70 85 108
65 80 102
66 81 104
59 73 94
62 77 99
61 76 98
62 77 98
65 79 101
66 80 101
59 73 94
65 80 102
68 83 105
190 216 255
191 217 255
191 217 255
191 217 255
191 217 255
191 217 255
191 217 255
191 217 255
191 217 255
191 217 255
191 217 255
191 217 255
191 217 255
191 217 255
191 217 255
191 217 255
191 217 255
191 217 255
191 217 255
191 217 255
191 217 255
191 217 255
191 217 255
191 217 255
191 217 255
191 217 255
191 217 255
191 217 255
191 217 255
191 217 255
191 217 255
191 217 255
191 217 255
191 217 255
191 217 255
191 217 255
191 217 255
191 217 255
191 217 255
191 217 255
191 217 255
191 217 255
191 217 255
191 217 255
191 217 255
191 217 255
191 217 255
191 217 255
191 217 255
191 217 255
191 217 255
191 217 255
191 217 255
191 217 255
191 217 255
191 217 255
191 217 255
191 217 255
191 217 255
191 217 255
191 217 255
191 217 255
191 217 255
191 217 255
191 217 255
191 217 255
191 217 255
191 217 255
191 217 255
191 217 255
191 217 255
191 217 255
191 217 255
191 217 255
191 217 255
191 217 255
191 217 255
191 217 255
191 217 255
191 217 255
191 217 255
191 217 255
191 217 255
191 217 255
191 217 255
191 217 255
191 217 255
191 217 255
191 217 255
191 217 255
191 217 255
191 217 255
191 217 255
191 217 255
191 217 255
191 217 255
191 217 255
191 217 255
191 217 255
191 217 255
191 217 255
191 217 255
191 217 255
191 217 255
191 217 255
191 217 255
191 217 255
191 217 255
191 217 255
191 217 255
191 217 255
191 217 255
191 217 255
191 217 255
191 217 255
191 217 255
191 217 255
191 217 255
191 217 255
191 217 255
191 217 255
191 217 255
191 217 255
191 217 255
191 217 255
191 217 255
191 217 255
191 217 255
191 217 255
191 217 255
191 217 255
191 217 255
191 217 255
191 217 255
191 217 255
191 217 255
191 217 255
191 217 255
191 217 255
191 217 255
191 217 255
191 217 255
191 217 255
191 217 255
191 217 255
191 217 255
191 217 255
191 217 255
191 217 255
191 217 255
191 217 255
191 217 255
191 217 255
191 217 255
191 217 255
191 217 255
191 217 255
191 217 255
191 217 255
191 217 255
191 217 255
191 217 255
191 217 255
191 217 255
191 217 255
191 217 255
191 217 255
191 217 255
191 217 255
191 217 255
191 217 255
191 217 255
191 217 255
191 217 255
191 217 255
191 217 255
191 217 255
191 217 255
191 217 255
191 217 255
191 217 255
191 217 255
191 217 255
191 217 255
191 217 255
191 217 255
191 217 255
191 217 255
191 217 255
191 217 255
191 217 255
191 217 255
191 217 255
191 217 255
191 217 255
191 217 255
191 217 255
191 217 255
191 217 255
191 217 255
191 217 255
191 217 255
191 217 255
191 217 255
191 217 255
191 217 255
191 217 255
191 217 255
191 217 255
191 217 255
191 217 255
191 217 255
191 217 255
191 217 255
191 217 255
191 217 255
191 217 255
191 217 255
191 217 255
191 217 255
191 217 255
191 217 255
191 217 255
191 217 255
191 217 255
191 217 255
191 217 255
191 217 255
191 217 255
191 217 255
191 217 255
191 217 255
191 217 255
191 217 255
191 217 255
191 217 255
191 217 255
191 217 255
191 217 255
191 217 255
191 217 255
191 217 255
191 217 255
191 217 255
191 217 255
191 217 255
191 217 255
191 217 255
191 217 255
191 217 255
191 217 255
191 217 255
191 217 255
191 217 255
191 217 255
191 217 255
191 217 255
191 217 255
191 217 255
191 217 255
191 217 255
191 217 255
191 217 255
191 217 255
191 217 255
191 217 255
191 217 255
191 217 255
191 217 255
191 217 255
68 82 103
59 73 93
65 80 102
61 75 96
64 78 100
61 76 99
66 80 101
61 74 95
65 79 102
64 78 100
63 78 100
59 73 93
57 70 90
61 76 98
60 74 96
65 79 101
59 73 94
63 78 100
61 75 96
63 78 100
64 79 101
64 78 100
65 79 100
59 73 93
64 78 99
60 75 97
67 81 103
60 74 95
65 79 101
63 77 98
65 80 102
64 79 102
64 78 100
59 73 94
63 78 100
65 80 102
64 79 102
59 73 93
62 76 98
64 78 101
65 80 101
61 75 97
64 80 102
60 74 96
61 76 97
64 78 100
63 77 98
64 79 101
67 82 104
63 77 97
66 81 103
59 73 93
66 81 103
65 80 103
63 78 100
63 77 99
66 81 103
61 75 97
65 80 102
59 73 95
66 81 103
62 76 98
64 79 101
64 78 99
66 81 104
64 78 100
61 75 97
62 76 97
64 78 100
66 81 103
60 74 96
60 75 97
61 76 98
62 76 96
63 78 101
66 82 105
60 74 95
66 80 101
64 79 101
65 80 102
62 77 99
66 82 104
61 75 96
61 76 98
61 75 97
60 74 96
64 79 101
65 80 102
65 80 102
65 79 101
62 76 98
58 72 93
63 77 97
60 74 96
65 79 100
64 79 101
67 81 104
61 76 98
60 74 95
65 80 102
62 77 99
64 78 100
61 75 95
62 76 98
65 80 102
63 77 99
58 71 91
63 77 99
65 79 101
66 82 104
64 78 100
61 75 96
60 74 95
63 77 99
58 72 93
64 78 99
64 78 100
61 75 95
62 76 98
65 80 102
62 75 96
66 81 104
62 77 101
62 75 96
67 81 103
63 78 101
66 80 103
60 74 95
62 76 98
69 85 108
191 217 255
191 217 255
191 217 255
191 217 255
191 217 255
191 217 255
191 217 255
191 217 255
191 217 255
191 217 255
191 217 255
191 217 255
191 217 255
191 217 255
191 217 255
191 217 255
191 217 255
191 217 255
191 217 255
191 217 255
191 217 255
191 217 255
191 217 255
191 217 255
191 217 255
191 217 255
191 217 255
191 217 255
191 217 255
191 217 255
191 217 255
191 217 255
191 217 255
191 217 255
191 217 255
191 217 255
191 217 255
191 217 255
191 217 255
191 217 255
191 217 255
191 217 255
191 217 255
191 217 255
191 217 255
191 217 255
191 217 255
191 217 255
191 217 255
191 217 255
191 217 255
191 217 255
191 217 255
191 217 255
191 217 255
191 217 255
191 217 255
191 217 255
191 217 255
191 217 255
191 217 255
191 217 255
191 217 255
191 217 255
191 217 255
191 217 255
191 217 255
191 217 255
191 217 255
191 217 255
191 217 255
191 217 255
191 217 255
191 217 255
191 217 255
191 217 255
191 217 255
191 217 255
191 217 255
191 217 255
191 217 255
191 217 255
191 217 255
191 217 255
191 217 255
191 217 255
191 217 255
191 217 255
191 217 255
191 217 255
191 217 255
191 217 255
191 217 255
191 217 255
191 217 255
191 217 255
191 217 255
191 217 255
191 217 255
191 217 255
191 217 255
191 217 255
191 217 255
191 217 255
191 217 255
191 217 255
191 217 255
191 217 255
191 217 255
191 217 255
191 217 255
191 217 255
191 217 255
191 217 255
191 217 255
191 217 255
191 217 255
191 217 255
191 217 255
191 217 255
191 217 255
191 217 255
191 217 255
191 217 255
191 217 255
191 217 255
191 217 255
191 217 255
191 217 255
191 217 255
191 217 255
191 217 255
191 217 255
191 217 255
191 217 255
191 217 255
191 217 255
191 217 255
192 217 255
192 217 255
191 217 255
192 217 255
192 217 255
192 217 255
192 217 255
191 217 255
191 217 255
191 217 255
192 217 255
191 217 255
191 217 255
191 217 255
192 217 255
191 217 255
192 217 255
191 217 255
191 217 255
192 217 255
191 217 255
192 217 255
192 217 255
192 217 255
191 217 255
192 217 255
192 217 255
191 217 255
192 217 255
191 217 255
191 217 255
191 217 255
192 217 255
191 217 255
191 217 255
192 217 255
192 217 255
192 217 255
191 217 255
192 217 255
191 217 255
191 217 255
192 217 255
191 217 255
192 217 255
191 217 255
192 217 255
192 217 255
192 217 255
192 217 255
191 217 255
191 217 255
192 217 255
191 217 255
191 217 255
191 217 255
191 217 255
192 217 255
191 217 255
191 217 255
191 217 255
192 217 255
192 217 255
192 217 255
191 217 255
192 217 255
192 217 255
192 217 255
192 217 255
192 217 255
192 217 255
192 217 255
191 217 255
191 217 255
192 217 255
191 217 255
191 217 255
191 217 255
191 217 255
191 217 255
191 217 255
192 217 255
191 217 255
191 217 255
191 217 255
192 217 255
192 217 255
191 217 255
192 217 255
191 217 255
192 217 255
191 217 255
191 217 255
192 217 255
191 217 255
191 217 255
191 217 255
191 217 255
192 217 255
192 217 255
191 217 255
191 217 255
191 217 255
192 217 255
192 217 255
192 217 255
191 217 255
191 217 255
192 217 255
191 217 255
191 217 255
191 217 255
192 217 255
191 217 255
191 217 255
192 217 255
192 217 255
192 217 255
192 217 255
191 217 255
191 217 255
192 217 255
192 217 255
191 217 255
192 217 255
191 217 255
191 217 255
191 217 255
191 217 255
191 217 255
191 217 255
192 217 255
73 87 109
60 75 96
65 80 102
62 77 98
64 78 101
64 78 99
64 79 102
59 73 94
60 74 96
66 80 101
64 79 101
65 79 101
59 74 95
62 76 97
60 73 94
61 76 98
63 77 99
66 81 103
63 77 98
67 82 105
64 79 102
65 80 102
66 80 101
59 73 94
62 76 97
65 80 101
60 74 95
60 74 96
62 76 97
62 77 100
60 74 95
59 73 95
65 80 103
65 80 102
62 76 97
59 73 94
59 72 93
62 77 99
64 78 101
61 76 98
65 80 101
64 79 102
63 77 97
65 80 103
61 76 98
61 75 97
66 82 105
61 75 95
64 79 101
63 78 101
64 78 100
64 78 98
63 77 98
64 79 103
66 80 102
61 75 96
65 80 102
60 73 94
62 77 100
63 78 100
59 73 95
66 80 102
62 76 98
67 81 103
64 79 101
63 77 100
62 76 98
62 77 99
59 73 94
64 79 101
55 69 90
66 80 101
65 79 101
56 70 90
65 80 101
64 80 104
62 77 98
67 82 103
62 77 99
64 78 100
64 79 101
63 78 101
64 79 101
62 76 98
62 77 99
64 79 101
59 74 95
66 81 104
63 77 98
64 79 101
65 79 101
65 80 102
63 78 100
60 74 94
64 79 102
64 78 99
63 77 99
66 81 102
63 77 98
66 80 103
67 82 104
62 76 97
60 75 97
68 83 106
68 82 103
67 82 104
64 77 97
67 82 104
63 78 100
62 77 98
65 79 101
60 73 94
64 78 100
64 79 101
58 72 93
64 79 101
63 77 99
63 78 99
58 71 92
62 76 98
62 76 98
65 80 101
67 81 103
66 81 103
59 73 93
63 77 99
62 76 97
59 73 94
64 79 101
68 83 104
192 217 255
192 217 255
192 217 255
192 217 255
192 217 255
191 217 255
192 217 255
192 217 255
191 217 255
192 217 255
191 217 255
191 217 255
192 217 255
191 217 255
191 217 255
192 217 255
192 217 255
192 217 255
192 217 255
191 217 255
191 217 255
192 217 255
192 217 255
191 217 255
191 217 255
191 217 255
191 217 255
192 217 255
192 217 255
191 217 255
192 217 255
192 217 255
191 217 255
192 217 255
192 217 255
192 217 255
192 217 255
192 217 255
192 217 255
191 217 255
191 217 255
191 217 255
192 217 255
191 217 255
192 217 255
191 217 255
192 217 255
192 217 255
192 217 255
191 217 255
192 217 255
192 217 255
192 217 255
192 217 255
191 217 255
191 217 255
192 217 255
192 217 255
192 217 255
192 217 255
192 217 255
192 217 255
191 217 255
191 217 255
191 217 255
192 217 255
191 217 255
191 217 255
192 217 255
191 217 255
191 217 255
192 217 255
192 217 255
191 217 255
192 217 255
191 217 255
192 217 255
192 217 255
191 217 255
192 217 255
191 217 255
192 217 255
191 217 255
192 217 255
192 217 255
191 217 255
192 217 255
192 217 255
192 217 255
192 217 255
192 217 255
192 217 255
191 217 255
191 217 255
192 217 255
191 217 255
192 217 255
192 217 255
191 217 255
191 217 255
192 217 255
192 217 255
192 217 255
192 217 255
192 217 255
191 217 255
192 217 255
192 217 255
192 217 255
191 217 255
192 217 255
191 217 255
191 217 255
191 217 255
192 217 255
191 217 255
191 217 255
192 217 255
192 217 255
191 217 255
192 217 255
191 217 255
192 217 255
192 217 255
192 217 255
191 217 255
192 217 255
191 217 255
192 217 255
192 217 255
192 217 255
192 217 255
192 217 255
191 217 255
192 217 255
192 217 255
192 217 255
192 217 255
192 217 255
192 217 255
192 217 255
192 217 255
192 217 255
192 217 255
192 217 255
192 217 255
192 217 255
192 217 255
192 217 255
192 217 255
192 217 255
192 217 255
192 217 255
192 217 255
192 217 255
192 217 255
192 217 255
192 217 255
192 217 255
192 217 255
192 217 255
192 217 255
192 217 255
192 217 255
192 217 255
192 217 255
192 217 255
192 217 255
192 217 255
192 217 255
192 217 255
192 217 255
192 217 255
192 217 255
192 217 255
192 217 255
192 217 255
192 217 255
192 217 255
192 217 255
192 217 255
192 217 255
192 217 255
192 217 255
192 217 255
192 217 255
192 217 255
192 217 255
192 217 255
192 217 255
192 217 255
192 217 255
192 217 255
192 217 255
192 217 255
192 217 255
192 217 255
192 217 255
192 217 255
192 217 255
192 217 255
192 217 255
192 217 255
192 217 255
192 217 255
192 217 255
192 217 255
192 217 255
192 217 255
192 217 255
192 217 255
192 217 255
192 217 255
192 217 255
192 217 255
192 217 255
192 217 255
192 217 255
192 217 255
192 217 255
192 217 255
192 217 255
192 217 255
192 217 255
192 217 255
192 217 255
192 217 255
192 217 255
192 217 255
192 217 255
192 217 255
192 217 255
192 217 255
192 217 255
192 217 255
192 217 255
192 217 255
192 217 255
192 217 255
192 217 255
192 217 255
192 217 255
192 217 255
192 217 255
192 217 255
192 217 255
192 217 255
192 217 255
192 217 255
192 217 255
192 217 255
192 217 255
192 217 255
192 217 255
192 217 255
192 217 255
192 217 255
192 217 255
192 217 255
192 217 255
192 217 255
192 217 255
192 217 255
192 217 255
192 217 255
192 217 255
192 217 255
192 217 255
192 217 255
192 217 255
65 81 103
62 77 98
67 83 106
61 75 98
63 77 98
60 74 96
65 80 103
68 81 102
61 75 97
60 74 95
61 75 96
58 71 91
58 72 94
63 77 99
59 73 94
61 75 96
63 76 97
59 74 95
65 79 100
63 77 100
62 76 97
61 75 96
60 75 96
63 78 100
62 76 97
63 77 98
63 77 97
65 80 102
60 75 96
60 74 95
63 78 100
65 80 102
64 78 98
63 77 97
61 75 97
59 73 94
62 77 100
65 81 105
58 72 93
59 73 94
60 75 97
64 78 100
65 80 103
61 76 98
65 80 103
65 80 103
61 75 97
68 83 105
62 76 97
62 76 97
62 77 99
65 80 103
63 77 99
64 79 102
63 77 99
63 77 97
60 74 95
63 77 99
62 76 98
66 81 103
61 76 98
62 77 99
63 77 98
64 79 101
61 75 95
60 73 94
60 74 95
59 74 95
61 74 95
66 80 103
60 74 95
59 72 92
60 75 96
64 78 98
60 74 95
61 76 99
66 81 104
65 80 102
61 75 96
64 79 101
61 76 97
62 76 97
64 77 97
61 76 98
63 78 100
63 77 98
62 75 96
65 79 101
68 83 105
58 72 93
61 76 98
64 79 100
63 78 100
62 78 100
64 79 101
60 74 95
63 78 99
61 75 97
61 75 97
62 76 97
66 80 101
62 76 97
65 80 103
62 77 99
64 78 100
62 77 99
66 80 102
67 82 104
63 77 98
64 79 100
67 83 106
63 77 99
63 77 98
61 74 94
55 69 89
58 72 93
62 76 97
61 75 96
60 74 95
66 80 100
63 77 98
58 72 92
61 75 95
61 76 98
56 69 90
62 76 98
66 80 103
65 80 102
60 74 95
69 83 105
192 217 255
192 217 255
192 217 255
192 217 255
192 217 255
192 217 255
192 217 255
192 217 255
192 217 255
192 217 255
192 217 255
192 217 255
192 217 255
192 217 255
192 217 255
192 217 255
192 217 255
192 217 255
192 217 255
192 217 255
192 217 255
192 217 255
192 217 255
192 217 255
192 217 255
192 217 255
192 217 255
192 217 255
192 217 255
192 217 255
192 217 255
192 217 255
192 217 255
192 217 255
192 217 255
192 217 255
192 217 255
192 217 255
192 217 255
192 217 255
192 217 255
192 217 255
192 217 255
192 217 255
192 217 255
192 217 255
192 217 255
192 217 255
192 217 255
192 217 255
192 217 255
192 217 255
192 217 255
192 217 255
192 217 255
192 217 255
192 217 255
192 217 255
192 217 255
192 217 255
192 217 255
192 217 255
192 217 255
192 217 255
192 217 255
192 217 255
192 217 255
192 217 255
192 217 255
192 217 255
192 217 255
192 217 255
192 217 255
192 217 255
192 217 255
192 217 255
192 217 255
192 217 255
192 217 255
192 217 255
192 217 255
192 217 255
192 217 255
192 217 255
192 217 255
192 217 255
192 217 255
192 217 255
192 217 255
192 217 255
192 217 255
192 217 255
192 217 255
192 217 255
192 217 255
192 217 255
192 217 255
192 217 255
192 217 255
192 217 255
192 217 255
192 217 255
192 217 255
192 217 255
192 217 255
192 217 255
192 217 255
192 217 255
192 217 255
192 217 255
192 217 255
192 217 255
192 217 255
192 217 255
192 217 255
192 217 255
192 217 255
192 217 255
192 217 255
192 217 255
192 217 255
192 217 255
192 217 255
192 217 255
192 217 255
192 217 255
192 217 255
192 217 255
192 217 255
192 217 255
192 217 255
192 217 255
192 217 255
192 217 255
192 217 255
192 217 255
192 217 255
192 217 255
192 217 255
192 217 255
192 217 255
192 217 255
192 217 255
192 217 255
192 217 255
192 217 255
192 217 255
192 217 255
192 217 255
192 217 255
192 217 255
192 217 255
192 217 255
192 217 255
192 217 255
192 217 255
192 217 255
192 217 255
192 217 255
192 217 255
192 217 255
192 217 255
192 217 255
192 217 255
192 217 255
192 217 255
192 217 255
192 217 255
192 217 255
192 217 255
192 217 255
192 217 255
192 217 255
192 217 255
192 217 255
192 217 255
192 217 255
192 217 255
192 217 255
192 218 255
192 218 255
192 218 255
192 217 255
192 218 255
192 218 255
192 218 255
192 217 255
192 218 255
192 218 255
192 218 255
192 218 255
192 218 255
192 218 255
192 218 255
192 218 255
192 218 255
192 218 255
192 218 255
192 218 255
192 218 255
192 218 255
192 218 255
192 218 255
192 218 255
192 218 255
192 218 255
192 218 255
192 218 255
192 218 255
192 218 255
192 218 255
192 218 255
192 218 255
192 218 255
192 218 255
192 218 255
192 218 255
192 218 255
192 218 255
192 218 255
192 218 255
192 218 255
192 218 255
192 218 255
192 218 255
192 218 255
192 218 255
192 218 255
192 218 255
192 218 255
192 218 255
192 218 255
192 218 255
192 218 255
192 218 255
192 218 255
192 218 255
192 218 255
192 218 255
192 218 255
192 218 255
192 218 255
192 218 255
192 218 255
192 218 255
192 218 255
192 218 255
192 218 255
192 218 255
192 218 255
192 218 255
192 218 255
192 218 255
192 218 255
192 218 255
192 218 255
192 218 255
192 218 255
192 218 255
192 218 255
192 218 255
192 218 255
192 218 255
192 218 255
192 218 255
192 218 255
192 218 255
192 218 255
192 218 255
192 218 255
72 87 109
62 77 99
62 75 96
61 76 98
60 74 95
67 81 103
64 79 101
65 79 101
60 74 96
60 74 95
66 81 103
63 77 99
62 77 99
64 79 101
66 81 103
60 74 96
65 80 102
67 81 103
57 71 90
67 82 105
63 77 99
63 77 98
60 75 97
63 77 98
63 77 99
62 76 96
67 81 102
62 77 99
65 79 101
63 77 98
67 81 102
63 78 99
56 69 89
65 79 101
63 77 98
64 78 100
61 75 96
59 73 94
61 75 97
66 80 101
61 76 99
59 73 93
59 73 92
60 74 95
66 80 103
63 77 99
66 81 103
62 77 98
61 76 99
62 76 98
59 73 94
57 70 89
61 76 97
65 79 102
57 70 91
63 77 99
63 77 99
62 77 99
64 78 99
65 79 100
66 80 101
62 76 96
64 78 99
58 72 93
63 77 98
61 76 98
62 77 99
57 70 89
63 78 100
62 77 99
59 73 94
62 77 99
60 74 94
60 74 94
55 68 87
60 75 96
62 77 99
67 81 104
64 79 100
63 77 98
63 77 98
63 78 100
60 74 95
68 82 104
63 78 101
65 80 101
68 83 104
61 75 97
58 72 93
61 75 97
62 77 100
58 72 92
59 73 94
65 79 101
68 82 104
65 79 100
59 73 94
64 79 101
65 79 100
61 75 96
61 74 94
67 81 104
61 75 97
60 74 96
63 78 100
65 80 101
59 73 93
57 71 92
65 80 102
65 79 101
59 73 95
60 74 96
59 73 94
59 72 91
66 80 102
59 73 95
62 77 99
57 70 90
65 80 103
62 77 100
66 82 106
63 78 100
61 75 96
63 77 99
59 73 95
62 76 97
64 78 100
59 72 93
60 74 96
66 81 103
192 218 255
192 218 255
192 218 255
192 218 255
192 218 255
192 218 255
192 218 255
192 218 255
192 218 255
192 218 255
192 218 255
192 218 255
192 218 255
192 218 255
192 218 255
192 218 255
192 218 255
192 218 255
192 218 255
192 218 255
192 218 255
192 218 255
192 218 255
192 218 255
192 218 255
192 218 255
192 218 255
192 218 255
192 218 255
192 218 255
192 218 255
192 218 255
192 218 255
192 218 255
192 218 255
192 218 255
192 218 255
192 218 255
192 218 255
192 218 255
192 218 255
192 218 255
192 218 255
192 218 255
192 218 255
192 218 255
192 218 255
192 218 255
192 218 255
192 218 255
192 218 255
192 218 255
192 218 255
192 218 255
192 218 255
192 218 255
192 218 255
192 218 255
192 218 255
192 218 255
192 218 255
192 218 255
192 218 255
192 218 255
192 218 255
192 218 255
192 218 255
192 218 255
192 218 255
192 218 255
192 218 255
192 218 255
192 218 255
192 218 255
192 218 255
192 218 255
192 218 255
192 218 255
192 218 255
192 218 255
192 218 255
192 218 255
192 218 255
192 218 255
192 218 255
192 218 255
192 218 255
192 218 255
192 217 255
192 218 255
192 217 255
192 218 255
192 217 255
192 217 255
192 217 255
192 217 255
192 217 255
192 217 255
192 217 255
192 217 255
192 217 255
192 217 255
192 217 255
192 217 255
192 217 255
192 217 255
192 217 255
192 217 255
192 217 255
192 217 255
192 217 255
192 217 255
192 217 255
192 217 255
192 217 255
192 217 255
192 217 255
192 217 255
192 217 255
192 217 255
192 217 255
192 217 255
192 217 255
192 217 255
192 217 255
192 217 255
192 217 255
192 217 255
192 217 255
192 217 255
192 217 255
192 217 255
192 217 255
192 217 255
192 217 255
192 218 255
192 218 255
192 218 255
192 218 255
192 218 255
192 218 255
192 218 255
192 218 255
192 218 255
192 218 255
192 218 255
192 218 255
192 218 255
192 218 255
192 218 255
192 218 255
192 218 255
192 218 255
192 218 255
192 218 255
192 218 255
192 218 255
192 218 255
192 218 255
192 218 255
192 218 255
192 218 255
192 218 255
192 218 255
192 218 255
192 218 255
192 218 255
192 218 255
192 218 255
192 218 255
192 218 255
192 218 255
192 218 255
192 218 255
192 218 255
192 218 255
192 218 255
192 218 255
192 218 255
192 218 255
193 218 255
193 218 255
193 218 255
193 218 255
193 218 255
193 218 255
193 218 255
193 218 255
193 218 255
193 218 255
193 218 255
193 218 255
193 218 255
193 218 255
193 218 255
193 218 255
193 218 255
193 218 255
193 218 255
193 218 255
193 218 255
193 218 255
193 218 255
193 218 255
193 218 255
193 218 255
193 218 255
193 218 255
193 218 255
193 218 255
193 218 255
193 218 255
193 218 255
193 218 255
193 218 255
193 218 255
193 218 255
193 218 255
193 218 255
193 218 255
193 218 255
193 218 255
193 218 255
193 218 255
193 218 255
193 218 255
193 218 255
193 218 255
193 218 255
193 218 255
193 218 255
193 218 255
193 218 255
193 218 255
193 218 255
193 218 255
193 218 255
193 218 255
193 218 255
193 218 255
193 218 255
193 218 255
193 218 255
193 218 255
193 218 255
193 218 255
193 218 255
193 218 255
193 218 255
193 218 255
193 218 255
193 218 255
193 218 255
193 218 255
193 218 255
193 218 255
193 218 255
193 218 255
193 218 255
193 218 255
193 218 255
193 218 255
193 218 255
193 218 255
193 218 255
193 218 255
193 218 255
193 218 255
193 218 255
193 218 255
73 89 112
58 72 93
63 77 98
61 76 98
61 75 96
64 79 101
63 77 98
56 69 89
64 80 103
63 77 99
64 79 101
58 72 94
64 77 98
59 73 93
61 75 95
62 76 97
61 75 96
62 76 98
58 72 92
69 84 107
62 76 98
63 77 99
63 76 96
61 75 96
59 74 96
62 76 98
62 77 100
63 77 98
56 70 91
64 78 100
62 76 97
62 76 97
63 78 100
60 74 95
57 71 92
62 76 98
63 77 97
62 76 97
60 74 94
60 74 94
62 76 97
65 79 100
57 71 91
61 75 96
62 76 98
61 75 96
65 80 103
64 78 99
64 78 99
64 78 100
61 75 97
62 76 98
63 78 99
62 76 96
58 72 91
60 75 96
65 80 102
62 76 98
62 77 99
63 77 100
59 73 95
63 77 98
59 73 94
63 77 99
61 75 96
60 74 95
58 72 93
62 76 97
63 77 99
59 73 95
62 76 98
61 75 96
67 81 104
61 74 95
62 76 97
65 80 102
64 80 103
61 76 98
63 77 98
61 74 95
62 77 98
58 72 94
65 79 101
62 77 98
64 78 99
60 74 95
60 74 95
65 80 103
56 70 90
61 75 97
60 74 95
60 73 92
63 78 100
64 79 100
63 77 99
61 74 95
65 80 102
58 72 92
61 75 96
63 77 97
64 78 100
58 72 93
65 79 101
63 76 97
63 77 97
61 75 96
59 73 95
66 81 103
67 82 104
61 76 99
63 78 101
62 77 98
66 81 103
66 80 102
63 77 99
65 79 100
60 74 94
62 77 98
62 76 98
65 80 102
61 75 96
62 76 98
61 75 95
63 77 98
59 74 96
62 77 98
65 79 100
61 75 95
58 72 93
81 96 120
193 218 255
193 218 255
193 218 255
193 218 255
193 218 255
193 218 255
193 218 255
193 218 255
193 218 255
193 218 255
193 218 255
193 218 255
193 218 255
193 218 255
193 218 255
193 218 255
193 218 255
193 218 255
193 218 255
193 218 255
193 218 255
193 218 255
193 218 255
193 218 255
193 218 255
193 218 255
193 218 255
193 218 255
193 218 255
193 218 255
193 218 255
193 218 255
193 218 255
193 218 255
193 218 255
193 218 255
193 218 255
193 218 255
193 218 255
193 218 255
193 218 255
193 218 255
193 218 255
193 218 255
193 218 255
193 218 255
193 218 255
193 218 255
193 218 255
193 218 255
193 218 255
193 218 255
193 218 255
193 218 255
193 218 255
193 218 255
193 218 255
193 218 255
193 218 255
193 218 255
193 218 255
193 218 255
193 218 255
193 218 255
193 218 255
193 218 255
193 218 255
193 218 255
193 218 255
193 218 255
193 218 255
193 218 255
193 218 255
193 218 255
193 218 255
193 218 255
193 218 255
193 218 255
193 218 255
193 218 255
193 218 255
193 218 255
193 218 255
193 218 255
193 218 255
193 218 255
193 218 255
193 218 255
193 218 255
193 218 255
192 218 255
193 218 255
192 218 255
192 218 255
192 218 255
192 218 255
192 218 255
192 218 255
192 218 255
192 218 255
192 218 255
192 218 255
192 218 255
192 218 255
192 218 255
192 218 255
192 218 255
192 218 255
192 218 255
192 218 255
192 218 255
192 218 255
192 218 255
192 218 255
192 218 255
192 218 255
192 218 255
192 218 255
192 218 255
192 218 255
192 218 255
192 218 255
192 218 255
192 218 255
192 218 255
192 218 255
192 218 255
192 218 255
192 218 255
192 218 255
192 218 255
192 218 255
192 218 255
192 218 255
192 218 255
193 218 255
193 218 255
193 218 255
193 218 255
193 218 255
193 218 255
193 218 255
193 218 255
193 218 255
193 218 255
193 218 255
193 218 255
193 218 255
193 218 255
193 218 255
193 218 255
193 218 255
193 218 255
193 218 255
193 218 255
193 218 255
193 218 255
193 218 255
193 218 255
193 218 255
193 218 255
193 218 255
193 218 255
193 218 255
193 218 255
193 218 255
193 218 255
193 218 255
193 218 255
193 218 255
193 218 255
193 218 255
193 218 255
193 218 255
193 218 255
193 218 255
193 218 255
193 218 255
193 218 255
193 218 255
193 218 255
193 218 255
193 218 255
193 218 255
193 218 255
193 218 255
193 218 255
193 218 255
193 218 255
193 218 255
193 218 255
193 218 255
193 218 255
193 218 255
193 218 255
193 218 255
193 218 255
193 218 255
193 218 255
193 218 255
193 218 255
193 218 255
193 218 255
193 218 255
193 218 255
193 218 255
193 218 255
193 218 255
193 218 255
193 218 255
193 218 255
193 218 255
193 218 255
193 218 255
193 218 255
193 218 255
193 218 255
193 218 255
193 218 255
193 218 255
193 218 255
193 218 255
193 218 255
193 218 255
193 218 255
193 218 255
193 218 255
193 218 255
193 218 255
193 218 255
193 218 255
193 218 255
193 218 255
193 218 255
193 218 255
193 218 255
193 218 255
193 218 255
193 218 255
193 218 255
193 218 255
193 218 255
193 218 255
193 218 255
193 218 255
193 218 255
193 218 255
193 218 255
193 218 255
193 218 255
193 218 255
193 218 255
193 218 255
193 218 255
193 218 255
193 218 255
193 218 255
193 218 255
193 218 255
193 218 255
193 218 255
193 218 255
193 218 255
193 218 255
193 218 255
193 218 255
193 218 255
193 218 255
193 218 255
193 218 255
79 95 118
56 69 89
62 77 98
63 77 99
60 74 96
62 76 98
65 80 102
64 79 101
63 77 99
60 74 94
67 82 104
61 75 95
62 76 98
63 77 98
62 77 99
62 76 96
60 74 94
63 78 100
67 82 105
61 75 96
61 75 97
63 77 99
65 80 102
65 79 101
66 81 103
66 80 102
62 77 98
64 79 102
63 77 98
64 77 98
60 73 94
63 77 98
57 70 90
63 77 98
58 72 93
64 78 99
59 74 96
61 76 97
61 75 95
63 78 99
64 79 101
60 75 97
59 73 94
58 72 93
64 77 98
63 77 99
62 77 99
61 76 97
62 76 97
65 80 103
59 73 94
65 79 100
66 80 102
64 79 101
63 77 97
67 81 103
62 76 96
65 80 103
58 71 92
64 79 102
58 72 92
62 76 98
61 76 98
52 64 83
60 74 95
64 78 100
62 76 97
65 79 101
58 71 92
62 76 97
57 71 91
61 76 97
63 77 98
65 79 100
65 79 100
60 74 95
61 75 97
57 71 91
65 79 101
60 74 95
63 77 99
61 76 97
61 75 96
56 70 91
62 76 96
61 75 97
62 76 97
59 72 91
56 71 92
59 73 94
65 80 101
59 73 94
58 71 91
67 82 106
63 77 98
64 78 100
62 76 96
65 79 101
61 75 96
67 81 103
65 80 101
62 77 100
66 81 102
60 74 95
64 79 100
64 78 99
60 74 95
59 73 93
59 73 93
61 76 98
59 73 94
62 76 97
64 78 99
68 82 103
63 77 97
63 78 101
60 74 95
62 75 95
62 76 98
61 75 96
63 77 98
63 78 100
59 74 95
65 79 102
61 75 96
59 72 92
63 77 98
61 76 97
65 79 101
91 108 133
193 218 255
193 218 255
193 218 255
193 218 255
193 218 255
193 218 255
193 218 255
193 218 255
193 218 255
193 218 255
193 218 255
193 218 255
193 218 255
193 218 255
193 218 255
193 218 255
193 218 255
193 218 255
193 218 255
193 218 255
193 218 255
193 218 255
193 218 255
193 218 255
193 218 255
193 218 255
193 218 255
193 218 255
193 218 255
193 218 255
193 218 255
193 218 255
193 218 255
193 218 255
193 218 255
193 218 255
193 218 255
193 218 255
193 218 255
193 218 255
193 218 255
193 218 255
193 218 255
193 218 255
193 218 255
193 218 255
193 218 255
193 218 255
193 218 255
193 218 255
193 218 255
193 218 255
193 218 255
193 218 255
193 218 255
193 218 255
193 218 255
193 218 255
193 218 255
193 218 255
193 218 255
193 218 255
193 218 255
193 218 255
193 218 255
193 218 255
193 218 255
193 218 255
193 218 255
193 218 255
193 218 255
193 218 255
193 218 255
193 218 255
193 218 255
193 218 255
193 218 255
193 218 255
193 218 255
193 218 255
193 218 255
193 218 255
193 218 255
193 218 255
193 218 255
193 218 255
193 218 255
193 218 255
193 218 255
193 218 255
193 218 255
193 218 255
193 218 255
193 218 255
193 218 255
193 218 255
193 218 255
193 218 255
193 218 255
193 218 255
193 218 255
193 218 255
193 218 255
193 218 255
193 218 255
193 218 255
193 218 255
193 218 255
193 218 255
193 218 255
193 218 255
193 218 255
193 218 255
193 218 255
193 218 255
193 218 255
193 218 255
193 218 255
193 218 255
193 218 255
193 218 255
193 218 255
193 218 255
193 218 255
193 218 255
193 218 255
193 218 255
193 218 255
193 218 255
193 218 255
193 218 255
193 218 255
193 218 255
193 218 255
193 218 255
193 218 255
193 218 255
193 218 255
193 218 255
193 218 255
193 218 255
193 218 255
193 218 255
193 218 255
193 218 255
193 218 255
193 218 255
193 218 255
193 218 255
193 218 255
193 218 255
193 218 255
193 218 255
193 218 255
193 218 255
193 218 255
193 218 255
193 218 255
193 218 255
193 218 255
193 218 255
193 218 255
193 218 255
193 218 255
193 218 255
193 218 255
193 218 255
193 218 255
193 218 255
193 218 255
193 218 255
193 218 255
193 218 255
193 218 255
193 218 255
193 218 255
193 218 255
193 218 255
193 218 255
193 218 255
193 218 255
193 218 255
193 218 255
193 218 255
193 218 255
193 218 255
193 218 255
193 218 255
193 218 255
193 218 255
193 218 255
193 218 255
193 218 255
193 218 255
193 218 255
193 218 255
193 218 255
193 218 255
193 218 255
193 218 255
193 218 255
193 218 255
193 218 255
193 218 255
193 218 255
193 218 255
193 218 255
193 218 255
193 218 255
193 218 255
193 218 255
193 218 255
193 218 255
193 218 255
193 218 255
193 218 255
193 218 255
193 218 255
193 218 255
193 218 255
193 218 255
193 218 255
193 218 255
194 218 255
194 218 255
194 218 255
194 218 255
194 218 255
194 218 255
194 218 255
194 218 255
194 218 255
194 218 255
194 218 255
194 218 255
194 218 255
194 218 255
194 218 255
194 218 255
194 218 255
194 218 255
194 218 255
194 218 255
194 218 255
194 218 255
194 218 255
194 218 255
194 218 255
194 218 255
194 218 255
194 218 255
194 218 255
194 218 255
194 219 255
194 218 255
194 218 255
194 219 255
194 218 255
194 219 255
194 219 255
194 219 255
194 219 255
194 219 255
194 219 255
194 219 255
194 219 255
194 219 255
194 219 255
194 219 255
194 219 255
92 109 135
60 74 94
61 75 97
63 77 99
64 77 98
61 74 95
64 78 99
63 77 98
57 70 90
64 78 99
66 81 103
62 76 97
61 75 96
60 74 95
62 76 99
58 72 94
60 73 93
59 73 93
61 75 96
58 72 94
60 74 96
64 78 98
63 78 99
61 75 96
60 75 97
61 76 98
62 76 98
63 77 97
67 82 105
60 74 95
59 73 94
62 76 98
60 75 96
56 70 90
67 82 104
61 75 96
61 75 96
68 83 105
60 74 95
59 73 94
60 75 97
61 75 96
64 79 100
63 77 99
58 72 93
65 79 101
59 73 93
65 80 103
62 77 99
60 74 94
63 77 98
65 80 103
59 74 95
63 77 98
60 74 94
61 74 94
62 76 97
62 77 98
58 71 92
64 79 101
62 76 97
62 77 99
63 78 100
63 78 99
61 76 97
60 73 93
60 74 94
61 75 95
63 77 99
61 75 95
63 76 97
60 75 96
65 79 101
60 74 95
66 81 102
62 77 99
60 75 96
61 75 96
62 76 97
61 75 97
61 75 96
64 78 99
60 74 94
58 71 92
59 72 92
64 79 102
61 75 96
63 77 97
64 78 99
64 79 102
64 78 100
62 76 98
63 78 99
61 75 96
63 76 96
59 72 92
63 77 98
63 77 98
62 76 97
61 76 97
61 75 96
60 74 96
65 80 102
62 76 97
64 78 100
62 76 97
66 81 104
61 75 97
66 80 100
63 78 99
59 73 93
60 74 95
59 73 94
62 76 97
64 78 98
61 75 96
62 76 98
63 77 98
65 79 100
61 75 96
62 75 94
61 76 97
63 77 99
60 73 94
58 71 91
64 78 99
63 77 98
63 77 99
62 75 96
85 100 123
194 219 255
194 219 255
194 219 255
194 219 255
194 219 255
194 219 255
194 219 255
194 219 255
194 219 255
194 219 255
194 219 255
194 219 255
194 218 255
194 218 255
194 218 255
194 218 255
194 218 255
194 218 255
194 218 255
194 218 255
194 218 255
194 218 255
194 218 255
194 218 255
194 218 255
194 218 255
194 218 255
194 218 255
194 218 255
194 218 255
194 218 255
194 218 255
194 218 255
194 218 255
194 218 255
194 218 255
194 218 255
194 218 255
194 218 255
194 218 255
194 218 255
194 218 255
194 218 255
194 218 255
194 218 255
194 218 255
194 218 255
193 218 255
194 218 255
194 218 255
193 218 255
193 218 255
193 218 255
193 218 255
193 218 255
193 218 255
193 218 255
193 218 255
193 218 255
193 218 255
193 218 255
193 218 255
193 218 255
193 218 255
193 218 255
193 218 255
193 218 255
193 218 255
193 218 255
193 218 255
193 218 255
193 218 255
193 218 255
193 218 255
193 218 255
193 218 255
193 218 255
193 218 255
193 218 255
193 218 255
193 218 255
193 218 255
193 218 255
193 218 255
193 218 255
193 218 255
193 218 255
193 218 255
193 218 255
193 218 255
193 218 255
193 218 255
193 218 255
193 218 255
193 218 255
193 218 255
193 218 255
193 218 255
193 218 255
193 218 255
193 218 255
193 218 255
193 218 255
193 218 255
193 218 255
193 218 255
193 218 255
193 218 255
193 218 255
193 218 255
193 218 255
193 218 255
193 218 255
193 218 255
193 218 255
193 218 255
193 218 255
193 218 255
193 218 255
193 218 255
193 218 255
193 218 255
193 218 255
193 218 255
193 218 255
193 218 255
193 218 255
193 218 255
193 218 255
193 218 255
193 218 255
193 218 255
193 218 255
193 218 255
193 218 255
193 218 255
193 218 255
193 218 255
193 218 255
193 218 255
193 218 255
193 218 255
193 218 255
193 218 255
193 218 255
193 218 255
193 218 255
193 218 255
193 218 255
193 218 255
193 218 255
193 218 255
193 218 255
193 218 255
193 218 255
193 218 255
193 218 255
193 218 255
193 218 255
193 218 255
193 218 255
193 218 255
193 218 255
193 218 255
193 218 255
193 218 255
193 218 255
193 218 255
193 218 255
193 218 255
193 218 255
193 218 255
193 218 255
193 218 255
193 218 255
193 218 255
193 218 255
193 218 255
193 218 255
194 218 255
194 218 255
194 218 255
194 218 255
194 218 255
194 218 255
194 218 255
194 218 255
194 218 255
194 218 255
194 218 255
194 218 255
194 218 255
194 218 255
194 218 255
194 218 255
194 218 255
194 218 255
194 218 255
194 218 255
194 218 255
194 218 255
194 218 255
194 218 255
194 218 255
194 218 255
194 218 255
194 218 255
194 218 255
194 218 255
194 218 255
194 218 255
194 218 255
194 218 255
194 218 255
194 218 255
194 219 255
194 219 255
194 219 255
194 219 255
194 219 255
194 219 255
194 219 255
194 219 255
194 219 255
194 219 255
194 219 255
194 219 255
194 219 255
194 219 255
194 219 255
194 219 255
194 219 255
194 219 255
194 219 255
194 219 255
194 219 255
194 219 255
194 219 255
194 219 255
194 219 255
194 219 255
194 219 255
194 219 255
194 219 255
194 219 255
194 219 255
194 219 255
194 219 255
194 219 255
194 219 255
194 219 255
194 219 255
194 219 255
194 219 255
194 219 255
194 219 255
194 219 255
194 219 255
194 219 255
194 219 255
194 219 255
194 219 255
194 219 255
194 219 255
194 219 255
194 219 255
194 219 255
194 219 255
194 219 255
194 219 255
110 127 154
60 74 95
60 73 93
61 74 95
61 74 94
59 73 93
63 77 98
63 77 98
58 71 92
63 77 98
62 77 98
60 73 94
61 75 96
61 74 94
62 76 98
62 76 97
59 73 93
61 74 95
62 76 97
67 81 102
66 80 102
64 79 100
61 75 96
64 79 101
61 75 97
59 72 92
63 78 99
63 77 99
61 75 97
62 77 98
65 80 103
56 70 91
63 77 99
61 75 96
66 80 101
61 75 97
62 76 97
66 80 101
62 77 99
59 73 94
64 78 100
66 81 103
56 69 88
65 79 100
64 79 100
60 74 95
65 80 102
59 72 92
58 72 93
60 74 94
62 77 99
62 76 97
60 75 96
61 75 96
59 73 94
62 77 99
61 75 96
61 76 98
64 78 100
64 78 98
61 74 95
63 76 97
61 74 95
61 75 95
60 75 98
62 76 98
56 70 90
64 79 102
67 81 102
62 76 98
65 80 102
58 72 92
65 79 101
63 77 98
58 72 92
62 75 96
59 73 93
63 77 98
67 82 105
59 73 94
64 77 97
63 77 98
59 72 92
63 77 99
59 72 92
66 80 103
57 70 91
59 73 93
64 78 100
66 80 101
63 77 99
63 78 100
64 79 100
64 78 100
61 75 96
58 71 92
63 78 99
62 77 98
61 75 96
60 74 95
60 74 95
66 81 102
62 76 98
64 79 100
57 70 90
59 72 93
62 77 99
63 77 100
59 72 91
63 77 99
62 76 97
65 80 102
57 71 91
62 76 97
59 73 94
66 80 101
59 73 95
59 73 94
59 72 92
64 79 100
59 73 93
60 73 94
60 74 95
61 75 96
62 76 98
61 75 96
66 80 103
61 75 97
62 76 97
105 122 148
194 219 255
194 219 255
194 219 255
194 219 255
194 219 255
194 219 255
194 219 255
194 219 255
194 219 255
194 219 255
194 219 255
194 219 255
194 219 255
194 219 255
194 219 255
194 219 255
194 219 255
194 219 255
194 219 255
194 219 255
194 219 255
194 219 255
194 219 255
194 219 255
194 219 255
194 219 255
194 219 255
194 219 255
194 219 255
194 219 255
194 219 255
194 219 255
194 219 255
194 219 255
194 219 255
194 219 255
194 219 255
194 219 255
194 219 255
194 219 255
194 219 255
194 219 255
194 219 255
194 219 255
194 219 255
194 219 255
194 219 255
194 219 255
194 219 255
194 219 255
194 219 255
194 219 255
194 219 255
194 219 255
194 219 255
194 218 255
194 218 255
194 218 255
194 218 255
194 218 255
194 218 255
194 218 255
194 218 255
194 218 255
194 218 255
194 218 255
194 218 255
194 218 255
194 218 255
194 218 255
194 218 255
194 218 255
194 218 255
194 218 255
194 218 255
194 218 255
194 218 255
194 218 255
194 218 255
194 218 255
194 218 255
194 218 255
194 218 255
194 218 255
194 218 255
194 218 255
193 218 255
194 218 255
194 218 255
194 218 255
193 218 255
193 218 255
193 218 255
193 218 255
193 218 255
193 218 255
193 218 255
193 218 255
193 218 255
193 218 255
193 218 255
193 218 255
193 218 255
193 218 255
193 218 255
193 218 255
193 218 255
193 218 255
193 218 255
193 218 255
193 218 255
193 218 255
193 218 255
193 218 255
193 218 255
193 218 255
193 218 255
193 218 255
193 218 255
193 218 255
193 218 255
193 218 255
193 218 255
193 218 255
193 218 255
193 218 255
193 218 255
193 218 255
193 218 255
193 218 255
193 218 255
193 218 255
193 218 255
193 218 255
193 218 255
193 218 255
193 218 255
193 218 255
193 218 255
193 218 255
194 218 255
194 218 255
194 218 255
194 218 255
194 218 255
194 218 255
194 218 255
194 218 255
194 218 255
194 218 255
194 218 255
194 218 255
194 218 255
194 218 255
194 218 255
194 218 255
194 218 255
194 218 255
194 218 255
194 218 255
194 218 255
194 218 255
194 218 255
194 218 255
194 218 255
194 218 255
194 218 255
194 218 255
194 218 255
194 218 255
194 218 255
194 218 255
194 218 255
194 218 255
194 218 255
194 218 255
194 218 255
194 218 255
194 218 255
194 218 255
194 219 255
194 219 255
194 219 255
194 219 255
194 219 255
194 219 255
194 219 255
194 219 255
194 219 255
194 219 255
194 219 255
194 219 255
194 219 255
194 219 255
194 219 255
194 219 255
194 219 255
194 219 255
194 219 255
194 219 255
194 219 255
194 219 255
194 219 255
194 219 255
194 219 255
194 219 255
194 219 255
194 219 255
194 219 255
194 219 255
194 219 255
194 219 255
194 219 255
194 219 255
194 219 255
194 219 255
194 219 255
194 219 255
194 219 255
194 219 255
194 219 255
194 219 255
194 219 255
194 219 255
194 219 255
194 219 255
194 219 255
194 219 255
194 219 255
194 219 255
194 219 255
194 219 255
194 219 255
194 219 255
194 219 255
194 219 255
194 219 255
195 219 255
195 219 255
195 219 255
195 219 255
195 219 255
195 219 255
195 219 255
195 219 255
195 219 255
195 219 255
195 219 255
195 219 255
195 219 255
195 219 255
195 219 255
195 219 255
195 219 255
195 219 255
195 219 255
195 219 255
195 219 255
195 219 255
195 219 255
195 219 255
195 219 255
195 219 255
195 219 255
195 219 255
195 219 255
195 219 255
195 219 255
195 219 255
195 219 255
128 147 175
55 68 87
62 76 97
60 73 94
61 75 96
60 74 96
61 74 95
64 78 99
58 72 92
59 72 92
61 75 96
62 77 98
62 76 97
60 73 94
62 77 98
55 69 89
61 75 96
64 78 99
62 76 98
57 70 91
63 77 98
64 79 102
61 75 96
66 81 103
63 77 99
60 74 94
57 71 91
61 75 96
64 77 98
63 77 99
60 74 95
63 78 100
61 75 95
66 81 103
60 74 95
53 66 86
63 76 97
60 74 96
63 77 97
64 78 99
58 71 92
64 79 101
60 74 95
58 71 91
64 79 101
60 75 96
60 74 95
63 77 98
62 76 97
62 75 96
61 75 97
58 72 92
63 79 102
61 75 97
62 75 95
62 76 98
61 75 96
59 73 93
65 80 102
64 77 97
60 75 97
60 74 96
61 75 96
61 75 96
67 82 104
64 79 100
65 79 101
67 81 103
64 79 101
64 77 98
57 71 90
61 75 97
63 77 99
58 72 93
61 75 96
58 72 93
59 73 95
58 72 93
62 76 97
61 75 95
60 74 96
63 78 100
65 80 102
63 76 96
64 79 101
61 74 94
58 71 91
63 77 98
59 73 95
66 81 103
61 75 96
60 74 94
64 79 101
61 75 97
59 71 91
61 75 96
61 75 96
56 69 88
60 73 94
61 75 96
59 74 95
60 73 92
60 74 94
60 74 95
65 80 103
62 77 98
57 71 92
64 79 101
61 75 96
60 73 94
55 68 88
64 78 98
64 78 100
62 76 96
56 70 91
59 73 92
59 72 91
60 73 93
62 75 96
64 78 99
63 78 99
61 75 96
64 78 99
56 69 89
59 73 94
61 75 96
63 77 97
57 72 94
58 72 92
106 123 148
195 219 255
195 219 255
195 219 255
195 219 255
195 219 255
195 219 255
195 219 255
195 219 255
195 219 255
195 219 255
195 219 255
195 219 255
195 219 255
195 219 255
195 219 255
195 219 255
195 219 255
195 219 255
195 219 255
195 219 255
195 219 255
195 219 255
195 219 255
195 219 255
195 219 255
195 219 255
195 219 255
195 219 255
195 219 255
195 219 255
195 219 255
195 219 255
195 219 255
194 219 255
194 219 255
194 219 255
194 219 255
194 219 255
194 219 255
194 219 255
194 219 255
194 219 255
194 219 255
194 219 255
194 219 255
194 219 255
194 219 255
194 219 255
194 219 255
194 219 255
194 219 255
194 219 255
194 219 255
194 219 255
194 219 255
194 219 255
194 219 255
194 219 255
194 219 255
194 219 255
194 219 255
194 219 255
194 219 255
194 219 255
194 219 255
194 219 255
194 219 255
194 219 255
194 219 255
194 219 255
194 219 255
194 219 255
194 219 255
194 219 255
194 219 255
194 219 255
194 219 255
194 219 255
194 219 255
194 219 255
194 219 255
194 219 255
194 219 255
194 219 255
194 219 255
194 219 255
194 219 255
194 219 255
194 219 255
194 219 255
194 219 255
194 218 255
194 218 255
194 218 255
194 218 255
194 218 255
194 218 255
194 218 255
194 218 255
194 218 255
194 218 255
194 218 255
194 218 255
194 218 255
194 218 255
194 218 255
194 218 255
194 218 255
194 218 255
194 218 255
194 218 255
194 218 255
194 218 255
194 218 255
194 218 255
194 218 255
194 218 255
194 218 255
194 218 255
194 218 255
194 218 255
194 218 255
194 218 255
194 218 255
194 218 255
194 218 255
194 218 255
194 218 255
194 218 255
193 218 255
193 218 255
193 218 255
193 218 255
193 218 255
193 218 255
194 218 255
194 218 255
194 218 255
194 218 255
194 218 255
194 218 255
194 218 255
194 218 255
194 218 255
194 218 255
194 219 255
194 218 255
194 219 255
194 219 255
194 219 255
194 219 255
194 219 255
194 219 255
194 219 255
194 219 255
194 219 255
194 219 255
194 219 255
194 219 255
194 219 255
194 219 255
194 219 255
194 219 255
194 219 255
194 219 255
194 219 255
194 219 255
194 219 255
194 219 255
194 219 255
194 219 255
194 219 255
194 219 255
194 219 255
194 219 255
194 219 255
194 219 255
194 219 255
194 219 255
194 219 255
194 219 255
194 219 255
194 219 255
194 219 255
194 219 255
194 219 255
194 219 255
194 219 255
194 219 255
194 219 255
194 219 255
194 219 255
194 219 255
194 219 255
194 219 255
194 219 255
194 219 255
194 219 255
194 219 255
194 219 255
194 219 255
194 219 255
194 219 255
194 219 255
194 219 255
194 219 255
194 219 255
195 219 255
195 219 255
195 219 255
195 219 255
195 219 255
195 219 255
195 219 255
195 219 255
195 219 255
195 219 255
195 219 255
195 219 255
195 219 255
195 219 255
195 219 255
195 219 255
195 219 255
195 219 255
195 219 255
195 219 255
195 219 255
195 219 255
195 219 255
195 219 255
195 219 255
195 219 255
195 219 255
195 219 255
195 219 255
195 219 255
195 219 255
195 219 255
195 219 255
195 219 255
195 219 255
195 219 255
195 219 255
195 219 255
195 219 255
195 219 255
195 219 255
195 219 255
195 219 255
195 219 255
195 219 255
195 219 255
195 219 255
195 219 255
195 219 255
195 219 255
195 219 255
195 219 255
195 219 255
195 219 255
195 219 255
195 219 255
195 219 255
195 219 255
195 219 255
195 219 255
195 219 255
195 219 255
195 219 255
134 154 182
62 75 96
60 73 93
62 75 96
60 73 93
60 74 94
64 79 100
62 76 96
56 69 88
59 72 93
60 74 94
62 76 97
59 72 92
57 70 90
63 77 98
59 73 93
58 72 93
62 76 98
57 70 89
58 71 91
58 71 91
62 76 96
61 75 96
62 76 97
61 76 97
57 70 90
66 80 102
60 75 96
61 75 96
59 73 94
59 73 94
57 70 90
61 75 97
63 77 99
61 75 96
63 78 100
64 78 100
59 72 93
62 76 97
62 77 98
64 79 102
57 71 91
65 79 101
66 81 103
63 77 98
62 75 96
59 73 94
63 77 98
61 74 94
61 75 96
65 80 101
60 74 95
61 75 95
60 74 95
62 77 98
61 75 96
63 77 98
60 73 94
61 75 96
58 71 91
59 72 93
61 76 97
62 75 96
63 77 98
61 76 97
61 74 95
62 76 97
61 75 96
61 76 97
63 78 100
62 76 97
63 77 98
66 80 101
64 78 100
61 75 97
56 70 90
60 74 95
59 73 94
61 74 95
63 77 99
65 80 102
61 76 97
56 69 88
57 71 90
60 74 95
57 69 89
60 73 94
61 75 96
60 74 95
57 70 91
63 77 98
60 74 95
60 74 96
56 69 88
63 77 98
58 72 93
62 76 97
60 74 93
59 73 94
61 75 97
62 75 95
61 74 95
64 78 99
56 70 90
60 74 94
60 73 93
62 76 98
59 73 93
62 76 97
61 75 96
59 73 94
55 68 88
60 74 95
63 77 99
62 75 96
58 71 91
57 71 91
66 81 103
59 74 96
59 72 92
61 75 96
60 75 96
56 69 88
62 76 97
62 76 98
59 73 93
64 78 99
59 73 94
61 75 96
129 148 177
195 219 255
195 219 255
195 219 255
195 219 255
195 219 255
195 219 255
195 219 255
195 219 255
195 219 255
195 219 255
195 219 255
195 219 255
195 219 255
195 219 255
195 219 255
195 219 255
195 219 255
195 219 255
195 219 255
195 219 255
195 219 255
195 219 255
195 219 255
195 219 255
195 219 255
195 219 255
195 219 255
195 219 255
195 219 255
195 219 255
195 219 255
195 219 255
195 219 255
195 219 255
195 219 255
195 219 255
195 219 255
195 219 255
195 219 255
195 219 255
195 219 255
195 219 255
195 219 255
195 219 255
195 219 255
195 219 255
195 219 255
195 219 255
195 219 255
195 219 255
195 219 255
195 219 255
195 219 255
195 219 255
195 219 255
195 219 255
195 219 255
195 219 255
195 219 255
195 219 255
195 219 255
195 219 255
195 219 255
195 219 255
194 219 255
194 219 255
194 219 255
194 219 255
194 219 255
194 219 255
194 219 255
194 219 255
194 219 255
194 219 255
194 219 255
194 219 255
194 219 255
194 219 255
194 219 255
194 219 255
194 219 255
194 219 255
194 219 255
194 219 255
194 219 255
194 219 255
194 219 255
194 219 255
194 219 255
194 219 255
194 219 255
194 219 255
194 219 255
194 219 255
194 219 255
194 219 255
194 219 255
194 219 255
194 219 255
194 219 255
194 219 255
194 219 255
194 219 255
194 219 255
194 219 255
194 219 255
194 219 255
194 219 255
194 219 255
194 219 255
194 219 255
194 219 255
194 219 255
194 219 255
194 219 255
194 219 255
194 219 255
194 219 255
194 219 255
194 219 255
194 219 255
194 219 255
194 219 255
194 218 255
194 218 255
194 218 255
194 218 255
194 218 255
194 218 255
194 218 255
194 218 255
194 218 255
194 218 255
194 218 255
194 218 255
194 219 255
194 219 255
194 219 255
194 219 255
194 219 255
194 219 255
194 219 255
194 219 255
194 219 255
194 219 255
194 219 255
194 219 255
194 219 255
194 219 255
194 219 255
194 219 255
194 219 255
194 219 255
194 219 255
194 219 255
194 219 255
194 219 255
194 219 255
194 219 255
194 219 255
194 219 255
194 219 255
194 219 255
194 219 255
194 219 255
194 219 255
194 219 255
194 219 255
194 219 255
194 219 255
194 219 255
194 219 255
194 219 255
194 219 255
194 219 255
194 219 255
194 219 255
194 219 255
194 219 255
195 219 255
195 219 255
195 219 255
195 219 255
195 219 255
195 219 255
195 219 255
195 219 255
195 219 255
195 219 255
195 219 255
195 219 255
195 219 255
195 219 255
195 219 255
195 219 255
195 219 255
195 219 255
195 219 255
195 219 255
195 219 255
195 219 255
195 219 255
195 219 255
195 219 255
195 219 255
195 219 255
195 219 255
195 219 255
195 219 255
195 219 255
195 219 255
195 219 255
195 219 255
195 219 255
195 219 255
195 219 255
195 219 255
195 219 255
195 219 255
195 219 255
195 219 255
195 219 255
195 219 255
195 219 255
195 219 255
195 219 255
195 219 255
195 219 255
195 219 255
195 219 255
195 219 255
195 219 255
195 219 255
195 219 255
195 219 255
195 219 255
195 219 255
195 219 255
195 219 255
195 219 255
195 219 255
195 219 255
195 219 255
195 219 255
195 219 255
195 219 255
196 220 255
196 220 255
196 220 255
196 220 255
196 220 255
196 220 255
196 220 255
196 220 255
196 220 255
196 220 255
196 220 255
196 220 255
196 220 255
196 220 255
196 220 255
196 220 255
196 220 255
196 220 255
196 220 255
196 220 255
196 220 255
196 220 255
196 220 255
196 220 255
148 168 199
61 75 95
62 75 96
62 76 98
59 72 92
56 69 89
60 74 94
62 76 97
62 75 96
60 75 96
61 75 96
59 73 94
62 76 96
58 72 93
62 77 98
67 81 104
57 70 90
65 79 100
61 75 96
58 72 92
59 73 93
61 75 97
58 71 90
57 70 90
62 76 96
63 77 98
63 78 100
62 76 98
60 74 95
61 76 98
65 78 98
64 78 99
62 76 97
59 73 94
59 72 93
58 72 92
57 71 91
63 77 97
63 78 100
62 76 96
55 68 86
61 75 96
62 77 98
56 69 88
66 81 102
63 78 100
67 82 105
56 69 88
58 71 92
63 77 98
64 78 100
58 72 93
63 77 99
60 74 94
58 71 91
62 76 97
56 70 91
65 78 99
56 69 90
63 77 98
59 73 93
56 69 89
64 79 100
63 77 99
61 75 95
63 78 99
61 75 97
57 71 91
60 73 94
60 75 96
63 77 98
60 73 93
60 74 95
63 77 98
59 73 94
66 80 102
56 70 90
62 76 97
66 80 101
57 71 92
66 80 101
64 78 99
57 70 89
60 74 94
63 77 97
63 77 98
59 73 93
61 75 96
61 75 95
62 75 96
62 76 97
59 72 93
61 74 94
62 76 98
64 78 99
57 71 91
64 78 100
58 71 90
65 79 101
61 75 96
63 76 97
62 75 96
64 78 99
64 78 98
66 81 102
62 75 96
58 71 92
57 71 92
60 74 95
64 78 99
62 76 98
62 76 98
64 78 99
62 76 97
62 76 98
61 75 95
59 73 93
57 71 91
63 77 98
60 73 92
59 73 94
60 74 95
63 77 99
60 74 95
59 72 92
58 72 93
61 74 95
61 75 97
57 71 90
150 171 202
196 220 255
196 220 255
196 220 255
196 220 255
196 220 255
196 220 255
196 220 255
196 220 255
196 220 255
196 220 255
196 220 255
196 220 255
196 220 255
196 220 255
196 220 255
196 220 255
196 220 255
196 220 255
196 220 255
196 220 255
196 220 255
196 220 255
196 220 255
196 220 255
195 219 255
195 219 255
195 219 255
195 219 255
195 219 255
195 219 255
195 219 255
195 219 255
195 219 255
195 219 255
195 219 255
195 219 255
195 219 255
195 219 255
195 219 255
195 219 255
195 219 255
195 219 255
195 219 255
195 219 255
195 219 255
195 219 255
195 219 255
195 219 255
195 219 255
195 219 255
195 219 255
195 219 255
195 219 255
195 219 255
195 219 255
195 219 255
195 219 255
195 219 255
195 219 255
195 219 255
195 219 255
195 219 255
195 219 255
195 219 255
195 219 255
195 219 255
195 219 255
195 219 255
195 219 255
195 219 255
195 219 255
195 219 255
195 219 255
195 219 255
195 219 255
195 219 255
195 219 255
195 219 255
195 219 255
195 219 255
195 219 255
195 219 255
195 219 255
195 219 255
195 219 255
195 219 255
195 219 255
195 219 255
195 219 255
195 219 255
195 219 255
194 219 255
194 219 255
194 219 255
194 219 255
194 219 255
194 219 255
194 219 255
194 219 255
194 219 255
194 219 255
194 219 255
194 219 255
194 219 255
194 219 255
194 219 255
194 219 255
194 219 255
194 219 255
194 219 255
194 219 255
194 219 255
194 219 255
194 219 255
194 219 255
194 219 255
194 219 255
194 219 255
194 219 255
194 219 255
194 219 255
194 219 255
194 219 255
194 219 255
194 219 255
194 219 255
194 219 255
194 219 255
194 219 255
194 219 255
194 219 255
194 219 255
194 219 255
194 219 255
194 219 255
194 219 255
194 219 255
194 219 255
194 219 255
194 219 255
194 219 255
194 219 255
194 219 255
194 219 255
194 219 255
194 219 255
194 219 255
194 219 255
194 219 255
194 219 255
194 219 255
194 219 255
194 219 255
194 219 255
195 219 255
195 219 255
195 219 255
195 219 255
195 219 255
195 219 255
195 219 255
195 219 255
195 219 255
195 219 255
195 219 255
195 219 255
195 219 255
195 219 255
195 219 255
195 219 255
195 219 255
195 219 255
195 219 255
195 219 255
195 219 255
195 219 255
195 219 255
195 219 255
195 219 255
195 219 255
195 219 255
195 219 255
195 219 255
195 219 255
195 219 255
195 219 255
195 219 255
195 219 255
195 219 255
195 219 255
195 219 255
195 219 255
195 219 255
195 219 255
195 219 255
195 219 255
195 219 255
195 219 255
195 219 255
195 219 255
195 219 255
195 219 255
195 219 255
195 219 255
195 219 255
195 219 255
195 219 255
195 219 255
195 219 255
195 219 255
195 219 255
195 219 255
195 219 255
195 219 255
195 219 255
195 219 255
195 219 255
195 219 255
195 219 255
195 219 255
195 219 255
195 219 255
196 220 255
196 220 255
196 220 255
196 220 255
196 220 255
196 220 255
196 220 255
196 220 255
196 220 255
196 220 255
196 220 255
196 220 255
196 220 255
196 220 255
196 220 255
196 220 255
196 220 255
196 220 255
196 220 255
196 220 255
196 220 255
196 220 255
196 220 255
196 220 255
196 220 255
196 220 255
196 220 255
196 220 255
196 220 255
196 220 255
196 220 255
196 220 255
196 220 255
196 220 255
196 220 255
196 220 255
196 220 255
196 220 255
196 220 255
196 220 255
196 220 255
196 220 255
196 220 255
196 220 255
196 220 255
196 220 255
196 220 255
196 220 255
177 199 232
57 70 89
59 73 94
62 76 96
58 71 91
58 72 92
58 71 92
59 74 95
58 72 92
61 75 96
62 76 97
57 71 91
61 75 95
59 73 94
63 77 97
59 73 94
58 71 91
62 76 97
64 78 99
62 76 97
60 74 94
59 73 93
62 76 98
63 77 98
58 71 91
60 73 94
58 71 92
56 69 88
65 79 101
64 78 100
58 71 91
64 78 99
63 77 99
56 69 89
59 72 92
63 76 97
61 75 96
60 74 96
61 75 96
63 78 100
59 74 97
61 75 95
60 75 96
62 76 96
54 68 88
53 67 87
65 80 101
59 73 93
60 74 95
61 75 96
61 75 95
62 76 97
59 73 93
59 73 94
56 69 89
63 76 97
56 69 89
65 80 101
62 77 98
65 79 100
64 78 99
60 74 95
62 76 96
64 78 100
63 77 98
61 75 96
56 70 90
61 75 96
62 76 96
60 75 96
60 74 94
61 75 95
57 71 92
61 76 98
63 78 100
61 75 96
62 76 97
61 75 95
61 75 95
60 74 95
57 70 90
59 72 93
60 74 96
60 74 95
58 72 92
62 76 98
64 78 100
64 78 100
59 73 94
59 73 93
59 73 93
61 76 97
61 76 97
64 78 100
56 69 90
64 78 100
60 73 93
60 74 93
58 71 91
62 76 97
62 76 96
61 74 95
62 75 96
60 73 93
60 74 95
62 76 97
58 72 92
61 74 94
58 72 92
62 76 98
58 71 90
59 71 91
60 75 96
60 73 94
55 68 88
61 74 95
58 72 92
62 75 95
62 76 95
62 76 97
56 69 89
63 76 96
63 77 99
60 73 94
66 80 101
61 73 92
64 78 100
64 78 99
61 74 94
169 191 223
196 220 255
196 220 255
196 220 255
196 220 255
196 220 255
196 220 255
196 220 255
196 220 255
196 220 255
196 220 255
196 220 255
196 220 255
196 220 255
196 220 255
196 220 255
196 220 255
196 220 255
196 220 255
196 220 255
196 220 255
196 220 255
196 220 255
196 220 255
196 220 255
196 220 255
196 220 255
196 220 255
196 220 255
196 220 255
196 220 255
196 220 255
196 220 255
196 220 255
196 220 255
196 220 255
196 220 255
196 220 255
196 220 255
196 220 255
196 220 255
196 220 255
196 220 255
196 220 255
196 220 255
196 220 255
196 220 255
196 220 255
196 220 255
195 219 255
195 219 255
195 219 255
195 219 255
195 219 255
195 219 255
195 219 255
195 219 255
195 219 255
195 219 255
195 219 255
195 219 255
195 219 255
195 219 255
195 219 255
195 219 255
195 219 255
195 219 255
195 219 255
195 219 255
195 219 255
195 219 255
195 219 255
195 219 255
195 219 255
195 219 255
195 219 255
195 219 255
195 219 255
195 219 255
195 219 255
195 219 255
195 219 255
195 219 255
195 219 255
195 219 255
195 219 255
195 219 255
195 219 255
195 219 255
195 219 255
195 219 255
195 219 255
195 219 255
195 219 255
195 219 255
195 219 255
195 219 255
195 219 255
195 219 255
195 219 255
195 219 255
195 219 255
195 219 255
195 219 255
195 219 255
195 219 255
195 219 255
195 219 255
195 219 255
195 219 255
195 219 255
195 219 255
195 219 255
195 219 255
195 219 255
195 219 255
195 219 255
194 219 255
194 219 255
194 219 255
194 219 255
194 219 255
194 219 255
194 219 255
194 219 255
194 219 255
194 219 255
194 219 255
194 219 255
194 219 255
194 219 255
194 219 255
194 219 255
194 219 255
194 219 255
194 219 255
195 219 255
195 219 255
195 219 255
195 219 255
195 219 255
195 219 255
195 219 255
195 219 255
195 219 255
195 219 255
195 219 255
195 219 255
195 219 255
195 219 255
195 219 255
195 219 255
195 219 255
195 219 255
195 219 255
195 219 255
195 219 255
195 219 255
195 219 255
195 219 255
195 219 255
195 219 255
195 219 255
195 219 255
195 219 255
195 219 255
195 219 255
195 219 255
195 219 255
195 219 255
195 219 255
195 219 255
195 219 255
195 219 255
195 219 255
195 219 255
195 219 255
195 219 255
195 219 255
195 219 255
195 219 255
195 219 255
195 219 255
195 219 255
195 219 255
195 219 255
195 219 255
195 219 255
195 219 255
195 219 255
195 219 255
195 219 255
195 219 255
195 219 255
195 219 255
195 219 255
195 219 255
195 219 255
195 219 255
195 219 255
195 219 255
196 220 255
196 220 255
196 220 255
196 220 255
196 220 255
196 220 255
196 220 255
196 220 255
196 220 255
196 220 255
196 220 255
196 220 255
196 220 255
196 220 255
196 220 255
196 220 255
196 220 255
196 220 255
196 220 255
196 220 255
196 220 255
196 220 255
196 220 255
196 220 255
196 220 255
196 220 255
196 220 255
196 220 255
196 220 255
196 220 255
196 220 255
196 220 255
196 220 255
196 220 255
196 220 255
196 220 255
196 220 255
196 220 255
196 220 255
196 220 255
196 220 255
196 220 255
196 220 255
196 220 255
196 220 255
196 220 255
196 220 255
196 220 255
196 220 255
196 220 255
197 220 255
196 220 255
197 220 255
197 220 255
197 220 255
197 220 255
197 220 255
197 220 255
197 220 255
197 220 255
197 220 255
197 220 255
197 220 255
197 220 255
197 220 255
197 220 255
197 220 255
197 220 255
197 220 255
197 220 255
196 219 254
61 74 94
57 70 90
59 73 92
59 72 92
57 70 90
54 67 86
59 73 93
60 74 94
56 69 89
65 80 101
57 71 91
57 70 90
60 74 94
61 75 96
62 76 97
62 75 96
62 76 96
67 82 105
58 71 91
61 74 94
56 70 90
57 71 91
59 73 93
57 71 92
56 69 88
62 75 96
64 79 100
56 70 90
61 74 95
63 77 97
57 70 89
63 77 98
59 72 92
61 75 96
62 75 96
64 78 99
61 75 96
62 76 96
63 77 97
60 74 94
60 74 95
60 74 94
63 77 99
63 77 97
61 75 95
60 73 93
61 74 95
66 80 101
61 74 94
56 70 90
57 70 90
57 69 88
58 71 92
58 71 91
61 75 96
62 76 97
60 74 96
62 75 95
61 75 96
55 68 88
57 70 90
64 78 99
61 74 95
60 75 96
58 72 93
61 76 97
57 70 91
60 74 94
59 73 94
58 71 91
64 79 101
58 71 92
62 76 97
59 73 94
60 73 94
60 74 95
59 73 93
58 72 92
61 75 96
59 73 93
61 75 95
63 77 97
65 79 101
60 74 95
58 72 92
60 73 93
54 67 86
63 77 97
55 68 87
58 71 91
57 70 90
56 69 89
59 73 93
62 76 98
57 71 91
62 75 95
64 79 101
60 73 93
58 71 91
63 77 98
62 76 97
60 74 94
59 73 93
56 69 89
61 74 93
59 72 91
58 72 92
61 75 96
60 74 94
61 75 95
61 76 98
58 72 92
62 76 97
56 68 87
61 75 96
66 80 101
62 75 96
59 73 93
58 72 92
58 71 91
60 73 93
59 73 93
60 73 94
59 73 93
59 72 91
57 70 90
62 76 97
63 77 99
193 216 250
197 220 255
197 220 255
197 220 255
197 220 255
197 220 255
197 220 255
197 220 255
197 220 255
197 220 255
197 220 255
197 220 255
197 220 255
197 220 255
197 220 255
197 220 255
197 220 255
197 220 255
197 220 255
197 220 255
196 220 255
196 220 255
196 220 255
196 220 255
196 220 255
196 220 255
196 220 255
196 220 255
196 220 255
196 220 255
196 220 255
196 220 255
196 220 255
196 220 255
196 220 255
196 220 255
196 220 255
196 220 255
196 220 255
196 220 255
196 220 255
196 220 255
196 220 255
196 220 255
196 220 255
196 220 255
196 220 255
196 220 255
196 220 255
196 220 255
196 220 255
196 220 255
196 220 255
196 220 255
196 220 255
196 220 255
196 220 255
196 220 255
196 220 255
196 220 255
196 220 255
196 220 255
196 220 255
196 220 255
196 220 255
196 220 255
196 220 255
196 220 255
196 220 255
196 220 255
196 220 255
195 219 255
195 219 255
195 219 255
195 219 255
195 219 255
195 219 255
195 219 255
195 219 255
195 219 255
195 219 255
195 219 255
195 219 255
195 219 255
195 219 255
195 219 255
195 219 255
195 219 255
195 219 255
195 219 255
195 219 255
195 219 255
195 219 255
195 219 255
195 219 255
195 219 255
195 219 255
195 219 255
195 219 255
195 219 255
195 219 255
195 219 255
195 219 255
195 219 255
195 219 255
195 219 255
195 219 255
195 219 255
195 219 255
195 219 255
195 219 255
195 219 255
195 219 255
195 219 255
195 219 255
195 219 255
195 219 255
195 219 255
195 219 255
195 219 255
195 219 255
195 219 255
195 219 255
195 219 255
195 219 255
195 219 255
195 219 255
195 219 255
195 219 255
195 219 255
195 219 255
195 219 255
195 219 255
195 219 255
195 219 255
195 219 255
195 219 255
195 219 255
195 219 255
195 219 255
195 219 255
195 219 255
195 219 255
195 219 255
195 219 255
195 219 255
195 219 255
195 219 255
195 219 255
195 219 255
195 219 255
195 219 255
195 219 255
195 219 255
195 219 255
195 219 255
195 219 255
195 219 255
195 219 255
195 219 255
195 219 255
195 219 255
195 219 255
195 219 255
195 219 255
195 219 255
195 219 255
195 219 255
195 219 255
195 219 255
195 219 255
195 219 255
195 219 255
195 219 255
195 219 255
195 219 255
195 219 255
195 219 255
195 219 255
195 219 255
195 219 255
196 220 255
196 220 255
196 220 255
196 220 255
196 220 255
196 220 255
196 220 255
196 220 255
196 220 255
196 220 255
196 220 255
196 220 255
196 220 255
196 220 255
196 220 255
196 220 255
196 220 255
196 220 255
196 220 255
196 220 255
196 220 255
196 220 255
196 220 255
196 220 255
196 220 255
196 220 255
196 220 255
196 220 255
196 220 255
196 220 255
196 220 255
196 220 255
196 220 255
196 220 255
196 220 255
196 220 255
196 220 255
196 220 255
196 220 255
196 220 255
196 220 255
196 220 255
196 220 255
196 220 255
196 220 255
196 220 255
196 220 255
196 220 255
196 220 255
196 220 255
196 220 255
197 220 255
197 220 255
197 220 255
197 220 255
197 220 255
197 220 255
197 220 255
197 220 255
197 220 255
197 220 255
197 220 255
197 220 255
197 220 255
197 220 255
197 220 255
197 220 255
197 220 255
197 220 255
197 220 255
197 220 255
197 220 255
197 220 255
197 220 255
197 220 255
197 220 255
197 220 255
197 220 255
197 220 255
196 219 254
186 209 244
189 212 247
175 198 232
175 198 232
157 179 213
156 179 213
143 166 199
144 166 199
136 158 192
139 162 195
119 141 174
66 81 104
59 73 95
62 76 97
58 72 92
66 81 102
63 77 98
59 73 94
58 71 90
58 71 91
58 72 92
60 73 93
59 73 94
56 70 90
64 79 100
63 77 99
65 80 102
62 76 96
61 75 96
59 73 93
62 76 97
57 70 89
56 69 89
62 76 96
59 73 93
59 73 93
60 74 96
60 74 95
61 76 97
62 76 96
57 69 89
60 73 94
61 75 95
58 71 91
65 79 101
58 72 92
60 74 96
58 71 91
57 71 91
58 72 92
57 71 91
62 76 96
61 75 96
62 76 97
60 74 95
64 78 100
62 75 94
62 76 97
61 75 95
60 73 94
63 78 100
59 72 92
63 77 98
61 75 96
61 75 96
61 74 94
59 72 92
61 75 97
61 75 97
61 75 95
61 75 95
62 76 96
58 71 91
60 74 95
58 72 91
61 74 94
55 68 87
64 78 99
59 73 93
63 76 97
61 75 96
61 75 95
59 72 92
61 74 95
55 68 88
59 73 95
57 70 91
62 76 96
61 75 95
62 75 96
63 77 98
57 70 90
61 75 95
63 77 99
59 72 92
63 76 97
58 72 92
62 76 97
62 76 96
58 72 92
60 74 95
61 75 95
57 71 92
63 77 97
55 69 89
62 76 98
59 73 93
58 71 91
60 74 95
64 78 100
58 71 91
64 78 100
61 74 94
63 78 100
55 68 88
59 73 93
58 71 91
62 76 96
57 70 90
66 80 102
57 70 90
63 77 99
60 74 94
59 73 94
62 75 95
63 76 97
59 72 92
59 73 93
60 74 93
60 73 92
59 72 92
58 71 91
65 79 100
57 70 89
62 77 99
59 72 92
62 76 98
58 72 93
62 77 99
130 152 185
124 146 180
139 162 195
130 152 185
150 173 207
171 194 229
161 183 217
167 189 224
182 205 240
176 199 234
196 219 254
195 218 253
197 220 255
197 220 255
197 220 255
197 220 255
197 220 255
197 220 255
197 220 255
197 220 255
197 220 255
197 220 255
197 220 255
197 220 255
197 220 255
197 220 255
197 220 255
197 220 255
197 220 255
197 220 255
197 220 255
197 220 255
197 220 255
197 220 255
197 220 255
197 220 255
197 220 255
197 220 255
197 220 255
196 220 255
196 220 255
196 220 255
196 220 255
196 220 255
196 220 255
196 220 255
196 220 255
196 220 255
196 220 255
196 220 255
196 220 255
196 220 255
196 220 255
196 220 255
196 220 255
196 220 255
196 220 255
196 220 255
196 220 255
196 220 255
196 220 255
196 220 255
196 220 255
196 220 255
196 220 255
196 220 255
196 220 255
196 220 255
196 220 255
196 220 255
196 220 255
196 220 255
196 220 255
196 220 255
196 220 255
196 220 255
196 220 255
196 220 255
196 220 255
196 220 255
196 220 255
196 220 255
196 220 255
196 220 255
196 220 255
196 220 255
196 220 255
196 220 255
196 220 255
196 220 255
196 220 255
195 219 255
195 219 255
195 219 255
195 219 255
195 219 255
195 219 255
195 219 255
195 219 255
195 219 255
195 219 255
195 219 255
195 219 255
195 219 255
195 219 255
195 219 255
195 219 255
195 219 255
195 219 255
195 219 255
195 219 255
195 219 255
195 219 255
195 219 255
195 219 255
195 219 255
195 219 255
195 219 255
195 219 255
195 219 255
195 219 255
195 219 255
195 219 255
195 219 255
195 219 255
195 219 255
195 219 255
195 219 255
195 219 255
195 219 255
195 219 255
195 219 255
195 219 255
195 219 255
195 219 255
195 219 255
195 219 255
195 219 255
195 219 255
195 219 255
195 219 255
195 219 255
195 219 255
195 219 255
195 219 255
195 219 255
195 219 255
195 219 255
195 219 255
195 219 255
195 219 255
195 219 255
195 219 255
195 219 255
195 219 255
195 219 255
195 219 255
195 219 255
195 219 255
195 219 255
195 219 255
195 219 255
196 220 255
196 220 255
196 220 255
196 220 255
196 220 255
196 220 255
196 220 255
196 220 255
196 220 255
196 220 255
196 220 255
196 220 255
196 220 255
196 220 255
196 220 255
196 220 255
196 220 255
196 220 255
196 220 255
196 220 255
196 220 255
196 220 255
196 220 255
196 220 255
196 220 255
196 220 255
196 220 255
196 220 255
196 220 255
196 220 255
196 220 255
196 220 255
196 220 255
196 220 255
196 220 255
196 220 255
196 220 255
196 220 255
196 220 255
196 220 255
196 220 255
196 220 255
196 220 255
196 220 255
196 220 255
196 220 255
196 220 255
196 220 255
196 220 255
196 220 255
196 220 255
196 220 255
197 220 255
197 220 255
197 220 255
197 220 255
197 220 255
197 220 255
197 220 255
197 220 255
197 220 255
197 220 255
197 220 255
197 220 255
197 220 255
197 220 255
197 220 255
197 220 255
197 220 255
197 220 255
197 220 255
197 220 255
197 220 255
197 220 255
197 220 255
197 220 255
197 220 255
197 220 255
197 220 255
197 220 255
197 220 255
197 221 255
192 216 250
179 202 236
179 202 236
167 190 225
148 170 204
161 184 218
155 178 212
148 170 203
125 147 180
119 142 175
122 145 178
106 128 161
98 119 152
99 120 152
90 112 144
88 110 143
76 97 129
75 96 128
75 96 128
74 95 128
74 95 128
75 96 128
74 95 128
73 95 128
74 95 128
74 95 128
74 96 128
74 95 128
65 80 104
57 70 89
60 73 93
57 70 91
56 69 88
60 74 95
61 74 94
58 72 92
62 76 96
60 73 93
56 69 89
59 73 93
58 71 92
58 72 93
57 70 88
56 69 89
57 70 89
60 73 94
57 71 91
63 76 97
60 74 94
56 70 91
58 71 91
62 76 98
58 72 92
58 71 90
61 74 93
63 78 99
56 70 90
57 70 91
63 77 99
59 72 92
60 75 96
58 71 91
60 73 92
59 73 93
57 71 91
60 74 95
60 74 95
59 72 92
59 72 91
56 68 87
62 76 97
65 79 100
61 75 96
61 75 97
58 72 93
60 74 93
57 70 89
62 76 98
55 68 87
61 75 96
61 75 96
65 78 97
60 74 95
60 73 94
59 73 93
58 71 90
58 71 92
64 78 100
58 71 91
52 64 83
58 73 94
61 74 94
62 76 97
59 73 93
65 80 102
57 71 91
55 68 88
61 75 96
61 75 96
60 73 93
59 72 91
64 78 99
56 69 89
63 77 99
59 72 91
63 77 98
59 73 93
63 77 98
62 77 99
61 74 94
64 79 101
57 70 91
62 75 96
63 78 100
63 77 98
61 74 94
60 74 95
62 76 97
60 75 96
61 75 96
61 74 94
58 72 91
59 73 93
60 74 94
60 74 95
61 74 94
59 72 92
60 73 93
54 66 84
60 75 96
59 73 93
61 75 97
61 75 96
56 70 91
58 71 91
60 74 94
55 68 88
61 74 94
67 80 101
54 67 85
59 72 92
58 71 91
62 76 96
64 79 101
59 73 93
62 76 97
58 71 90
60 73 93
57 70 90
58 73 95
60 74 95
61 74 95
62 75 95
60 74 94
57 70 90
66 83 107
75 96 128
74 96 128
72 94 128
73 95 128
76 96 128
75 96 128
74 96 128
75 96 128
74 95 128
75 96 128
74 95 128
74 95 128
84 105 136
89 110 143
97 118 151
101 123 156
113 135 167
119 140 172
129 151 184
125 147 180
144 167 200
149 172 206
150 173 207
165 188 222
171 194 229
184 207 241
189 213 248
193 217 252
197 221 255
197 221 255
197 220 255
197 220 255
197 220 255
197 220 255
197 220 255
197 220 255
197 220 255
197 220 255
197 220 255
197 220 255
197 220 255
197 220 255
197 220 255
197 220 255
197 220 255
197 220 255
197 220 255
197 220 255
197 220 255
197 220 255
197 220 255
197 220 255
197 220 255
197 220 255
197 220 255
197 220 255
197 220 255
197 220 255
196 220 255
196 220 255
196 220 255
196 220 255
196 220 255
196 220 255
196 220 255
196 220 255
196 220 255
196 220 255
196 220 255
196 220 255
196 220 255
196 220 255
196 220 255
196 220 255
196 220 255
196 220 255
196 220 255
196 220 255
196 220 255
196 220 255
196 220 255
196 220 255
196 220 255
196 220 255
196 220 255
196 220 255
196 220 255
196 220 255
196 220 255
196 220 255
196 220 255
196 220 255
196 220 255
196 220 255
196 220 255
196 220 255
196 220 255
196 220 255
196 220 255
196 220 255
196 220 255
196 220 255
196 220 255
196 220 255
196 220 255
196 220 255
196 220 255
196 220 255
196 220 255
196 220 255
195 219 255
195 219 255
195 219 255
195 219 255
195 219 255
195 219 255
195 219 255
195 219 255
195 219 255
195 219 255
195 219 255
195 219 255
195 219 255
195 219 255
195 219 255
195 219 255
195 219 255
195 219 255
195 219 255
195 219 255
195 219 255
195 219 255
195 219 255
195 219 255
195 219 255
195 219 255
195 219 255
195 219 255
195 219 255
195 219 255
195 219 255
195 219 255
195 219 255
196 220 255
196 220 255
196 220 255
196 220 255
196 220 255
196 220 255
196 220 255
196 220 255
196 220 255
196 220 255
196 220 255
196 220 255
196 220 255
196 220 255
196 220 255
196 220 255
196 220 255
196 220 255
196 220 255
196 220 255
196 220 255
196 220 255
196 220 255
196 220 255
196 220 255
196 220 255
196 220 255
196 220 255
196 220 255
196 220 255
196 220 255
196 220 255
196 220 255
196 220 255
196 220 255
196 220 255
196 220 255
196 220 255
196 220 255
196 220 255
196 220 255
196 220 255
196 220 255
196 220 255
196 220 255
196 220 255
196 220 255
196 220 255
196 220 255
196 220 255
196 220 255
196 220 255
196 220 255
196 220 255
196 220 255
197 220 255
197 220 255
197 220 255
197 220 255
197 220 255
197 220 255
197 220 255
197 220 255
197 220 255
197 220 255
197 220 255
197 220 255
197 220 255
197 220 255
197 220 255
197 220 255
197 220 255
197 220 255
197 220 255
197 220 255
197 220 255
197 220 255
197 220 255
197 220 255
197 220 255
197 220 255
197 220 255
197 221 255
197 221 255
197 221 255
197 221 255
192 216 250
182 205 240
178 201 235
165 188 222
155 178 212
153 175 208
134 156 190
139 161 194
117 139 172
122 144 177
102 124 157
92 113 145
95 116 148
80 102 134
79 100 133
72 94 128
75 96 128
73 95 128
75 96 128
75 96 128
76 96 128
75 96 128
75 96 128
76 97 128
74 95 128
75 96 128
74 96 128
75 96 128
74 95 128
74 96 128
75 96 128
74 95 128
74 95 128
74 95 128
75 96 128
75 96 128
74 96 128
75 96 128
72 94 127
76 96 128
75 96 128
75 96 128
75 96 128
71 89 116
55 68 87
55 69 89
56 69 88
62 75 96
60 73 94
62 76 98
62 76 96
58 72 93
59 73 93
52 65 84
63 78 99
61 74 95
62 76 96
61 75 96
54 67 87
56 69 89
58 72 92
63 77 98
55 69 89
58 71 91
57 70 89
61 76 97
56 70 90
60 74 94
58 71 91
58 71 90
57 71 92
60 73 92
63 78 99
62 76 96
58 71 91
60 74 93
62 76 96
65 79 100
61 75 96
55 68 88
59 72 91
58 72 93
63 77 98
61 75 95
59 72 92
57 71 92
60 74 95
58 72 93
65 80 102
58 72 92
57 71 91
59 72 91
57 70 89
62 76 97
58 72 93
62 76 96
60 74 95
60 74 95
59 72 91
60 74 94
59 72 91
64 77 98
57 70 90
55 69 88
59 73 94
60 74 94
62 76 97
56 69 88
58 71 92
58 71 91
69 83 105
58 71 92
59 72 92
56 69 88
61 74 95
57 70 89
60 73 94
55 69 89
61 75 97
61 74 95
58 71 91
57 71 92
59 72 91
64 78 100
59 73 94
61 75 96
63 78 100
53 66 85
58 71 90
64 78 99
61 74 94
62 75 95
56 69 88
61 75 96
65 79 100
62 75 95
65 79 100
60 74 95
59 72 93
60 73 94
58 72 92
62 77 98
58 71 91
60 74 94
64 78 99
61 74 95
53 66 84
59 72 92
56 70 90
63 77 98
60 73 93
59 73 94
57 71 91
62 75 96
66 80 102
63 77 97
60 73 93
58 72 93
65 79 101
58 72 92
57 70 90
55 69 88
59 72 91
61 74 94
63 76 97
59 72 92
52 64 81
60 73 93
61 74 94
60 73 93
67 85 112
75 96 128
74 95 128
74 96 128
73 95 128
74 96 128
73 94 127
73 94 127
74 96 128
75 96 128
73 95 128
74 95 128
74 96 128
74 95 128
74 95 128
75 96 128
72 94 126
74 95 128
73 95 128
73 95 128
75 96 128
74 95 128
73 95 128
74 96 128
74 95 128
74 96 128
74 95 128
74 95 128
75 96 128
74 95 128
88 109 142
92 113 145
100 122 154
106 128 161
119 141 175
132 154 188
130 153 186
141 164 198
159 182 216
147 170 203
160 183 217
177 199 234
179 202 236
192 216 250
197 221 255
197 221 255
197 221 255
197 221 255
197 220 255
197 220 255
197 220 255
197 220 255
197 220 255
197 220 255
197 220 255
197 220 255
197 220 255
197 220 255
197 220 255
197 220 255
197 220 255
197 220 255
197 220 255
197 220 255
197 220 255
197 220 255
197 220 255
197 220 255
197 220 255
197 220 255
197 220 255
197 220 255
197 220 255
197 220 255
197 220 255
197 220 255
196 220 255
196 220 255
196 220 255
196 220 255
196 220 255
196 220 255
196 220 255
196 220 255
196 220 255
196 220 255
196 220 255
196 220 255
196 220 255
196 220 255
196 220 255
196 220 255
196 220 255
196 220 255
196 220 255
196 220 255
196 220 255
196 220 255
196 220 255
196 220 255
196 220 255
196 220 255
196 220 255
196 220 255
196 220 255
196 220 255
196 220 255
196 220 255
196 220 255
196 220 255
196 220 255
196 220 255
196 220 255
196 220 255
196 220 255
196 220 255
196 220 255
196 220 255
196 220 255
196 220 255
196 220 255
196 220 255
196 220 255
196 220 255
196 220 255
196 220 255
196 220 255
196 220 255
196 220 255
196 220 255
196 220 255
195 219 255
195 219 255
195 219 255
195 219 255
195 219 255
195 219 255
196 220 255
196 220 255
196 220 255
196 220 255
196 220 255
196 220 255
196 220 255
196 220 255
196 220 255
196 220 255
196 220 255
196 220 255
196 220 255
196 220 255
196 220 255
196 220 255
196 220 255
196 220 255
196 220 255
196 220 255
196 220 255
196 220 255
196 220 255
196 220 255
196 220 255
196 220 255
196 220 255
196 220 255
196 220 255
196 220 255
196 220 255
196 220 255
196 220 255
196 220 255
196 220 255
196 220 255
196 220 255
196 220 255
196 220 255
196 220 255
196 220 255
196 220 255
196 220 255
196 220 255
196 220 255
197 220 255
197 220 255
197 220 255
197 220 255
197 220 255
197 220 255
197 220 255
197 220 255
197 220 255
197 220 255
197 220 255
197 220 255
197 220 255
197 220 255
197 220 255
197 220 255
197 220 255
197 220 255
197 220 255
197 220 255
197 220 255
197 220 255
197 220 255
197 220 255
197 220 255
197 220 255
197 220 255
197 220 255
197 220 255
197 221 255
197 221 255
197 221 255
197 221 255
197 221 255
194 217 252
188 211 245
179 202 236
164 187 221
158 180 215
155 178 212
132 154 186
132 154 188
129 151 184
100 122 154
95 117 149
100 121 153
86 108 140
75 97 129
75 96 128
74 96 128
74 95 128
74 95 128
73 95 128
75 96 128
74 96 128
75 96 128
74 95 128
75 96 128
74 95 128
73 95 128
75 96 128
76 96 128
75 96 128
73 94 127
75 96 128
74 96 128
74 95 128
75 96 128
73 95 128
74 96 128
75 96 128
74 96 128
75 96 128
73 95 128
74 96 128
75 96 128
75 96 128
74 96 128
74 95 128
73 95 128
75 96 128
74 95 128
74 95 128
75 96 128
75 96 128
75 96 128
74 96 128
74 95 128
74 95 128
74 96 128
74 95 128
69 89 119
60 73 92
60 73 94
55 68 87
61 74 95
56 69 89
60 73 94
63 77 98
61 75 96
59 72 92
60 73 93
63 76 96
59 73 93
62 76 96
60 73 93
61 74 95
60 73 93
57 70 91
60 74 94
63 77 97
57 69 88
59 72 92
60 73 94
60 73 94
58 72 92
54 67 86
61 75 95
65 78 99
58 71 92
59 73 93
54 67 87
63 77 98
59 72 93
56 70 90
62 76 97
58 72 92
56 69 88
63 77 98
60 74 95
57 70 88
57 71 91
59 73 94
60 73 94
62 76 96
55 68 87
59 72 92
59 72 92
60 73 93
59 72 92
61 76 97
59 72 91
59 73 93
59 73 93
59 72 92
60 74 95
60 73 94
63 78 99
65 79 100
55 68 87
58 71 90
62 77 98
55 68 87
61 75 96
64 78 98
60 74 94
58 71 91
59 73 94
63 77 98
59 73 94
61 75 97
63 77 98
58 72 92
63 76 96
61 74 95
59 72 92
57 71 91
57 71 92
59 73 94
59 73 92
60 74 94
58 71 90
61 75 95
52 65 84
60 74 95
58 72 92
58 72 92
63 77 98
60 74 95
65 79 100
61 75 96
57 70 90
57 70 91
62 76 97
64 78 100
56 69 89
57 70 91
56 69 89
60 73 94
57 70 90
63 76 96
57 71 93
61 74 94
61 75 96
57 70 89
56 69 89
61 75 95
61 75 95
58 71 90
57 70 89
55 67 86
62 76 96
59 72 92
55 68 87
60 73 94
60 74 94
60 74 95
58 71 91
58 71 91
54 67 88
62 75 95
57 70 90
53 66 84
57 71 92
60 73 94
58 72 92
60 74 95
55 68 88
71 91 121
75 96 128
73 95 128
74 95 128
73 95 128
73 95 127
74 95 128
75 96 128
75 96 128
75 96 128
74 95 128
74 95 128
74 95 128
74 95 128
74 95 128
75 96 128
75 96 128
75 96 128
74 95 128
75 96 128
74 95 128
73 95 128
74 96 128
73 95 128
73 95 128
74 95 128
75 96 128
76 96 128
74 96 128
74 96 128
74 95 128
74 95 128
74 95 128
75 96 128
73 95 128
75 96 128
74 95 128
73 95 128
74 95 128
74 95 128
75 96 128
74 96 128
74 96 128
73 95 128
78 99 131
80 102 134
92 113 144
98 119 152
112 134 168
125 147 180
132 154 188
146 168 202
150 172 206
154 176 209
166 189 222
174 197 232
185 208 243
192 215 250
197 221 255
197 221 255
197 221 255
197 221 255
197 221 255
197 220 255
197 220 255
197 220 255
197 220 255
197 220 255
197 220 255
197 220 255
197 220 255
197 220 255
197 220 255
197 220 255
197 220 255
197 220 255
197 220 255
197 220 255
197 220 255
197 220 255
197 220 255
197 220 255
197 220 255
197 220 255
197 220 255
197 220 255
197 220 255
197 220 255
197 220 255
197 220 255
197 220 255
196 220 255
196 220 255
196 220 255
196 220 255
196 220 255
196 220 255
196 220 255
196 220 255
196 220 255
196 220 255
196 220 255
196 220 255
196 220 255
196 220 255
196 220 255
196 220 255
196 220 255
196 220 255
196 220 255
196 220 255
196 220 255
196 220 255
196 220 255
196 220 255
196 220 255
196 220 255
196 220 255
196 220 255
196 220 255
196 220 255
196 220 255
196 220 255
196 220 255
196 220 255
196 220 255
196 220 255
196 220 255
196 220 255
196 220 255
196 220 255
196 220 255
196 220 255
196 220 255
196 220 255
196 220 255
196 220 255
196 220 255
196 220 255
196 220 255
196 220 255
196 220 255
196 220 255
196 220 255
196 220 255
196 220 255
196 220 255
196 220 255
196 220 255
196 220 255
196 220 255
196 220 255
196 220 255
196 220 255
196 220 255
196 220 255
196 220 255
196 220 255
196 220 255
196 220 255
196 220 255
196 220 255
196 220 255
196 220 255
196 220 255
196 220 255
197 220 255
197 220 255
197 220 255
197 220 255
197 220 255
197 220 255
197 220 255
197 220 255
197 220 255
197 220 255
197 220 255
197 220 255
197 220 255
197 220 255
197 220 255
197 220 255
197 220 255
197 220 255
197 220 255
197 220 255
197 220 255
197 220 255
197 220 255
197 220 255
197 220 255
197 220 255
197 220 255
197 220 255
197 220 255
197 220 255
197 221 255
197 221 255
197 221 255
197 221 255
197 221 255
197 221 255
195 218 253
191 214 249
177 200 234
179 202 236
162 184 218
152 175 208
152 175 208
140 163 197
132 154 188
120 142 175
106 127 160
99 120 153
83 105 138
77 98 130
76 97 128
74 96 128
73 95 128
74 96 128
74 96 128
76 97 128
74 95 128
75 96 128
74 95 128
77 97 128
76 96 128
75 96 128
75 96 128
74 95 127
75 96 128
75 96 128
75 96 128
74 95 128
74 95 128
73 95 128
74 95 128
74 95 128
74 95 128
74 95 128
75 96 128
74 96 128
75 96 128
74 96 128
74 95 128
74 95 128
74 96 128
75 96 128
73 95 128
75 96 128
74 95 128
73 95 128
73 95 128
74 95 128
73 95 128
75 96 128
74 95 127
74 96 128
73 95 128
74 95 128
75 96 128
74 95 127
75 96 128
74 95 128
73 95 128
74 95 128
75 96 128
74 95 128
74 96 128
74 96 128
74 95 127
76 96 128
74 95 128
75 96 127
57 70 89
59 72 92
61 75 95
60 73 92
55 68 87
63 77 97
59 73 94
56 68 87
54 67 86
57 70 89
61 75 95
61 74 94
63 77 99
62 75 96
57 71 92
59 73 93
59 73 94
57 69 87
56 70 90
64 78 98
57 70 90
58 72 92
61 75 96
60 74 94
55 68 87
59 72 92
60 74 94
58 72 93
56 69 90
61 75 95
60 74 94
62 76 97
62 75 96
59 73 93
57 70 90
63 77 97
56 69 88
58 72 91
60 73 93
63 77 98
59 72 92
54 67 86
64 78 100
59 72 93
57 70 90
58 71 91
56 69 89
59 73 94
59 72 91
62 75 96
65 79 100
57 70 90
61 75 96
58 72 92
61 74 95
62 75 96
60 74 95
61 75 95
58 71 92
57 70 89
64 79 100
62 75 95
60 74 95
60 73 93
59 73 93
58 71 90
59 72 91
60 74 95
57 70 89
60 73 94
59 72 92
61 73 92
58 71 91
61 75 96
55 67 87
56 69 89
59 72 92
59 73 94
60 74 94
64 78 99
57 70 90
59 73 94
59 73 93
60 74 94
59 73 94
63 77 99
59 72 92
58 70 90
57 70 89
63 77 97
58 71 90
57 70 90
56 69 88
56 69 89
58 72 92
58 71 91
61 75 95
55 68 87
61 75 95
57 70 90
59 73 94
56 68 87
60 74 95
60 73 93
58 71 90
60 74 95
53 65 83
61 74 94
64 77 98
54 67 85
56 69 89
65 79 99
62 76 98
58 72 93
59 73 93
55 68 88
60 74 94
56 69 88
61 75 96
62 76 98
59 72 92
59 73 93
56 69 89
59 73 94
51 63 80
58 72 92
72 94 127
73 95 128
74 96 128
74 95 127
74 95 128
73 94 127
74 95 127
74 96 128
74 95 128
75 96 128
74 95 126
74 95 128
74 96 128
73 95 128
74 96 128
73 95 128
75 96 128
73 95 127
74 95 128
74 95 128
75 96 127
75 96 128
74 95 128
74 95 128
73 95 128
75 96 128
74 95 127
74 95 128
74 95 128
75 96 128
75 96 128
73 94 126
74 95 128
73 95 128
74 95 128
75 96 128
75 96 128
74 95 128
76 97 128
74 95 128
74 95 128
75 96 127
74 96 128
74 96 128
75 96 128
74 95 128
74 95 127
74 95 128
74 95 128
74 96 128
74 95 128
74 96 128
74 95 128
74 95 128
75 96 128
73 95 128
75 96 128
75 96 128
74 96 129
93 114 147
99 120 153
110 133 166
109 131 165
121 142 175
126 147 180
144 165 198
135 157 190
156 178 212
166 189 224
188 211 245
192 216 250
197 221 255
197 221 255
197 221 255
197 221 255
197 221 255
197 221 255
197 221 255
197 220 255
197 220 255
197 220 255
197 220 255
197 220 255
197 220 255
197 220 255
197 220 255
197 220 255
197 220 255
197 220 255
197 220 255
197 220 255
197 220 255
197 220 255
197 220 255
197 220 255
197 220 255
197 220 255
197 220 255
197 220 255
197 220 255
197 220 255
197 220 255
197 220 255
197 220 255
197 220 255
197 220 255
197 220 255
197 220 255
196 220 255
196 220 255
196 220 255
196 220 255
196 220 255
196 220 255
196 220 255
196 220 255
196 220 255
196 220 255
196 220 255
196 220 255
196 220 255
196 220 255
196 220 255
196 220 255
196 220 255
196 220 255
196 220 255
196 220 255
196 220 255
196 220 255
196 220 255
196 220 255
196 220 255
196 220 255
196 220 255
196 220 255
196 220 255
196 220 255
196 220 255
196 220 255
196 220 255
196 220 255
196 220 255
196 220 255
196 220 255
196 220 255
196 220 255
196 220 255
196 220 255
196 220 255
196 220 255
197 220 255
197 220 255
197 220 255
197 220 255
197 220 255
197 220 255
197 220 255
197 220 255
197 220 255
197 220 255
197 220 255
197 220 255
197 220 255
197 220 255
197 220 255
197 220 255
197 220 255
197 220 255
197 220 255
197 220 255
197 220 255
197 220 255
197 220 255
197 220 255
197 220 255
197 220 255
197 220 255
197 220 255
197 220 255
197 220 255
197 220 255
197 221 255
197 221 255
197 221 255
197 221 255
197 221 255
197 221 255
197 221 255
197 221 255
193 217 252
188 212 247
166 189 224
160 183 217
146 168 202
147 169 203
136 158 192
126 148 181
117 139 171
107 129 162
95 116 148
87 108 140
75 96 128
73 95 128
75 96 128
74 95 128
75 96 128
74 95 128
73 95 128
75 96 128
74 96 128
75 96 128
74 96 128
74 96 128
74 96 128
75 96 128
73 95 128
74 95 128
74 95 128
74 96 128
74 95 128
75 96 128
74 96 128
74 96 128
74 95 128
74 96 128
76 97 128
73 95 128
74 95 128
75 96 128
74 95 128
73 95 128
73 95 128
75 96 128
75 96 128
75 96 128
73 95 128
74 95 128
76 97 128
74 95 127
72 94 128
74 95 128
75 96 128
74 95 128
75 96 128
73 95 128
76 96 128
74 95 128
74 96 128
75 96 128
73 95 127
74 95 128
75 96 128
75 96 128
74 95 128
74 95 128
73 95 127
73 95 128
73 95 128
75 96 128
75 96 128
75 96 128
74 96 128
74 96 128
73 94 127
73 95 128
74 95 128
73 94 127
74 95 128
76 96 128
74 96 128
74 95 127
75 96 128
74 96 128
64 79 103
59 73 93
58 72 92
54 67 86
57 71 90
56 69 89
56 69 89
59 73 94
54 66 85
56 69 88
60 73 94
56 69 88
56 69 89
61 74 95
58 72 92
58 72 92
64 77 97
63 77 98
59 72 92
55 68 88
64 78 100
54 67 86
56 69 88
59 72 92
56 69 88
53 65 83
59 72 92
56 69 90
53 67 86
59 73 93
57 70 90
59 71 91
56 69 90
56 69 88
55 68 88
58 71 90
59 73 93
57 71 91
57 70 89
58 71 90
58 71 91
62 75 96
55 69 88
54 67 87
57 70 89
59 73 93
59 73 94
59 72 91
58 70 89
60 74 94
64 77 97
55 68 87
64 78 99
59 74 95
57 71 91
58 72 91
57 71 92
62 77 98
63 76 97
61 74 94
59 72 92
58 71 90
61 74 95
59 73 92
56 68 87
60 73 93
57 70 90
63 77 97
60 74 94
54 67 87
60 74 95
56 70 90
62 76 96
57 70 90
58 72 93
58 71 92
57 70 89
58 71 91
59 73 94
59 73 94
63 77 97
55 68 88
53 66 86
58 71 91
60 73 94
62 75 95
60 73 92
63 77 97
57 70 90
59 73 93
56 69 89
58 70 89
61 75 97
58 72 93
56 68 87
59 72 92
61 74 94
60 74 94
60 73 93
62 75 96
59 73 93
58 71 92
56 69 88
56 69 89
57 71 92
61 75 97
60 75 96
52 64 83
56 70 89
62 75 94
59 72 93
62 75 94
58 70 90
55 68 87
56 69 88
57 70 89
62 76 97
56 69 88
60 73 94
54 66 85
59 73 94
57 70 89
54 67 86
58 72 93
62 76 96
68 86 111
74 95 128
75 96 128
73 94 126
74 95 126
74 96 128
73 95 128
74 95 127
74 96 128
73 95 128
73 95 128
74 95 128
75 96 128
74 96 128
75 96 128
74 95 128
75 96 128
74 95 128
73 94 127
75 96 128
75 96 128
73 95 127
74 95 128
75 96 128
73 95 128
74 96 128
75 96 127
74 95 128
75 96 128
73 95 128
74 95 128
72 94 128
73 95 128
75 96 128
73 95 127
75 96 128
74 95 128
74 95 128
74 95 127
74 96 128
75 96 128
76 96 128
75 96 128
75 96 128
74 95 128
74 95 128
74 95 128
74 96 128
73 95 128
75 96 128
74 95 128
74 96 128
74 95 128
73 95 128
74 95 128
75 96 128
75 96 128
75 96 128
75 96 128
73 95 128
74 95 128
73 95 128
73 95 128
75 96 128
74 96 128
73 95 128
74 96 128
74 95 128
74 95 128
74 95 128
73 95 128
75 96 128
76 97 129
83 105 136
101 123 156
100 122 154
119 142 175
128 150 183
131 153 186
146 168 200
158 180 215
159 182 216
175 198 232
180 203 238
192 215 250
197 221 255
197 221 255
197 221 255
197 221 255
197 221 255
197 221 255
197 221 255
197 221 255
197 220 255
197 220 255
197 220 255
197 220 255
197 220 255
197 220 255
197 220 255
197 220 255
197 220 255
197 220 255
197 220 255
197 220 255
197 220 255
197 220 255
197 220 255
197 220 255
197 220 255
197 220 255
197 220 255
197 220 255
197 220 255
197 220 255
197 220 255
197 220 255
197 220 255
197 220 255
197 220 255
197 220 255
197 220 255
197 220 255
196 220 255
196 220 255
196 220 255
196 220 255
196 220 255
196 220 255
196 220 255
196 220 255
196 220 255
196 220 255
196 220 255
196 220 255
196 220 255
196 220 255
196 220 255
197 220 255
197 220 255
197 220 255
197 220 255
197 220 255
197 220 255
197 220 255
197 220 255
197 220 255
197 220 255
197 220 255
197 220 255
197 220 255
197 220 255
197 220 255
197 220 255
197 220 255
197 220 255
197 220 255
197 220 255
197 220 255
197 220 255
197 220 255
197 220 255
197 220 255
197 220 255
197 220 255
197 220 255
197 220 255
197 220 255
197 220 255
197 220 255
197 221 255
197 221 255
197 221 255
197 221 255
197 221 255
197 221 255
197 221 255
197 221 255
196 219 254
180 203 238
177 200 235
166 188 222
164 187 221
148 170 204
139 162 195
136 158 192
111 133 165
110 132 165
99 120 152
86 108 140
76 97 130
74 96 128
74 96 128
74 96 128
73 95 128
75 96 128
73 95 128
75 96 128
74 95 128
74 95 128
75 96 128
75 96 128
74 96 128
75 96 128
74 95 128
74 95 127
77 97 128
74 95 128
74 96 128
73 95 128
74 96 128
76 96 128
73 95 128
75 96 128
74 95 128
73 94 127
73 95 128
73 95 128
76 96 128
75 96 128
73 95 128
75 96 128
74 95 128
74 96 128
75 96 128
74 95 128
75 96 128
74 96 128
73 95 128
74 96 128
75 96 128
73 95 128
75 96 128
75 96 128
74 95 128
76 96 128
74 96 128
74 95 128
74 95 128
73 95 128
75 96 128
74 95 128
75 96 128
74 95 128
74 96 128
75 96 128
73 95 128
74 95 128
74 96 128
75 96 128
75 96 128
73 95 128
74 95 128
73 95 128
73 95 128
73 95 128
74 95 128
73 95 128
73 95 127
74 95 128
74 95 128
73 95 128
74 95 128
75 96 128
73 95 128
74 96 128
75 96 128
75 96 128
75 96 128
75 96 128
74 96 128
74 95 128
74 95 127
74 95 128
74 95 128
69 86 112
57 70 89
56 68 86
60 73 92
59 72 92
57 70 90
60 74 96
63 76 96
59 72 91
58 72 93
59 72 92
55 67 86
59 72 92
54 67 87
56 69 88
59 71 90
58 71 91
60 73 93
59 72 92
63 77 98
56 70 90
55 68 88
63 76 97
56 69 88
57 70 90
59 73 93
57 70 89
60 74 94
58 71 91
59 72 92
57 71 91
60 73 93
59 72 92
61 75 96
62 75 95
62 75 96
59 74 95
57 71 92
60 74 95
61 75 96
55 68 88
58 71 90
56 68 87
56 69 88
59 73 93
55 68 88
62 76 97
56 69 89
58 72 93
59 72 92
56 68 87
62 76 97
54 67 88
61 75 95
59 73 94
59 72 91
64 78 99
58 72 92
61 75 97
56 69 89
56 69 89
55 68 87
58 71 91
64 79 100
59 72 91
57 70 89
57 70 89
58 71 91
58 71 92
59 72 92
54 67 86
62 76 97
57 70 90
57 69 89
57 71 91
59 72 91
59 73 93
59 72 92
63 77 98
61 74 93
59 73 93
60 73 93
54 67 87
65 79 100
56 70 91
63 76 97
54 67 86
58 71 89
61 75 95
58 71 90
56 69 88
61 74 94
60 72 92
60 73 94
66 80 100
59 73 93
58 71 91
62 75 95
56 69 89
64 77 98
61 75 96
59 72 92
56 69 88
60 73 92
63 77 99
57 70 89
65 78 99
52 65 84
60 74 94
57 71 92
60 73 93
57 71 92
61 74 94
61 74 95
60 72 91
61 76 98
56 69 88
58 72 92
58 71 91
60 73 93
56 69 88
58 71 91
58 70 89
54 67 85
59 72 91
68 86 113
75 96 128
75 96 128
73 95 128
74 95 127
74 95 128
75 96 128
73 95 128
73 94 126
74 95 128
73 95 128
74 96 128
73 95 128
73 94 127
74 95 128
74 95 127
75 96 128
75 96 128
75 96 128
74 95 128
74 95 128
73 95 128
74 95 128
74 96 128
74 95 128
74 95 126
75 96 128
73 95 128
73 95 128
74 95 127
74 96 128
75 96 128
74 95 127
75 96 128
74 95 128
74 95 128
73 94 127
74 95 128
74 95 128
74 96 128
74 95 128
73 95 128
74 96 128
75 96 128
74 95 128
75 96 128
74 95 128
74 96 128
74 96 128
75 96 128
73 95 128
73 95 128
73 95 127
73 95 128
74 95 127
75 96 128
73 95 128
73 95 128
74 95 128
74 95 128
75 96 128
75 96 128
75 96 128
75 96 128
74 96 128
74 95 128
75 96 128
74 95 128
74 95 128
75 96 128
74 95 127
75 96 128
74 95 128
76 96 128
74 95 128
76 97 128
74 96 128
76 97 128
73 95 128
72 94 128
75 96 128
74 95 128
74 95 128
74 96 128
73 95 128
74 96 130
83 105 138
94 115 148
106 128 161
117 139 172
119 141 174
131 153 186
152 174 208
154 176 209
170 193 227
182 206 240
185 208 243
196 219 254
197 221 255
197 221 255
197 221 255
197 221 255
197 221 255
197 221 255
197 221 255
197 221 255
197 220 255
197 220 255
197 220 255
197 220 255
197 220 255
197 220 255
197 220 255
197 220 255
197 220 255
197 220 255
197 220 255
197 220 255
197 220 255
197 220 255
197 220 255
197 220 255
197 220 255
197 220 255
197 220 255
197 220 255
197 220 255
197 220 255
197 220 255
197 220 255
197 220 255
197 220 255
197 220 255
197 220 255
197 220 255
197 220 255
197 220 255
196 220 255
197 220 255
197 220 255
197 220 255
197 220 255
197 220 255
197 220 255
197 220 255
197 220 255
197 220 255
197 220 255
197 220 255
197 220 255
197 220 255
197 220 255
197 220 255
197 220 255
197 220 255
197 220 255
197 221 255
197 221 255
197 221 255
197 221 255
197 221 255
197 221 255
197 221 255
197 221 255
197 221 255
197 221 255
197 221 255
188 211 245
167 189 224
166 188 222
153 175 209
156 179 213
135 157 190
128 150 184
110 131 163
102 124 157
88 110 142
88 109 142
77 99 131
73 95 128
73 95 128
74 96 128
73 95 128
74 96 128
74 95 128
74 95 128
74 96 128
74 96 128
74 96 128
75 96 128
75 96 128
73 95 128
74 95 128
73 95 128
74 95 128
75 96 128
75 96 128
75 96 128
75 96 128
74 95 128
74 96 128
73 95 128
75 96 128
74 96 128
73 95 128
74 95 128
74 95 128
76 96 128
75 96 128
75 96 128
74 95 127
75 96 128
73 95 127
75 96 128
74 96 128
74 95 128
72 94 128
74 95 128
74 96 128
75 96 128
73 95 128
74 95 128
72 94 127
75 96 128
73 95 127
75 96 128
74 95 128
73 95 128
75 96 128
75 96 128
74 95 128
74 95 127
75 96 128
74 95 128
75 96 127
74 95 128
74 95 128
73 95 127
75 96 128
74 95 128
75 96 128
74 95 128
73 95 127
74 95 128
75 96 128
75 96 128
73 95 128
75 96 128
73 95 127
74 95 128
74 96 128
75 96 128
73 95 128
74 95 127
75 96 127
74 96 128
74 95 128
74 95 126
75 96 128
74 95 127
75 96 128
74 95 128
73 95 128
74 95 127
72 94 128
72 94 127
74 95 128
75 96 128
74 95 128
74 95 127
73 94 127
74 96 128
75 96 128
74 96 128
72 93 125
72 92 123
57 70 89
55 68 88
51 63 82
57 70 90
58 71 92
59 72 92
60 74 94
51 64 83
59 72 92
57 70 90
59 72 92
56 69 88
54 67 86
55 67 86
59 72 92
58 71 91
59 73 93
56 69 88
53 66 85
62 75 95
64 79 100
61 75 96
52 65 84
56 69 88
64 78 98
54 66 86
58 71 91
60 74 94
56 69 88
61 75 96
58 71 91
54 67 87
54 67 86
60 74 94
63 76 97
55 68 87
62 76 97
59 72 91
61 74 95
57 71 91
58 72 92
55 67 86
57 70 90
59 72 91
61 74 94
57 70 89
56 68 87
58 72 92
58 71 91
59 71 91
59 72 91
60 74 94
58 72 92
59 73 93
59 73 93
61 75 95
56 70 90
58 71 92
62 75 95
61 75 94
65 79 101
61 74 95
57 71 91
61 74 95
65 79 100
51 64 82
59 72 92
61 74 94
62 75 96
55 67 85
61 75 96
60 74 94
62 76 96
59 73 94
60 73 93
59 72 91
57 70 90
62 76 96
55 69 88
61 74 93
55 68 87
56 68 87
54 67 87
55 68 88
54 67 86
55 69 89
64 78 98
56 69 88
60 73 93
61 75 96
61 74 94
59 72 93
59 72 91
57 70 90
57 71 91
57 69 88
65 78 99
58 72 93
56 70 90
58 71 91
59 73 94
58 71 92
58 71 91
58 71 91
58 71 91
56 69 88
60 73 94
58 71 91
60 73 92
64 78 99
60 73 93
58 71 90
59 72 92
49 62 80
62 75 95
54 67 87
57 70 90
57 71 91
59 74 95
59 73 94
56 69 88
53 65 84
59 72 92
61 74 94
71 91 122
74 96 128
74 95 128
76 96 128
75 95 126
75 96 128
73 95 128
72 94 128
73 94 127
73 95 128
75 96 128
74 95 127
73 95 128
72 94 126
76 96 127
74 96 128
74 95 128
75 96 128
74 95 128
73 94 127
74 95 127
74 95 128
75 96 128
76 96 128
74 95 128
74 95 128
74 95 128
74 96 128
74 96 128
74 95 128
74 95 128
74 95 128
75 96 128
75 96 128
74 95 128
74 96 128
75 96 128
74 95 126
74 95 127
74 95 128
74 96 128
74 95 128
74 95 127
73 95 128
75 96 128
73 95 128
74 95 128
74 96 128
73 95 128
74 95 128
74 96 128
76 96 128
73 95 128
75 96 128
74 95 128
75 96 127
75 96 128
74 95 128
75 96 128
74 95 128
74 95 128
75 96 128
74 95 128
75 96 128
74 96 128
74 95 128
74 95 128
74 95 128
75 96 128
75 96 128
74 95 128
74 95 128
74 95 128
74 96 128
75 96 128
74 96 128
75 96 128
75 96 128
74 95 128
75 96 128
72 94 128
73 95 128
74 95 128
74 95 128
74 96 128
75 96 128
74 95 127
75 96 128
74 96 128
75 96 128
75 96 128
74 96 128
73 95 128
76 96 128
74 96 128
74 96 128
74 96 128
77 98 130
90 112 144
93 114 147
102 124 157
114 136 170
132 155 188
139 161 195
152 174 208
167 190 224
160 183 217
170 193 227
180 202 236
196 219 254
197 221 255
197 221 255
197 221 255
197 221 255
197 221 255
197 221 255
197 221 255
197 221 255
197 221 255
197 220 255
197 220 255
197 220 255
197 220 255
197 220 255
197 220 255
197 220 255
197 220 255
197 220 255
197 220 255
197 220 255
197 220 255
197 220 255
197 220 255
197 220 255
197 220 255
197 220 255
197 220 255
197 220 255
197 220 255
197 220 255
197 220 255
197 220 255
197 220 255
197 220 255
197 221 255
197 221 255
197 221 255
197 221 255
197 221 255
197 221 255
197 221 255
197 221 255
197 221 255
197 221 255
197 221 255
194 217 252
181 204 239
171 194 229
158 181 215
151 173 207
150 172 206
133 156 189
124 146 179
109 131 163
105 127 160
93 114 145
73 95 128
75 96 128
74 96 128
74 96 128
75 96 128
75 96 128
74 95 127
74 96 128
73 95 128
75 96 128
73 95 127
75 96 128
75 96 128
74 96 128
73 95 128
74 96 128
74 96 128
74 95 128
75 96 128
75 96 128
74 95 128
73 95 127
72 94 128
74 96 128
73 95 128
74 95 128
73 95 128
75 96 128
74 96 128
76 97 128
75 96 128
73 95 128
73 95 128
74 96 128
74 96 128
74 96 128
75 96 128
74 95 128
75 96 128
73 95 128
74 95 128
74 96 128
75 96 128
74 95 128
75 96 128
75 96 128
75 96 128
76 96 128
75 96 128
75 96 128
73 95 128
74 95 128
74 96 128
74 96 128
73 95 128
75 95 127
73 95 128
75 96 127
73 95 128
74 96 128
75 96 128
74 95 127
74 96 128
75 96 128
74 95 128
74 95 128
74 95 128
74 95 128
74 96 128
74 95 128
75 96 128
74 95 128
74 95 128
74 96 128
74 95 128
74 95 128
74 96 128
73 95 128
75 96 128
74 95 128
74 95 127
74 95 127
74 95 128
73 95 128
73 95 128
74 96 128
74 95 126
74 95 128
74 96 128
75 96 128
73 95 128
74 95 127
74 95 128
74 95 128
74 95 128
74 95 128
74 96 128
74 95 128
73 95 128
73 94 126
73 95 128
74 96 128
73 94 127
74 95 127
73 94 127
75 96 128
75 96 128
75 96 128
75 96 127
75 96 128
64 80 103
54 66 85
56 68 87
56 69 89
55 68 87
57 70 89
61 75 96
58 71 90
58 71 90
57 70 90
58 71 91
54 67 86
63 76 96
55 68 88
62 75 94
55 68 86
57 71 91
54 67 87
59 73 95
59 72 93
54 67 86
58 71 90
58 71 90
61 75 95
57 70 89
58 72 92
58 71 92
53 66 85
54 68 88
56 69 89
60 73 93
59 72 92
63 77 98
59 72 91
60 74 94
58 71 91
58 71 91
55 68 87
55 69 88
61 74 94
60 74 94
62 76 97
58 71 91
51 65 85
56 68 88
60 73 94
53 66 85
57 70 89
58 71 92
57 70 89
59 72 93
61 75 96
60 73 93
57 70 89
56 69 88
59 73 93
54 66 85
60 73 93
62 76 97
58 72 93
61 75 95
57 70 90
57 70 90
58 71 91
55 69 89
59 72 93
61 75 95
58 71 90
53 66 85
54 67 87
61 75 95
55 68 87
58 71 91
61 74 95
61 75 95
64 77 98
63 76 97
57 70 89
60 73 92
59 73 93
60 74 94
59 72 92
56 69 88
56 69 89
62 75 95
57 70 90
61 74 95
55 68 88
55 67 86
59 71 90
59 72 92
56 69 88
61 75 96
61 75 95
54 67 87
54 67 87
61 74 94
59 72 91
55 68 89
57 69 88
55 68 87
54 67 86
58 71 90
59 72 92
55 68 86
57 69 89
56 69 88
55 68 87
58 72 92
59 73 92
56 68 87
54 67 85
54 67 86
64 77 98
57 69 88
56 69 87
60 74 94
62 76 96
60 73 93
58 71 92
58 72 92
59 72 92
56 69 89
61 75 96
72 93 126
74 96 128
73 95 127
74 95 127
75 96 128
75 96 128
73 94 127
75 96 128
74 96 128
72 94 127
74 95 127
74 95 127
75 96 127
74 95 128
75 96 128
73 95 128
73 94 126
75 96 128
75 96 128
74 96 128
74 96 128
75 96 128
75 95 126
74 95 128
74 96 128
74 96 128
74 96 128
75 96 128
74 95 128
75 96 128
74 95 127
75 96 128
74 96 128
73 94 126
73 95 128
75 96 128
74 95 127
73 95 127
75 96 128
75 96 128
75 96 128
75 96 128
74 95 127
76 97 128
74 95 127
73 95 128
75 96 128
75 96 128
75 96 128
73 95 128
74 95 128
73 95 128
74 95 128
74 95 128
72 94 126
75 96 128
74 95 128
74 96 128
73 95 128
74 96 128
74 95 128
75 96 128
75 96 128
74 95 128
74 95 128
74 95 128
74 95 128
74 95 128
74 95 128
74 96 128
73 94 127
74 95 128
74 95 128
74 95 128
72 94 126
75 96 128
74 95 127
73 95 128
74 96 128
74 95 128
77 97 128
75 96 128
74 95 128
74 95 128
73 95 128
73 95 128
76 96 128
74 95 128
74 96 128
73 95 128
75 96 128
75 96 128
74 96 128
75 96 128
75 96 128
74 95 128
75 96 128
75 96 128
75 96 128
76 96 128
73 95 128
75 96 128
75 96 128
74 95 128
74 96 128
75 96 128
73 95 128
74 96 128
74 96 128
76 97 129
80 102 134
86 108 140
108 129 162
112 134 167
128 151 184
138 160 194
153 176 209
153 175 209
169 192 226
183 206 240
196 219 254
197 221 255
197 221 255
197 221 255
197 221 255
197 221 255
197 221 255
197 221 255
197 221 255
197 221 255
197 221 255
197 221 255
197 221 255
197 220 255
197 220 255
197 220 255
197 220 255
197 220 255
197 221 255
197 221 255
197 221 255
197 221 255
197 221 255
194 217 252
184 207 241
178 201 235
153 175 209
152 175 208
135 157 190
134 156 189
112 134 167
104 126 158
100 122 154
89 110 142
74 96 129
75 96 128
73 95 128
73 95 128
75 96 128
75 96 128
76 96 128
74 96 128
75 96 128
73 95 128
75 96 128
74 95 128
73 95 128
73 95 128
75 96 128
75 96 128
75 96 128
74 95 127
75 96 127
75 96 128
74 95 128
74 95 128
74 96 128
74 95 128
74 95 128
73 95 128
74 95 128
73 95 128
75 96 128
74 95 128
75 96 128
74 95 128
75 96 128
74 95 128
75 96 128
75 96 128
76 96 128
75 96 128
72 94 128
75 96 128
74 95 128
75 96 128
74 96 128
73 95 127
74 95 126
75 95 127
73 95 128
76 97 128
75 96 127
74 95 128
75 96 128
74 95 127
74 95 128
74 96 128
76 96 128
74 95 128
74 95 127
74 95 128
75 96 128
73 95 128
74 95 128
74 95 128
74 95 127
76 96 128
73 95 128
74 95 128
74 95 127
74 95 127
75 96 128
73 95 128
75 95 126
73 94 127
74 96 128
74 95 128
74 95 128
75 96 128
74 95 128
74 95 127
74 95 128
74 95 128
75 96 128
75 96 128
74 96 128
76 96 128
73 95 128
74 95 128
74 95 127
74 95 128
72 94 128
74 95 128
74 95 128
75 96 128
74 95 128
74 95 128
74 95 127
74 95 128
75 96 128
72 94 127
73 95 128
74 95 128
75 96 128
73 95 128
74 95 128
75 96 128
73 95 127
73 95 128
74 96 128
74 96 128
74 95 128
74 95 127
75 96 128
74 95 127
74 95 128
72 94 126
73 94 125
74 95 128
73 95 128
73 94 126
74 95 127
72 93 126
74 95 128
73 94 127
66 85 112
54 67 86
54 67 86
55 68 87
58 71 90
56 69 88
53 66 85
55 68 88
59 72 92
59 72 92
60 73 93
58 72 92
59 72 92
56 69 88
65 79 100
56 69 89
57 71 92
58 71 91
60 73 92
57 71 91
55 67 85
56 70 90
55 67 86
55 68 87
54 67 87
55 68 88
54 67 86
57 70 90
51 63 81
58 72 93
62 75 94
58 71 91
58 71 91
59 73 92
56 69 88
59 73 94
58 70 89
54 67 87
57 70 90
61 74 95
60 73 92
54 66 85
61 74 95
59 72 92
57 70 89
56 69 89
56 69 88
54 67 87
56 69 89
56 68 88
57 70 89
60 73 94
60 73 93
57 70 90
61 75 95
57 69 88
56 70 89
56 69 88
61 74 94
59 73 93
64 78 99
58 72 92
60 74 93
64 77 98
57 71 91
58 71 91
55 68 88
62 75 94
56 68 88
58 71 91
57 70 90
55 68 87
62 75 95
58 71 90
58 72 92
57 71 91
57 70 89
53 66 85
60 74 94
59 72 91
55 69 89
60 73 92
56 70 89
56 69 89
63 77 98
62 75 95
58 72 93
57 69 88
60 74 93
59 73 94
61 75 97
57 70 90
55 68 88
58 72 92
53 65 84
56 69 89
55 68 87
58 71 91
58 71 91
54 67 86
64 77 97
55 68 87
59 71 90
61 75 95
59 72 91
60 73 93
59 72 91
56 69 90
56 69 89
58 71 91
56 69 88
59 71 91
52 65 84
58 70 89
57 71 91
52 64 81
57 70 89
52 65 84
57 70 89
56 68 86
59 72 91
58 71 91
58 71 90
65 82 108
73 95 128
73 94 126
73 95 127
72 94 127
74 94 126
74 96 128
73 95 128
74 95 128
74 95 127
74 95 126
73 95 127
75 96 128
75 96 127
73 94 127
75 95 127
75 96 128
75 96 128
73 94 127
74 95 127
72 93 124
75 96 128
74 95 128
74 95 128
74 96 128
75 96 128
75 96 128
75 96 128
74 95 128
74 95 127
74 96 128
74 96 128
73 94 126
75 96 128
74 95 128
74 95 127
74 95 128
74 95 128
74 95 128
75 96 128
75 96 128
74 95 128
75 96 128
74 95 127
74 95 127
75 96 128
75 96 128
75 96 128
74 95 128
75 96 128
74 95 128
74 96 128
74 96 128
75 96 128
74 96 128
74 96 128
74 95 128
76 96 128
72 94 128
75 96 128
74 95 127
74 95 127
73 95 128
74 95 128
74 95 128
74 95 127
73 95 128
74 95 128
74 95 128
74 96 128
75 96 128
75 96 128
75 96 128
74 95 127
73 95 128
72 94 127
74 95 128
73 95 128
75 96 128
73 95 128
73 95 128
75 96 128
73 95 128
74 95 127
73 95 128
73 95 128
74 95 128
74 95 128
75 96 128
74 95 127
75 96 128
76 96 128
74 96 128
73 95 128
74 95 128
74 95 128
73 95 128
74 95 128
74 95 128
73 95 128
76 96 128
74 95 128
75 96 128
75 96 128
74 96 128
74 95 128
73 95 128
74 96 128
76 96 128
73 95 128
74 96 128
74 96 128
74 95 128
74 96 128
74 95 128
75 96 128
74 95 128
75 96 128
73 95 128
74 96 128
75 96 128
74 96 128
79 100 131
82 104 136
100 122 154
108 130 162
122 144 177
137 159 193
149 172 206
143 165 198
166 188 222
166 189 224
190 213 248
195 218 253
197 221 255
197 221 255
197 221 255
197 221 255
197 221 255
118 140 174
120 142 175
108 129 162
89 110 142
81 103 135
74 96 128
75 96 128
75 96 128
75 96 128
74 96 128
74 96 128
74 95 128
74 95 128
73 95 128
74 96 128
74 95 128
73 95 128
75 96 128
75 96 128
74 95 128
74 95 128
75 96 128
74 95 128
74 95 128
74 96 128
76 96 128
73 95 128
75 96 128
74 96 128
75 96 128
74 95 128
74 95 127
75 96 128
73 95 128
74 95 128
75 96 128
75 96 128
74 95 128
75 96 128
73 95 128
74 95 128
74 95 128
75 96 128
74 95 128
75 96 128
75 96 128
75 96 128
75 96 128
75 96 128
74 95 128
74 96 128
75 96 128
74 95 128
75 96 128
74 95 128
75 96 128
73 95 127
74 95 128
74 96 128
74 95 128
73 94 127
75 96 128
73 95 128
75 96 128
74 95 128
74 95 128
73 95 128
74 96 128
74 96 128
74 95 128
73 95 128
73 95 128
74 96 128
74 95 127
74 95 128
73 94 127
74 95 128
73 95 128
73 95 128
73 95 128
74 96 128
73 95 128
75 96 128
74 95 128
73 95 128
73 95 128
75 96 128
74 95 128
74 95 128
73 94 126
74 95 128
75 96 128
74 95 128
73 95 128
74 95 127
74 95 128
74 95 128
74 95 128
75 96 128
73 95 128
73 95 128
74 95 128
74 96 128
73 95 128
74 95 127
74 94 126
74 95 128
75 96 128
75 96 128
73 95 128
73 94 127
72 94 126
74 95 127
74 95 128
75 96 128
75 96 128
73 95 127
75 96 128
74 95 128
74 95 127
75 96 127
72 94 127
75 96 128
74 95 127
74 95 128
74 95 127
73 94 126
74 95 128
74 96 128
73 95 127
72 94 127
73 95 128
73 93 125
72 94 126
73 95 128
74 95 126
74 95 128
74 95 127
72 93 125
58 72 93
57 70 90
55 68 88
56 69 88
54 66 85
55 67 86
55 68 87
53 65 84
59 73 93
53 65 83
53 65 83
59 72 92
57 70 89
54 66 85
55 67 85
61 74 94
52 64 83
57 70 89
58 71 91
56 68 87
57 70 89
54 67 86
59 73 93
58 71 91
60 73 93
61 74 93
50 62 80
59 72 93
59 72 91
62 74 93
60 73 93
58 71 90
59 72 92
55 68 87
57 71 91
56 68 88
64 78 99
58 70 89
54 66 85
60 74 94
58 70 89
58 71 91
60 73 93
59 71 91
57 70 90
62 75 95
59 72 92
53 66 86
58 71 91
61 75 96
57 70 89
59 72 91
65 79 100
57 70 90
57 69 88
59 72 92
57 70 90
53 66 84
62 75 96
57 70 89
59 72 91
57 70 89
62 75 96
54 66 85
59 72 92
58 71 91
56 69 88
57 70 90
53 65 83
55 68 87
56 69 89
58 71 90
61 75 96
55 67 86
54 67 86
56 69 88
59 73 92
61 75 95
56 69 89
58 71 89
59 73 93
57 71 92
57 71 91
55 68 88
58 71 91
59 73 92
62 76 96
57 69 88
59 72 93
56 69 89
60 73 94
56 69 89
62 75 96
55 68 88
64 79 100
63 76 97
60 72 91
54 67 86
54 67 87
62 76 96
50 62 80
53 66 85
57 70 90
57 70 91
60 73 93
58 70 90
62 76 98
59 72 93
54 67 86
54 67 86
56 69 88
55 68 87
56 69 88
57 70 89
63 76 96
53 65 84
58 72 92
59 72 91
58 71 91
54 67 86
59 71 91
56 69 88
73 93 123
73 95 127
73 95 128
74 95 127
74 95 128
75 96 128
73 95 128
73 95 127
74 95 127
73 95 128
74 95 127
74 95 127
74 95 128
75 96 128
74 95 127
74 95 127
74 96 128
74 95 128
75 96 128
75 96 128
73 94 126
74 95 128
73 94 127
73 95 127
73 95 127
74 95 128
74 96 128
75 95 127
74 95 127
73 95 127
74 94 125
75 96 128
74 96 128
75 96 128
75 96 128
74 96 128
74 95 126
76 97 128
74 95 126
74 95 128
73 95 127
73 94 127
73 94 126
74 95 128
75 96 128
74 96 128
73 95 128
75 96 128
73 95 128
74 95 127
74 95 127
75 96 128
76 96 128
74 95 127
74 96 128
74 95 127
74 95 127
75 96 128
74 95 128
74 95 128
74 96 128
73 95 128
75 96 128
73 95 128
75 96 127
75 96 128
74 95 128
74 95 128
74 96 128
74 95 127
73 95 128
74 95 127
75 96 128
73 95 127
74 95 128
74 96 128
74 96 128
74 95 128
73 95 128
74 95 128
75 96 128
74 95 128
75 96 128
75 96 128
75 96 128
75 96 127
73 95 128
74 95 128
73 95 128
74 96 128
73 95 128
74 95 127
73 95 128
75 96 128
74 95 128
74 96 128
74 95 128
74 95 128
74 95 127
73 95 128
75 96 128
74 96 128
74 96 128
74 95 128
75 96 128
74 96 128
74 96 128
74 95 128
74 96 128
75 96 128
74 95 128
73 95 128
74 95 128
74 95 128
74 95 128
75 96 128
74 96 128
75 96 128
74 96 128
74 95 128
73 95 128
73 95 127
75 96 128
74 96 128
74 96 128
74 96 128
76 96 128
75 96 128
74 95 128
73 95 128
75 96 128
74 96 128
73 95 128
75 96 128
84 106 138
86 108 140
106 127 160
98 119 152
132 154 188
74 96 128
74 96 128
75 96 128
75 96 128
73 95 128
74 95 128
76 97 128
72 94 128
75 96 128
75 96 128
74 95 128
74 96 128
75 96 128
74 96 128
75 96 128
74 96 128
75 96 128
74 96 128
74 96 128
75 96 128
74 95 128
74 95 128
74 95 128
74 95 127
74 95 128
74 95 128
73 95 128
74 96 128
75 96 128
73 95 128
74 95 128
74 95 128
74 96 128
75 96 128
75 96 128
74 95 128
75 96 128
74 95 128
73 95 128
75 96 128
75 96 128
74 95 128
74 96 128
75 96 128
75 96 128
74 95 128
74 95 128
73 95 128
74 95 128
73 95 128
74 96 128
74 95 128
75 96 128
73 95 128
74 95 127
75 96 128
75 96 128
73 94 127
74 95 128
74 96 128
74 95 128
75 96 128
74 95 127
74 95 128
73 95 128
74 95 128
72 94 128
75 96 128
74 96 128
73 95 128
74 95 127
74 95 127
74 95 128
73 95 128
74 95 128
73 94 127
73 95 128
73 95 128
74 96 128
73 95 128
74 95 128
75 96 128
76 97 128
74 95 127
74 95 127
76 97 128
73 95 128
74 95 128
74 96 128
74 96 128
74 95 128
74 95 128
74 96 128
74 95 128
74 96 128
74 95 128
74 95 127
74 95 128
72 94 127
74 95 127
74 95 128
75 96 128
75 95 127
74 95 128
74 96 128
74 95 127
73 95 128
74 95 128
75 96 128
75 96 128
73 95 128
74 96 128
75 95 127
73 94 126
74 95 128
74 95 126
74 95 128
73 95 128
74 95 127
74 95 128
72 94 126
73 95 128
73 95 127
72 94 126
73 95 127
72 94 127
73 95 127
73 95 127
75 95 126
74 96 128
74 96 128
73 93 124
74 95 128
72 94 126
73 93 125
72 94 127
73 95 128
74 95 127
75 95 127
58 72 94
58 71 91
63 76 96
49 62 80
56 68 87
55 68 87
54 66 85
56 68 87
55 68 88
54 66 85
52 64 83
58 71 90
57 71 90
55 67 86
58 71 91
54 67 86
57 70 91
55 68 87
54 67 85
57 70 89
57 69 89
59 72 92
56 69 88
52 65 84
55 68 88
56 69 88
58 71 90
59 72 91
60 74 95
59 72 92
56 69 88
57 70 89
56 69 87
60 73 91
58 71 92
52 64 83
58 71 90
57 71 90
55 68 86
60 74 94
60 72 91
60 73 93
60 73 94
58 71 91
56 68 87
55 68 87
55 68 87
57 69 89
62 75 95
59 73 93
59 72 92
62 75 95
60 74 95
56 69 89
60 74 94
57 70 90
58 71 90
56 68 87
60 73 93
59 72 92
58 71 90
52 65 83
59 72 92
61 74 94
54 66 84
64 77 98
54 66 84
59 73 94
61 75 96
53 66 85
57 70 89
55 68 87
55 68 87
60 73 94
57 69 88
55 68 88
56 69 88
62 76 97
63 77 98
54 66 85
61 74 95
60 73 93
56 69 89
60 73 91
53 66 85
57 70 90
58 71 91
56 69 88
59 72 92
58 71 92
55 67 85
59 73 93
60 74 94
54 67 87
57 70 90
54 67 87
58 71 91
58 71 91
54 67 85
59 72 91
54 67 85
57 70 89
64 78 98
57 70 88
57 70 89
54 66 85
62 76 96
56 69 88
59 73 94
60 73 93
56 69 89
57 70 89
56 69 88
53 65 83
56 68 86
58 72 92
52 65 84
58 71 91
54 67 86
54 67 87
58 70 89
60 75 99
73 94 126
74 95 126
73 95 127
72 93 126
72 94 126
72 94 128
74 95 127
75 96 126
73 94 126
74 95 127
73 95 128
74 95 128
74 95 128
72 94 126
73 95 127
73 94 125
74 95 128
74 95 128
74 96 128
74 95 128
74 96 128
75 95 126
74 95 128
73 95 127
74 95 127
74 95 128
73 95 128
73 95 128
74 96 128
74 96 128
73 95 127
75 96 128
73 95 127
74 95 128
75 95 126
75 96 128
74 95 127
74 95 128
75 96 128
73 95 128
74 95 128
74 95 128
73 95 128
74 95 128
73 95 127
74 95 128
74 95 128
73 95 128
75 96 128
74 95 128
74 95 128
74 95 128
73 95 127
73 94 127
74 95 128
74 95 128
74 95 127
73 95 127
75 96 128
74 95 127
75 96 128
74 95 128
74 95 127
73 95 127
76 97 128
75 96 128
74 95 128
75 96 128
74 96 128
73 94 127
75 96 128
75 96 128
74 95 128
74 95 128
74 95 127
75 96 128
74 96 128
74 96 128
73 95 128
72 94 127
73 95 128
74 95 128
75 96 128
74 95 128
74 95 127
74 95 128
75 96 128
74 96 128
75 96 128
75 96 128
73 95 128
74 95 128
74 95 128
75 96 128
74 95 127
74 96 128
75 96 128
75 96 128
74 95 128
74 95 128
75 96 128
74 95 128
73 95 128
74 95 128
74 96 128
74 95 128
75 96 128
73 95 128
73 95 128
74 95 128
74 95 128
74 96 128
74 95 127
74 95 128
76 97 128
74 96 128
75 96 128
74 95 128
75 96 127
73 95 128
74 95 128
75 96 128
73 95 128
75 95 127
73 95 128
74 95 128
74 95 128
73 95 128
74 95 128
74 96 128
73 95 128
73 95 128
74 96 128
73 95 128
73 94 127
75 96 128
74 96 128
76 97 128
74 95 128
73 95 128
74 96 128
75 96 128
74 95 128
74 95 128
74 95 128
74 96 128
73 95 128
75 96 128
73 95 127
75 96 128
75 96 128
76 97 128
74 96 128
76 96 127
74 96 128
75 96 128
74 95 128
73 95 128
73 95 128
75 96 128
73 95 128
73 95 128
75 96 128
74 95 128
74 95 127
72 94 128
73 95 128
75 96 128
74 96 128
75 96 128
74 95 128
75 96 128
75 96 128
73 95 128
73 95 127
74 95 128
73 95 128
73 95 128
75 96 128
75 96 128
75 96 128
74 96 128
74 95 128
73 95 128
75 96 128
75 96 128
73 95 128
74 95 128
75 96 128
74 96 128
74 95 128
73 95 128
74 96 128
74 95 128
74 95 127
75 96 128
76 96 128
75 96 128
73 95 128
74 95 128
74 96 128
74 96 128
74 95 128
74 96 128
73 95 128
74 95 128
74 96 128
74 96 128
73 95 128
73 95 128
74 95 128
73 95 128
73 95 128
75 95 126
73 94 127
74 95 128
74 96 128
75 96 127
74 95 127
74 96 128
75 96 128
76 96 128
73 95 128
74 95 128
73 95 127
75 95 127
75 96 128
74 95 128
73 94 126
75 95 127
74 95 128
74 95 128
73 95 127
74 95 128
73 95 128
74 95 127
73 95 128
73 95 128
73 95 127
75 95 127
74 96 128
74 95 128
75 96 128
75 96 128
75 96 128
75 96 128
75 96 128
73 95 128
75 96 127
73 95 128
71 93 125
74 95 128
73 94 126
74 95 128
74 95 128
74 96 128
74 96 128
72 94 126
73 95 127
74 95 128
75 96 128
75 96 128
74 95 126
75 96 128
74 95 127
74 95 127
74 95 127
74 95 127
73 94 126
75 96 128
73 94 126
73 95 127
73 95 128
74 95 128
73 95 128
74 94 126
74 96 128
75 96 128
70 88 116
58 71 90
56 68 86
57 71 90
56 69 89
54 67 86
62 76 97
53 66 85
57 69 88
57 70 89
54 66 84
58 71 91
58 71 90
56 68 86
57 70 90
58 71 90
58 71 91
51 63 81
53 66 85
55 67 86
56 69 89
53 65 84
54 67 86
53 66 86
54 66 85
57 70 89
63 76 97
53 65 84
55 68 87
53 65 84
61 74 95
58 71 91
54 66 85
56 69 89
54 67 85
58 71 89
58 72 92
58 71 90
60 73 93
58 71 91
58 72 92
58 70 88
62 76 95
60 73 93
54 67 87
57 70 88
61 74 93
59 73 93
56 69 88
59 73 93
53 66 85
55 67 86
54 66 85
56 69 88
60 74 94
52 64 83
57 70 90
58 72 92
58 71 91
59 72 92
57 70 88
54 66 85
58 72 92
56 69 89
59 72 92
57 69 88
63 77 96
59 72 91
61 75 96
56 68 88
55 68 87
59 72 91
56 69 88
61 74 95
62 76 96
61 74 93
57 70 90
60 73 93
59 72 92
52 65 84
60 74 94
58 71 91
56 68 87
60 73 93
57 70 90
55 68 86
60 73 94
59 72 92
55 68 87
62 76 97
60 72 91
55 67 86
55 68 87
55 68 87
60 73 93
55 67 85
59 72 92
55 67 85
62 75 95
56 69 88
56 69 88
58 70 90
53 65 84
59 72 92
57 70 90
57 70 90
58 70 90
55 68 88
59 72 92
54 66 84
55 68 88
58 71 90
55 68 88
52 64 82
57 70 89
53 66 85
58 72 92
60 74 94
58 70 89
59 73 93
54 66 85
63 81 108
73 94 127
75 95 127
72 92 123
72 94 127
73 95 128
73 95 128
74 95 127
74 95 127
75 96 128
75 96 128
74 95 128
74 95 127
74 95 127
73 94 126
75 96 128
74 95 126
72 94 127
72 94 128
73 95 128
75 96 128
74 95 127
73 94 127
75 96 128
73 94 126
73 95 127
74 95 126
75 96 127
72 94 127
73 95 128
73 95 128
74 95 128
74 95 128
75 96 128
73 94 127
73 94 127
73 94 127
74 95 128
73 94 126
73 95 128
75 96 128
75 96 128
73 95 126
74 96 128
74 96 128
74 95 128
74 95 126
74 95 127
74 95 127
72 94 128
75 96 128
74 95 127
75 96 128
74 95 128
75 96 128
73 95 128
74 95 128
74 95 128
75 96 127
74 95 128
73 95 128
74 95 128
74 95 128
74 95 127
72 94 128
74 95 128
74 95 128
74 95 127
74 95 128
75 96 128
74 95 127
75 96 128
75 96 128
74 95 127
75 96 128
74 95 127
74 96 128
74 95 127
74 96 128
73 94 127
74 96 128
74 96 128
73 94 127
74 96 128
75 95 127
75 96 128
74 95 128
75 96 128
74 95 128
76 97 128
75 96 128
74 95 128
73 95 128
75 96 128
74 95 128
76 96 128
75 96 128
74 96 128
74 96 128
74 95 128
74 95 127
75 96 128
75 96 128
75 96 128
75 96 128
75 96 128
74 96 128
74 95 128
73 95 128
74 95 128
74 95 128
71 94 128
75 96 128
73 95 128
74 95 128
74 95 128
73 95 128
73 95 128
75 96 128
73 95 128
73 95 128
74 95 128
73 95 128
75 96 128
74 95 128
75 96 127
73 95 127
74 95 128
73 95 127
73 95 128
73 95 128
73 95 128
74 96 128
74 96 128
76 96 128
74 96 128
74 95 128
73 95 128
75 96 128
73 95 128
74 96 128
74 95 128
74 96 128
73 95 128
72 94 128
73 95 128
74 95 128
74 95 128
73 95 127
75 96 128
74 95 128
74 95 128
73 95 128
74 96 128
72 94 128
74 95 128
75 96 128
74 95 128
73 95 128
74 96 128
74 95 128
75 96 128
75 96 128
77 97 128
74 95 128
73 95 128
73 95 127
74 95 128
75 96 128
73 95 128
75 96 128
75 96 128
75 96 127
74 96 128
75 96 128
73 95 128
75 96 128
74 95 128
74 96 128
77 97 128
75 96 128
74 96 128
74 96 128
73 95 128
73 95 128
75 96 128
74 95 127
74 95 128
74 96 128
74 95 127
74 95 128
74 95 128
74 95 128
74 96 128
73 95 128
74 95 128
74 95 127
75 95 127
74 96 128
75 96 128
74 95 128
73 95 128
75 96 128
74 95 128
75 96 128
76 97 128
74 95 128
74 95 128
74 95 128
73 95 128
74 95 128
74 95 128
76 97 128
75 96 128
74 95 127
72 94 128
73 94 127
75 96 128
75 96 128
74 95 128
73 95 128
73 94 126
74 95 127
75 96 128
74 95 128
75 96 127
73 94 126
74 96 128
75 96 127
75 96 127
74 95 128
74 95 128
75 96 128
73 95 127
73 95 128
75 96 128
75 96 128
71 94 127
74 95 128
74 95 128
74 95 128
73 94 126
74 95 128
73 94 127
74 95 127
74 95 126
71 93 125
74 95 127
73 95 127
73 94 126
75 96 128
75 95 127
74 95 128
72 94 127
74 95 128
73 95 127
74 96 128
74 95 127
73 95 127
73 95 128
75 96 127
72 93 126
72 94 127
73 95 128
73 95 128
75 96 127
74 95 126
74 95 127
73 95 127
74 95 128
73 94 126
74 95 127
73 94 125
74 95 127
73 95 127
73 94 127
73 94 126
74 95 127
73 93 124
71 92 123
55 67 86
53 65 83
52 64 83
59 73 93
58 70 89
57 69 88
53 65 83
52 64 82
55 67 85
56 69 89
56 69 88
59 72 91
58 71 90
57 70 89
61 74 94
56 69 89
58 72 92
55 68 87
54 66 83
56 69 88
60 74 94
56 68 87
56 69 87
55 68 88
55 67 86
56 70 90
57 70 90
56 68 86
62 75 95
60 73 94
54 67 85
56 70 89
58 70 89
54 66 84
57 70 89
55 68 88
59 72 91
53 66 85
51 63 81
57 70 89
53 65 83
57 71 91
59 72 91
57 70 90
60 74 94
55 67 86
59 72 92
54 67 86
59 72 92
55 68 87
56 69 87
51 64 83
59 72 93
55 68 87
56 69 89
59 71 90
53 66 86
58 71 90
55 68 87
54 67 86
61 74 95
60 74 94
57 70 90
55 68 87
57 71 91
51 63 82
57 70 88
55 67 86
61 75 96
57 70 90
59 72 91
60 73 92
60 74 95
55 68 87
61 75 96
60 74 94
56 69 89
63 76 95
54 67 86
55 67 87
56 68 87
56 69 88
55 67 85
54 67 86
58 70 90
60 73 94
57 71 91
64 78 98
60 73 92
60 74 95
56 69 89
58 71 90
55 68 87
55 67 85
56 69 87
52 63 81
54 67 86
56 69 88
55 67 86
56 69 87
52 64 82
51 63 81
60 73 93
56 68 87
53 65 83
54 67 85
56 70 90
54 67 85
58 71 92
52 65 84
54 67 86
58 71 90
58 71 90
57 69 88
55 68 86
53 65 83
55 68 88
56 68 88
59 72 91
57 70 91
72 92 123
76 97 128
72 93 125
72 93 125
73 94 126
73 94 127
74 95 128
73 95 127
75 96 128
73 94 126
73 94 126
73 94 125
74 95 126
74 95 128
73 95 127
75 95 127
72 94 126
74 95 128
73 95 127
73 94 126
73 95 127
74 95 127
74 95 126
75 95 126
74 96 128
73 95 127
74 95 128
74 95 128
73 95 128
72 94 127
75 96 128
72 93 125
73 95 128
73 94 127
73 94 126
72 94 127
73 95 128
72 94 127
73 95 128
75 96 127
75 96 128
74 95 128
75 96 128
72 94 128
74 95 128
75 96 128
73 95 128
74 96 128
75 96 128
75 96 128
74 95 128
73 95 128
73 94 126
76 96 128
74 95 128
74 95 128
75 96 128
73 95 128
74 95 127
75 96 128
75 96 128
73 95 128
73 95 128
73 95 128
74 96 128
73 95 128
75 96 128
74 96 128
74 95 128
74 96 128
75 96 128
74 95 128
74 95 128
75 96 128
74 95 127
72 94 126
75 96 128
74 95 128
75 96 128
74 95 127
74 95 127
74 95 128
73 94 127
74 95 128
74 96 128
75 96 128
74 95 128
73 95 128
75 96 128
76 96 128
73 95 127
73 95 128
74 95 128
75 96 128
72 94 127
74 95 128
74 95 128
75 96 128
72 94 128
74 96 128
74 95 128
74 95 127
74 95 128
73 94 127
74 95 128
76 96 128
74 95 128
75 96 128
75 95 127
75 96 128
74 95 128
73 95 128
75 96 128
74 95 128
74 95 128
76 96 128
73 95 128
74 95 128
75 96 128
74 96 128
75 96 128
76 96 128
75 96 128
75 96 128
74 95 127
75 96 128
74 96 128
75 96 128
76 96 128
75 96 128
75 96 128
75 96 128
74 95 128
74 95 128
74 95 128
75 96 128
75 96 128
73 95 128
74 95 128
73 95 128
75 96 128
74 95 128
75 96 128
75 96 128
75 96 128
72 94 128
75 96 128
74 96 128
75 96 128
74 95 128
74 95 128
73 95 127
73 95 128
74 95 128
74 95 128
74 95 128
73 95 128
74 95 128
75 96 127
74 95 127
74 95 128
72 94 128
74 95 127
74 95 128
73 95 128
74 95 128
75 96 128
74 96 128
73 95 128
74 95 128
74 95 128
75 96 128
74 95 128
73 95 128
74 96 128
76 96 128
75 96 128
75 96 128
74 96 128
73 94 127
75 96 128
73 95 128
74 95 128
73 95 128
73 95 128
73 95 128
75 96 128
74 95 127
73 95 127
74 95 128
75 96 128
75 96 128
73 95 128
74 96 128
74 95 127
74 95 128
75 96 128
75 96 128
74 95 128
74 95 128
75 96 128
73 94 127
75 96 128
75 96 128
76 96 128
74 96 128
73 94 126
74 96 128
74 95 128
74 95 128
74 95 127
73 95 128
73 95 127
73 94 127
74 96 128
74 95 128
76 96 127
74 95 127
73 95 128
75 96 127
76 97 128
74 95 128
73 95 128
74 95 128
74 95 127
74 95 128
74 96 128
74 95 128
72 94 127
73 95 127
74 96 128
74 95 126
73 95 127
73 95 127
73 94 126
74 95 127
73 95 128
75 96 128
74 96 128
72 93 126
73 94 124
74 95 127
73 94 126
75 96 128
73 95 127
73 95 127
72 94 127
73 94 127
74 95 127
74 95 126
73 95 128
75 95 127
73 94 126
74 95 128
73 94 127
73 94 127
72 93 125
74 95 127
74 94 125
74 95 126
73 95 128
75 96 128
74 95 126
74 95 126
73 95 127
72 93 124
73 94 125
73 93 124
74 95 127
72 94 125
75 96 128
73 94 125
72 94 126
74 94 124
73 94 126
73 94 126
74 94 126
72 94 126
71 92 122
71 92 123
65 82 106
55 68 87
53 65 84
55 67 86
59 72 92
53 65 82
54 66 85
56 69 89
51 63 81
58 71 90
61 74 94
61 74 94
57 70 89
58 71 89
58 71 91
56 69 88
61 74 94
53 66 85
57 70 89
56 69 88
59 73 93
58 71 91
58 71 90
59 73 92
54 66 85
55 67 86
57 70 90
55 68 88
56 69 88
54 66 85
55 68 87
51 63 81
56 69 88
54 66 85
56 69 88
57 70 90
61 75 96
58 70 90
55 68 87
56 69 89
60 74 94
54 67 87
59 72 91
50 62 80
59 72 91
54 66 84
54 66 84
52 64 83
63 76 96
59 73 93
56 68 87
60 73 93
60 72 91
55 68 87
59 72 92
58 70 89
58 71 91
58 71 91
56 69 89
58 72 92
55 68 87
53 65 83
57 71 90
56 68 86
58 70 89
58 71 90
59 72 92
57 69 88
58 70 90
58 72 92
59 72 91
56 69 88
54 66 84
56 69 87
55 67 87
57 69 89
56 69 88
55 67 86
61 74 95
57 70 89
56 68 87
62 75 96
54 67 85
61 73 92
54 67 86
57 70 89
57 70 90
52 64 82
55 67 86
55 68 88
55 68 88
55 67 86
56 69 88
56 69 88
54 66 84
54 66 84
56 68 87
57 70 89
53 66 86
56 69 88
55 68 87
54 66 85
56 68 87
55 67 85
56 68 87
59 72 93
57 70 89
54 66 85
50 62 80
54 66 84
53 66 84
58 72 91
53 65 83
58 72 92
56 69 88
52 65 84
56 68 87
52 65 84
52 64 82
57 73 96
72 93 123
73 94 125
74 95 126
72 93 125
74 95 126
72 94 126
72 94 127
72 94 126
71 92 124
72 94 126
73 95 127
73 95 127
73 94 126
73 94 126
72 94 126
74 95 127
72 94 127
74 95 127
75 95 126
72 94 126
75 96 128
75 96 128
74 95 126
73 95 128
72 93 125
74 95 127
72 94 126
74 95 127
75 96 128
74 95 128
73 94 125
73 94 127
73 94 127
73 94 126
75 96 128
73 94 126
73 95 127
73 94 127
73 95 127
74 95 127
75 96 127
73 94 127
75 96 128
75 96 128
73 94 126
73 95 127
74 95 128
73 95 127
73 95 128
73 95 127
75 96 128
74 96 128
73 94 127
74 95 128
74 96 128
74 95 127
74 96 128
75 96 128
74 95 128
74 95 128
75 96 128
74 95 127
74 95 128
72 94 127
74 95 128
74 95 128
74 96 128
75 96 126
74 96 128
73 95 127
76 96 127
74 95 128
74 95 128
74 95 128
75 96 128
73 95 127
74 95 128
74 95 126
74 95 128
74 95 128
73 95 127
73 94 127
73 95 127
74 95 127
73 95 128
75 96 128
74 95 128
73 94 126
73 95 128
74 95 128
74 95 127
74 96 128
75 96 128
74 95 127
75 96 128
74 95 128
74 95 128
75 96 128
74 95 127
74 96 128
76 96 128
74 96 128
74 95 128
73 94 127
74 95 128
75 96 128
75 96 128
75 96 128
73 95 128
74 95 128
75 96 128
75 96 128
74 95 127
74 96 128
74 95 128
73 95 128
73 95 128
74 96 128
74 95 128
75 96 128
74 95 128
75 96 128
74 96 128
74 95 128
74 95 128
76 96 128
73 95 128
75 96 128
75 96 128
75 96 128
73 95 128
74 95 128
75 96 128
75 96 128
74 95 127
74 95 128
76 97 128
74 95 128
75 95 127
73 95 128
73 95 128
74 96 128
74 95 127
74 96 128
73 95 128
75 96 128
73 95 127
74 95 128
73 95 128
74 96 128
75 96 128
73 95 128
73 95 128
73 94 125
75 96 128
75 96 128
74 95 128
75 96 128
73 95 128
73 95 128
73 95 128
74 96 128
73 95 128
74 96 128
73 95 128
73 95 127
75 96 128
74 95 128
75 96 128
76 96 128
75 96 128
73 95 128
74 96 128
74 95 127
74 95 128
74 95 127
73 95 128
74 95 128
74 95 128
74 95 127
73 95 128
74 95 128
74 95 128
73 95 127
74 95 127
75 96 128
76 97 128
73 95 127
74 96 128
74 95 127
74 96 128
73 94 126
73 95 128
72 94 127
73 95 128
73 95 128
75 96 128
75 96 128
73 94 126
73 94 127
73 94 126
75 96 128
75 95 127
74 95 128
75 96 127
74 96 128
74 95 128
74 95 128
73 95 127
73 94 126
75 96 128
74 95 127
74 96 128
74 94 126
74 95 127
75 95 127
74 95 127
75 96 128
72 94 126
73 94 126
75 96 128
75 96 127
74 95 128
73 95 128
74 95 126
74 95 127
75 95 126
73 95 127
73 95 128
74 95 127
75 95 126
75 96 128
74 95 126
73 95 128
73 95 127
73 95 127
74 95 126
74 96 128
74 95 128
74 95 127
74 95 126
74 95 127
75 96 128
73 94 125
72 94 127
73 94 126
73 95 128
73 95 127
73 95 128
74 95 128
74 96 128
74 96 128
75 96 127
74 95 128
74 96 128
74 95 126
73 94 126
73 95 127
74 95 127
73 95 127
74 95 126
72 93 124
74 94 124
73 94 126
73 94 125
73 94 127
73 94 125
73 94 125
73 94 126
72 93 125
73 95 127
74 95 127
71 92 124
73 94 127
72 93 124
75 96 128
73 94 125
70 92 123
73 95 127
74 95 127
70 90 120
52 64 82
57 70 89
56 68 86
52 65 84
52 64 82
54 67 85
55 68 86
54 66 85
52 64 82
56 68 88
56 68 87
63 76 96
53 65 83
54 67 85
57 70 89
58 71 91
55 67 86
54 66 84
63 76 95
54 67 85
50 62 80
58 71 91
56 69 88
54 67 85
56 68 87
57 69 88
59 72 92
58 71 91
61 75 96
55 67 85
59 72 92
59 72 92
50 62 81
57 70 89
57 70 90
56 68 87
54 67 86
57 70 89
54 66 85
57 70 90
58 71 90
52 65 83
52 65 83
60 73 94
59 72 92
57 69 88
60 74 95
56 69 88
55 68 87
54 67 87
59 72 91
57 70 90
58 71 90
58 71 90
58 71 91
58 70 89
59 73 93
57 70 89
58 71 90
58 71 91
56 69 88
51 63 82
58 71 91
58 72 92
55 68 87
57 70 89
55 68 86
56 70 90
56 69 88
56 69 88
56 69 88
56 69 88
60 74 94
60 72 92
56 69 88
56 70 90
56 68 88
56 68 87
59 72 93
55 68 87
53 65 84
57 71 91
57 70 89
53 66 86
60 73 93
55 67 85
51 62 79
61 75 95
56 69 88
62 76 96
55 67 86
58 71 90
53 66 85
56 69 88
53 65 83
56 69 88
60 73 93
58 72 92
54 67 86
60 74 94
57 70 90
56 69 88
57 70 89
58 71 91
56 68 87
55 68 86
53 65 83
56 68 87
57 71 90
58 71 91
60 74 94
53 65 83
51 63 82
59 71 91
57 69 88
57 70 90
52 64 82
53 66 84
71 92 122
74 95 127
73 94 126
73 94 126
73 93 124
72 93 125
72 93 124
72 94 126
74 95 128
74 95 128
74 95 128
73 94 125
73 94 127
74 95 127
73 94 125
73 94 125
73 95 127
73 95 127
73 95 128
73 95 126
74 95 127
73 94 125
73 94 126
74 95 127
72 94 126
74 96 128
71 92 124
73 95 126
73 95 126
74 95 126
73 95 127
72 93 125
74 95 127
76 97 128
73 94 126
74 95 127
73 94 126
73 95 128
75 96 128
74 95 128
74 95 125
74 95 127
74 96 128
74 96 128
74 95 127
75 96 128
74 95 126
73 95 128
74 95 127
73 95 128
74 95 127
73 94 126
75 95 127
75 96 127
74 95 128
74 95 128
73 94 126
75 96 128
74 96 128
73 95 128
74 96 128
73 95 127
73 94 127
73 95 128
74 95 128
74 95 127
74 95 126
75 95 126
74 96 128
74 96 128
73 95 128
74 95 128
74 95 127
74 95 128
73 95 128
75 96 128
74 96 128
74 95 128
74 95 126
73 95 128
74 95 128
75 96 128
75 96 128
75 96 128
74 96 128
74 96 128
73 95 128
74 95 128
74 95 128
73 95 128
75 96 128
73 95 128
74 95 128
75 96 128
75 96 128
74 95 128
73 95 128
74 96 128
74 95 128
75 96 128
73 94 126
74 96 128
74 95 128
73 95 128
74 95 128
75 96 128
73 95 128
74 95 128
76 97 128
76 97 128
74 95 126
74 95 127
74 95 127
74 95 128
73 95 128
74 96 128
74 96 128
74 95 128
75 96 128
75 96 128
74 95 128
73 95 128
75 95 127
75 96 128
75 96 128
74 96 128
73 94 127
75 96 127
75 96 128
75 96 128
74 95 128
75 96 128
74 96 128
73 95 128
73 95 128
74 96 128
73 95 128
74 95 128
75 96 128
74 96 128
74 96 128
73 95 128
74 95 128
76 96 128
75 96 128
75 96 128
75 96 128
75 96 128
74 96 128
74 96 128
73 95 128
74 95 128
73 95 128
73 95 128
73 95 128
74 95 128
74 95 128
74 95 128
74 95 128
73 95 128
75 96 128
74 95 128
73 95 128
73 94 127
74 95 127
74 96 128
74 96 128
74 96 128
74 95 128
73 95 128
73 95 128
73 95 127
74 95 128
74 95 128
75 96 128
74 96 128
73 95 128
74 95 128
73 95 128
75 96 128
74 95 127
75 96 127
74 95 127
74 95 128
75 96 128
74 95 128
76 97 128
75 96 127
72 94 127
74 95 126
72 94 127
74 96 128
74 95 128
74 95 127
74 95 127
74 95 127
74 96 128
76 96 128
73 95 128
74 95 128
73 95 128
74 96 128
73 95 126
75 96 128
74 96 128
74 95 128
74 95 127
75 96 127
73 94 126
74 95 127
73 95 128
73 95 128
73 94 126
73 95 127
73 95 128
74 95 128
75 96 128
73 95 128
73 94 126
74 95 127
74 95 127
73 95 128
73 94 126
74 95 128
74 95 128
74 95 128
72 94 127
74 94 126
75 96 128
74 95 126
74 95 127
74 96 128
72 93 125
75 96 127
75 96 128
73 95 128
74 96 128
75 96 127
74 95 127
74 95 126
73 95 128
74 95 126
73 94 126
73 95 128
73 94 126
74 96 128
74 95 128
74 94 126
73 95 128
73 94 125
73 94 126
73 94 125
72 94 126
73 94 125
74 94 126
71 92 124
73 94 126
72 94 126
74 95 127
73 93 124
72 93 126
75 95 127
73 94 127
73 95 128
74 95 126
72 94 126
74 95 127
71 92 123
74 95 128
75 96 128
74 95 127
73 95 127
72 93 125
73 94 125
72 93 125
72 94 126
72 94 126
75 96 128
73 94 127
74 95 127
74 95 127
73 94 125
58 73 96
52 64 82
49 60 78
54 67 86
61 74 94
53 65 83
55 67 86
56 68 87
59 72 92
64 78 98
53 66 85
53 65 83
54 67 86
57 70 89
57 70 89
58 71 90
52 64 82
56 69 88
58 70 89
55 67 85
55 68 87
57 70 89
57 69 88
58 71 91
57 70 89
49 62 80
54 66 85
56 68 87
56 69 88
55 68 87
56 70 89
56 68 87
62 75 94
53 66 84
54 67 87
58 71 91
53 66 84
52 64 83
51 63 81
57 70 90
57 69 88
54 66 84
57 70 89
52 65 84
58 71 91
53 65 83
51 63 82
53 65 83
59 72 92
57 70 90
58 71 90
60 73 94
56 69 88
55 68 88
54 67 85
57 70 89
54 66 84
55 68 87
57 69 88
55 68 86
54 66 85
57 71 91
61 74 93
54 67 86
57 70 90
54 67 87
55 67 85
55 68 86
61 74 94
56 69 89
55 67 85
57 70 89
59 72 93
58 70 89
55 68 87
58 71 91
55 68 87
55 68 87
58 71 90
53 65 84
56 68 88
56 69 89
60 73 92
55 66 84
57 70 89
59 71 89
56 69 88
53 66 84
56 69 88
53 66 85
56 69 88
59 71 90
58 71 90
53 65 83
52 64 83
55 68 86
54 67 86
55 68 88
53 65 83
58 71 91
56 68 87
55 67 86
53 65 83
56 68 87
58 70 89
64 77 97
57 70 90
51 63 82
53 66 85
55 67 85
58 71 90
52 64 82
56 68 87
58 70 89
50 62 80
53 66 84
54 66 85
65 82 106
72 93 124
73 94 126
72 93 124
73 94 125
73 94 125
72 93 125
73 95 127
73 94 126
73 94 126
72 93 126
74 95 126
72 94 126
73 94 125
73 94 125
73 94 126
72 93 126
72 93 124
73 94 126
72 94 126
72 93 124
74 95 127
73 94 126
73 94 126
73 95 127
75 96 128
74 95 128
73 95 127
73 94 126
73 95 127
74 95 127
73 95 127
73 94 126
75 96 128
73 94 126
73 94 126
74 95 127
73 95 128
73 95 127
72 94 126
75 96 128
75 96 128
74 95 128
73 94 126
74 95 127
73 95 127
74 95 128
72 94 127
73 94 126
72 93 125
75 96 128
73 95 127
73 95 127
73 94 125
74 95 127
74 95 128
75 96 128
73 94 126
73 95 127
73 95 128
74 95 128
73 94 126
73 95 128
75 96 128
74 95 127
73 95 128
73 94 127
74 95 128
73 95 128
74 95 128
74 96 128
74 95 127
74 96 128
75 96 128
74 95 128
73 94 125
73 94 126
74 95 127
73 95 128
73 95 128
73 95 127
75 96 128
75 96 127
74 95 128
74 95 128
74 95 128
74 95 128
74 95 128
74 95 128
74 95 128
74 96 128
73 95 127
74 95 127
75 96 127
75 96 128
75 96 127
75 95 126
74 95 128
75 96 128
74 95 127
74 95 128
74 96 128
74 95 128
75 96 127
73 95 128
74 95 127
74 96 128
74 96 128
74 95 128
73 95 128
74 95 128
74 95 128
75 96 128
74 96 128
74 95 127
74 95 127
73 95 128
75 96 128
74 95 128
74 95 128
74 95 128
74 96 128
74 95 128
73 95 128
73 95 128
73 95 127
74 95 128
74 95 128
74 95 128
72 94 127
73 95 127
75 96 128
74 95 127
75 96 128
75 96 128
74 95 128
74 96 128
73 95 128
73 95 128
72 94 128
75 96 128
75 96 128
75 96 128
74 95 128
74 95 127
74 95 128
75 96 128
75 96 128
74 95 128
75 96 128
74 96 128
73 95 128
73 95 128
73 95 128
74 95 128
73 95 128
74 96 128
74 95 128
75 96 128
75 96 128
74 95 128
75 96 128
75 96 128
74 95 128
74 96 128
75 96 128
73 95 128
76 96 128
74 95 128
73 95 128
74 95 128
73 95 128
74 95 128
74 95 127
75 96 128
75 96 128
74 95 127
74 95 128
73 94 125
74 96 128
73 94 127
74 96 128
73 95 127
75 96 128
75 96 128
75 96 128
74 96 128
75 96 128
74 95 126
74 95 128
74 95 128
72 94 128
74 95 127
74 95 128
73 95 128
74 95 128
77 97 128
74 96 128
73 95 128
75 96 128
74 95 128
74 95 128
73 95 128
74 96 128
74 96 128
74 95 128
73 94 127
74 95 128
75 96 128
74 95 128
73 95 128
74 95 126
75 96 126
72 94 126
74 95 128
75 96 127
74 95 127
73 94 127
74 95 128
74 95 127
74 96 128
75 96 127
74 96 128
73 95 128
75 96 128
72 93 126
73 95 127
74 95 127
74 95 126
75 96 128
75 96 128
74 96 128
74 95 127
74 95 127
75 96 128
75 96 128
74 95 128
73 94 126
73 95 128
74 96 128
73 95 127
74 95 127
73 94 125
74 94 126
75 96 128
74 95 127
73 94 127
74 94 126
73 94 126
74 95 128
74 94 125
74 95 127
72 92 123
74 95 128
74 95 128
74 95 127
73 95 128
73 95 127
74 96 128
73 95 127
74 95 126
74 95 128
72 92 123
73 94 125
72 93 124
72 93 126
73 95 127
72 92 123
72 94 128
73 94 125
73 94 126
72 93 125
70 91 121
73 94 127
75 96 128
72 93 124
73 94 126
73 95 128
72 93 126
72 93 124
71 92 124
74 94 125
70 90 120
71 91 120
55 68 88
54 67 85
49 60 77
49 61 78
53 66 85
53 65 84
53 65 83
58 71 90
56 69 87
53 66 85
57 70 89
58 71 90
51 63 81
51 64 82
52 64 82
56 69 88
60 72 91
50 61 79
53 66 85
56 68 87
53 65 84
57 70 89
54 66 84
55 68 87
56 69 88
57 70 89
59 72 91
51 64 82
58 71 91
61 74 93
52 64 82
57 70 89
58 71 90
51 63 81
56 70 90
58 71 90
55 68 87
53 66 85
58 72 92
51 63 81
57 70 90
55 68 87
56 68 87
56 69 88
52 63 81
59 72 92
60 72 91
55 68 87
54 67 86
53 65 84
57 70 88
55 68 87
59 73 93
55 68 87
52 64 83
59 72 91
55 68 88
55 67 86
59 73 94
61 74 94
54 66 85
59 72 91
51 62 80
55 67 86
54 66 85
58 71 90
57 70 90
56 69 88
56 70 89
55 67 86
59 72 92
58 71 91
52 64 83
54 67 86
54 66 85
56 68 87
56 69 88
56 69 88
56 69 88
54 67 86
57 69 88
55 69 89
57 70 89
53 66 84
57 70 89
56 69 89
56 68 87
53 65 83
51 63 80
57 71 90
57 70 89
53 65 84
55 68 87
52 64 82
60 73 92
62 76 96
56 68 86
56 69 88
52 64 81
55 67 86
53 66 84
56 69 88
53 65 84
55 67 85
55 67 85
59 72 93
52 65 83
53 65 83
53 66 85
60 72 91
57 70 89
55 66 84
54 66 84
55 68 88
55 67 85
58 70 89
67 86 116
72 93 124
72 93 124
73 94 125
74 95 127
73 94 126
72 93 125
73 95 126
70 91 123
72 94 126
73 94 125
72 93 125
74 95 127
71 93 125
73 95 127
74 95 127
73 95 127
73 94 126
74 95 128
72 94 127
72 94 125
74 95 127
73 94 125
72 93 125
75 96 128
74 95 126
74 95 126
73 95 127
75 96 128
73 94 127
73 94 127
73 93 125
75 95 127
73 94 126
75 95 126
74 95 127
73 94 127
72 94 126
74 95 128
71 93 126
72 93 124
74 95 126
73 95 128
77 97 128
73 94 126
75 96 128
73 94 126
73 95 127
73 95 127
72 94 126
74 96 128
74 95 128
74 95 127
74 95 128
75 96 128
74 94 124
74 95 127
74 96 128
73 95 127
73 95 128
74 95 126
76 96 128
74 95 127
74 95 126
73 94 127
74 95 127
74 95 127
74 95 127
74 95 128
72 93 124
74 95 127
74 96 128
74 95 128
73 94 126
74 96 128
74 95 128
74 95 128
76 96 128
75 96 128
73 95 127
74 95 127
74 95 127
74 95 127
74 96 128
72 94 128
73 95 127
73 94 126
75 96 128
74 95 128
74 95 128
73 95 128
74 95 128
74 95 127
74 95 128
75 96 128
75 96 128
75 96 128
76 96 128
74 96 128
74 95 128
74 95 128
74 95 127
75 96 128
74 96 128
74 95 127
75 96 127
72 94 127
74 96 128
74 95 127
73 95 127
72 94 126
75 96 127
75 96 128
72 94 128
74 95 128
73 95 128
74 95 128
74 96 128
74 95 128
75 96 128
74 95 127
74 95 128
73 95 128
75 95 127
74 95 128
74 95 128
75 96 128
75 96 128
74 95 128
74 95 128
75 96 128
73 94 126
75 96 128
75 96 128
75 96 128
74 96 128
75 96 128
74 95 128
74 95 127
76 96 128
75 96 128
74 96 128
76 97 128
74 95 127
75 96 128
73 95 128
75 96 128
74 95 127
76 97 128
73 95 128
74 95 127
73 95 127
73 95 128
73 95 128
74 95 128
74 95 128
74 95 128
74 96 128
75 96 128
74 95 128
75 96 128
73 94 127
74 96 128
74 95 127
74 95 128
75 96 128
75 95 127
74 95 126
74 95 128
74 95 128
74 95 128
73 95 127
73 95 128
74 95 128
73 95 128
74 95 127
73 95 128
76 96 128
74 95 128
73 95 128
75 96 127
76 96 127
73 95 128
74 95 127
75 96 127
73 95 128
74 95 128
75 96 128
73 95 127
73 94 126
75 96 128
74 95 128
73 95 127
75 96 128
75 96 128
74 95 127
75 96 128
72 94 127
74 96 128
73 95 127
74 95 128
74 95 128
74 95 127
73 94 127
74 95 128
74 95 128
74 95 128
74 95 126
74 95 127
74 96 128
74 96 128
74 95 128
74 95 126
74 95 127
73 94 126
74 95 127
74 96 128
75 96 128
74 96 128
73 95 128
74 94 125
76 96 127
74 95 127
73 94 127
74 94 126
75 96 128
74 95 128
74 95 127
73 94 126
74 95 127
75 96 128
74 95 127
74 95 127
75 96 128
74 95 127
74 95 126
73 94 126
72 94 126
74 95 127
72 94 127
71 92 125
73 95 128
73 95 127
75 96 128
74 95 128
74 95 127
73 95 127
74 95 127
74 94 126
73 94 127
71 93 125
73 94 124
75 95 127
75 96 128
72 94 126
71 92 124
75 96 128
72 92 123
73 94 126
72 93 126
72 93 124
73 94 125
76 96 127
71 92 123
72 94 126
72 94 127
73 95 127
73 95 127
74 95 127
72 93 125
72 93 124
70 90 120
74 95 126
71 91 122
73 94 126
73 95 127
72 93 124
73 94 126
71 92 123
75 96 128
73 94 125
72 93 124
72 93 125
71 92 124
60 76 100
54 67 85
59 71 90
52 64 82
54 67 87
60 73 93
49 61 78
56 69 88
56 69 87
54 67 85
53 65 83
58 71 90
56 68 86
58 72 93
59 72 91
52 64 82
58 71 91
53 66 85
59 72 92
52 63 81
60 73 92
54 66 84
52 65 84
59 71 91
55 67 86
57 70 89
52 63 81
53 66 86
57 70 90
56 69 89
59 73 93
57 70 90
56 68 87
53 66 84
53 65 84
58 71 90
56 69 88
55 67 86
56 68 88
56 69 88
54 66 85
56 69 89
56 69 89
53 65 83
55 67 86
57 70 89
54 67 87
59 72 91
54 66 84
54 66 84
53 65 83
56 69 88
54 67 87
54 67 86
51 63 82
51 63 82
60 72 90
58 71 91
57 70 89
59 72 92
55 67 86
58 71 90
58 71 91
55 67 85
56 69 88
56 68 88
56 69 88
58 71 90
53 65 84
58 71 92
57 70 89
54 67 86
60 73 94
57 70 89
57 70 89
54 66 85
53 65 84
58 71 91
58 71 91
54 66 85
59 72 91
57 70 89
55 67 85
55 68 86
56 69 88
54 67 87
58 72 92
57 70 89
55 68 86
55 68 87
54 67 86
53 66 85
56 67 85
52 64 82
61 75 96
52 64 83
57 69 88
54 66 85
56 69 88
52 65 84
56 69 88
54 67 85
53 66 85
55 68 87
56 69 88
55 66 84
55 67 86
55 68 86
58 71 90
55 67 85
50 62 80
51 63 81
54 66 84
55 67 85
55 68 86
60 75 98
71 92 124
73 94 125
72 94 125
71 93 125
73 94 126
73 94 125
71 92 123
71 93 125
73 94 125
71 92 124
73 94 125
72 93 125
72 92 124
74 95 126
73 93 124
74 95 127
72 92 123
73 94 126
73 94 125
73 94 126
72 93 125
74 95 125
73 94 127
74 95 127
72 93 125
73 95 127
73 94 127
73 94 127
74 95 127
75 96 128
72 93 125
73 94 124
73 94 127
72 93 125
74 95 128
75 95 126
73 94 126
74 95 127
74 94 126
73 95 127
74 95 126
74 95 128
75 95 126
74 95 128
74 95 126
73 95 126
74 94 126
73 94 126
75 96 128
73 95 127
73 94 127
74 95 126
74 95 127
74 95 128
73 94 127
73 95 128
75 96 128
73 94 126
74 95 127
74 95 128
74 96 128
75 96 127
73 94 126
73 95 128
73 94 127
74 95 127
72 94 126
74 95 127
74 96 128
73 95 128
73 95 126
75 96 128
74 95 128
73 95 128
74 95 128
74 95 127
74 95 127
73 95 128
73 94 127
74 95 128
73 95 128
73 95 128
76 96 128
74 95 127
74 96 128
74 95 128
74 95 127
73 94 127
74 96 128
74 95 128
73 94 126
74 95 128
73 95 127
74 95 128
74 95 128
73 95 127
74 95 128
73 95 128
75 95 127
74 95 128
74 95 127
73 94 127
73 94 127
73 95 127
74 95 127
74 96 128
73 95 128
73 94 127
74 95 128
74 96 128
74 95 128
74 95 127
75 96 128
74 95 128
73 95 127
75 96 128
75 96 127
73 95 127
75 96 128
73 95 128
74 95 128
74 95 128
74 96 128
74 95 127
75 96 128
72 94 127
75 96 128
74 95 128
74 95 128
74 96 128
74 95 128
74 95 127
74 95 128
74 96 128
75 96 128
74 96 128
74 96 128
74 96 128
74 96 128
75 96 128
74 95 127
75 96 128
73 94 127
73 95 127
74 95 128
74 95 128
75 96 128
74 96 128
74 95 128
74 96 128
73 95 128
75 96 128
73 95 128
74 95 127
73 94 127
75 96 128
73 95 128
74 95 127
74 95 128
73 95 128
74 96 128
75 96 128
74 96 128
74 95 127
73 95 128
73 95 127
75 96 128
75 96 128
75 95 126
73 94 127
74 95 128
74 95 128
74 95 128
74 95 128
73 95 128
75 96 128
74 95 127
74 95 128
74 95 128
74 95 127
75 96 128
73 95 128
75 96 128
74 95 127
73 95 127
74 95 128
74 95 127
74 95 128
73 95 128
74 95 128
73 95 128
74 95 128
75 96 128
74 95 126
76 96 128
73 95 128
74 95 127
74 95 128
74 95 128
73 95 128
74 95 128
74 95 127
74 96 128
74 95 127
73 95 127
76 97 128
73 95 127
73 94 126
74 95 127
73 95 128
75 96 127
72 94 126
74 95 126
74 95 126
75 96 128
73 95 128
74 95 128
75 96 128
74 95 127
75 96 128
72 93 126
73 94 127
74 95 127
73 94 126
74 95 127
73 95 127
75 96 128
74 95 126
73 94 127
73 95 127
74 95 127
72 93 125
73 93 124
73 94 125
74 95 128
74 95 128
73 95 128
73 94 126
72 93 125
74 95 127
73 95 127
73 95 127
74 94 125
74 95 127
73 94 126
73 94 126
74 95 127
74 95 128
73 94 126
73 94 126
74 96 128
73 94 126
73 94 127
72 93 124
73 94 126
73 94 126
71 93 126
74 95 128
72 94 127
74 94 125
74 95 126
73 94 126
73 93 124
73 93 124
72 94 126
74 95 126
71 91 123
71 92 123
73 94 126
74 95 127
70 92 124
71 91 122
71 92 123
73 94 125
71 93 125
72 93 125
73 94 125
72 93 125
72 93 124
74 95 127
72 93 125
70 91 123
71 91 121
71 92 123
69 89 119
51 63 81
52 63 80
57 70 89
49 61 78
51 63 80
53 65 83
51 63 82
55 68 88
53 66 86
56 69 88
52 63 80
53 65 83
54 66 85
56 69 88
50 62 81
57 70 90
52 65 84
59 72 92
52 65 84
56 68 88
56 69 87
56 68 87
50 62 80
48 60 79
56 69 88
52 64 83
56 69 88
55 67 86
50 63 81
55 67 86
53 66 85
52 64 82
57 70 90
56 68 87
54 67 85
58 71 90
51 63 81
61 74 93
59 73 93
57 70 90
55 67 85
61 73 92
55 68 86
58 70 88
56 69 88
57 70 89
58 71 90
52 64 83
56 68 87
54 66 85
56 68 86
60 73 93
54 67 87
57 70 90
54 66 85
57 70 90
57 70 89
55 68 88
58 71 91
55 68 86
55 68 86
53 66 85
54 67 85
49 62 80
60 72 90
52 64 82
60 73 92
51 63 80
51 64 82
51 64 82
60 74 93
58 72 92
53 65 84
56 69 88
54 66 85
55 67 87
53 66 86
55 67 85
53 66 84
54 67 86
52 64 82
55 68 87
52 63 81
56 69 88
56 69 88
55 67 85
56 68 88
58 70 89
50 62 81
58 72 91
56 69 88
53 65 84
59 71 91
54 66 85
52 64 82
50 63 82
54 66 84
55 66 84
58 71 90
48 60 77
50 62 79
55 67 86
58 72 92
50 61 79
54 67 86
56 68 86
55 68 87
55 68 87
53 66 85
50 62 80
53 66 84
47 58 74
54 67 86
54 67 86
69 89 118
73 94 126
72 93 125
72 93 125
71 93 125
71 92 124
73 94 125
72 93 125
73 93 124
72 93 126
72 93 124
73 94 126
73 94 125
71 92 123
73 94 126
73 94 126
71 92 123
72 93 125
72 93 125
73 94 126
72 93 124
74 95 127
74 95 126
73 95 127
73 95 127
74 95 127
72 93 125
72 94 127
74 95 127
72 93 125
72 94 125
74 95 126
73 95 127
71 93 125
72 94 126
74 95 128
73 94 126
73 94 127
72 92 123
73 94 127
74 96 128
72 93 124
74 95 127
73 94 127
74 96 128
74 95 127
73 94 126
74 95 127
74 95 126
73 94 126
73 94 126
73 95 127
73 94 126
74 95 127
71 93 125
73 94 127
75 96 127
74 95 128
74 95 127
74 95 127
72 93 124
73 94 127
72 94 127
73 95 127
72 93 125
74 95 127
74 95 127
74 96 128
72 94 125
74 95 127
73 95 127
72 94 127
74 96 128
73 95 128
73 95 128
73 95 128
72 94 127
74 95 128
75 95 126
73 94 127
74 95 127
75 96 128
74 95 127
73 94 127
74 95 128
74 95 128
75 96 128
74 95 128
73 95 128
75 96 127
73 94 127
74 95 127
74 95 128
74 95 128
73 94 126
74 95 127
73 94 127
75 96 128
74 96 128
73 95 128
73 95 128
74 95 128
74 96 128
74 95 128
73 95 128
75 96 128
74 95 128
75 96 128
75 96 128
74 95 128
73 94 126
75 96 128
75 96 128
74 95 126
75 96 128
74 96 128
76 96 128
73 95 128
74 96 128
73 95 128
74 95 127
74 95 128
73 95 127
73 95 128
74 95 128
72 94 127
74 95 128
75 96 128
74 96 128
74 95 127
73 95 128
74 95 127
73 95 128
75 96 128
75 96 128
74 95 128
74 95 127
73 95 128
73 95 128
75 96 128
75 96 128
75 96 127
74 95 127
75 96 128
73 94 126
75 96 128
74 96 128
75 96 128
74 95 128
74 95 128
74 95 128
75 96 128
75 96 128
74 95 128
74 95 127
74 95 128
75 96 128
74 95 128
73 95 128
75 96 128
75 96 128
73 95 128
73 95 128
73 95 128
73 95 128
73 95 127
75 96 128
74 95 127
73 95 127
74 95 128
74 95 127
73 95 127
73 94 127
74 95 128
74 95 127
73 95 128
73 95 128
75 96 128
72 94 128
73 95 126
76 96 128
73 95 128
75 96 128
74 95 126
74 96 128
75 96 128
74 95 127
74 94 126
73 95 127
74 95 127
73 95 128
74 95 128
74 95 128
74 95 127
74 95 128
75 96 128
75 95 126
74 95 128
75 96 127
73 94 125
74 95 126
75 96 128
72 94 128
74 95 128
72 94 128
73 95 127
74 95 126
72 94 128
73 95 128
74 96 128
72 94 126
73 94 126
73 94 126
74 95 127
75 96 128
72 93 125
74 95 127
73 95 128
75 96 128
74 96 128
75 96 128
72 94 126
72 93 125
74 96 128
73 94 126
72 93 126
73 95 127
71 92 124
73 94 127
72 93 126
73 94 126
72 93 126
72 94 125
74 95 127
74 95 127
73 94 126
74 95 127
73 95 128
72 94 126
73 95 127
74 94 125
75 96 127
72 93 125
72 94 127
73 94 124
73 95 128
73 94 126
72 93 125
73 94 126
74 96 128
74 94 125
72 93 125
74 95 127
73 94 126
73 94 126
72 94 126
73 93 125
74 95 126
71 93 126
74 94 126
73 94 127
74 95 126
74 95 127
71 93 124
73 94 126
73 94 125
72 93 125
72 92 122
73 94 126
72 93 124
73 93 123
71 92 123
71 92 123
74 94 125
73 94 126
71 92 123
73 94 125
72 92 122
72 93 125
72 93 125
72 93 124
73 93 125
71 93 125
71 92 123
72 93 124
71 91 122
64 80 104
53 65 83
62 75 94
49 61 79
55 68 87
55 67 86
56 68 87
52 64 82
50 62 80
51 63 80
54 66 84
53 65 83
53 65 83
55 67 86
53 66 85
57 70 88
58 71 90
54 66 85
60 73 92
53 66 85
61 74 94
49 60 77
56 69 87
50 62 80
51 64 82
54 67 85
55 67 85
54 66 85
56 69 88
56 68 86
52 63 80
54 66 83
55 67 85
56 69 87
54 66 84
59 72 91
57 70 89
54 66 84
54 67 86
54 66 85
54 67 86
55 68 87
52 65 84
54 67 86
56 68 86
59 72 91
48 60 77
54 67 85
53 65 84
52 64 82
46 58 75
60 73 93
55 68 87
58 71 91
53 66 86
51 63 80
56 68 87
56 69 88
52 65 83
57 71 91
51 63 80
54 66 84
58 70 90
51 64 82
58 71 90
52 64 82
55 67 86
58 70 89
51 64 82
56 69 89
55 68 87
50 62 80
59 72 93
52 65 83
58 71 90
53 66 85
57 70 89
56 68 86
55 67 86
60 73 93
53 65 84
62 75 95
56 68 87
59 72 91
54 66 85
55 68 87
57 69 89
52 64 83
53 65 83
57 70 89
53 65 83
48 60 78
56 68 88
54 66 85
53 66 85
52 64 81
52 64 81
54 67 85
55 67 86
51 63 81
53 65 83
52 64 83
55 68 87
57 70 89
57 70 89
54 67 87
56 68 87
55 67 85
53 65 84
48 60 77
50 62 79
48 59 77
57 69 88
62 78 102
72 93 125
72 92 122
73 94 126
71 91 121
74 94 125
72 93 125
71 92 124
72 93 125
71 92 123
71 91 121
72 93 125
73 94 125
72 93 125
72 93 123
72 93 125
73 94 125
72 93 123
71 92 123
70 92 124
74 95 127
72 93 125
73 94 125
74 96 128
75 96 127
71 92 124
73 95 128
71 91 122
73 95 128
73 94 126
72 93 124
73 94 125
75 96 128
72 92 123
73 94 125
72 94 126
73 94 124
74 95 128
72 93 125
72 93 124
73 93 124
73 95 128
73 95 127
73 94 126
73 93 125
74 95 126
72 94 127
72 94 127
73 95 127
71 92 123
72 93 126
73 94 126
72 94 126
73 94 127
73 94 125
74 95 128
73 94 125
74 95 127
76 96 128
71 93 126
74 95 127
73 94 125
73 95 127
74 94 126
73 95 128
74 95 127
75 96 128
74 96 128
74 95 128
75 96 128
73 93 124
74 96 128
73 94 127
72 93 125
74 95 128
73 95 127
74 95 126
74 95 127
74 96 128
73 95 127
72 94 127
73 94 127
72 94 126
74 95 127
73 95 128
75 96 128
74 95 128
74 95 128
74 95 127
74 95 128
74 95 128
75 95 127
72 94 126
73 95 128
74 96 128
72 93 125
73 95 127
73 95 128
75 96 128
75 95 126
73 94 127
74 95 127
73 95 127
75 96 128
71 93 126
74 95 127
73 95 127
74 95 126
74 95 127
73 95 127
74 95 127
75 96 128
73 95 127
73 95 127
75 95 127
73 95 128
74 95 127
75 96 128
74 95 128
73 95 128
74 96 128
73 95 128
75 96 127
75 96 128
74 95 128
75 96 128
75 96 128
74 96 128
75 96 128
75 96 128
74 95 127
74 95 127
74 96 128
74 95 128
75 96 128
74 95 127
73 94 127
74 95 128
74 96 128
75 96 128
75 96 128
73 95 128
74 96 128
73 95 128
75 96 127
73 95 128
73 95 128
73 95 128
74 95 128
74 95 128
74 95 128
74 96 128
74 95 128
74 95 127
74 96 128
74 96 128
73 95 128
74 95 128
74 95 128
74 95 128
73 95 127
75 96 128
74 95 128
73 95 127
73 95 128
73 95 128
75 96 128
74 95 125
74 95 128
73 95 126
74 95 128
75 96 128
75 96 128
72 94 128
72 94 126
73 95 127
74 95 127
74 95 128
74 95 127
74 95 128
73 94 127
72 94 127
75 96 128
74 95 128
74 95 127
74 96 128
74 95 127
74 95 128
73 95 127
75 96 126
74 95 127
75 96 128
75 96 128
74 95 128
74 95 127
72 93 125
72 94 127
75 96 127
75 96 128
74 95 127
74 95 126
75 96 128
75 96 127
74 95 128
74 95 127
75 96 128
74 95 128
74 95 128
72 93 126
73 94 127
73 95 128
76 96 128
74 95 128
74 95 128
73 95 128
74 95 128
73 95 128
73 95 128
75 95 127
72 93 125
73 94 127
73 95 128
73 94 127
76 96 128
73 95 128
73 95 127
74 95 128
73 94 126
74 95 128
73 95 127
73 94 126
75 96 128
74 95 126
73 95 128
73 94 127
72 93 125
73 94 126
74 95 127
73 94 126
74 95 126
74 95 126
73 94 126
74 96 128
73 95 128
75 95 126
74 95 127
73 95 126
74 95 128
74 95 128
74 95 127
74 95 126
70 92 123
72 93 123
73 93 124
74 94 125
72 93 125
71 92 123
73 94 127
73 95 127
74 95 128
73 93 124
73 94 126
72 93 125
73 94 127
72 93 124
72 93 125
72 93 124
73 94 125
72 93 124
70 91 122
72 93 124
75 95 126
73 94 126
71 92 122
74 94 124
73 94 124
71 92 124
73 93 122
71 91 120
71 92 122
72 93 126
72 93 123
74 95 127
70 90 119
69 89 119
71 91 122
70 90 121
72 93 123
55 68 88
51 63 81
50 62 80
57 69 87
56 69 88
54 67 86
49 60 77
53 65 83
52 63 81
53 65 84
55 67 85
55 68 87
48 60 77
57 70 89
54 66 84
53 65 83
53 65 83
51 63 81
53 65 84
54 67 85
54 66 85
57 71 90
55 67 85
53 66 84
53 66 85
58 70 89
54 66 84
53 65 83
51 63 80
55 67 86
50 62 80
57 70 89
55 67 86
53 65 83
55 68 86
55 68 87
55 68 87
52 64 82
54 67 85
52 64 82
55 68 87
58 71 90
58 71 90
53 65 84
53 65 83
59 72 91
59 72 92
54 67 86
56 69 88
52 64 82
52 64 82
55 67 86
57 70 89
54 66 84
57 70 89
52 64 82
55 67 86
56 68 85
52 64 82
56 68 86
52 64 82
56 68 86
54 66 84
49 61 78
60 73 93
51 64 84
54 66 85
52 63 81
53 65 83
53 66 86
53 65 84
53 65 83
52 63 80
55 67 85
59 73 92
56 68 88
55 68 87
55 67 86
52 64 82
55 68 87
56 69 88
56 70 90
53 65 82
52 64 83
57 70 89
54 67 86
57 69 87
49 61 79
53 65 83
54 66 85
53 65 83
55 68 86
52 64 83
53 65 83
58 72 92
57 69 87
53 65 84
54 67 86
53 65 84
56 68 87
52 64 83
48 60 77
56 68 86
51 63 81
53 64 82
53 65 82
54 67 85
52 64 82
52 64 83
52 64 82
49 61 78
54 67 86
72 92 122
69 89 118
70 90 119
71 92 122
71 91 121
73 94 125
68 88 118
72 94 127
70 91 123
72 93 125
74 94 125
72 93 124
70 91 122
70 91 122
72 93 124
73 93 124
71 91 122
74 95 125
73 94 125
72 93 125
70 91 123
73 94 125
72 93 123
70 91 123
73 94 125
73 94 126
71 92 123
71 92 122
72 94 126
72 93 124
74 94 125
73 95 127
73 94 125
73 93 124
71 92 124
72 93 124
70 91 122
72 94 126
73 94 125
72 93 124
72 93 125
74 95 127
74 95 126
74 95 127
73 94 125
74 95 126
74 95 127
73 94 127
72 93 124
74 95 128
71 92 123
73 93 124
74 95 126
74 95 126
74 96 128
73 94 126
73 94 126
72 93 126
73 94 126
74 95 126
74 95 127
75 96 128
73 95 128
75 96 127
73 95 127
74 95 127
74 95 127
75 96 127
75 96 128
73 95 127
71 92 124
74 95 127
74 95 126
72 94 127
74 95 126
72 94 126
72 93 125
74 95 128
75 96 128
73 94 125
72 94 127
74 95 128
73 95 127
74 96 128
74 95 127
74 95 128
74 95 126
74 96 128
74 94 125
74 95 127
74 94 126
73 94 127
73 95 128
74 96 128
73 94 126
73 94 126
73 94 126
74 96 128
74 95 128
75 96 128
75 96 128
75 96 128
72 94 126
74 95 127
75 96 127
73 95 128
75 96 127
74 96 128
73 94 126
74 95 128
75 96 128
76 96 128
73 95 126
75 96 127
74 96 128
76 96 128
74 95 128
73 94 127
73 95 127
74 95 128
74 95 127
74 96 128
74 95 127
74 96 128
74 96 128
74 95 128
74 96 128
74 95 128
73 95 127
74 95 127
73 95 128
72 94 127
74 95 128
75 96 128
74 96 128
73 94 127
74 95 128
75 96 128
75 96 128
74 95 128
75 96 128
74 95 128
74 95 128
74 95 127
74 96 128
73 95 127
74 96 128
74 96 128
73 95 127
73 95 128
74 95 128
74 95 128
75 96 128
73 94 127
73 95 128
73 95 128
74 95 128
75 96 128
75 96 128
77 97 127
75 96 128
74 95 127
74 95 128
74 96 128
73 94 127
74 95 127
72 94 126
75 95 127
74 96 128
74 95 126
73 95 128
74 95 128
73 95 128
74 95 127
73 95 126
74 95 127
74 95 128
74 96 128
75 96 127
74 96 128
75 96 128
74 95 126
71 93 127
74 95 126
74 95 128
74 95 128
74 95 128
74 95 128
74 94 125
75 96 127
74 95 127
73 94 126
74 95 126
75 96 128
73 95 128
74 95 127
74 95 127
74 95 128
74 95 127
73 95 127
73 94 126
74 95 127
74 95 127
75 96 128
73 95 128
75 95 127
73 94 126
73 95 128
72 93 125
73 94 124
73 95 128
75 95 126
73 95 128
74 94 125
72 93 125
72 94 126
74 96 128
73 95 128
73 94 127
74 95 127
74 95 128
73 94 124
73 94 127
74 95 128
73 94 126
73 94 126
73 94 125
73 93 125
72 93 125
74 95 126
74 96 128
73 94 127
73 94 126
73 95 128
75 96 128
74 96 128
73 94 125
71 93 126
73 94 125
72 94 126
71 93 125
73 94 126
74 95 127
72 93 125
73 94 127
74 94 126
72 93 123
72 93 123
73 93 124
70 91 123
74 95 126
71 92 122
73 94 126
74 95 127
71 92 124
72 92 123
72 93 125
73 94 127
71 92 122
74 95 127
71 91 122
70 91 123
73 93 124
73 93 124
71 92 124
74 94 125
71 92 124
73 94 125
74 96 128
71 92 124
74 95 126
72 92 122
74 94 125
73 93 123
73 93 125
73 93 123
72 92 123
73 94 125
71 92 124
72 93 125
70 89 119
68 87 116
70 90 120
70 91 121
70 90 120
69 90 120
71 91 122
70 89 119
65 84 111
54 66 84
51 63 80
51 63 81
53 64 82
50 62 80
54 66 85
52 63 81
55 68 87
50 62 80
53 65 83
53 65 83
54 67 86
52 65 84
52 65 83
56 69 88
53 65 84
52 63 80
50 62 79
48 60 78
55 67 85
55 67 86
60 73 92
45 57 75
52 64 82
53 66 84
55 68 88
54 66 84
54 66 85
56 69 87
56 68 86
49 61 79
55 68 86
51 63 81
53 64 82
53 66 85
49 61 79
56 68 85
52 64 82
53 66 84
54 66 84
55 67 86
56 69 88
50 63 82
59 72 92
50 62 81
55 68 87
58 71 90
56 68 86
52 64 81
52 64 82
50 61 79
52 64 81
55 68 87
55 67 86
57 70 89
59 71 90
57 70 90
53 65 83
55 67 85
59 72 93
58 72 92
53 66 84
52 65 83
60 73 92
54 66 85
59 72 92
56 68 88
51 62 79
54 67 85
58 71 89
52 64 83
55 68 86
52 65 83
57 70 89
53 66 84
51 62 80
52 65 83
55 67 87
51 63 80
53 66 85
57 70 89
57 70 89
53 65 83
54 66 84
54 66 84
56 69 87
53 65 83
59 71 91
52 64 82
50 62 79
58 71 90
58 72 91
55 67 86
53 65 83
52 63 81
54 66 84
55 67 84
54 67 86
55 67 86
49 61 80
57 69 87
53 65 83
53 65 84
52 64 82
48 59 77
50 62 79
52 64 82
54 66 84
54 66 85
51 64 82
61 78 104
69 90 121
72 92 122
71 91 122
69 90 121
72 93 125
73 94 126
72 93 125
73 94 125
72 92 123
70 91 122
70 90 120
70 90 121
73 94 125
69 89 120
72 94 126
71 92 124
73 94 125
71 92 123
72 93 123
74 95 127
73 94 125
72 92 123
72 93 124
70 91 122
71 91 122
72 93 125
73 93 124
73 94 125
72 93 125
75 96 127
73 94 125
72 93 124
73 94 126
72 94 126
74 94 126
72 92 124
73 93 123
74 94 125
72 93 124
73 94 127
74 95 128
71 92 122
74 96 128
72 93 125
72 94 126
73 95 127
72 93 125
71 92 124
72 93 125
73 95 127
74 95 126
72 93 124
72 93 124
74 96 128
72 93 124
72 94 127
73 95 127
74 95 127
72 94 126
74 95 127
74 95 127
71 93 126
75 96 128
73 95 127
73 94 126
73 95 127
74 95 128
75 96 128
74 95 128
73 94 126
74 95 127
73 94 126
72 94 126
73 95 128
74 96 128
76 96 128
72 94 127
73 94 126
74 96 128
73 95 128
75 96 128
75 96 128
74 95 126
73 94 127
72 94 128
73 95 128
72 94 127
73 95 126
75 96 128
75 96 128
74 96 128
74 95 128
75 96 128
73 95 128
73 95 127
76 96 127
73 95 127
73 95 128
74 95 128
74 95 128
74 96 128
73 94 126
73 94 127
73 94 127
73 95 127
73 94 126
73 94 127
74 95 128
74 95 126
74 95 128
75 96 128
73 94 127
75 95 127
74 95 128
73 94 126
73 95 127
73 95 128
74 95 127
75 96 128
74 95 128
74 95 127
75 96 128
74 95 128
72 94 127
74 95 128
73 95 128
73 95 128
74 95 128
75 96 128
73 95 128
75 96 128
73 94 127
73 94 126
74 95 128
74 96 128
75 96 128
74 95 128
73 95 127
76 96 128
75 96 128
75 96 128
73 95 128
73 95 128
75 96 128
75 96 128
74 96 128
74 96 128
75 96 128
74 95 128
73 94 127
73 95 127
75 96 128
73 95 127
74 95 126
74 95 127
75 96 128
74 95 128
73 95 127
75 96 128
73 94 126
73 95 128
73 94 127
75 95 127
73 94 126
75 96 128
74 95 127
75 96 127
73 94 127
73 95 127
74 95 128
75 96 128
73 95 128
74 95 127
72 94 127
74 95 127
74 96 128
74 95 128
74 95 127
74 96 128
74 96 128
74 95 127
74 96 128
74 95 128
74 95 127
74 95 127
73 95 128
74 95 127
72 93 125
74 95 128
75 96 128
73 95 128
74 95 128
73 95 128
74 95 127
75 96 127
73 94 125
74 95 128
73 94 125
74 95 127
74 96 128
73 95 127
74 94 126
75 96 128
72 93 125
74 96 128
73 94 127
73 94 127
74 95 127
73 94 126
74 95 128
73 94 125
73 94 127
75 96 128
75 96 128
73 94 127
72 94 127
75 96 127
75 96 127
74 96 128
74 96 128
73 94 125
75 96 128
73 94 126
74 95 126
73 95 127
74 94 125
72 94 128
74 95 127
74 95 128
72 93 124
74 95 125
74 95 127
74 94 126
71 92 123
71 92 123
73 94 125
71 91 122
75 96 128
71 93 125
72 92 123
74 95 127
73 95 127
72 93 125
71 92 123
73 93 124
72 93 125
72 93 125
72 93 124
73 94 127
72 94 127
73 94 126
71 92 123
73 93 125
73 94 126
72 93 125
72 94 127
72 94 126
73 94 126
73 94 127
73 93 124
70 90 121
71 92 123
71 91 122
74 94 126
70 91 122
72 93 124
70 90 122
72 93 124
73 94 124
75 96 128
70 92 123
73 93 124
74 96 128
71 92 123
72 93 125
73 94 127
71 91 121
72 92 122
74 94 125
70 90 120
70 91 122
72 92 121
69 90 120
73 94 126
67 87 116
73 93 124
70 90 120
70 91 121
71 92 123
54 67 87
49 60 77
47 58 75
49 61 79
54 66 83
53 65 83
51 63 81
51 63 80
50 61 79
48 60 77
52 64 82
57 69 87
54 66 83
50 61 78
47 58 76
53 64 82
53 65 83
54 67 86
53 64 81
54 66 83
51 63 80
55 67 86
51 63 81
58 71 91
50 61 79
46 57 73
53 65 84
56 68 86
54 66 84
53 64 82
54 66 85
56 68 87
51 63 81
51 62 80
59 72 91
60 73 92
53 66 86
50 62 80
54 67 85
53 65 83
56 68 87
56 69 87
53 66 85
54 66 84
52 64 83
58 70 89
57 70 90
54 66 85
59 72 91
51 63 81
55 67 85
49 61 78
53 65 83
57 70 90
53 65 84
52 63 81
55 68 88
57 69 88
49 61 78
57 70 89
56 68 88
53 65 83
51 63 80
51 63 81
54 66 84
56 68 87
56 69 88
56 69 89
51 62 80
53 65 84
54 66 85
58 70 89
56 69 88
49 60 77
49 61 79
57 69 88
59 72 90
50 61 79
51 63 81
55 68 86
56 69 87
57 69 87
58 71 90
56 69 88
51 62 80
55 67 86
55 68 87
47 59 76
55 68 86
53 66 86
56 68 85
51 63 81
56 69 88
53 65 83
50 62 80
56 68 88
51 62 78
49 61 79
51 62 80
55 67 85
58 71 90
52 64 82
54 67 86
51 63 81
50 61 78
49 60 77
54 67 85
52 63 80
56 69 87
58 74 98
69 89 118
70 90 120
69 89 119
73 94 125
70 90 119
70 91 123
70 91 123
70 90 121
70 91 121
73 94 125
71 92 123
72 93 124
72 93 124
69 89 119
72 92 124
71 93 125
72 93 124
72 93 124
74 95 126
71 92 123
72 92 124
72 93 125
73 95 127
71 92 123
73 94 125
73 95 127
72 93 125
72 93 125
73 94 126
71 91 121
72 93 124
73 94 126
72 93 125
72 93 124
71 92 125
71 92 123
72 93 124
73 94 124
73 94 125
73 94 125
71 92 124
70 91 123
73 94 125
70 92 125
71 93 125
74 94 126
73 94 125
74 96 128
72 94 126
72 93 123
72 92 123
73 94 126
74 95 128
74 94 125
73 95 127
73 95 127
71 93 125
75 96 127
74 95 128
72 93 124
74 95 127
73 94 126
72 93 126
73 94 126
73 95 128
73 95 128
75 96 128
73 94 125
73 94 125
74 94 126
74 96 128
75 95 126
74 94 125
74 95 127
74 95 126
73 95 127
72 93 125
72 94 126
75 96 127
73 94 126
73 94 126
75 96 127
74 95 127
73 94 126
72 93 125
75 96 128
73 95 128
73 95 127
75 96 128
75 96 128
73 95 127
71 93 126
73 94 126
73 95 128
74 96 128
75 96 128
75 95 127
74 95 127
73 95 128
74 96 128
74 96 128
74 95 128
74 95 128
74 95 128
72 94 127
73 95 127
75 96 128
74 95 127
74 95 128
76 96 127
73 95 128
73 95 127
73 95 128
73 94 126
74 96 128
72 94 126
74 96 128
74 95 128
74 95 127
74 95 127
76 97 128
73 95 128
74 95 128
74 96 128
73 95 127
74 95 127
73 95 127
75 96 128
73 95 128
76 97 128
74 95 128
73 95 128
74 95 128
73 94 126
73 94 127
74 95 127
73 95 128
74 95 128
75 96 128
74 96 128
75 96 128
74 95 128
73 95 128
75 96 127
74 95 128
73 95 127
75 96 128
74 95 128
74 96 128
74 95 128
75 96 128
74 95 127
75 96 128
74 95 128
74 95 127
73 94 125
73 95 128
74 95 127
75 96 128
74 96 128
74 95 127
74 95 127
73 95 127
74 95 127
75 96 128
75 96 128
74 95 127
74 95 128
74 95 128
74 95 128
73 95 128
72 94 128
74 96 128
74 95 128
73 94 125
75 96 128
74 95 127
72 94 126
74 95 127
75 96 128
73 94 127
75 96 128
73 95 128
74 95 127
73 95 128
74 95 128
74 95 128
74 95 128
74 95 128
75 96 127
74 95 127
74 95 128
72 94 127
74 96 128
72 94 126
75 96 127
73 94 126
74 95 127
73 95 127
74 96 128
75 96 128
75 96 127
73 94 125
72 94 127
74 95 128
74 95 127
73 94 127
75 96 128
73 94 127
74 96 128
73 94 126
74 95 128
75 96 127
73 95 127
75 96 128
75 96 128
74 95 127
72 94 126
74 95 128
73 95 127
74 95 128
72 93 125
75 96 128
73 95 128
74 95 127
75 96 128
73 93 124
75 96 127
75 96 127
72 93 124
75 95 126
72 93 124
74 96 128
72 93 124
73 94 127
72 93 125
73 94 126
73 94 126
72 94 126
73 94 127
74 94 125
72 93 124
73 93 124
73 94 125
74 95 126
72 94 126
73 94 126
73 95 127
74 95 126
71 92 123
74 95 127
70 91 122
72 93 125
71 92 123
72 93 124
74 95 127
71 92 123
72 93 123
71 92 124
71 92 124
70 91 122
73 93 123
72 93 125
72 93 124
71 92 124
70 91 124
75 95 126
75 95 127
70 92 124
72 93 124
71 93 124
70 90 120
72 91 120
70 91 122
71 91 122
72 94 125
72 93 124
68 88 119
71 92 124
71 93 124
72 93 124
69 89 119
70 90 120
72 91 121
72 93 124
72 92 123
72 91 121
71 91 122
69 89 119
68 89 120
67 86 114
52 63 81
54 66 84
53 65 82
51 63 81
52 63 80
55 67 85
53 65 83
52 64 82
50 61 79
50 62 80
57 70 89
52 64 83
58 71 90
55 67 86
50 62 80
53 65 84
56 68 87
60 73 93
47 58 75
56 68 87
49 61 80
52 64 82
55 68 86
50 62 79
51 63 81
55 67 86
56 68 86
55 67 85
53 65 84
53 66 84
52 63 81
54 66 84
53 65 84
54 66 85
49 61 78
56 69 89
51 64 82
57 69 87
53 65 82
55 68 87
56 68 86
54 67 85
51 63 80
53 65 84
54 67 86
57 69 88
54 67 85
54 66 85
54 67 86
58 71 91
52 64 82
52 64 82
53 65 83
51 63 82
51 63 81
54 66 85
54 66 85
53 66 84
53 65 83
49 61 78
53 66 85
56 68 87
54 66 84
56 68 87
55 67 86
52 64 83
55 68 88
57 70 89
50 62 80
51 63 82
57 70 88
51 63 81
52 64 83
54 66 85
54 66 84
56 69 88
54 66 84
50 62 81
56 69 88
56 68 87
58 70 89
51 63 82
53 65 82
57 70 88
56 68 87
52 64 83
50 62 80
54 66 85
59 72 91
58 71 90
51 63 81
49 60 77
53 65 84
53 65 83
55 68 86
54 66 84
56 69 87
51 63 81
54 66 84
48 59 75
49 60 77
51 63 80
51 63 80
55 67 85
48 59 76
50 62 80
51 63 81
54 66 85
69 88 116
70 91 122
67 87 117
69 89 118
73 93 124
68 89 119
71 92 123
69 90 121
68 88 118
70 90 120
67 86 115
67 86 116
70 91 122
70 90 120
70 91 122
69 90 120
73 93 125
74 94 126
72 92 123
71 91 120
71 92 123
72 93 125
71 92 123
71 91 120
70 90 121
71 91 122
71 92 124
73 94 125
71 91 123
71 93 125
71 92 124
72 94 126
71 92 122
72 93 124
73 95 127
74 95 127
71 92 123
72 93 124
74 95 127
72 93 125
72 92 122
71 92 124
74 94 125
72 94 126
73 94 125
72 93 125
73 94 125
72 93 124
73 94 125
74 95 127
72 94 126
73 94 126
72 92 123
72 93 126
72 94 126
72 93 126
73 94 125
72 93 125
73 94 125
72 94 126
73 95 127
72 94 126
73 94 125
74 95 127
74 95 127
74 95 127
74 95 126
75 96 128
74 95 127
73 94 125
73 94 127
74 95 127
74 95 126
74 95 128
73 95 127
74 96 128
74 95 126
74 95 127
73 94 127
74 95 128
73 94 126
72 94 127
74 95 128
74 96 128
75 96 128
75 95 126
73 94 127
74 95 128
73 94 125
74 96 128
74 95 128
73 95 127
74 95 127
72 93 125
74 96 128
75 96 128
72 94 128
74 95 127
72 94 127
74 95 127
73 95 126
74 95 128
73 94 125
74 95 126
73 95 128
73 95 127
74 96 128
74 94 126
73 95 126
73 95 128
73 95 127
73 95 127
76 97 128
75 96 127
73 94 127
74 95 128
74 96 128
74 95 128
75 96 128
74 95 128
74 95 128
74 95 128
75 96 128
75 96 127
74 96 128
76 96 128
74 95 127
73 95 128
74 95 128
75 96 128
73 95 127
74 96 128
75 96 128
74 95 127
74 95 128
74 95 127
74 96 128
74 96 128
73 95 127
74 95 127
74 96 128
75 96 128
73 95 127
74 95 128
75 95 127
75 96 128
75 96 128
74 95 127
74 95 128
76 96 128
73 95 128
74 95 127
73 95 127
73 95 128
75 96 128
74 96 128
74 95 128
73 95 128
74 96 128
73 95 128
74 95 126
74 95 126
73 94 126
74 95 127
74 95 127
75 96 128
74 95 128
73 95 128
74 96 128
74 95 127
74 95 128
75 96 128
72 94 126
75 96 128
75 96 128
74 96 128
74 95 128
74 96 128
74 96 128
73 94 127
74 95 128
75 96 128
74 95 127
73 95 128
73 94 126
72 93 126
75 96 128
74 95 128
72 94 127
74 95 128
73 95 128
74 95 127
73 94 127
73 95 127
74 96 128
74 95 127
73 94 127
73 95 127
73 94 127
73 94 126
73 94 126
75 96 128
74 95 127
71 94 127
75 96 128
73 94 126
74 95 127
73 95 127
73 94 126
74 95 126
73 94 126
73 94 126
74 95 128
75 95 126
73 94 126
73 95 127
72 94 126
73 94 127
73 95 128
73 94 125
72 93 124
73 94 126
72 93 125
74 94 125
74 95 126
73 95 128
71 93 124
72 93 126
72 94 127
73 94 126
72 93 126
72 93 125
73 95 128
72 93 124
73 94 125
73 95 127
73 93 123
73 94 126
72 94 126
73 94 125
71 92 123
73 93 123
75 95 126
75 95 126
72 93 124
71 92 124
71 92 122
72 93 124
71 93 125
72 94 125
72 93 124
72 93 125
71 92 123
71 93 125
72 93 124
71 91 122
72 94 125
74 95 128
73 94 127
72 93 124
71 91 122
72 93 125
70 91 122
74 95 127
73 93 124
73 94 124
71 92 123
71 92 124
71 91 122
70 91 122
72 92 123
74 94 125
71 92 122
71 91 121
72 92 122
69 89 120
73 94 125
71 91 122
72 93 124
69 89 119
71 91 121
70 91 121
69 89 119
70 91 123
69 89 118
69 89 119
67 88 118
72 92 123
68 88 117
70 91 122
69 89 119
71 90 119
66 84 110
56 68 86
48 59 75
50 61 78
50 62 79
54 65 83
45 56 72
58 71 90
52 63 80
53 65 84
56 69 87
53 65 83
54 66 84
53 64 82
56 68 87
54 66 84
54 66 84
53 66 84
49 60 78
56 69 88
53 65 82
52 64 81
56 68 86
62 75 95
51 63 81
52 64 83
52 63 80
51 64 83
49 61 78
48 60 78
55 67 85
57 70 90
51 62 80
49 60 78
52 65 83
53 65 83
56 68 86
51 63 81
55 67 86
51 63 81
50 62 80
53 65 84
54 67 85
53 66 84
58 70 89
50 62 79
54 67 86
51 63 81
52 64 82
54 66 85
55 67 87
54 66 84
51 63 81
49 61 78
53 66 84
54 67 85
54 66 83
51 64 83
55 67 85
55 67 84
56 68 87
54 66 83
53 65 83
58 71 90
56 68 86
52 63 80
53 65 84
54 67 86
47 58 75
52 64 82
47 58 76
53 65 83
60 73 92
51 63 81
57 69 87
55 68 87
54 67 85
48 60 78
52 64 82
52 64 82
57 69 88
54 66 84
52 64 82
49 61 79
52 64 82
54 66 83
49 60 78
53 65 83
49 61 78
52 64 83
51 62 80
44 54 70
51 64 82
52 65 83
51 63 81
52 64 81
53 65 83
52 63 80
52 64 81
57 69 87
53 65 82
49 61 80
50 62 79
52 65 83
48 59 76
51 63 81
48 59 76
59 74 98
68 88 118
69 89 119
68 88 118
70 91 123
70 90 120
73 94 125
69 90 121
69 89 119
67 87 118
72 93 124
69 89 120
72 93 123
68 88 118
72 92 124
68 88 117
71 92 122
71 92 123
69 88 118
71 93 125
74 94 125
69 90 122
72 93 125
70 90 120
70 90 121
71 91 120
72 93 125
72 92 123
74 94 124
72 93 124
74 94 126
71 92 124
72 93 125
72 93 124
73 94 125
72 93 124
73 93 124
73 94 127
72 93 124
72 92 123
72 93 125
73 93 124
71 92 122
72 93 125
74 95 126
74 95 127
72 93 124
73 95 127
73 95 128
70 91 122
73 94 126
72 93 124
73 94 126
70 91 122
73 94 124
72 94 126
73 94 126
73 94 126
73 94 127
72 93 124
72 93 126
74 95 126
73 94 125
74 95 127
73 93 125
74 95 127
73 95 128
74 95 127
73 94 126
72 94 126
73 94 125
73 95 127
71 92 124
74 95 127
72 93 125
73 94 126
74 95 128
74 95 128
74 95 127
74 94 125
72 93 125
73 94 126
74 95 127
74 95 128
73 94 126
75 95 126
75 96 127
75 96 128
74 95 127
75 96 128
75 96 127
74 95 127
74 95 127
74 96 128
74 95 127
73 95 128
74 95 127
74 95 126
74 94 126
75 96 128
74 95 127
74 95 128
73 94 127
74 95 127
72 94 128
74 95 127
74 95 127
72 94 127
74 95 128
74 95 127
73 95 128
74 95 128
74 94 126
74 95 127
74 95 128
73 95 128
74 95 127
75 96 127
74 95 127
73 95 128
74 95 128
74 96 128
73 94 127
74 95 127
73 94 126
75 96 128
75 96 127
75 96 128
73 95 127
74 96 128
74 95 127
73 95 127
75 96 128
74 95 127
75 96 128
72 94 127
74 95 127
73 95 128
74 95 128
74 95 128
73 95 128
74 95 127
76 96 128
73 95 128
75 96 128
74 95 128
73 95 128
74 95 128
75 96 128
75 96 128
74 95 127
75 96 128
74 96 128
75 96 128
73 95 128
75 96 127
74 96 128
72 94 126
72 94 126
74 95 127
73 95 128
74 96 128
72 94 127
73 95 127
73 95 128
73 94 127
75 95 127
73 95 128
74 95 128
73 94 126
75 96 128
74 95 128
73 95 126
73 95 127
75 96 128
75 96 128
73 94 127
73 95 127
74 96 128
73 95 127
74 96 128
74 95 128
74 95 127
75 96 128
75 96 128
73 95 128
73 94 127
73 95 128
75 96 128
74 95 128
73 95 128
75 96 128
74 95 127
74 95 128
76 96 127
73 94 126
73 95 127
74 95 127
75 95 127
73 94 125
73 95 127
76 96 128
73 94 126
72 93 125
75 96 128
74 95 127
72 94 127
72 94 126
73 94 127
74 94 125
73 94 126
74 94 126
76 96 128
74 95 126
73 94 126
71 93 124
74 95 127
72 94 127
75 96 127
75 96 128
74 95 128
73 94 126
72 93 125
74 95 126
73 94 126
74 95 128
73 94 125
74 95 127
73 95 127
73 93 123
72 93 125
74 95 127
73 94 126
71 93 126
71 92 124
73 93 124
74 95 127
73 94 124
73 95 128
72 93 125
73 94 126
72 93 125
68 89 121
74 94 125
74 95 125
73 94 126
71 92 123
72 93 125
73 93 125
71 92 124
72 94 126
72 93 125
74 95 127
69 90 121
73 94 126
71 92 122
73 94 126
73 95 127
72 92 123
71 91 122
72 93 124
71 92 123
73 94 125
72 93 125
69 90 120
74 95 125
72 93 124
71 92 123
70 91 123
70 90 120
71 92 123
70 90 121
70 91 123
69 90 121
69 90 120
70 90 121
71 92 123
70 90 120
70 91 122
68 88 118
72 92 123
69 90 121
69 89 118
69 89 120
68 89 119
69 89 120
69 89 119
69 89 119
70 90 120
70 91 122
67 86 114
67 87 117
67 87 116
71 91 121
55 68 88
49 60 77
52 64 81
48 60 76
48 59 76
49 60 77
50 61 79
56 68 86
50 62 79
44 55 71
55 67 85
52 64 81
50 62 80
49 60 76
55 67 85
57 69 87
54 66 85
55 67 86
54 67 85
50 61 79
51 63 81
52 64 82
56 69 89
48 60 77
51 63 81
53 65 83
53 65 83
51 63 82
54 66 84
52 64 82
52 64 81
56 68 86
52 64 83
48 59 77
55 68 87
54 66 84
52 64 82
50 62 80
56 68 87
53 65 83
51 63 80
50 62 80
54 66 85
53 65 83
57 70 89
51 62 80
50 62 80
54 66 85
51 63 80
54 67 86
52 65 84
54 67 86
54 66 84
51 63 81
54 66 84
52 64 83
53 65 83
53 66 84
62 75 95
53 65 83
48 59 76
55 68 87
55 67 85
50 61 78
53 65 83
50 62 81
52 64 82
49 62 81
53 66 84
53 66 84
53 65 83
56 68 86
50 61 78
56 68 87
54 65 83
50 61 79
53 65 84
56 68 86
53 66 84
51 63 81
50 61 79
54 66 84
52 65 84
53 65 84
50 61 78
51 63 80
51 63 81
52 63 81
53 65 83
53 65 83
59 73 92
49 60 78
54 65 83
51 63 82
55 67 85
51 63 80
49 61 77
51 63 80
53 65 84
50 61 78
44 55 72
50 61 79
51 63 80
46 56 72
47 58 75
51 65 86
72 92 121
68 89 120
68 89 119
70 90 120
70 90 120
69 89 119
68 89 119
70 91 121
70 90 121
69 88 118
71 91 123
70 90 120
67 86 115
72 91 121
73 93 124
73 92 122
71 91 120
72 92 122
72 93 124
70 90 121
71 92 124
70 90 120
73 93 124
71 92 123
72 93 124
71 92 124
73 94 126
70 90 120
70 92 123
71 93 125
72 92 123
73 94 125
72 92 123
71 92 124
74 95 128
72 93 124
69 90 121
73 94 125
72 93 124
74 94 125
74 95 128
74 94 126
72 93 124
71 91 122
72 93 126
73 93 124
73 94 126
72 93 125
73 94 124
72 93 125
72 93 125
73 94 126
71 92 124
71 92 122
71 92 124
73 93 125
71 92 123
72 94 127
72 93 126
72 93 125
73 94 127
73 94 124
73 95 128
73 94 126
74 95 128
74 94 126
73 94 126
73 94 126
72 93 124
72 93 124
72 93 125
72 93 124
73 95 127
74 95 128
72 94 127
72 93 125
74 95 128
74 95 128
73 94 126
74 96 128
72 93 123
74 94 125
74 95 127
74 96 128
74 96 128
74 95 127
73 94 125
72 93 125
73 95 128
73 94 127
76 96 128
75 95 127
73 95 127
73 95 127
73 94 127
72 94 126
75 95 127
72 94 127
74 95 127
73 95 127
75 96 127
73 95 128
74 95 127
74 95 128
74 95 128
73 95 127
73 94 126
73 94 126
73 95 128
74 95 128
74 95 127
74 95 128
74 95 126
74 95 127
74 95 128
74 95 127
75 96 128
74 95 126
74 95 128
75 96 127
73 95 127
75 96 128
72 94 127
72 94 126
75 96 128
74 95 128
73 94 125
72 94 126
74 95 126
74 95 128
73 94 126
74 95 127
74 95 128
74 96 128
73 94 126
74 96 128
74 95 128
75 95 126
74 95 128
73 95 127
72 94 127
75 96 128
73 95 126
73 95 128
74 95 126
74 95 128
74 95 127
73 95 128
75 96 127
73 94 127
74 95 127
74 95 128
73 95 128
74 95 127
73 95 127
74 95 127
75 96 127
74 95 128
74 96 128
75 96 128
75 96 128
75 96 128
74 96 128
73 94 126
72 94 127
73 95 127
74 96 128
73 95 127
73 94 126
74 95 127
73 94 127
74 95 128
74 96 128
75 96 128
73 94 126
74 95 126
74 95 127
74 95 128
73 94 126
74 95 127
73 95 128
74 95 128
74 95 127
72 93 125
73 94 125
72 94 127
74 95 127
74 95 128
74 95 128
73 94 127
75 96 128
75 96 128
74 95 127
74 95 127
72 94 126
74 96 128
73 95 127
74 95 126
73 94 126
74 96 128
72 94 127
73 94 125
75 96 128
74 95 128
75 96 128
73 95 127
74 95 128
74 95 128
74 95 126
73 95 127
74 94 125
74 95 126
73 95 127
72 93 125
74 95 126
73 94 127
73 95 128
74 95 127
72 93 125
74 95 126
72 94 126
73 94 127
74 95 126
72 94 126
72 93 125
72 93 126
73 94 126
73 94 127
73 94 125
74 95 127
75 96 128
72 93 125
70 92 124
73 93 125
71 92 124
73 94 125
72 92 123
71 92 124
72 92 123
75 96 127
73 94 127
73 93 124
70 90 122
72 92 124
71 92 123
72 92 123
71 91 122
73 94 126
71 93 126
72 93 125
72 92 124
71 92 124
73 94 126
71 92 123
72 93 124
73 94 125
72 92 123
70 91 122
71 92 123
71 92 122
71 92 124
72 94 126
69 90 121
73 94 125
73 94 125
70 91 122
73 93 124
68 88 118
71 91 120
72 92 123
67 87 116
71 92 123
73 94 126
70 90 121
70 91 122
71 92 124
69 89 119
70 91 121
70 90 120
70 90 119
64 83 110
69 89 119
71 92 124
68 88 119
73 93 124
67 87 117
69 88 117
69 88 118
67 86 115
69 89 119
69 88 118
68 88 117
68 87 116
65 83 111
66 85 112
50 63 82
48 59 76
50 62 80
50 61 78
50 62 78
51 62 80
51 63 81
54 66 83
47 58 75
52 64 82
51 63 81
52 64 81
49 61 78
51 63 81
52 64 83
52 63 80
52 64 81
47 59 76
55 67 84
50 61 78
52 64 81
51 63 82
49 60 78
49 61 78
55 67 85
52 63 80
50 61 78
53 65 83
53 65 82
48 60 77
51 63 81
57 70 89
55 66 84
54 66 84
56 68 87
52 64 83
57 69 89
56 68 87
52 63 80
54 66 84
51 63 79
51 63 81
51 62 80
52 64 82
52 63 80
57 69 87
52 64 82
52 64 81
54 67 85
52 63 81
49 61 79
55 67 86
49 61 78
48 58 75
53 64 82
56 68 87
54 66 84
51 63 82
52 64 82
57 69 86
53 65 83
49 61 79
50 62 79
51 63 80
54 66 84
49 61 79
51 63 81
53 64 82
50 62 79
53 65 83
51 64 82
52 64 82
53 65 83
53 65 83
54 66 85
52 64 82
49 60 76
55 67 85
55 67 85
55 68 87
48 60 76
52 63 79
51 62 79
57 70 88
53 66 85
52 64 83
47 58 75
52 63 80
45 57 74
50 62 79
53 65 83
47 59 76
50 62 79
51 63 81
50 62 80
49 60 77
49 61 78
53 65 83
53 65 83
50 62 79
51 62 78
51 63 80
48 60 76
49 60 78
67 86 114
69 89 118
64 83 111
67 87 116
66 86 115
68 87 116
69 89 119
69 89 119
73 92 121
66 85 113
68 88 118
67 87 117
68 87 117
70 89 118
67 87 117
69 89 120
70 91 121
69 90 121
70 90 120
70 91 122
71 91 122
70 91 122
71 91 122
68 88 117
70 91 122
72 93 123
69 91 122
71 92 123
71 91 122
70 91 121
70 91 122
72 92 123
72 93 125
71 91 121
72 93 124
72 92 123
71 91 121
70 91 122
73 94 126
74 95 126
74 94 125
72 93 124
72 93 124
73 94 126
72 93 124
73 94 126
72 93 124
73 94 125
73 94 127
73 94 127
71 92 123
73 94 125
72 93 124
72 93 124
71 92 123
71 92 124
70 91 123
73 94 126
74 94 125
72 94 126
73 94 125
74 95 126
71 92 124
73 94 126
74 95 126
72 93 125
73 94 126
74 95 128
72 94 127
73 94 125
73 95 127
74 95 126
73 94 126
73 94 126
74 94 126
73 93 124
73 93 124
72 93 125
74 95 127
73 94 126
73 94 125
74 95 128
73 94 126
73 94 126
71 92 124
74 95 128
73 94 126
74 95 128
73 95 127
72 92 123
72 94 127
75 96 128
74 95 127
73 95 127
73 94 127
74 95 127
73 93 124
73 95 128
73 94 125
74 96 128
73 95 127
74 95 127
74 95 128
73 95 128
74 95 126
73 94 125
75 96 128
74 95 127
73 94 126
74 95 128
73 94 126
74 95 126
75 96 128
76 96 127
73 94 127
73 95 127
74 95 128
74 95 128
75 96 128
74 95 128
74 95 127
73 94 127
74 95 127
73 95 128
75 96 128
73 94 126
73 95 128
73 95 128
76 97 128
74 95 127
74 95 128
74 96 128
73 95 128
74 95 128
76 96 128
74 95 128
74 95 128
73 94 127
74 95 127
73 94 127
73 94 127
73 94 126
73 95 128
74 95 128
74 95 128
72 94 127
75 96 128
76 96 128
75 96 127
74 96 128
75 96 128
73 95 127
74 95 128
74 95 128
74 96 128
74 95 128
74 96 128
74 95 127
73 94 126
74 95 128
73 94 126
74 95 127
74 95 127
74 95 127
74 95 127
73 95 127
73 95 127
75 96 127
73 95 127
72 94 127
75 96 128
74 95 128
73 94 126
74 95 128
73 94 126
75 96 128
74 95 128
73 94 126
73 95 128
73 94 127
74 95 126
74 95 128
74 95 126
73 94 125
74 95 126
74 95 127
73 95 127
72 94 127
74 96 128
75 96 128
72 94 126
74 95 128
73 95 128
75 96 128
74 95 127
73 94 126
73 94 127
74 95 127
75 96 128
74 95 127
74 95 128
72 94 127
73 94 126
74 95 127
74 94 125
74 95 126
73 95 127
72 94 126
72 94 126
74 95 126
74 95 127
72 93 124
73 94 125
74 95 127
74 95 127
72 94 127
72 93 125
74 94 126
74 95 127
72 93 125
72 93 125
73 95 127
73 94 126
74 95 126
72 93 126
74 95 128
73 95 127
73 94 125
73 94 126
72 93 125
72 93 124
73 94 125
73 94 125
71 93 125
74 96 128
72 93 125
74 95 127
74 95 126
74 95 127
74 95 126
73 94 125
71 93 125
71 92 123
73 94 125
73 94 126
73 93 124
74 94 125
74 95 126
74 95 127
72 92 123
74 95 127
70 91 123
72 93 125
70 91 123
73 95 127
70 90 121
73 94 126
71 91 122
70 91 122
72 93 124
70 91 121
72 93 125
72 93 124
69 89 121
71 92 122
71 92 123
70 91 122
71 91 122
71 91 122
72 92 122
72 92 122
71 92 124
69 89 120
70 90 120
70 91 122
70 91 122
69 90 121
69 89 119
70 90 121
71 90 120
71 92 123
69 89 119
68 88 119
68 88 117
70 91 121
66 86 116
65 85 115
70 90 119
70 90 120
71 92 123
66 85 115
68 88 117
69 88 117
65 84 113
68 88 118
68 87 116
63 81 108
51 62 80
52 64 83
52 63 79
46 56 72
51 63 82
46 56 73
45 55 70
47 58 75
51 63 81
50 61 79
50 62 80
51 63 79
52 64 81
48 60 77
50 61 79
47 58 74
50 61 78
56 68 86
53 66 84
50 61 78
53 65 83
52 64 82
49 60 76
49 61 78
54 66 84
58 70 89
52 63 81
53 65 84
47 58 76
50 61 77
51 63 81
51 63 81
53 65 83
50 61 78
52 63 80
54 66 84
54 67 85
55 67 86
55 67 84
47 57 73
50 62 80
52 63 81
53 65 83
54 65 83
52 64 81
53 65 83
48 59 76
54 66 84
51 62 80
53 65 83
52 65 83
49 61 78
53 65 83
49 60 77
45 56 73
51 63 81
52 64 83
57 69 88
50 61 78
54 66 84
56 68 87
51 64 82
56 68 88
53 65 82
52 64 80
50 61 78
51 62 79
53 65 83
53 65 84
53 65 82
53 65 84
52 64 83
53 65 84
49 61 78
51 62 80
52 65 85
50 61 78
46 57 73
47 59 76
53 65 82
53 65 83
51 63 82
54 66 84
54 66 84
53 65 83
52 63 80
50 62 79
47 58 75
51 62 80
51 63 81
56 68 87
51 62 79
56 69 87
57 69 87
51 62 80
46 57 74
53 64 82
52 63 81
53 65 82
52 64 82
52 64 82
49 61 78
59 76 102
68 87 116
70 90 119
65 83 111
63 81 110
65 84 113
70 90 120
66 85 113
66 85 113
67 87 117
68 87 115
68 88 118
68 87 116
68 88 119
70 89 119
69 88 117
69 90 121
72 92 121
67 86 116
71 91 122
71 91 121
69 90 121
72 92 123
68 89 119
68 89 120
71 92 124
69 89 118
70 91 122
69 89 120
71 92 122
71 91 122
72 92 123
73 94 126
73 93 124
71 91 122
71 91 122
73 94 124
74 94 124
73 93 124
71 92 124
71 92 124
72 93 126
72 93 124
73 94 125
70 91 123
71 93 124
73 94 126
72 92 123
72 94 126
71 92 123
73 93 124
71 92 124
73 94 126
72 93 124
73 95 127
72 93 125
72 93 124
75 96 128
71 92 122
73 94 126
73 94 125
71 92 123
73 95 127
72 93 125
75 96 127
72 93 124
74 95 126
71 92 124
75 96 128
74 95 126
71 93 126
72 94 127
73 94 126
73 94 126
72 93 126
73 94 126
74 95 126
73 94 125
73 94 125
72 93 125
75 96 128
73 95 128
75 96 128
72 94 127
74 96 128
73 94 125
73 94 125
73 94 126
74 95 126
74 95 126
74 95 128
75 96 128
74 96 128
73 95 127
74 95 128
73 94 126
73 94 127
72 93 126
75 96 127
76 97 127
73 94 127
73 95 127
74 95 126
72 93 125
73 94 126
72 94 127
74 95 128
75 96 128
75 96 128
73 95 127
75 96 128
74 95 128
74 95 128
73 94 126
75 96 128
73 94 126
73 94 125
72 94 127
73 94 127
72 94 127
74 96 128
74 95 128
74 95 127
74 95 128
74 95 126
73 94 127
73 95 127
75 96 128
73 95 127
74 95 127
75 96 127
74 95 128
73 95 128
76 96 128
74 96 128
75 96 128
73 95 128
74 94 125
74 95 127
75 96 128
74 96 128
75 96 128
73 95 128
75 96 128
74 96 128
74 95 128
73 95 127
73 95 128
74 96 128
74 95 127
75 96 128
74 95 127
74 95 127
73 95 127
74 95 128
75 96 128
72 93 125
74 95 127
73 95 128
73 94 126
74 95 128
74 96 128
74 95 127
74 94 125
74 95 126
73 95 128
71 93 126
74 95 127
76 96 127
75 96 128
75 96 127
75 96 128
73 95 127
74 96 128
75 95 127
74 95 128
75 96 128
74 96 128
74 95 126
74 96 128
73 94 126
73 95 128
74 95 128
75 96 128
71 93 125
74 95 128
74 96 128
74 96 128
73 95 127
76 96 128
74 95 128
75 95 127
73 94 127
71 92 123
72 94 126
73 95 127
71 93 125
75 95 127
73 95 128
73 94 126
72 92 124
74 96 128
74 96 128
72 94 126
73 94 126
73 94 126
73 95 126
74 95 128
74 95 126
74 95 126
73 94 125
72 93 125
74 95 127
72 93 125
74 95 126
73 95 127
74 95 126
74 95 127
74 95 125
74 95 127
75 96 128
74 95 126
74 94 126
72 93 124
71 92 123
72 92 123
75 95 126
74 95 125
74 95 128
73 94 126
72 93 125
73 94 126
71 93 125
73 94 125
73 94 126
73 94 126
73 94 126
74 95 126
73 93 125
71 92 124
73 94 125
70 92 124
72 93 125
72 92 122
74 95 127
73 93 122
72 93 124
73 93 125
70 90 120
71 93 125
72 93 125
74 94 124
71 91 122
71 92 122
71 92 123
70 90 121
72 93 125
71 91 121
71 92 123
72 92 123
70 91 123
71 91 123
72 93 124
71 91 122
69 89 120
73 93 123
68 87 117
70 89 118
73 94 125
70 91 121
71 92 123
68 88 119
68 87 116
71 91 122
72 92 123
69 88 117
69 90 120
67 86 115
68 89 119
66 86 116
70 90 120
71 90 120
68 88 117
69 90 120
66 86 114
70 91 122
66 85 115
68 87 116
67 86 115
66 85 114
69 88 116
68 88 118
64 84 113
70 89 119
66 85 113
65 84 111
64 82 109
69 89 119
59 74 97
46 57 73
49 60 77
47 58 74
48 59 75
48 59 75
49 60 77
54 66 83
50 61 78
51 63 82
52 63 81
57 69 87
51 64 82
53 66 84
45 56 73
49 61 78
54 66 83
53 65 83
50 62 79
52 64 81
52 63 81
46 58 74
51 63 81
51 62 79
54 66 84
47 58 75
49 60 76
56 68 86
50 62 81
52 64 82
50 61 79
52 64 82
54 66 85
48 60 78
52 64 82
53 65 84
51 62 79
54 67 86
50 62 79
49 60 78
52 63 80
54 67 85
49 61 79
57 69 87
48 59 75
54 66 84
53 66 84
48 59 77
55 67 86
56 69 88
53 65 83
50 62 80
54 66 84
50 62 79
51 63 80
55 68 87
56 68 86
52 64 82
48 60 77
53 65 83
49 61 79
58 71 90
51 63 81
46 58 75
50 61 78
51 62 79
57 69 89
50 61 78
49 61 78
53 65 82
49 60 77
46 57 73
52 64 82
54 65 83
56 68 86
52 64 81
52 63 81
45 56 72
46 57 74
45 56 73
50 62 80
50 61 78
48 59 75
48 59 76
53 65 83
55 67 85
52 64 82
54 66 84
53 65 82
46 57 72
49 60 77
54 65 83
51 63 80
49 60 76
45 56 72
52 64 82
50 61 78
45 55 71
50 61 79
53 64 81
50 62 79
57 72 95
64 82 110
66 85 114
67 86 115
66 84 111
67 86 114
69 89 118
66 87 117
66 85 115
69 89 119
68 87 115
68 88 118
71 91 121
72 92 123
71 91 121
71 91 121
69 90 120
71 91 121
67 87 116
70 91 122
66 86 115
68 88 117
69 90 120
71 91 121
70 90 119
68 88 118
69 89 119
69 89 119
70 90 120
71 92 123
70 90 120
73 93 124
69 89 120
71 91 122
72 92 123
74 95 126
71 93 125
74 94 126
71 91 122
70 90 120
72 93 125
73 93 123
73 94 125
70 89 118
71 91 122
72 92 123
70 90 120
70 91 122
72 93 124
71 92 123
71 91 122
70 91 124
72 93 125
72 92 123
74 95 126
72 93 125
73 93 124
73 94 125
71 92 124
70 93 126
74 94 125
72 93 124
74 95 126
74 94 125
72 93 124
72 94 126
76 96 127
73 94 126
72 93 125
75 96 127
72 93 125
73 93 124
75 96 127
74 95 126
73 94 126
72 93 125
74 95 126
73 95 127
74 95 126
74 94 125
73 94 126
71 93 126
74 95 126
75 96 127
74 95 127
74 95 127
74 95 128
73 93 124
74 96 128
74 95 126
73 94 127
75 96 127
71 92 123
72 93 125
74 95 127
73 93 124
72 94 126
74 96 128
74 95 127
72 94 126
74 96 128
74 95 127
74 95 126
74 95 128
74 95 127
75 96 128
74 95 127
74 95 127
75 95 127
72 94 126
73 95 127
73 95 127
73 95 128
74 95 128
74 95 127
73 95 128
74 95 127
72 94 126
74 95 127
73 95 127
74 95 126
73 95 127
75 96 128
73 94 127
76 97 128
75 96 128
74 95 127
74 95 126
73 95 127
74 96 128
74 95 127
73 95 127
73 95 128
73 94 127
73 95 128
75 96 128
75 96 128
73 94 127
75 96 128
75 95 127
75 96 128
74 95 128
74 96 128
74 95 127
75 96 128
74 96 128
74 95 128
74 95 127
73 95 128
74 95 128
73 95 127
73 94 127
74 95 127
73 95 128
74 95 128
74 95 127
72 94 127
74 95 127
73 95 127
73 95 127
73 95 128
73 95 128
74 95 127
72 93 126
75 96 128
74 95 127
76 96 128
75 96 128
73 95 127
73 94 125
74 95 127
75 95 127
74 95 128
73 95 128
72 93 125
74 95 127
74 95 128
72 94 127
74 95 126
73 95 127
74 96 128
74 95 127
75 96 127
73 94 126
73 95 128
73 94 127
75 96 128
74 95 127
73 94 126
72 93 126
73 95 127
73 94 127
72 94 127
74 95 127
74 95 126
73 95 127
72 94 126
74 95 128
74 95 127
73 95 127
74 95 127
73 94 127
73 95 128
73 94 126
73 94 126
74 96 128
74 95 128
73 94 125
74 95 126
73 95 127
74 95 127
75 96 127
72 93 125
73 94 126
72 93 124
71 93 125
71 92 123
73 94 127
74 95 127
72 94 127
73 94 127
73 94 127
72 94 127
73 94 126
73 93 124
72 93 124
73 93 124
73 94 126
71 91 122
72 93 125
74 95 127
71 92 123
72 92 123
73 94 125
73 94 126
72 94 126
72 93 124
71 92 122
72 93 125
72 92 123
73 94 125
74 95 126
72 93 123
71 93 125
73 94 126
71 92 124
73 93 124
74 94 124
73 94 126
71 92 123
70 90 122
70 90 121
69 91 123
72 92 122
72 92 123
69 90 121
70 91 123
72 92 123
71 91 122
72 93 124
70 91 123
70 90 120
71 92 123
72 92 123
69 89 119
71 92 122
69 89 119
71 92 123
68 88 117
70 91 121
69 89 118
71 92 124
70 90 120
70 89 117
69 89 119
69 90 120
70 91 121
71 92 123
67 86 115
71 91 120
67 86 114
67 86 116
67 86 115
69 89 119
68 87 115
68 88 118
70 89 119
69 89 119
66 85 113
68 87 117
65 84 112
63 81 108
65 84 113
66 85 113
66 85 114
64 82 110
66 87 117
64 83 110
67 86 116
58 75 100
53 67 88
50 61 78
43 53 68
49 60 78
52 64 81
46 56 72
53 65 83
49 60 76
50 61 78
47 57 73
43 53 69
51 62 78
51 63 81
56 68 86
49 61 77
48 59 76
55 68 86
56 68 87
51 63 80
51 62 80
52 64 82
47 58 75
53 65 83
54 66 84
51 62 80
46 56 71
55 67 86
50 62 79
50 62 79
53 65 83
51 63 80
52 63 81
47 59 76
51 63 80
53 65 82
51 63 81
51 62 79
50 61 79
56 68 86
53 65 83
55 67 86
50 61 78
52 63 80
52 64 81
53 64 82
50 62 80
50 62 79
47 59 76
49 61 79
51 62 80
53 64 82
51 62 80
49 60 77
52 64 82
56 68 86
51 63 81
51 63 81
52 64 82
55 68 86
56 67 85
55 67 85
51 63 80
52 64 82
53 64 82
49 61 79
50 62 79
56 68 86
50 61 79
51 63 81
51 63 81
52 64 81
54 67 85
54 67 85
46 57 73
54 66 84
51 63 79
55 67 84
49 61 78
54 66 85
53 65 84
51 63 81
54 66 84
48 59 76
49 60 77
50 62 79
58 70 88
54 66 84
48 59 76
52 63 81
52 64 81
54 66 83
49 61 77
48 59 75
41 51 66
49 61 78
47 59 76
49 61 78
48 58 74
50 61 79
51 65 86
67 86 115
68 87 116
65 83 111
68 88 118
66 85 113
66 85 113
67 87 116
66 84 113
65 84 113
65 83 110
68 87 116
68 88 117
67 86 114
68 88 119
67 87 116
67 87 118
71 91 122
70 90 119
69 89 118
68 87 116
70 91 123
70 91 122
70 91 121
69 89 119
68 88 117
71 91 121
72 93 124
68 87 116
69 89 120
69 90 121
71 91 121
68 86 114
72 92 123
72 92 123
72 93 124
70 91 123
69 90 121
71 92 122
72 92 122
71 91 122
72 93 124
70 90 120
70 91 122
69 90 120
71 91 121
73 94 125
71 91 122
72 93 124
72 92 123
73 94 126
71 92 123
71 92 123
74 95 127
71 91 122
72 93 124
70 91 121
71 91 121
73 94 126
71 92 123
72 93 123
69 90 121
70 91 122
73 94 126
73 93 123
72 93 125
73 94 126
71 93 125
74 95 126
73 94 125
72 94 126
74 95 126
73 94 126
72 93 125
73 94 127
72 93 124
71 92 123
73 94 126
72 93 124
72 93 126
72 93 123
72 93 124
72 94 126
69 90 121
71 92 124
73 94 126
73 94 126
74 94 126
74 95 127
73 95 127
74 95 127
72 94 126
74 94 126
72 93 125
74 95 128
72 93 126
74 94 125
71 92 124
73 94 126
72 94 125
74 95 127
73 95 127
74 95 128
73 94 126
74 95 127
73 94 126
74 95 127
73 94 126
73 95 127
73 93 124
73 94 127
73 94 126
73 95 127
75 96 127
74 95 126
73 95 127
74 95 126
74 95 127
73 94 126
73 95 127
74 95 127
73 95 128
73 94 126
72 93 125
75 96 128
74 95 127
74 95 127
73 95 127
74 95 127
73 94 126
73 94 125
73 94 126
73 94 126
74 95 127
73 94 127
74 96 128
73 95 128
74 95 128
75 96 128
74 95 128
72 94 127
73 95 128
73 94 126
75 96 127
73 95 128
74 95 127
72 93 126
73 94 127
73 95 128
74 95 128
74 95 127
73 95 127
74 96 128
74 96 128
74 95 128
75 96 128
74 95 128
74 95 128
74 95 128
73 94 126
74 95 128
74 95 127
72 94 126
73 94 126
73 94 126
74 96 128
74 95 128
74 95 128
73 94 125
73 95 128
74 95 127
73 95 128
73 94 127
74 96 128
74 95 127
74 95 128
72 94 127
73 94 126
73 95 128
74 95 127
73 95 127
74 95 127
74 96 128
74 95 127
74 95 127
74 95 128
74 95 126
75 96 128
74 95 127
74 95 127
74 95 127
73 94 126
74 95 127
75 96 127
73 94 126
74 95 128
73 95 128
74 95 127
75 96 128
73 94 127
76 96 127
72 93 125
73 95 128
73 94 126
73 94 126
74 94 125
73 94 126
73 94 125
72 93 125
73 93 124
72 93 125
73 93 123
73 94 125
74 95 128
74 95 127
73 94 126
73 94 126
74 94 125
74 95 127
72 93 125
72 93 125
72 94 126
72 93 125
73 93 125
71 93 124
73 95 128
73 94 125
72 93 124
71 91 122
73 94 127
72 94 127
70 91 122
74 96 128
71 92 124
73 94 125
72 93 125
73 94 125
71 92 123
73 94 125
72 94 126
74 95 127
72 92 123
71 92 125
75 96 128
72 94 126
72 93 124
71 92 124
72 93 124
71 91 120
71 91 121
71 92 123
71 92 122
73 95 127
73 94 125
71 92 123
71 92 123
72 93 124
69 89 119
71 92 123
71 92 123
73 94 125
71 92 122
71 92 122
70 90 120
70 90 121
71 92 123
71 91 121
71 92 122
71 91 121
69 90 120
71 92 123
68 89 121
71 92 123
68 88 118
72 92 122
68 87 117
69 89 120
68 88 118
71 92 123
69 88 116
66 86 116
66 86 115
70 90 119
68 88 117
68 87 116
70 90 120
68 87 117
68 87 116
69 88 117
65 84 113
68 88 117
64 81 108
66 85 114
66 85 113
64 82 110
68 86 114
66 85 113
64 83 111
66 84 113
61 78 104
64 82 110
62 80 108
56 70 91
50 62 79
48 60 77
50 61 77
52 65 83
49 60 76
46 57 73
47 58 75
48 60 77
46 58 75
54 65 82
48 60 77
47 58 74
51 63 80
51 62 79
45 56 73
52 63 80
46 58 75
48 59 76
51 62 80
51 62 79
57 69 88
53 64 82
51 62 79
50 62 80
49 60 78
50 62 80
49 60 77
50 62 79
49 60 77
46 57 75
55 67 85
55 66 83
53 64 81
55 67 85
51 62 79
51 63 81
53 65 82
45 56 72
50 62 80
51 62 80
47 58 75
53 64 82
49 59 75
52 63 81
53 65 83
52 64 82
51 62 79
50 62 79
48 60 77
55 67 85
48 59 75
50 62 80
53 65 82
56 69 87
47 59 76
51 63 80
55 67 85
46 57 74
47 58 74
52 64 82
56 68 88
54 65 83
51 63 81
50 62 80
51 63 80
46 57 73
50 62 80
50 61 79
52 64 83
50 61 78
47 58 74
50 61 78
49 60 76
50 62 78
46 57 73
49 61 79
51 63 80
54 66 83
51 63 80
48 59 76
46 57 73
46 57 73
47 58 75
53 65 83
45 56 72
50 61 78
50 61 79
47 59 75
45 56 72
48 60 78
44 55 71
48 59 75
47 58 74
48 59 76
45 55 71
48 59 75
55 69 90
66 84 111
66 85 114
60 77 103
61 78 105
64 83 110
68 87 116
65 85 114
68 87 115
65 85 114
67 86 115
66 84 112
63 81 108
67 87 116
63 82 110
65 84 113
67 86 116
68 87 116
66 84 111
65 85 114
65 84 113
69 89 120
67 88 118
65 85 115
68 88 117
66 86 115
70 91 121
65 85 114
73 93 124
69 89 120
69 89 120
70 91 121
71 91 121
67 86 116
67 87 117
68 89 120
71 91 121
69 90 120
71 92 122
71 91 122
71 92 124
71 92 122
70 91 122
71 91 122
72 93 124
71 92 124
71 91 121
73 94 126
72 93 124
72 93 124
73 93 123
69 88 118
73 94 126
73 94 125
70 91 123
72 93 124
71 92 123
72 92 123
72 92 122
71 92 124
73 94 125
71 91 122
73 95 127
73 94 126
74 95 127
72 93 125
72 94 126
72 93 125
71 90 120
73 94 126
73 93 124
73 93 124
73 94 125
72 93 125
73 94 126
74 95 126
72 94 126
73 94 127
71 92 125
73 94 125
73 94 126
72 93 125
72 93 124
70 91 121
74 95 127
72 94 126
74 95 128
74 95 128
72 94 126
72 94 126
72 93 124
73 94 125
73 95 127
72 92 124
74 96 128
73 95 127
71 93 126
73 94 126
74 95 126
75 96 128
72 94 126
73 94 126
72 94 126
74 95 126
73 94 126
74 95 127
74 95 128
73 94 126
75 96 127
73 95 127
71 92 124
74 95 127
73 94 126
74 95 126
72 94 126
73 95 128
72 94 127
73 94 126
73 95 128
74 95 128
76 96 127
75 95 127
74 95 127
74 95 128
74 95 127
73 95 128
74 95 128
73 95 128
73 95 127
75 96 127
74 95 128
74 94 126
74 95 127
75 95 127
72 94 127
74 96 128
73 95 128
74 95 127
73 95 127
73 95 128
73 94 126
72 94 127
73 94 126
74 95 126
75 96 128
73 95 128
74 95 128
74 95 128
74 95 128
73 95 128
74 95 127
73 95 128
72 94 127
74 96 128
74 95 127
72 94 126
75 96 128
74 95 127
73 95 127
73 95 128
73 93 125
73 94 127
73 94 126
75 96 127
72 93 125
74 95 127
75 96 128
73 95 127
75 95 126
73 94 126
74 95 126
72 94 126
74 94 126
73 94 126
74 95 127
74 96 128
73 94 127
74 95 127
73 95 128
74 95 128
72 93 125
74 95 128
74 95 127
74 95 128
74 95 128
73 95 127
73 94 125
75 95 127
71 93 126
75 95 126
73 94 126
70 91 122
71 93 124
74 95 127
73 95 127
73 94 126
73 95 127
72 93 125
74 95 127
75 96 127
71 92 123
75 96 126
72 94 126
72 93 125
73 94 126
71 93 125
74 95 126
75 96 128
73 94 126
71 93 125
73 94 126
74 96 128
71 92 123
73 94 127
72 93 125
72 93 125
73 94 125
73 94 126
73 94 125
74 94 125
71 92 124
73 94 126
73 94 125
72 93 124
74 95 126
73 94 126
73 93 125
73 95 127
72 93 125
73 94 126
73 94 125
71 92 124
71 92 125
72 93 125
70 90 121
72 93 126
70 90 120
73 93 124
71 92 123
71 91 122
72 93 124
71 91 122
72 93 124
73 93 124
71 91 122
70 90 120
72 93 125
71 92 123
71 92 123
73 94 126
68 88 118
71 92 123
73 93 124
71 92 124
72 92 123
69 90 121
70 90 121
72 93 125
70 90 121
71 92 123
68 89 119
70 91 121
72 93 125
69 89 119
72 93 124
69 89 119
72 94 126
69 88 117
68 88 118
71 91 120
70 90 119
71 91 121
67 87 117
68 87 116
71 91 122
69 89 118
65 84 114
71 92 122
68 88 119
68 87 116
70 90 121
67 87 118
69 89 118
69 88 116
70 90 120
67 87 116
69 89 119
61 79 105
68 88 118
65 84 112
64 83 111
62 80 107
67 86 115
66 85 114
63 81 109
65 85 114
64 82 110
66 85 114
65 83 110
64 82 109
63 80 107
63 81 109
62 80 106
57 72 96
47 58 76
41 51 66
50 62 78
43 54 70
45 55 71
49 60 76
48 59 75
48 60 77
46 57 73
54 65 83
45 56 73
53 65 83
49 61 78
41 51 66
51 62 80
51 63 81
48 60 77
50 62 80
49 61 79
48 59 76
45 56 72
53 64 82
51 63 81
51 62 78
49 61 78
55 68 87
46 57 74
54 65 83
49 61 79
50 62 79
52 64 83
50 61 78
49 60 77
45 56 72
49 61 78
55 67 85
49 60 76
50 61 79
52 64 82
47 59 76
50 62 79
47 58 75
49 60 78
48 59 75
52 64 82
49 61 78
53 64 82
48 60 77
52 65 84
50 62 79
52 63 81
52 64 82
51 63 80
47 59 76
49 60 77
55 67 86
49 60 77
49 60 78
54 66 84
54 66 85
47 59 76
54 66 84
52 63 80
48 59 76
52 65 83
44 54 70
51 63 80
53 65 83
50 61 79
49 60 77
52 64 82
50 62 81
51 63 81
47 58 74
50 61 78
49 61 78
48 59 75
52 64 81
43 54 70
48 58 75
55 66 84
44 55 71
48 60 77
49 60 76
42 53 68
48 59 76
47 58 75
51 62 79
49 61 79
44 54 70
50 61 78
46 56 72
46 57 74
50 61 77
50 61 78
49 61 79
61 78 103
61 79 106
61 79 106
63 80 105
66 85 114
68 87 117
63 81 109
63 80 106
65 84 113
65 84 111
65 84 113
65 83 110
67 86 114
66 85 113
62 79 105
66 84 113
67 86 115
70 90 120
65 84 112
67 87 117
67 87 116
69 90 120
69 89 119
68 88 119
69 90 120
71 91 121
71 91 122
71 91 121
71 91 122
68 88 118
67 88 119
69 90 120
69 90 120
69 89 118
67 88 119
73 94 125
70 91 123
72 91 120
69 90 121
72 93 124
68 88 119
68 88 118
71 92 123
70 91 122
72 93 124
69 89 120
72 93 125
70 90 121
73 94 125
70 91 122
71 92 124
70 89 119
72 93 124
70 91 123
73 94 127
71 92 124
71 91 122
69 89 120
72 92 122
71 91 121
74 95 127
73 94 126
72 93 123
73 94 124
69 91 123
71 92 123
74 94 125
71 91 122
73 94 126
72 93 125
74 95 126
72 93 125
73 94 124
74 94 126
72 93 125
72 93 124
74 94 126
73 94 125
72 93 126
72 93 124
70 90 121
72 93 125
73 95 127
73 95 127
70 91 123
72 93 124
72 93 124
73 95 128
73 94 126
73 94 125
73 94 125
73 95 128
74 94 125
73 95 127
73 95 127
75 96 128
72 94 126
74 94 125
72 94 126
73 94 125
73 94 127
74 95 126
73 94 126
73 94 124
75 96 128
75 96 128
71 92 124
72 93 126
72 94 126
73 95 128
73 94 126
73 95 128
73 95 127
73 94 126
72 93 124
73 95 127
75 96 127
72 93 124
73 95 128
74 96 128
73 94 127
75 96 128
74 95 127
73 95 128
73 94 127
74 95 127
74 95 126
74 95 127
74 95 127
74 95 127
72 94 127
74 96 128
74 95 127
74 95 128
72 94 128
75 96 127
75 96 128
74 95 128
72 93 125
73 94 127
74 95 128
76 96 128
75 96 128
74 96 128
74 95 126
73 94 127
74 96 128
75 96 127
74 95 126
72 94 127
74 96 128
73 94 127
74 95 126
74 95 128
74 95 127
73 95 128
74 96 128
74 96 128
73 94 126
74 95 128
73 94 126
74 95 128
73 94 126
73 94 126
74 95 128
73 94 126
73 95 127
73 94 126
75 96 128
73 94 127
73 93 125
74 95 127
74 95 126
74 95 126
74 95 127
74 95 127
74 95 127
73 94 126
74 95 127
74 95 127
74 95 126
74 95 127
73 95 128
72 93 124
73 95 127
73 95 127
73 94 127
73 94 124
72 93 125
74 94 124
73 95 127
75 96 128
74 95 128
71 92 124
72 93 125
73 94 127
71 93 125
74 95 127
75 96 127
72 93 124
72 94 126
73 95 126
72 93 125
72 93 124
74 95 125
74 95 125
73 94 126
72 93 124
74 95 126
72 94 127
73 93 124
72 92 123
72 93 125
73 94 126
73 94 125
71 92 124
72 92 123
71 92 123
71 92 123
73 94 127
69 90 120
73 94 126
74 94 125
73 93 124
74 95 127
71 91 122
73 94 126
73 94 126
73 94 126
71 92 123
73 95 126
73 94 125
72 93 125
74 95 126
72 93 125
72 93 124
73 94 126
70 90 121
70 91 122
71 91 122
73 94 126
71 91 121
72 93 124
71 92 125
71 92 123
72 92 122
71 91 122
70 91 122
69 90 121
72 92 122
70 91 121
68 89 120
71 91 121
67 87 116
70 91 122
72 93 123
70 91 123
73 94 125
69 89 119
69 90 120
71 92 124
69 89 119
72 92 123
73 95 128
71 91 121
71 92 123
69 90 120
70 91 123
69 88 117
67 86 116
68 89 119
68 88 117
74 94 126
69 88 118
70 90 121
68 87 116
71 91 121
67 86 116
67 87 117
64 83 112
67 87 115
68 88 118
67 87 117
68 87 115
70 89 117
66 85 114
64 84 112
68 87 116
66 85 113
64 82 110
66 85 114
66 85 114
64 84 112
64 82 109
67 85 113
62 80 107
66 85 113
61 78 104
60 77 101
61 78 102
63 81 108
62 80 107
58 74 98
62 78 102
61 77 101
49 60 78
44 54 69
49 59 75
45 56 72
47 59 75
51 62 79
44 54 69
47 58 75
57 68 85
46 57 72
46 57 73
53 65 82
45 55 71
48 59 76
47 58 74
47 58 74
47 58 75
48 60 77
48 60 78
46 57 73
48 59 76
48 60 77
50 61 77
53 65 82
50 61 79
49 60 78
47 58 74
49 61 78
48 60 77
54 66 84
54 66 83
52 63 80
46 57 72
51 63 80
49 60 77
50 62 79
53 65 83
49 61 78
48 59 76
47 58 74
48 59 76
57 69 87
50 62 80
54 66 83
54 66 84
49 60 77
49 60 78
52 65 83
51 63 79
47 58 75
47 58 75
49 61 78
48 59 75
55 67 85
53 65 83
57 69 88
48 60 77
50 61 78
49 61 79
46 58 75
48 59 76
49 61 79
53 65 83
51 63 81
55 67 85
44 55 70
50 62 79
47 58 75
46 57 73
45 56 72
46 56 73
54 65 82
49 60 77
53 66 84
50 61 78
47 58 74
50 61 77
50 61 79
47 58 75
46 57 73
52 64 81
53 65 83
46 56 72
48 59 75
51 62 80
50 61 77
45 56 73
46 57 73
48 59 75
47 57 72
53 64 80
49 60 76
46 56 72
49 60 77
60 76 100
65 83 111
60 77 102
66 84 111
62 80 106
61 78 103
61 79 106
60 77 102
63 81 108
63 81 108
65 84 111
63 80 106
64 82 110
64 82 111
65 84 113
65 84 112
65 85 114
67 87 115
65 84 112
67 86 116
67 87 116
64 82 108
65 84 112
68 89 119
64 83 111
66 85 114
69 88 117
66 85 114
66 86 116
66 86 117
73 93 124
68 89 121
65 84 112
69 89 118
70 91 121
68 88 118
72 92 122
68 88 118
70 89 119
70 90 120
72 93 124
69 89 119
70 90 120
69 90 120
68 87 117
69 89 120
69 88 117
68 88 118
71 92 122
71 92 124
72 93 123
73 94 126
72 94 126
71 92 124
73 94 126
70 90 121
71 92 122
72 94 125
69 89 120
73 94 126
72 93 124
70 91 124
73 94 127
72 92 122
72 92 123
72 93 124
71 92 123
71 91 122
73 95 127
72 93 124
73 94 125
71 92 124
72 93 125
74 94 125
73 93 124
72 92 123
73 94 126
73 94 126
73 94 126
71 92 122
72 93 126
73 95 127
72 93 124
70 91 122
73 94 127
72 92 123
72 93 125
72 93 124
73 94 126
73 94 125
70 90 121
72 93 124
72 94 126
74 95 126
74 95 127
74 95 127
74 95 126
75 96 128
73 94 126
73 94 126
72 93 124
73 95 127
74 94 124
76 97 128
74 95 127
74 96 128
73 95 127
72 94 126
74 95 127
74 95 127
73 95 127
73 95 128
74 95 128
72 94 127
71 92 123
74 95 128
74 95 126
73 95 127
73 95 128
74 95 127
73 95 128
74 95 127
74 95 128
73 94 126
75 96 128
72 93 125
73 95 128
74 95 127
74 95 128
75 96 128
75 96 128
73 95 127
71 93 125
72 94 126
73 94 127
73 95 128
73 95 127
72 94 126
73 95 127
72 94 127
74 96 128
72 94 127
75 96 128
75 96 128
74 95 127
75 96 127
73 94 127
74 95 126
74 95 128
73 95 127
74 95 126
74 96 128
72 94 127
75 96 127
73 94 126
74 95 128
75 96 127
73 94 126
74 95 127
74 95 127
73 95 127
73 94 126
73 94 127
73 94 126
74 95 127
75 96 128
74 95 128
73 94 126
73 95 127
74 95 126
75 96 128
73 94 126
73 95 128
73 94 125
74 94 125
73 95 128
73 94 125
73 94 126
74 95 128
73 95 128
73 95 127
73 95 128
73 94 126
73 95 128
72 93 124
75 96 128
72 93 125
72 94 126
73 94 127
73 94 125
74 95 127
73 95 128
74 94 126
73 95 127
74 94 125
73 95 127
73 94 127
73 94 126
76 96 127
73 94 126
72 94 128
72 94 127
73 95 127
74 96 128
74 95 126
73 94 127
73 95 127
74 95 126
74 96 128
73 94 127
72 93 124
73 94 127
73 94 126
74 95 127
73 94 124
73 93 125
74 95 127
72 94 125
72 92 123
74 95 127
72 94 126
71 93 126
72 92 123
74 95 127
72 93 126
73 94 126
71 92 122
72 93 124
73 94 126
72 93 125
73 94 125
73 93 124
72 93 124
72 94 126
71 92 123
70 90 120
71 92 122
72 93 124
72 93 124
72 93 124
71 92 124
72 92 123
72 92 123
72 92 123
69 91 123
71 91 122
72 92 122
70 91 123
68 89 121
72 93 124
71 91 122
70 90 121
72 93 123
70 90 120
71 91 121
70 91 122
70 90 121
70 90 121
71 91 121
72 93 125
70 89 118
69 89 120
69 88 117
69 89 119
66 85 114
68 88 117
72 92 123
71 91 121
68 87 116
72 91 121
68 87 116
65 84 113
70 90 120
69 88 117
66 87 118
71 91 121
68 89 119
69 88 116
69 89 119
69 90 120
68 88 118
66 85 114
69 89 118
65 84 113
69 88 117
67 86 115
67 87 116
69 88 117
62 79 106
66 85 112
66 85 114
61 79 105
66 85 114
65 84 111
63 80 107
64 82 109
65 84 112
62 80 107
65 84 112
64 81 107
61 78 103
62 79 105
63 80 106
60 76 101
60 76 101
64 81 107
60 77 102
50 62 79
46 56 72
47 58 75
48 60 76
47 57 73
46 57 74
48 59 75
46 57 73
50 61 78
46 57 74
50 61 78
47 58 74
51 62 78
47 58 73
45 56 73
50 61 78
49 61 78
48 59 75
49 61 78
55 67 85
50 61 78
49 60 77
52 63 80
51 62 80
48 60 77
50 61 78
52 64 82
51 62 79
46 57 73
47 58 75
53 65 83
52 63 81
47 58 75
58 70 89
50 61 78
51 63 80
51 62 80
48 59 75
54 66 85
47 58 75
49 61 79
52 64 82
46 57 74
45 55 71
46 57 73
53 65 82
44 55 71
50 61 79
53 65 83
50 62 79
49 61 78
50 61 79
47 58 75
56 68 86
50 61 78
46 56 73
48 60 76
50 61 77
48 59 75
50 61 78
49 61 78
51 63 80
53 66 84
55 67 85
51 62 79
53 65 84
51 62 80
48 60 77
52 63 80
51 62 80
50 61 78
50 62 79
54 66 83
54 65 82
46 57 73
48 59 76
51 62 80
50 61 78
51 62 79
50 61 79
48 59 76
45 55 71
47 58 74
48 60 77
48 59 76
48 58 75
48 58 74
45 56 72
41 51 67
44 54 70
48 58 75
49 60 78
61 77 102
60 78 104
61 78 104
59 75 100
57 73 97
56 72 96
62 80 105
66 85 113
65 84 112
62 79 105
63 81 107
62 79 105
66 85 112
66 84 112
66 84 112
64 83 111
66 86 115
68 86 114
65 83 110
67 87 116
64 83 111
67 86 114
67 87 116
68 87 117
67 86 115
67 86 114
68 88 118
71 91 120
66 85 113
70 89 118
71 92 124
68 88 118
67 87 117
69 89 120
69 90 120
68 89 119
70 90 119
68 88 119
72 92 122
70 90 120
71 91 122
65 84 113
71 92 123
71 91 121
73 93 124
70 90 121
70 90 121
69 90 122
67 87 116
70 91 122
69 90 121
71 92 123
71 92 122
70 90 121
70 90 121
68 88 119
71 91 121
70 91 122
72 93 124
71 92 123
72 94 128
71 92 122
74 95 127
69 90 122
69 89 119
69 89 120
70 91 122
71 92 124
74 95 128
72 92 122
72 93 126
71 93 125
72 93 125
73 94 126
72 93 125
72 92 122
70 91 122
72 93 124
71 92 124
72 93 125
72 92 123
71 91 123
71 92 123
72 94 127
72 93 124
71 92 124
74 94 125
72 93 125
72 92 123
72 93 124
72 92 123
73 93 124
73 94 126
72 93 124
74 95 127
73 95 127
74 95 126
74 94 126
72 93 125
72 94 126
74 95 126
73 95 128
72 94 126
71 92 124
72 93 125
73 94 127
72 92 123
74 95 127
75 95 127
70 92 124
73 93 124
73 94 126
72 93 124
71 92 123
74 95 127
73 94 125
74 94 125
72 94 126
74 95 126
75 96 126
74 95 125
73 94 125
73 94 127
74 95 126
73 94 126
73 95 127
73 95 126
75 96 127
73 94 125
73 94 125
74 95 127
74 95 127
72 94 128
73 95 127
71 92 124
76 96 126
73 94 127
73 94 127
74 95 126
73 94 126
74 95 127
73 94 126
73 94 126
73 94 127
73 94 126
74 96 128
73 94 127
74 95 128
73 95 128
73 95 127
74 95 128
75 96 127
74 95 126
74 95 127
73 94 126
74 95 126
74 95 128
74 95 128
75 96 128
75 96 128
73 95 127
74 96 128
75 96 128
73 95 128
73 95 127
73 93 125
74 95 127
74 95 127
73 95 127
74 95 128
72 93 125
74 95 128
73 94 126
73 94 127
72 94 128
72 94 126
73 94 125
73 94 124
74 95 127
75 96 127
74 95 126
74 95 126
74 95 127
73 95 126
73 94 125
71 93 126
75 96 128
73 94 125
73 95 127
73 95 127
74 95 128
74 95 126
74 95 127
73 94 126
73 94 125
72 94 127
74 95 126
75 96 127
72 93 126
72 93 125
74 96 128
74 95 126
72 93 125
74 95 126
73 93 124
72 93 125
70 91 123
72 94 126
74 95 126
73 94 126
70 91 122
73 95 127
76 96 126
74 96 128
74 95 126
71 91 122
73 94 125
74 96 128
74 94 125
71 92 123
71 91 120
71 92 124
72 93 126
72 93 125
73 94 126
72 92 123
72 93 125
71 92 123
72 93 125
72 93 126
72 94 126
72 93 124
71 92 124
72 92 123
72 94 126
72 93 124
70 90 121
72 93 124
72 94 127
73 95 127
73 94 126
73 93 124
72 93 125
69 90 122
72 92 122
71 92 123
72 92 123
70 91 122
69 90 120
73 94 127
71 92 123
70 91 122
72 92 123
72 92 122
70 90 120
71 92 124
72 93 125
68 88 119
69 89 119
71 91 121
70 91 121
68 88 118
71 91 123
69 90 121
71 92 122
69 89 119
70 91 121
70 90 120
68 87 116
68 88 118
71 91 122
71 91 121
68 88 118
69 89 118
70 91 121
65 85 115
70 90 119
66 86 116
70 90 121
66 85 114
68 88 118
69 89 118
69 88 116
64 83 112
70 89 118
67 87 116
64 83 110
65 83 111
67 86 114
66 85 113
63 81 109
68 87 116
62 79 106
65 83 110
64 81 108
62 80 106
64 82 108
63 80 107
63 81 108
62 79 105
62 79 105
61 77 102
58 74 98
57 73 96
61 79 105
59 75 101
55 70 93
61 78 103
57 73 96
43 54 71
48 59 76
50 60 76
47 58 75
44 54 70
48 59 76
50 61 78
49 59 76
45 55 71
47 59 76
45 56 72
43 53 68
53 65 82
48 59 76
47 58 75
50 62 80
51 62 79
48 59 76
49 61 78
48 59 75
47 57 73
52 63 80
52 64 81
52 64 81
51 63 80
54 65 82
50 61 78
50 61 78
46 57 74
52 63 81
51 63 80
47 58 75
50 61 78
45 56 72
45 56 71
47 59 76
48 59 76
49 60 77
52 63 80
50 62 80
48 60 77
50 61 77
50 61 77
54 66 83
45 56 73
52 63 80
47 58 75
49 60 78
53 65 82
48 59 76
47 58 75
55 67 85
42 53 69
48 60 77
51 63 81
47 58 74
48 59 76
48 59 77
53 64 80
44 54 70
46 56 72
48 59 76
48 59 76
46 57 73
50 61 79
46 56 72
50 61 79
50 62 79
44 55 71
49 60 77
49 60 76
50 62 79
48 60 77
43 54 69
45 56 71
55 67 85
47 57 73
49 60 76
51 63 81
45 56 72
47 58 74
48 59 75
47 58 74
46 56 72
54 65 82
47 58 74
47 58 73
50 61 78
43 53 68
51 64 82
56 72 95
55 71 94
59 75 101
62 80 106
54 70 93
63 80 106
62 80 107
60 77 101
64 81 107
64 82 110
62 79 105
63 81 108
66 84 112
59 76 101
62 80 107
63 81 108
61 80 107
65 83 112
65 83 110
66 85 113
65 84 112
64 84 114
64 82 108
67 86 115
67 86 116
69 88 117
67 86 114
70 90 120
71 90 119
69 88 118
68 88 118
68 89 119
68 87 116
67 87 117
69 88 118
70 89 119
70 90 120
68 88 118
67 87 116
71 90 120
68 88 118
70 91 122
68 88 117
70 91 122
70 90 120
72 93 123
70 91 123
68 89 119
70 90 120
71 90 120
71 92 122
71 92 123
71 92 122
72 92 123
69 90 120
71 91 121
68 89 120
69 90 121
73 94 125
70 91 122
72 92 123
69 88 118
71 91 121
72 93 124
71 92 124
72 93 125
73 94 125
71 92 125
71 92 123
69 89 120
74 95 127
73 93 124
72 93 125
72 93 124
73 93 125
71 91 121
73 93 123
73 94 126
73 95 127
74 95 126
72 93 125
71 92 123
72 93 124
72 92 124
72 94 126
74 96 128
72 93 124
73 95 128
74 95 127
72 93 125
71 92 124
73 94 126
73 93 125
73 93 124
72 93 124
74 94 125
74 95 127
72 93 125
73 94 126
73 94 127
73 95 127
73 93 124
72 93 125
72 93 125
71 92 124
73 94 126
73 94 126
72 94 127
74 95 128
73 94 127
72 93 125
74 95 126
73 94 127
73 94 126
75 96 128
74 95 125
74 95 126
71 92 124
76 97 128
72 92 124
73 93 125
72 94 126
73 95 128
75 96 128
73 95 127
74 95 128
73 94 125
73 94 126
74 95 127
73 94 125
73 94 126
73 95 127
70 91 123
73 94 125
71 92 123
73 95 127
74 95 126
74 95 125
73 94 125
73 94 126
74 95 128
73 95 127
74 95 127
74 95 126
73 95 127
73 95 128
74 95 127
74 95 128
75 96 128
73 94 127
73 95 128
73 94 127
73 95 127
73 94 125
73 94 125
73 95 128
73 94 126
74 95 128
74 95 128
73 95 128
73 94 126
75 96 127
75 95 126
74 95 128
75 96 128
75 96 128
72 94 127
74 95 126
72 94 126
72 94 128
73 94 126
73 94 127
73 95 127
75 96 128
73 95 128
73 94 126
74 94 125
73 95 128
72 92 123
75 96 127
73 94 126
72 93 125
72 93 125
72 93 124
75 96 128
75 96 128
72 93 125
73 95 127
75 96 128
73 94 125
73 94 127
73 94 125
74 95 126
73 94 126
72 93 125
74 95 127
72 93 124
72 92 121
73 95 128
75 96 127
72 93 124
74 95 127
72 93 124
71 92 124
74 95 128
73 94 126
72 92 123
73 95 128
73 95 126
72 93 125
74 95 128
73 93 124
71 91 122
73 93 125
72 94 125
73 94 125
72 93 124
71 92 124
71 92 123
71 91 122
70 90 121
72 94 126
74 95 128
74 95 126
72 93 125
73 94 125
70 91 122
72 93 125
74 94 125
71 92 123
73 93 124
73 93 125
72 93 125
72 92 123
73 93 124
72 94 127
73 94 125
72 93 124
71 92 123
71 92 123
68 88 120
72 93 123
71 91 122
71 92 123
70 90 120
69 90 121
70 90 121
72 93 123
70 90 121
73 94 124
69 89 119
70 90 121
71 92 123
71 91 121
72 91 121
71 92 123
71 91 120
71 91 122
72 93 125
71 92 122
68 88 118
70 91 122
72 93 124
68 88 118
69 90 120
67 86 116
68 88 118
71 91 122
66 86 115
70 90 120
72 93 124
69 88 118
72 92 123
68 88 118
66 86 115
67 87 118
63 81 108
64 82 110
66 84 112
65 84 112
66 86 115
66 85 114
70 89 117
64 82 110
59 76 102
72 92 123
71 91 122
65 83 111
65 83 111
62 81 109
62 80 105
63 81 108
64 83 111
66 84 112
66 84 111
62 78 102
66 84 112
61 78 103
62 80 107
61 78 103
60 78 104
63 80 106
62 79 105
63 81 107
61 78 103
52 67 90
57 74 98
58 73 96
62 79 104
59 75 99
54 69 91
48 60 78
46 57 72
46 56 72
44 54 70
41 51 66
43 54 70
46 57 73
47 58 74
45 56 72
47 58 75
46 56 72
53 64 82
47 58 74
49 60 77
45 55 71
48 59 75
49 59 76
43 54 70
46 57 73
44 55 70
47 59 76
47 58 75
45 56 73
47 58 75
48 59 75
44 54 69
49 61 78
47 58 74
45 56 72
46 57 73
49 60 77
47 57 73
49 61 78
47 57 73
47 58 75
48 59 75
50 62 79
50 62 79
44 54 69
46 56 72
48 59 76
46 57 74
48 59 76
51 62 79
51 63 80
51 63 81
51 62 80
51 64 82
47 58 75
48 59 75
48 60 76
49 60 77
48 59 76
51 62 79
51 62 79
53 64 81
51 62 79
48 59 75
50 62 80
46 57 73
46 56 72
47 59 76
52 63 80
48 59 76
46 57 73
46 57 73
51 62 79
49 60 77
50 60 75
49 60 77
49 61 78
47 57 73
46 56 72
52 63 80
49 61 78
51 62 79
50 61 78
48 59 76
44 54 69
47 59 76
46 56 72
50 62 79
46 56 73
46 57 73
45 56 72
47 58 74
46 57 73
47 59 78
50 64 84
55 70 94
60 77 102
58 74 98
58 74 98
61 78 104
60 76 100
60 77 104
57 74 100
57 74 100
64 82 109
63 80 105
57 73 98
59 75 100
61 79 104
60 78 105
64 82 109
59 76 100
62 79 105
62 80 107
61 79 105
66 84 112
62 80 106
67 87 116
66 85 113
61 80 107
65 84 113
63 82 111
62 81 108
64 82 109
67 87 116
65 84 113
68 86 114
66 86 114
70 91 122
68 87 115
68 88 118
65 84 113
64 83 112
68 88 119
69 89 118
68 87 116
69 89 119
70 90 122
71 92 122
69 89 120
68 88 118
69 90 120
69 89 120
70 91 122
70 90 120
72 93 123
70 91 122
67 87 116
72 92 122
72 93 123
72 94 126
68 89 120
71 92 124
72 93 124
70 90 120
73 93 124
70 90 121
71 91 122
71 91 121
71 92 123
71 92 124
74 95 126
70 90 121
72 92 123
72 93 125
69 90 122
71 91 122
71 92 124
72 93 124
71 92 123
72 93 125
71 92 123
72 93 124
73 94 125
74 95 127
72 92 123
74 95 126
75 95 127
73 94 126
71 93 125
72 93 125
72 93 124
71 92 123
74 95 127
72 92 123
74 95 126
72 93 124
72 93 125
72 93 125
74 95 126
70 91 123
73 94 127
71 92 124
73 95 127
74 95 128
73 94 127
72 93 125
73 94 126
71 92 123
73 94 126
72 93 124
72 92 123
73 94 127
73 94 126
73 94 126
73 95 127
73 95 128
75 96 128
70 91 123
72 94 126
73 94 127
74 95 128
74 95 127
73 94 126
74 95 126
73 95 127
73 94 126
74 95 128
73 93 125
73 94 127
73 94 126
73 95 128
73 95 127
73 93 124
73 95 127
73 94 126
73 95 127
74 95 127
74 96 128
73 95 128
74 95 128
74 95 128
74 95 128
72 93 124
74 95 127
73 94 127
74 95 126
73 95 127
74 95 128
75 96 128
74 95 126
74 95 128
73 94 127
74 95 128
72 94 128
73 94 126
74 95 127
72 93 125
74 95 128
74 95 127
74 94 125
74 95 128
73 95 127
76 96 127
73 94 125
73 94 126
74 95 127
73 94 126
74 94 125
74 95 127
73 94 126
74 95 126
74 95 127
73 94 126
75 96 128
73 94 127
74 95 127
73 95 127
73 95 126
72 94 127
73 94 126
74 95 127
72 94 126
74 95 126
73 95 127
74 95 127
71 91 121
73 94 125
73 95 128
75 96 128
72 93 124
73 94 125
75 96 128
72 93 125
74 96 128
74 95 126
70 92 124
73 94 126
73 94 126
73 95 127
71 92 124
74 95 127
73 94 126
73 94 126
73 94 126
72 94 125
72 93 125
74 95 125
72 93 125
74 94 126
72 93 125
73 94 125
73 95 127
73 94 126
72 93 124
71 93 126
73 93 124
72 93 124
73 94 125
74 95 126
72 93 124
72 94 126
75 96 127
72 92 124
72 93 125
73 94 125
73 94 124
73 95 127
70 90 121
70 90 120
72 93 124
74 95 126
71 92 124
74 95 126
73 93 124
73 94 126
70 91 123
70 91 123
72 94 126
70 91 121
69 91 123
72 92 122
69 89 119
70 91 123
71 91 120
71 92 123
72 93 125
72 92 123
70 90 120
71 92 123
71 92 124
70 90 120
68 88 117
72 93 124
71 92 123
67 86 115
67 88 119
69 89 120
72 92 123
70 91 122
69 89 119
67 87 118
64 84 113
73 94 124
67 87 118
70 90 121
67 87 116
69 89 119
72 92 123
71 91 121
68 87 117
67 86 116
66 86 114
67 87 116
68 87 116
69 88 116
71 91 121
70 90 121
68 88 119
69 88 115
68 87 117
69 88 117
68 87 117
65 84 113
69 89 119
65 84 112
68 86 115
68 88 117
67 88 118
61 79 105
65 84 113
62 81 108
66 85 112
64 82 109
63 80 107
62 80 106
62 81 108
62 80 107
60 79 107
66 85 114
63 81 108
61 78 103
64 82 108
60 77 102
56 72 95
60 76 100
58 74 97
57 72 95
57 74 98
58 74 98
58 74 98
60 76 100
59 75 99
55 70 92
52 66 86
57 71 93
54 69 92
45 56 72
42 51 66
48 59 75
46 57 74
43 53 69
46 57 73
49 60 77
40 50 64
51 62 79
51 62 79
46 57 73
45 55 71
51 62 79
53 64 80
46 56 73
47 58 75
49 60 77
46 57 73
52 63 80
55 68 86
48 58 74
43 53 68
47 58 75
44 54 69
47 57 73
50 61 79
49 61 78
49 60 77
47 58 75
48 59 74
47 59 75
49 61 77
50 61 79
46 57 73
48 58 75
50 61 79
47 58 74
48 59 76
49 60 76
48 58 74
53 65 83
50 61 78
48 60 77
49 60 77
50 62 79
44 55 72
52 63 80
48 59 77
49 60 76
42 52 67
45 56 72
49 61 77
49 60 77
47 59 76
55 67 85
49 60 77
46 57 72
45 56 73
50 61 78
49 61 78
46 57 73
50 61 78
45 56 71
47 58 74
51 62 79
52 63 80
44 55 71
49 60 77
45 55 70
47 58 75
41 51 67
51 63 80
42 53 69
47 58 74
46 57 73
46 57 74
45 55 71
47 58 75
44 55 70
43 54 70
48 59 76
43 54 70
45 56 71
42 52 67
43 52 67
40 51 66
51 65 86
57 72 95
53 68 90
60 78 104
60 77 102
58 74 99
60 76 99
60 77 101
59 76 102
55 71 95
56 72 96
61 78 105
60 78 104
60 77 103
66 84 111
61 78 105
59 76 102
60 77 103
63 80 107
63 81 109
64 83 111
66 84 111
63 81 109
62 80 108
63 81 109
64 81 107
66 84 112
60 77 103
65 84 113
65 84 113
68 87 115
64 82 109
68 88 118
67 87 118
64 83 111
69 89 119
65 85 114
67 86 114
68 88 118
66 85 114
67 86 116
70 90 120
64 82 110
69 90 121
67 87 116
69 89 118
64 83 111
68 89 120
70 90 119
69 89 120
70 90 120
71 91 121
69 89 120
72 92 124
72 93 124
69 90 120
72 93 125
70 91 122
72 92 123
71 91 121
71 92 122
70 91 122
67 87 117
71 92 123
70 92 123
69 89 118
69 90 121
71 92 123
71 91 122
71 92 124
70 90 120
75 96 127
71 92 123
71 91 121
72 93 124
72 93 125
72 93 125
71 92 123
72 93 124
70 91 123
72 93 124
73 94 125
73 93 124
71 92 123
70 91 123
73 94 127
72 93 123
71 91 123
72 93 125
74 95 127
71 91 121
70 91 122
72 93 124
72 94 126
72 93 124
72 94 126
73 94 127
72 93 124
71 92 123
73 94 126
73 94 125
72 93 124
71 92 123
72 93 124
75 95 127
72 93 124
73 94 126
73 94 126
74 95 126
73 94 126
74 95 127
72 94 126
73 94 126
72 93 125
74 95 127
74 95 128
73 95 127
75 96 128
73 94 126
72 93 125
72 93 125
73 94 126
75 96 128
74 95 126
73 94 126
75 96 128
73 94 126
74 95 127
73 95 128
73 93 123
74 95 127
74 95 126
76 97 128
75 96 128
75 95 127
74 96 128
74 96 128
72 94 127
73 94 126
72 94 127
74 95 127
73 94 126
72 94 125
72 94 126
74 95 126
74 95 128
72 94 126
73 94 125
74 95 127
73 94 127
73 95 128
73 94 127
74 95 127
74 95 128
74 95 127
73 95 128
73 94 126
74 95 127
74 95 127
72 93 126
74 95 128
73 95 128
74 96 128
75 96 127
75 96 128
72 93 125
72 94 128
74 95 126
73 95 127
73 94 127
73 94 126
73 94 126
73 94 126
74 95 128
72 94 127
74 95 126
75 96 128
74 95 126
71 92 124
72 93 125
73 93 124
73 94 126
73 94 126
73 94 126
72 93 125
74 95 128
74 95 127
72 94 127
75 96 127
73 94 125
71 92 123
73 94 126
71 91 122
74 95 127
73 93 125
73 93 124
73 94 126
73 95 128
72 93 125
73 94 125
72 93 124
71 92 124
75 95 126
73 94 126
73 94 125
71 92 125
74 95 126
74 95 127
72 94 126
72 94 126
72 94 127
72 93 125
73 94 125
73 93 123
75 95 126
71 92 124
74 95 126
72 93 125
74 95 126
72 93 125
72 94 126
73 94 125
72 93 126
73 94 126
73 94 126
72 93 124
74 95 126
72 93 125
71 92 123
73 93 124
72 94 126
69 90 120
72 93 124
73 94 125
70 92 123
72 93 125
70 91 122
70 91 121
72 93 125
70 91 122
73 94 124
73 94 124
70 90 120
71 92 124
73 93 123
69 89 120
73 94 125
72 93 124
69 91 123
71 91 123
69 89 120
72 92 122
70 90 120
69 89 119
70 90 120
72 93 124
68 88 119
71 91 122
71 92 122
72 93 124
72 93 125
68 89 120
72 93 125
71 90 120
69 89 119
66 86 116
65 83 111
67 87 116
70 91 122
67 87 116
68 88 118
68 88 119
69 89 119
68 88 117
69 88 118
65 84 114
69 88 117
67 85 113
69 89 119
66 85 114
66 85 112
68 88 118
67 86 114
68 87 115
62 80 107
68 87 116
65 85 113
65 83 110
64 82 109
64 83 110
66 85 114
63 80 106
65 83 110
64 81 108
59 76 101
65 84 111
58 74 98
61 78 104
60 77 103
60 76 101
60 77 103
65 82 108
59 75 100
58 74 99
56 71 94
56 73 97
59 75 99
55 70 92
56 72 95
53 68 92
55 70 92
56 72 95
56 71 94
51 65 86
51 65 86
41 51 66
42 52 66
48 59 75
46 57 74
42 52 67
49 59 76
48 58 74
44 54 69
49 60 77
48 59 76
45 55 70
50 60 76
47 58 74
50 61 78
52 64 81
43 52 67
48 59 75
44 54 69
48 60 76
46 57 74
49 60 76
47 58 74
44 55 71
50 62 80
49 60 76
44 55 71
51 62 79
49 60 76
48 60 77
51 63 80
43 53 68
46 56 73
48 59 75
47 59 75
46 57 74
48 58 75
52 64 81
52 63 81
40 50 65
49 60 77
49 61 78
47 57 73
47 57 73
52 63 80
46 57 73
51 63 81
48 59 75
45 56 71
49 61 78
48 60 78
49 60 78
49 60 77
52 64 82
46 57 74
49 60 77
44 53 68
43 54 70
45 56 72
46 56 72
58 70 89
47 58 75
50 61 78
47 58 75
50 61 78
45 56 73
48 59 76
53 65 82
45 56 72
47 58 74
41 51 66
50 61 79
49 61 78
46 57 73
45 56 73
43 53 68
39 48 62
49 60 76
48 59 75
43 53 69
47 58 74
47 58 73
47 58 73
43 53 69
48 60 77
47 59 78
51 64 85
57 73 97
54 69 92
54 68 89
59 74 98
54 68 90
57 73 97
59 76 101
57 72 96
56 71 94
57 72 94
60 77 103
56 71 95
63 80 107
57 73 97
60 77 102
57 73 98
61 77 103
59 77 102
61 78 103
63 81 107
65 84 112
62 80 105
66 84 111
65 84 112
64 82 110
63 81 108
66 85 114
62 80 107
64 82 109
68 88 117
65 85 114
66 85 113
65 84 113
66 86 115
65 84 113
69 89 119
66 85 114
66 86 115
68 87 117
69 90 120
70 89 117
67 87 117
68 87 117
69 89 118
70 91 122
68 88 118
71 91 120
70 90 121
70 90 120
65 83 111
70 90 119
71 91 121
71 91 122
72 92 122
68 89 120
68 88 119
68 88 118
69 88 117
69 90 121
71 91 122
70 90 120
73 93 124
68 88 118
70 90 121
72 92 122
71 91 121
71 91 122
70 89 118
71 91 122
71 92 123
70 91 123
73 95 127
73 94 125
72 93 125
74 95 126
68 89 119
71 92 123
72 93 125
73 94 126
71 93 125
73 94 125
72 93 124
71 91 122
71 91 121
70 91 122
72 93 123
72 94 126
73 93 124
73 94 125
74 95 126
71 92 123
72 94 126
72 93 124
75 96 128
72 93 124
73 93 124
73 94 125
73 93 125
71 92 124
73 94 125
72 93 124
73 94 126
73 94 126
72 93 126
71 92 123
72 93 125
74 95 126
73 94 125
71 92 123
72 92 124
74 96 128
74 95 127
73 94 126
73 94 125
73 94 126
72 93 124
71 92 122
73 95 126
73 95 127
74 95 126
73 94 125
73 94 126
74 95 126
73 94 126
73 94 126
73 95 127
75 96 127
71 92 123
74 94 125
76 96 128
75 96 128
73 95 127
74 94 126
73 94 127
73 94 126
73 94 126
72 94 126
72 93 126
73 94 126
73 94 124
73 94 126
73 94 126
72 93 125
73 93 124
73 94 127
73 94 126
74 95 128
73 94 127
73 95 127
73 94 126
76 96 127
72 93 125
75 96 127
75 95 126
73 95 127
74 95 128
73 94 127
73 94 127
73 95 127
74 95 127
74 96 128
74 95 126
72 94 126
73 93 125
74 94 124
73 94 125
73 95 127
74 95 127
75 96 127
74 95 127
73 94 127
72 93 124
72 93 124
74 95 126
73 94 126
73 95 127
75 96 127
73 94 126
72 94 126
75 96 126
73 95 127
74 95 128
73 94 126
71 92 123
73 94 125
72 93 124
73 94 127
72 93 124
72 94 128
72 94 126
73 94 127
74 95 128
73 95 127
72 94 126
73 94 125
73 94 127
73 95 128
71 93 124
72 93 125
72 92 123
72 93 124
73 94 126
72 93 124
73 95 128
73 93 123
72 93 125
72 94 125
72 93 125
71 92 124
70 91 122
72 93 125
72 92 124
74 95 126
71 91 122
76 96 128
71 91 122
73 94 125
69 90 121
73 94 126
75 95 126
71 92 123
73 94 126
72 93 123
72 93 125
72 92 123
71 91 122
73 94 126
73 94 125
72 93 124
70 91 121
72 93 124
71 91 121
72 93 123
69 89 120
70 91 121
68 88 119
73 94 125
72 92 122
71 91 122
72 92 123
71 92 123
71 92 123
68 89 120
70 90 121
70 91 122
71 93 124
69 90 121
68 88 118
69 90 120
71 91 121
70 90 120
73 94 126
72 92 121
70 91 122
67 87 116
70 90 120
69 89 118
70 90 120
68 88 118
64 83 112
69 89 118
69 90 121
72 93 124
66 86 116
73 93 124
68 87 117
68 87 116
67 86 115
70 91 121
69 90 121
68 87 115
68 87 117
66 85 113
67 86 114
67 88 119
66 85 113
67 86 114
68 87 117
66 85 113
65 84 113
68 87 116
66 84 112
67 86 113
62 80 108
68 87 115
64 82 110
65 83 112
64 83 112
60 79 107
65 83 110
62 79 104
62 81 108
61 78 104
65 83 112
66 84 111
60 78 105
59 76 101
61 79 106
61 78 104
63 80 107
65 82 108
56 71 94
56 72 95
56 71 95
62 78 103
62 79 104
50 63 84
57 73 96
54 70 93
54 68 90
57 72 95
53 67 88
53 67 88
52 67 88
53 68 89
50 63 83
41 50 65
43 53 68
46 56 72
40 49 64
48 59 75
48 58 74
44 55 70
43 54 70
44 54 70
46 56 72
48 58 74
49 60 77
48 59 74
47 57 72
52 63 80
50 61 78
45 55 70
51 62 80
47 57 73
46 57 73
47 58 74
45 55 71
45 55 71
46 57 72
44 55 71
46 57 74
46 57 73
45 56 72
46 56 71
46 57 73
44 55 71
44 54 70
46 57 72
43 54 69
49 59 75
49 59 75
47 58 73
46 57 73
49 60 78
50 61 78
46 57 73
52 64 82
47 58 74
46 57 73
44 55 70
47 58 75
48 59 75
49 60 76
42 53 69
41 51 66
49 60 77
46 57 72
51 62 79
47 57 74
47 58 74
48 60 76
51 62 79
47 58 74
49 60 76
42 53 68
43 54 69
43 53 68
46 57 73
44 55 70
47 58 75
47 58 75
46 56 71
51 62 78
44 55 72
46 57 73
46 57 73
43 53 68
49 60 76
45 56 72
46 56 71
47 57 73
40 49 63
42 52 67
39 48 63
36 45 58
54 66 86
52 66 87
54 68 91
52 65 86
52 66 87
51 65 85
50 63 84
55 69 90
56 72 95
59 75 99
59 74 97
55 71 94
61 78 102
56 72 96
55 71 95
55 70 93
58 75 100
61 78 103
65 83 110
59 75 99
59 76 101
66 85 112
61 78 105
61 78 103
65 83 110
63 81 108
63 80 106
62 79 105
60 78 104
66 85 113
65 84 112
63 81 108
60 76 102
68 88 117
66 85 114
65 84 112
68 87 116
68 87 116
68 87 116
65 84 112
70 90 120
64 82 110
68 87 116
65 83 110
66 85 113
64 83 110
68 89 119
68 88 119
64 83 111
69 89 120
70 89 118
66 85 114
66 85 114
67 86 114
72 92 123
71 91 122
70 90 120
70 90 120
69 89 119
69 88 117
70 90 120
69 90 121
69 89 119
69 89 118
70 92 124
69 88 118
67 87 117
70 91 121
72 92 123
70 90 121
69 89 119
73 94 125
74 94 125
72 92 123
71 90 120
68 89 119
71 91 121
70 90 120
72 93 124
70 91 122
70 91 121
73 94 127
71 92 123
73 94 126
71 92 122
72 94 125
71 92 124
73 93 124
71 91 120
72 92 124
72 92 124
71 92 123
72 94 126
73 94 125
73 94 126
73 94 125
70 91 122
70 91 123
72 93 125
71 92 123
72 92 123
72 93 124
73 94 126
72 93 124
72 94 126
74 95 128
72 93 125
73 94 126
71 92 123
72 93 124
73 94 124
74 94 126
73 94 126
73 94 125
73 94 126
71 92 124
72 93 124
72 93 125
72 93 125
74 95 127
73 94 126
73 94 125
70 91 122
74 95 127
74 95 127
73 93 125
73 94 126
74 94 125
73 94 127
73 95 128
74 95 126
73 95 127
74 95 127
74 95 126
72 93 125
72 94 126
72 94 126
74 95 128
75 96 128
74 95 126
73 95 128
73 94 126
73 94 126
72 93 126
74 95 127
73 95 127
74 95 127
72 93 124
74 95 126
72 93 126
72 93 125
73 94 125
72 93 125
74 95 126
74 95 127
73 95 127
75 96 128
74 95 127
73 94 126
73 94 126
73 94 126
73 94 125
75 96 128
74 95 126
74 95 127
75 95 127
73 95 128
75 96 128
74 95 128
71 93 126
73 94 126
74 95 127
73 95 128
74 95 128
73 94 126
74 95 127
75 95 127
73 95 127
73 94 126
72 94 127
73 94 126
74 95 128
74 95 127
73 94 126
75 96 128
72 93 124
72 93 125
74 95 128
72 93 124
72 93 125
74 95 126
73 95 127
74 95 126
74 95 126
73 94 126
72 94 126
73 94 126
72 93 126
75 96 128
73 95 127
71 93 125
73 94 126
74 95 126
72 93 125
73 93 125
70 91 122
72 93 125
74 95 127
71 92 124
74 95 127
74 95 127
72 93 124
71 92 124
69 90 120
71 92 123
73 94 126
72 94 126
73 94 126
71 93 125
71 92 123
70 91 122
72 93 124
74 95 127
72 93 124
72 94 125
73 94 125
73 93 124
70 91 123
72 92 123
71 92 124
71 91 121
72 93 124
69 90 122
73 94 126
73 93 125
73 94 125
73 94 125
71 92 123
73 93 124
69 89 119
70 91 122
71 91 121
73 93 125
71 92 125
69 88 118
72 93 124
69 90 122
70 91 122
69 90 121
71 92 123
70 90 120
68 88 119
69 90 121
72 93 124
71 90 120
73 93 123
69 90 121
70 90 121
70 91 123
70 90 120
70 91 123
70 90 121
70 90 120
66 86 115
71 91 121
69 89 120
70 91 122
68 87 116
68 87 116
68 88 118
67 87 117
66 84 113
68 88 119
68 87 116
68 88 117
68 88 118
65 85 113
65 84 112
67 87 116
64 83 111
65 84 111
65 84 113
66 84 112
68 88 117
63 81 108
64 82 109
64 82 108
68 87 115
66 85 113
62 81 109
64 82 109
67 86 114
63 81 108
63 81 107
61 78 103
66 84 112
60 76 101
59 76 100
60 77 102
62 79 104
59 76 101
60 76 99
60 77 102
58 74 99
56 71 94
62 79 104
58 75 101
54 68 88
59 75 99
55 69 92
52 66 88
54 69 91
54 68 90
59 75 98
50 64 84
50 63 82
45 57 75
45 58 77
47 60 78
48 61 80
45 57 74
39 49 62
41 51 65
43 53 67
45 55 70
46 57 73
44 54 69
46 56 72
43 53 68
46 57 73
45 56 72
44 54 69
48 59 74
46 56 72
49 60 77
43 53 69
45 56 72
50 62 79
43 53 69
48 59 75
47 58 74
44 55 71
49 60 76
44 54 70
47 59 76
50 61 78
50 61 77
48 59 75
48 58 74
47 58 74
45 56 71
46 57 73
46 56 72
44 55 71
49 60 78
41 52 67
46 57 73
46 57 73
50 61 78
47 58 73
44 55 71
48 59 75
47 58 74
50 61 78
49 60 76
43 54 70
48 60 77
50 61 77
52 63 81
49 60 77
45 56 72
43 54 70
49 60 76
48 59 76
45 56 72
52 63 80
47 57 73
52 63 79
43 53 68
46 56 73
47 58 75
42 53 68
50 62 79
41 51 65
50 61 77
43 53 68
44 54 70
44 54 69
47 58 74
45 55 69
42 52 67
47 57 73
45 55 70
43 53 69
46 57 73
46 57 72
45 55 70
39 48 62
48 60 78
49 62 82
52 65 85
46 58 75
50 63 83
49 62 81
51 65 85
49 62 82
54 67 88
52 66 88
53 68 90
52 66 88
55 70 92
56 71 93
55 70 92
56 72 96
59 75 99
60 77 101
59 75 100
59 76 100
64 82 109
64 82 109
60 76 101
60 76 100
60 77 103
63 81 108
66 84 111
61 78 104
61 78 103
68 87 115
59 76 102
63 82 110
64 83 111
65 84 112
64 83 112
68 88 117
66 85 114
67 86 115
63 81 108
67 85 113
65 84 113
70 90 118
63 81 109
65 83 110
67 87 115
69 88 117
70 91 122
69 88 116
67 86 116
64 83 112
70 91 121
66 85 114
70 90 120
68 87 117
65 85 113
70 90 121
68 86 114
69 89 119
70 90 121
70 90 120
71 91 122
70 90 121
71 91 121
70 90 120
68 88 117
67 87 117
70 91 121
69 88 117
72 92 123
70 90 121
69 90 120
69 89 119
70 91 121
72 93 125
72 92 122
71 91 123
71 92 122
72 91 121
72 92 122
70 91 122
71 91 120
71 91 121
72 92 122
71 91 121
72 93 125
73 93 124
73 94 125
73 94 126
72 93 125
73 94 126
71 92 123
71 91 122
71 92 125
71 92 123
70 91 122
73 94 126
73 94 126
72 93 125
71 92 124
72 93 125
72 92 123
73 94 126
71 92 124
73 94 126
72 93 125
71 92 124
73 95 128
72 93 123
71 92 122
72 93 124
74 95 128
72 93 125
73 94 126
73 94 124
73 94 125
74 95 126
74 95 126
71 91 122
72 93 125
72 93 124
73 94 125
73 94 126
71 91 122
74 95 127
75 96 127
73 94 125
71 91 122
74 95 128
71 93 125
72 93 125
72 94 126
72 93 124
72 93 125
74 95 127
74 95 126
74 94 126
74 95 127
73 94 125
73 94 125
73 94 126
73 94 126
74 95 126
73 94 125
73 94 125
73 95 127
75 95 127
72 93 126
73 94 126
72 94 126
75 95 127
75 96 127
73 94 125
73 94 126
74 95 127
74 95 128
74 95 128
74 95 127
73 94 127
73 94 126
73 95 127
74 95 126
74 95 126
73 95 128
72 94 126
74 95 127
73 95 127
73 94 126
72 94 126
73 95 127
73 95 127
74 95 128
72 94 126
72 94 127
74 95 126
74 96 128
74 95 126
74 95 127
73 94 126
72 93 125
73 94 126
75 96 128
73 95 128
74 95 127
74 94 125
73 94 126
74 95 127
75 95 127
74 95 126
73 94 125
73 94 127
74 95 127
72 93 125
73 94 125
73 94 127
73 94 127
73 94 126
72 92 123
74 95 127
73 95 127
72 93 124
73 93 124
72 93 125
73 94 126
70 92 124
71 92 123
73 94 125
73 94 127
73 94 126
73 94 126
73 94 125
73 94 126
73 94 126
71 92 123
73 94 125
74 95 126
73 93 123
71 92 123
71 92 123
74 94 126
72 92 124
72 93 124
72 94 127
74 95 126
71 92 123
73 94 126
70 90 120
70 90 121
72 93 123
72 92 123
72 93 125
71 91 121
73 94 127
72 93 124
69 89 119
73 94 126
72 93 125
73 94 125
71 92 124
73 94 125
73 93 124
73 94 125
71 92 124
71 92 122
68 88 117
69 89 119
70 91 121
69 88 117
70 91 122
72 93 125
70 91 122
70 90 120
71 92 124
70 91 121
70 90 120
70 90 121
68 87 117
71 91 120
71 92 123
68 88 118
71 91 121
68 87 117
72 93 125
69 89 118
69 89 121
70 90 122
68 88 120
67 87 116
67 86 115
68 88 118
71 90 120
68 88 116
67 87 116
68 88 116
67 87 119
65 85 115
67 85 113
69 89 119
70 90 120
69 89 120
66 85 114
65 84 111
65 84 111
69 87 115
67 86 114
63 81 109
63 81 107
64 82 110
66 85 113
65 83 111
65 84 112
63 81 108
61 79 105
63 80 106
62 80 106
63 80 106
64 82 109
64 82 110
59 76 101
65 83 110
64 81 106
60 77 102
59 76 101
61 77 102
61 78 103
55 71 96
58 74 97
48 61 81
55 70 94
59 74 97
64 81 106
58 74 98
57 73 96
54 68 89
50 64 86
55 70 93
45 57 75
55 70 92
52 66 86
47 59 78
43 54 72
50 63 82
44 55 72
52 66 87
46 57 74
39 49 63
37 47 60
42 51 66
42 52 68
36 45 59
45 55 71
44 54 69
42 51 65
42 52 67
47 58 73
45 56 72
47 58 74
42 51 66
41 50 65
44 54 70
45 55 71
44 54 69
45 55 70
42 53 68
45 55 71
43 54 69
43 53 68
47 57 73
46 57 73
44 54 69
43 53 69
40 50 65
46 56 72
45 56 72
48 59 76
47 57 73
50 61 78
44 55 71
43 54 70
42 52 67
44 54 69
46 57 73
51 62 79
46 57 73
47 58 74
43 54 70
46 57 72
41 50 64
47 58 74
50 60 77
45 56 72
48 59 75
43 53 69
43 53 68
46 56 72
48 59 75
43 53 67
44 54 69
45 55 71
46 56 71
46 57 73
43 54 69
49 60 77
44 54 70
41 51 65
46 57 73
45 55 70
45 56 71
45 55 71
44 55 70
47 57 73
47 58 74
43 53 69
44 54 70
48 59 75
43 52 67
41 51 66
43 53 69
40 50 64
43 53 69
41 51 67
52 65 85
50 63 81
46 58 77
46 58 76
49 62 82
52 66 87
48 61 80
54 68 89
54 68 89
50 64 85
55 69 91
58 74 98
53 67 89
57 72 95
57 72 94
52 66 87
52 67 89
53 67 88
58 75 100
60 76 101
59 76 100
61 77 102
58 74 98
60 77 102
60 77 102
56 71 95
64 82 109
62 80 107
64 82 109
64 82 109
66 85 113
64 82 111
63 82 109
66 84 112
64 82 110
65 84 113
67 86 115
68 87 115
66 86 114
63 82 110
66 85 113
65 83 111
64 83 113
68 87 116
70 90 120
67 87 117
65 82 109
67 87 118
69 89 119
69 88 118
67 86 116
67 87 116
65 85 114
69 89 119
69 90 121
70 90 120
68 87 116
69 88 117
72 92 123
67 87 116
68 88 117
71 91 121
70 90 121
71 91 122
71 91 122
70 90 121
68 88 117
69 89 119
71 92 123
72 92 123
70 91 122
67 87 118
71 92 122
70 91 122
67 87 117
72 93 125
71 91 122
70 90 120
69 89 119
70 91 122
70 91 121
71 92 123
70 90 119
72 93 123
71 91 122
71 92 123
71 92 122
71 92 123
72 93 124
70 91 122
70 90 121
72 93 123
72 92 123
72 93 124
73 93 124
75 96 127
70 91 122
72 93 124
70 91 122
73 93 125
72 94 126
72 93 124
71 92 124
71 92 123
71 92 122
72 93 125
71 93 126
73 94 125
73 94 125
72 92 123
74 94 126
73 94 125
72 94 127
71 93 125
73 94 126
72 93 125
74 95 128
73 94 126
72 93 125
72 93 125
74 95 128
73 94 125
72 94 126
74 95 127
73 94 126
74 95 128
74 95 127
73 94 126
72 93 125
73 94 126
71 92 124
73 93 124
73 94 125
72 93 126
73 94 126
73 94 125
73 94 126
73 94 127
73 94 126
74 95 126
73 95 128
75 95 126
74 95 128
73 94 125
74 95 127
73 95 127
73 95 127
74 95 126
73 95 127
73 94 126
74 95 127
72 92 123
74 95 127
74 95 128
73 94 125
75 96 127
75 95 126
74 95 127
73 94 125
74 95 127
73 94 126
74 95 126
74 95 128
73 94 126
75 96 128
75 96 128
73 94 126
74 95 127
73 94 124
73 95 126
74 95 128
73 94 126
74 95 126
72 92 123
73 95 128
74 95 128
74 94 126
72 93 125
72 93 126
72 93 124
73 94 126
72 93 124
72 93 124
73 94 125
72 94 127
72 93 124
74 94 126
73 94 126
73 94 126
73 94 126
73 94 127
75 96 128
75 95 125
69 89 121
73 94 126
73 94 125
73 94 126
73 94 126
73 94 127
73 94 127
73 94 126
74 94 125
74 95 127
74 95 126
73 93 124
72 93 123
73 94 126
72 92 123
74 94 125
72 93 124
72 92 122
73 93 124
72 93 125
72 93 123
71 93 124
72 94 126
72 93 124
72 93 124
72 93 126
71 92 125
72 93 125
73 94 126
72 93 124
72 93 124
69 90 122
71 92 124
72 92 123
70 91 123
72 93 124
74 95 128
70 91 123
71 91 121
69 91 122
71 92 124
70 91 123
69 90 120
72 92 122
71 92 123
71 93 124
68 87 117
73 94 126
69 89 119
71 91 122
71 91 123
70 90 121
70 91 121
70 91 121
71 91 122
69 89 120
69 90 120
69 89 120
70 90 120
71 92 122
68 88 118
71 92 122
69 89 119
68 88 118
69 89 118
67 85 114
69 88 117
70 89 118
70 90 120
68 88 118
66 86 115
70 90 120
64 83 111
68 88 118
66 85 113
69 89 120
67 86 115
69 89 119
68 88 118
66 85 114
67 86 115
68 88 118
67 86 115
68 87 117
62 80 108
66 85 113
65 83 110
64 81 107
65 83 111
66 84 112
63 81 109
61 79 106
62 81 108
67 86 115
66 84 111
65 82 109
64 83 110
66 84 113
63 80 105
65 83 111
60 77 102
63 80 106
62 79 105
61 79 106
65 82 109
61 78 104
60 77 101
60 76 100
60 77 103
58 74 99
57 72 96
58 73 97
61 78 104
60 75 98
56 72 97
53 67 88
57 73 97
57 73 96
58 74 97
52 65 86
48 60 79
54 68 90
52 66 86
51 64 84
52 65 86
53 67 88
50 63 83
52 65 85
44 56 74
46 58 76
47 59 77
48 61 80
43 53 69
45 55 70
42 51 64
41 50 65
41 51 65
43 53 68
46 56 71
42 52 66
43 53 68
44 55 70
48 59 75
43 53 68
42 52 66
46 57 73
39 48 62
44 54 70
46 56 72
42 52 68
42 51 66
48 58 74
44 54 70
42 52 67
39 49 64
44 54 70
46 57 72
47 58 74
49 60 76
46 56 72
48 59 75
43 53 69
42 52 67
41 51 66
48 59 76
42 51 66
48 59 74
45 56 72
44 54 69
47 57 74
45 56 71
48 59 76
48 59 76
45 56 72
48 59 76
49 60 77
46 56 72
48 58 74
41 51 65
47 58 74
50 60 77
45 55 71
48 59 75
44 55 71
42 52 67
47 57 73
47 57 73
43 53 68
43 53 67
46 56 71
40 50 65
43 53 69
44 54 69
46 57 74
42 52 66
41 51 66
40 50 64
50 62 79
39 48 61
43 53 69
42 52 66
41 52 67
40 49 63
41 50 64
38 47 61
42 52 68
44 55 72
51 64 83
49 61 80
46 59 78
53 67 88
50 63 83
49 62 81
44 56 73
52 67 88
54 68 90
52 66 87
48 61 81
54 69 91
55 71 94
56 70 92
53 68 91
55 70 94
57 73 98
57 73 97
60 77 102
54 69 92
57 73 97
61 80 107
56 72 95
62 79 104
56 73 98
62 78 103
61 77 102
62 79 104
62 79 104
61 78 104
59 76 101
65 84 112
63 82 109
70 90 119
62 79 106
63 80 107
61 79 105
62 80 108
65 84 113
67 86 115
64 83 111
70 89 118
62 81 108
65 83 111
68 87 115
64 81 108
66 86 115
70 89 119
69 89 119
67 85 113
66 85 114
68 88 118
71 91 122
67 86 116
66 86 115
70 90 120
69 88 118
68 88 119
66 86 114
69 89 118
69 89 120
71 90 120
68 88 118
69 89 119
68 88 118
69 90 121
67 88 118
67 87 117
69 89 119
71 92 122
72 92 124
71 92 122
68 88 117
71 92 123
72 92 123
69 90 122
70 91 122
72 93 123
71 91 121
71 92 123
68 87 117
67 87 117
69 89 120
72 92 124
72 93 125
70 91 122
72 93 125
73 94 125
71 93 124
70 90 120
72 93 124
73 93 125
72 93 126
70 91 123
71 92 123
71 92 125
74 94 125
72 93 125
73 94 126
72 93 125
74 95 127
71 92 123
73 94 126
72 94 126
75 95 126
72 93 124
72 93 124
72 93 124
72 93 125
73 94 125
74 95 127
71 92 123
74 95 127
74 95 126
72 93 124
73 94 125
71 91 121
72 92 122
71 93 125
74 96 128
74 94 126
74 95 126
73 95 127
72 94 125
72 93 125
74 95 127
70 91 122
74 94 125
74 95 127
74 95 127
71 93 126
73 94 126
72 93 124
70 92 124
73 94 126
74 95 127
72 93 125
74 95 127
72 92 124
73 94 126
74 95 127
72 94 126
73 94 126
73 95 127
72 93 124
74 95 126
74 95 126
74 95 125
75 96 128
74 94 125
72 93 124
71 92 124
74 95 126
72 94 126
73 94 126
72 94 126
73 94 126
74 94 125
72 93 125
73 94 127
71 92 124
73 94 126
73 94 126
75 95 126
74 95 128
73 93 124
73 94 127
73 94 125
75 95 126
73 94 126
73 94 126
73 95 127
74 95 127
73 94 124
73 94 126
73 94 127
73 94 125
72 94 128
72 93 124
72 93 125
74 95 127
73 94 126
73 94 126
74 95 128
73 95 127
73 94 126
71 92 124
72 93 123
72 93 125
71 93 125
73 94 125
73 95 128
74 95 127
73 94 126
74 95 126
74 95 126
72 93 124
73 94 126
73 94 126
74 95 126
71 92 123
71 91 122
71 93 126
72 93 124
73 94 126
72 92 123
72 93 125
72 94 127
73 94 125
73 94 126
73 94 125
71 93 125
72 93 124
71 91 122
74 94 126
70 90 120
74 94 126
75 95 127
71 92 123
73 94 125
72 92 123
70 91 122
73 92 122
71 92 124
72 92 122
71 92 123
72 92 123
72 93 124
72 94 126
69 90 121
72 93 125
71 91 122
72 93 124
72 93 124
71 91 123
73 93 124
69 90 120
70 90 121
70 91 121
73 95 127
70 90 121
69 89 120
71 92 123
73 93 124
72 93 125
71 91 121
69 89 119
68 88 117
68 88 118
70 89 119
71 92 124
70 90 119
67 87 116
70 90 121
68 88 118
69 89 120
69 89 120
72 92 122
70 91 122
70 90 121
72 93 124
66 85 115
68 88 118
67 86 116
68 88 117
67 87 116
63 82 110
70 89 119
65 84 112
66 86 116
67 87 116
69 89 119
71 91 120
66 85 112
68 86 114
65 84 111
69 89 119
66 85 113
65 84 111
63 82 110
65 83 110
64 81 108
60 78 105
65 84 112
66 85 113
63 80 105
68 87 117
63 81 108
66 85 113
65 83 111
59 75 100
64 82 109
65 84 111
60 77 103
62 80 106
62 79 103
63 80 106
64 82 108
53 69 92
62 79 104
62 79 104
57 72 95
58 74 99
55 69 91
58 74 98
54 69 92
51 66 88
56 72 95
55 70 92
54 68 90
55 69 91
48 60 80
54 69 91
50 64 84
53 67 88
55 69 90
57 72 94
53 66 86
48 59 77
51 64 83
47 59 76
45 57 75
49 61 81
42 53 69
40 50 65
40 51 66
44 54 69
43 54 69
40 50 63
37 46 61
40 49 63
41 51 67
37 46 59
32 40 51
44 54 69
43 52 67
40 50 65
46 56 71
42 52 67
43 53 68
41 51 66
49 60 77
43 53 68
46 56 71
42 52 67
43 53 68
46 56 71
44 54 69
48 59 74
45 56 72
41 51 66
46 57 73
42 52 67
51 61 77
46 57 73
39 48 62
42 52 67
45 56 72
43 53 69
44 54 69
41 50 64
47 57 73
49 61 77
44 54 69
41 50 65
48 59 74
43 53 68
44 55 71
45 56 72
51 62 78
44 54 70
41 50 65
45 56 72
45 56 71
46 57 73
46 57 74
44 55 70
43 53 69
45 55 71
43 54 69
40 50 65
42 52 67
40 50 64
44 54 69
41 50 65
47 58 73
46 57 72
45 55 70
46 56 71
38 47 61
45 55 70
42 52 66
42 52 66
41 50 64
38 47 60
33 41 54
40 49 63
38 48 61
42 52 68
42 52 67
40 51 67
52 66 86
51 65 85
44 56 74
45 57 75
46 59 77
48 61 80
52 65 85
52 66 86
48 62 83
51 65 86
52 66 87
54 69 92
53 67 88
58 74 97
52 65 85
59 75 98
51 65 86
60 76 102
59 76 101
59 75 99
57 74 99
60 77 103
61 78 104
57 72 94
58 75 99
65 84 112
58 75 100
60 78 104
58 74 98
64 81 108
65 84 112
64 82 109
68 87 117
62 80 107
62 80 108
63 81 107
67 85 113
61 78 103
59 76 103
67 86 115
64 82 109
70 89 118
67 86 114
66 85 113
68 87 116
69 89 118
64 83 111
65 85 114
68 88 118
67 87 117
66 85 112
67 87 116
69 90 121
68 88 117
71 91 122
65 83 110
66 86 115
67 85 113
65 84 112
69 89 120
70 91 122
71 93 124
69 90 121
70 89 118
69 89 118
71 91 120
71 91 121
69 89 119
68 88 118
71 91 122
72 92 123
70 91 122
70 90 120
67 87 118
72 93 123
70 91 122
71 91 121
73 94 124
69 89 119
72 92 123
69 89 120
71 92 123
72 93 123
66 86 115
70 92 124
72 92 123
71 91 121
70 91 123
74 95 127
72 92 123
71 92 122
72 93 125
72 93 124
73 93 125
71 91 123
72 93 124
72 93 125
73 95 127
71 92 123
70 91 122
74 94 125
74 95 127
71 92 123
71 92 124
69 91 123
73 94 125
72 92 123
72 92 123
72 93 124
72 93 126
72 93 125
73 94 125
72 93 125
71 92 122
73 94 126
71 92 123
72 93 124
71 92 123
73 94 125
74 95 127
71 92 123
74 95 127
70 91 123
74 96 128
75 95 127
74 95 126
72 93 124
72 93 124
72 93 126
72 92 123
74 95 128
73 94 126
73 95 127
74 95 126
74 95 127
73 95 128
72 93 125
71 92 124
73 95 128
72 94 127
71 93 124
72 93 124
73 95 127
71 93 125
73 95 128
73 94 125
74 94 125
73 94 125
75 96 127
73 94 127
73 94 127
75 95 126
73 95 128
74 95 126
73 95 127
73 94 127
73 94 127
73 95 127
73 94 126
74 95 126
70 92 123
73 94 125
73 94 126
73 94 125
73 95 127
74 95 127
73 94 126
74 95 126
75 95 127
74 95 127
74 95 125
74 95 127
73 94 125
73 94 126
73 94 125
73 95 127
74 95 127
71 92 124
73 93 124
72 93 125
73 94 125
71 92 124
73 94 126
72 93 124
73 95 127
74 94 126
72 93 125
73 94 127
71 92 123
74 95 126
73 94 125
72 93 124
72 93 125
71 92 123
72 94 125
72 92 123
71 91 122
74 95 127
70 91 122
73 94 125
73 94 125
73 94 126
71 91 121
73 94 125
73 94 126
72 94 126
72 93 124
72 93 124
70 90 121
74 96 128
73 95 127
73 94 126
73 94 126
74 95 127
73 94 126
71 92 123
73 95 127
71 91 122
72 93 123
72 93 124
71 92 124
69 89 119
71 92 122
72 92 122
71 93 125
70 90 121
71 92 123
71 92 123
72 93 124
73 94 126
70 92 123
71 92 124
71 92 123
69 90 121
73 93 124
71 91 121
70 91 123
69 89 119
70 91 121
70 90 120
71 91 120
70 90 120
70 90 121
69 90 121
71 91 122
69 90 120
66 86 116
72 93 124
72 92 123
69 88 117
71 91 120
68 88 118
69 89 119
70 91 122
67 87 116
70 90 121
69 90 120
68 89 120
69 88 118
68 87 117
71 90 120
70 90 121
67 88 119
67 87 115
68 89 119
70 90 120
68 88 118
68 88 118
67 86 114
67 85 112
65 84 113
67 86 115
65 84 112
64 83 111
65 83 109
66 85 114
66 86 115
69 88 118
67 86 115
66 85 113
66 85 112
68 87 115
62 80 107
61 79 105
69 88 116
64 83 111
61 78 103
65 84 112
64 81 107
67 86 116
63 79 104
63 80 106
60 77 103
62 80 107
58 74 98
60 77 103
65 83 110
55 71 95
60 77 101
62 78 102
56 72 95
61 77 102
54 69 92
59 75 99
55 70 93
57 73 97
58 75 99
59 75 99
54 69 90
52 67 89
52 67 88
50 63 83
53 68 89
51 64 84
50 63 84
52 64 84
46 58 75
42 52 68
42 53 69
49 61 79
41 51 67
38 48 63
49 61 78
45 57 74
38 48 62
41 51 65
34 43 55
38 47 60
36 44 57
39 47 60
37 46 59
41 50 65
43 52 67
42 52 67
43 53 67
40 50 65
44 54 69
42 51 66
39 48 63
43 53 68
44 54 68
40 50 65
42 52 67
40 49 63
41 51 65
44 54 69
42 52 67
44 55 70
42 52 66
45 56 72
43 53 69
46 56 72
41 51 65
40 50 63
43 53 69
45 54 69
41 50 64
42 52 66
42 51 66
42 52 67
46 57 72
44 54 69
43 53 69
48 59 75
45 55 70
44 54 69
42 52 67
44 53 68
45 56 71
45 56 72
42 52 67
45 55 70
44 55 70
46 56 72
37 46 60
40 49 64
45 56 71
41 50 64
42 51 66
51 63 80
41 51 65
45 55 70
41 51 64
40 49 63
46 56 71
43 53 68
42 52 67
45 54 69
44 54 69
37 46 59
43 52 67
42 51 64
33 41 53
36 44 56
36 44 56
38 48 63
46 57 74
36 45 58
37 47 60
38 48 63
47 59 76
44 55 72
52 65 85
45 57 74
42 53 69
53 67 88
47 60 78
49 62 82
52 66 86
55 70 93
48 60 78
56 71 93
51 65 85
55 70 92
57 73 96
51 65 86
58 74 97
49 63 82
54 69 91
58 74 99
59 75 100
61 78 102
61 78 104
55 69 91
60 77 104
57 72 95
58 74 98
63 80 106
66 84 111
60 77 102
62 80 106
61 79 106
61 77 103
62 80 108
61 78 104
65 83 110
66 84 111
60 78 105
63 82 111
62 79 105
63 80 107
67 85 112
65 83 110
65 84 112
65 83 111
61 79 106
63 81 108
63 82 109
68 87 116
66 85 113
66 84 110
70 89 119
66 84 111
66 86 116
70 90 120
68 88 117
67 87 115
65 84 112
69 89 119
68 88 117
67 87 116
67 85 112
68 89 120
70 90 120
71 92 124
68 87 115
69 90 122
69 89 119
71 91 121
71 91 122
68 87 116
72 93 125
70 90 120
70 91 123
70 90 121
73 93 125
72 93 124
69 89 120
71 92 122
71 91 122
70 91 121
70 90 120
69 90 120
70 91 122
69 88 117
72 92 124
74 95 127
71 92 122
70 90 121
71 92 124
71 92 124
71 92 123
70 90 121
72 92 123
70 90 120
70 91 121
70 91 122
70 91 123
71 92 123
74 95 126
75 96 127
69 89 118
72 92 124
70 91 122
72 93 125
73 93 124
72 92 123
72 93 125
72 92 123
70 91 122
73 94 124
73 93 124
74 93 123
74 94 125
71 92 123
72 93 125
72 94 126
73 94 127
73 95 127
72 94 126
74 94 125
72 93 124
73 95 127
70 91 122
72 93 126
74 95 128
72 93 124
73 94 126
71 92 123
70 91 122
72 93 124
73 94 126
74 95 126
72 94 126
71 93 125
74 95 127
73 94 126
73 94 126
71 92 124
73 95 127
74 95 126
73 94 126
70 91 123
73 93 124
74 95 127
73 94 125
74 96 128
73 94 125
72 93 125
75 96 128
73 94 125
74 94 126
74 95 128
71 92 123
74 95 126
73 94 125
73 95 128
76 96 127
73 94 126
73 94 125
75 96 128
73 95 127
73 94 127
73 94 126
74 95 126
73 94 125
74 95 126
74 96 128
73 94 126
75 96 127
73 94 126
72 94 126
71 93 125
72 93 125
74 95 125
73 94 125
72 93 125
72 93 124
75 96 127
70 90 121
73 95 127
72 94 126
74 94 125
73 94 126
74 94 125
71 92 125
73 94 126
72 93 125
72 93 126
71 91 122
75 95 126
74 95 126
72 93 124
72 93 125
71 92 124
70 91 121
73 94 127
72 94 126
72 93 126
72 93 124
72 92 122
73 94 125
70 91 122
71 92 124
73 94 125
71 91 122
72 94 126
73 94 125
74 94 125
71 92 124
73 93 124
75 95 126
72 93 124
72 93 123
72 92 123
72 93 125
72 91 121
72 93 125
74 94 125
72 93 124
70 91 122
74 95 126
72 92 123
72 93 126
70 91 121
68 89 120
70 91 122
70 91 123
71 92 123
73 93 124
71 92 122
71 92 123
70 91 121
71 91 123
71 90 120
70 91 122
72 92 123
67 87 117
68 87 117
68 89 119
70 90 121
72 92 122
68 88 117
70 90 120
71 91 122
71 92 122
71 90 118
68 87 117
70 90 121
69 89 120
69 89 119
66 86 117
69 88 117
70 90 121
67 87 118
70 90 121
67 86 114
70 89 119
68 87 116
70 90 120
68 88 117
63 82 110
67 87 116
68 87 115
70 90 120
68 88 117
69 90 121
67 86 114
67 86 114
68 87 116
65 84 111
65 83 111
68 87 116
66 86 115
67 86 116
69 90 120
65 84 112
66 85 113
62 79 106
64 82 110
64 83 111
63 80 106
64 83 111
61 79 105
64 82 109
62 80 106
64 82 109
60 77 103
60 77 104
64 83 110
68 88 116
63 81 108
63 80 107
62 79 104
59 75 99
60 77 103
54 69 91
59 77 103
61 78 103
59 76 101
58 74 98
59 76 101
60 76 101
56 72 95
58 73 95
51 66 88
49 62 82
59 76 100
52 66 86
50 62 81
58 74 98
52 65 86
58 72 94
50 63 82
46 58 77
52 65 84
53 68 89
45 57 74
47 59 77
45 56 74
41 52 69
46 56 72
40 50 65
44 55 72
45 56 73
37 47 60
38 47 61
39 48 62
41 52 67
33 41 52
39 48 62
39 48 62
42 52 67
42 51 65
40 49 62
44 54 69
44 54 68
44 53 68
40 49 63
44 54 69
42 52 66
44 54 70
42 52 66
43 53 68
45 54 69
40 49 63
42 52 68
44 54 69
45 56 71
46 56 72
42 52 66
40 50 64
41 51 65
45 55 71
42 52 67
41 51 66
42 51 65
45 56 72
42 51 66
40 50 64
45 54 69
41 50 64
40 50 63
43 53 68
41 50 65
44 54 69
49 59 75
42 52 67
40 50 63
44 54 68
43 53 69
43 54 69
39 49 62
49 59 75
41 51 65
44 54 69
44 53 68
43 53 68
43 53 68
44 54 68
41 50 63
38 47 61
42 52 67
46 56 72
37 47 60
40 49 63
38 47 60
41 51 65
32 40 52
38 48 62
40 49 62
35 43 56
39 49 63
41 51 65
40 49 63
35 44 56
39 49 64
45 56 73
51 64 83
39 48 62
44 54 70
49 61 79
48 60 77
48 60 80
49 61 79
53 67 88
51 64 84
50 63 82
49 62 82
50 64 84
51 65 85
50 64 84
54 68 90
57 72 95
57 72 95
50 65 86
55 70 92
62 78 102
56 71 94
58 73 97
55 69 90
58 75 99
59 75 99
60 77 102
59 75 100
65 83 109
59 75 100
56 71 95
63 81 108
61 78 103
59 76 102
62 80 107
61 79 106
59 76 102
60 78 105
61 78 104
62 79 106
64 82 109
64 81 108
62 80 107
63 81 108
65 83 111
65 83 111
68 86 114
66 86 114
62 81 108
67 86 115
62 79 105
64 83 110
68 87 116
65 85 113
65 83 110
67 86 115
65 84 111
69 89 120
68 87 115
64 82 110
67 87 117
68 87 116
69 89 119
67 86 114
69 89 118
68 87 115
66 85 114
69 89 118
69 88 117
70 91 121
68 87 116
68 89 120
67 86 114
71 92 122
71 91 122
69 89 119
70 90 121
71 91 121
71 91 121
69 89 120
69 88 118
72 92 121
70 89 119
71 91 122
69 89 119
69 89 121
70 90 119
71 91 121
67 87 117
70 91 121
72 93 124
70 90 121
72 93 125
72 92 122
70 91 122
72 93 124
72 92 123
71 92 123
71 92 122
70 89 119
72 93 124
73 94 125
72 92 122
71 91 122
71 91 123
72 93 124
71 92 123
71 93 124
71 92 122
72 93 125
72 93 123
70 89 118
72 93 126
70 90 121
71 93 125
72 93 125
70 90 120
72 94 125
73 94 127
73 94 126
72 93 126
70 91 122
72 93 124
73 93 124
73 94 126
73 94 124
73 94 125
73 93 124
73 95 127
71 91 121
74 95 126
72 93 125
72 94 126
73 93 125
72 94 127
72 93 126
73 94 125
72 92 123
71 92 124
73 94 125
72 94 127
74 95 126
72 93 123
72 94 126
74 94 125
74 95 127
73 94 125
73 94 125
73 94 125
73 95 128
74 95 127
72 94 126
72 93 125
73 94 126
73 94 125
72 94 126
72 93 125
73 95 128
73 93 124
73 94 126
73 93 124
75 96 127
74 95 126
75 95 127
73 94 125
72 94 125
72 93 125
71 92 124
72 93 125
73 94 126
72 94 127
72 94 127
73 94 126
73 94 126
70 91 123
73 94 126
73 94 126
73 93 124
71 92 123
74 94 124
75 96 127
73 95 127
73 95 126
73 94 126
71 92 123
75 96 127
73 94 125
72 93 125
72 93 124
70 92 123
73 94 126
73 94 126
73 94 125
71 92 123
74 95 127
72 93 125
72 94 127
72 93 125
72 93 124
73 94 125
73 94 126
72 94 126
72 93 123
72 93 125
74 95 128
72 93 125
71 93 125
72 93 124
71 91 121
73 94 127
73 94 125
73 93 124
73 94 125
72 94 126
71 92 123
71 91 122
71 92 124
71 92 123
73 93 124
70 92 124
70 90 120
71 93 125
73 94 125
71 92 122
73 94 126
72 93 124
71 91 120
73 93 125
74 95 127
70 91 122
71 92 124
72 93 124
70 90 120
71 91 122
72 94 127
70 90 120
68 88 118
71 92 123
73 94 124
70 91 122
70 91 122
70 91 121
70 91 122
68 88 117
68 88 116
70 90 120
71 91 121
69 90 122
69 89 120
69 89 119
71 90 119
71 91 121
66 86 115
65 85 114
68 87 115
70 90 121
69 89 120
69 87 116
67 86 116
68 88 117
66 86 115
65 83 112
68 89 119
63 82 110
69 88 116
65 84 113
69 89 119
66 85 114
63 81 109
66 85 113
64 82 111
67 86 115
68 88 117
63 81 108
65 84 113
65 84 112
64 83 112
65 83 111
67 86 115
60 76 101
66 85 113
66 85 113
63 81 108
64 82 109
65 84 112
63 81 107
59 76 101
65 85 114
66 84 112
60 77 103
59 75 100
63 81 108
62 80 107
61 78 103
56 72 97
60 78 103
61 78 104
59 75 100
59 76 102
60 76 100
59 75 99
59 76 101
57 73 96
58 74 99
57 73 98
61 77 101
55 70 93
56 71 93
53 67 88
49 64 85
55 69 91
54 68 90
47 58 76
50 63 82
49 62 81
57 72 95
56 71 93
44 56 73
47 60 78
46 57 75
53 67 87
50 64 84
35 44 58
45 57 74
45 56 72
41 51 66
39 49 64
39 49 64
41 51 66
39 49 63
38 47 60
33 40 52
33 41 53
31 38 49
31 38 49
32 40 51
34 43 56
45 55 70
38 47 61
38 46 59
41 50 64
43 52 66
42 52 66
35 43 56
40 49 63
42 52 66
43 53 68
41 50 64
43 54 69
40 50 64
39 48 62
43 53 67
43 53 67
42 52 66
42 52 67
36 46 59
41 50 65
40 50 64
40 49 64
43 53 68
38 48 63
44 53 68
42 51 66
42 52 66
42 52 67
42 52 66
41 51 65
40 50 64
44 54 70
37 47 61
44 54 69
46 56 72
36 44 57
40 49 63
38 48 62
43 53 68
44 55 71
38 47 61
39 49 63
45 54 69
42 52 67
40 49 63
41 51 65
42 51 66
40 49 63
40 49 63
42 51 65
44 53 68
40 49 63
39 47 59
35 43 55
40 49 62
34 42 55
28 35 45
34 43 55
36 45 58
36 45 58
33 41 53
46 57 73
38 47 61
44 54 70
45 56 72
39 49 64
36 46 59
42 54 70
39 49 64
42 53 69
45 56 73
48 60 79
47 60 79
47 60 79
47 61 80
51 65 85
52 65 86
51 66 87
51 65 85
55 69 91
53 67 87
52 66 87
50 63 83
57 73 97
52 66 88
56 71 94
57 72 95
55 70 93
60 76 101
57 74 99
57 73 98
62 79 105
61 79 105
64 81 107
62 79 105
58 74 98
65 83 109
61 79 106
63 81 108
69 88 116
68 87 115
61 78 104
63 81 109
61 78 104
64 83 110
64 82 110
61 79 105
64 83 110
62 80 107
68 88 118
66 85 113
68 88 118
61 79 105
68 87 115
66 85 114
65 84 112
64 82 109
67 86 116
67 87 115
67 87 116
67 86 113
67 86 115
66 86 115
69 89 119
66 85 113
67 86 114
69 89 119
70 91 122
66 86 116
71 92 124
72 92 123
69 90 120
68 87 117
70 90 122
68 89 119
70 91 123
67 87 116
71 92 124
70 91 122
70 90 120
68 87 117
70 91 121
69 90 120
69 90 121
70 90 121
69 89 119
67 87 118
69 88 118
67 86 114
70 91 122
69 89 119
71 92 123
71 92 123
70 91 123
71 92 123
68 88 120
72 93 125
71 92 124
69 90 121
72 93 123
72 93 125
71 91 120
71 91 122
72 94 126
72 93 124
70 91 122
71 91 121
70 91 123
72 94 125
73 94 125
70 91 121
74 95 127
73 93 124
69 91 123
71 92 122
73 94 126
73 94 125
73 94 127
72 93 125
73 93 124
72 93 124
73 94 126
74 94 126
72 93 123
73 94 127
73 94 126
70 90 121
72 93 124
72 93 124
73 94 125
75 95 127
74 95 125
69 88 117
74 95 126
73 93 125
72 93 125
72 93 125
72 92 123
71 92 125
74 95 127
70 92 125
74 96 128
71 92 124
73 95 127
73 94 125
75 96 127
72 94 126
72 94 126
74 96 128
75 95 127
74 95 127
72 93 125
72 94 125
73 95 128
71 91 123
74 95 127
73 94 126
74 95 127
74 95 126
74 95 128
72 93 125
73 94 125
73 95 127
74 95 126
73 94 126
72 94 127
72 94 127
72 94 126
71 92 123
73 94 125
71 92 124
73 95 127
72 92 124
73 95 127
73 93 124
73 95 127
73 94 125
73 94 126
73 94 125
71 91 121
72 93 125
72 93 125
74 95 126
73 94 126
71 92 123
73 94 125
72 94 126
73 94 125
70 92 124
72 93 125
73 94 126
72 93 125
73 95 128
72 93 124
73 94 127
72 92 123
72 93 124
74 95 126
72 93 125
72 94 126
73 94 125
73 94 125
71 93 125
73 94 125
73 93 124
72 93 125
73 94 125
70 91 122
73 94 126
74 95 127
69 88 118
72 93 124
74 94 125
74 95 128
71 92 124
72 93 124
72 93 124
72 93 125
72 92 124
71 91 122
72 93 125
72 93 124
72 93 125
70 90 121
69 90 121
72 93 125
73 94 126
73 94 125
71 92 122
73 95 128
72 92 123
72 93 124
71 92 123
72 93 124
72 93 125
72 94 126
71 90 120
72 93 124
70 91 122
71 91 122
71 92 123
69 89 119
72 92 122
72 92 122
70 91 122
70 91 121
66 86 117
71 92 123
71 92 124
68 89 121
73 94 126
69 89 119
67 87 117
67 87 116
67 87 117
67 87 116
68 88 119
68 88 116
69 88 117
68 89 119
70 90 120
67 87 117
69 89 120
68 88 118
64 83 112
67 86 114
65 85 114
68 87 117
69 89 120
70 90 119
66 84 111
70 90 120
66 86 115
67 87 117
67 86 114
69 88 118
67 86 116
69 88 117
67 86 116
69 88 117
67 87 116
67 86 114
64 81 108
67 86 115
67 85 113
66 84 113
65 83 111
64 82 110
61 78 103
59 76 102
67 86 114
64 82 109
62 80 106
66 84 111
61 79 105
60 76 100
64 81 108
60 77 102
62 79 105
65 82 108
59 75 100
56 72 97
58 73 95
57 73 98
60 76 101
52 66 88
62 78 104
64 82 109
60 75 99
54 68 91
61 77 101
55 69 91
51 64 84
52 66 86
50 64 84
59 75 99
57 72 95
48 62 82
48 61 81
52 65 85
54 68 89
47 59 77
46 57 75
42 53 70
36 46 61
45 56 73
42 52 68
45 57 74
44 55 71
39 48 62
43 53 68
37 46 59
39 48 61
29 36 47
33 42 54
32 39 50
30 37 47
32 39 49
35 44 56
28 35 45
37 45 58
38 46 59
37 46 59
37 45 58
36 44 57
33 41 52
38 47 61
50 61 77
44 54 68
38 48 62
37 46 60
45 55 70
42 52 67
43 53 67
39 49 62
43 53 68
41 50 65
39 48 62
43 53 67
39 49 64
41 51 66
42 52 67
39 49 63
43 52 67
37 46 59
42 52 67
43 53 69
39 49 63
43 53 67
42 51 66
40 50 64
42 52 67
43 53 67
38 47 60
44 54 69
49 59 74
40 49 63
39 49 63
42 51 65
41 51 66
38 47 60
41 51 64
40 49 62
37 46 59
38 47 60
40 50 64
41 50 64
41 51 65
34 43 55
39 48 61
39 48 60
34 42 54
38 47 60
35 43 56
34 42 53
28 34 44
28 34 44
33 41 53
28 35 45
34 43 55
29 36 46
38 47 61
36 46 60
42 52 66
43 54 70
43 53 69
42 53 70
48 60 77
37 46 60
49 61 80
45 57 76
48 61 81
49 61 81
48 60 78
49 62 80
52 65 84
52 65 85
51 64 85
56 70 92
54 69 91
50 64 84
58 73 96
52 66 88
60 76 99
54 69 91
54 69 92
54 68 89
53 68 90
60 77 103
61 77 102
51 65 87
62 79 104
59 76 101
62 79 105
56 71 95
60 77 103
53 69 92
60 78 105
61 78 105
60 77 103
59 77 103
63 80 105
63 81 108
65 84 112
65 83 111
69 88 116
62 79 105
64 83 111
62 80 107
66 85 113
62 80 106
66 85 112
67 87 116
66 85 113
68 88 118
65 84 113
68 88 118
66 86 114
67 85 112
69 88 117
67 86 114
67 86 115
64 82 109
67 86 114
68 88 117
66 85 115
67 87 117
69 90 121
70 90 120
70 90 120
67 86 116
69 89 119
67 87 117
70 90 120
72 92 121
70 91 121
68 88 117
68 87 114
69 88 117
69 89 120
69 89 118
69 90 120
67 87 118
70 91 121
70 90 120
70 90 120
69 89 118
70 90 120
70 90 120
71 91 122
70 90 121
69 88 118
69 89 119
71 92 123
73 94 126
69 90 121
71 91 122
70 91 123
72 92 121
71 91 121
70 90 121
70 91 122
71 91 121
70 91 122
71 93 125
69 89 120
72 92 123
71 92 124
70 90 120
71 92 122
71 92 123
72 93 124
73 93 124
69 90 121
71 92 123
72 93 124
70 91 122
71 92 124
70 91 122
73 94 126
70 91 123
71 92 124
73 94 126
70 91 123
72 92 123
72 93 125
72 93 125
72 93 125
73 93 125
70 91 122
74 95 127
72 92 123
72 93 125
73 94 126
72 93 125
70 92 124
73 93 123
71 92 124
73 93 124
75 95 127
73 94 126
72 94 127
72 92 124
73 95 127
71 92 125
72 92 124
73 94 125
74 96 128
74 95 126
70 91 123
73 95 128
73 94 125
75 95 125
71 93 124
71 93 125
73 95 128
73 94 127
73 93 124
72 93 125
73 94 125
73 95 127
71 93 124
73 94 126
74 95 128
73 94 126
74 95 128
74 95 126
74 94 125
75 96 128
73 94 125
74 95 126
72 94 126
73 94 127
72 93 125
74 96 128
71 93 124
74 95 127
72 93 126
74 95 126
72 93 124
72 93 124
73 94 126
74 95 125
72 93 124
74 95 126
74 95 126
71 92 123
73 94 126
74 95 127
72 93 125
72 94 126
73 94 125
72 93 125
70 90 121
69 90 121
74 94 125
71 92 123
72 92 123
72 92 123
72 93 125
71 91 122
72 93 125
71 91 122
70 91 123
71 93 125
72 93 125
72 93 124
73 94 125
72 93 124
71 93 125
70 91 122
73 94 125
72 93 125
72 93 125
71 92 123
73 93 124
72 92 122
72 93 125
70 91 122
71 91 122
72 93 124
70 91 121
70 90 120
70 90 121
69 89 119
72 94 126
71 92 123
70 91 123
73 93 124
70 92 124
71 92 122
72 92 122
72 93 124
72 92 123
70 90 121
70 90 120
71 92 123
70 90 121
72 93 124
68 88 119
68 88 118
70 91 122
72 93 124
70 90 119
71 91 120
69 89 119
72 93 124
73 93 124
72 92 123
69 89 120
70 91 123
68 87 116
64 83 111
71 92 124
68 87 117
68 88 118
69 88 117
70 90 121
70 90 120
67 86 114
69 89 118
69 88 118
66 85 113
68 89 119
70 91 122
69 89 119
69 89 119
67 86 116
66 85 113
67 87 118
64 82 110
69 89 120
69 90 120
66 84 112
66 85 113
66 86 114
68 87 114
68 87 117
62 81 109
65 85 114
65 84 113
64 83 111
64 82 110
67 85 113
63 80 106
63 81 108
67 86 115
62 80 107
64 82 109
61 79 105
58 74 98
67 86 114
58 75 99
60 78 104
61 78 104
59 76 101
60 76 101
61 78 103
66 84 112
58 75 100
56 72 95
62 79 105
60 76 100
58 74 98
52 67 89
54 69 92
57 72 95
58 74 98
56 72 95
57 73 96
58 73 96
52 66 86
50 63 83
53 66 86
50 64 84
53 68 89
50 63 82
45 57 75
44 56 74
53 67 88
46 58 77
46 59 78
42 53 69
50 63 82
38 48 63
46 57 74
41 52 68
38 47 62
49 61 79
42 52 67
32 40 51
38 48 62
39 49 62
34 42 53
33 41 54
35 43 56
37 46 59
34 41 53
32 39 50
29 35 46
28 34 44
26 32 41
32 40 51
37 45 57
35 43 55
37 46 60
34 43 55
39 49 63
39 48 62
33 41 52
39 48 62
44 54 68
43 52 67
37 45 58
42 52 66
36 45 58
38 47 61
37 46 59
39 48 62
43 53 68
39 47 60
39 49 62
40 49 63
46 56 71
42 51 66
43 52 66
39 49 63
41 50 64
37 46 59
38 47 60
40 50 64
44 54 68
38 48 61
40 50 64
37 46 59
37 45 58
42 51 65
40 49 63
36 45 58
38 46 59
37 45 59
36 45 59
37 46 58
39 48 62
43 52 66
35 44 57
42 52 67
37 46 59
35 43 56
37 45 57
34 42 54
34 42 54
23 28 36
31 38 49
26 32 40
30 37 47
34 41 53
34 42 54
37 45 58
35 43 56
38 47 61
37 47 61
37 46 59
45 57 74
40 50 65
45 56 73
38 47 62
40 50 66
42 53 69
42 53 68
47 59 77
51 64 84
48 61 80
51 64 84
51 65 85
52 65 85
48 60 78
51 64 84
52 66 86
54 68 89
46 59 78
56 71 93
55 69 91
55 70 93
59 75 98
57 73 96
62 78 103
54 68 90
57 73 96
56 72 97
62 79 105
60 76 100
56 72 95
62 79 104
57 74 98
66 85 113
62 79 105
63 81 106
60 78 104
66 85 113
66 84 111
58 75 99
61 79 105
66 85 113
61 78 104
65 83 111
58 74 98
63 82 109
67 86 115
64 82 111
63 81 106
64 82 108
67 87 116
65 85 114
70 91 121
64 82 109
65 84 113
68 86 114
68 86 114
67 87 117
67 87 116
66 84 113
66 85 114
67 86 114
68 87 115
71 91 121
66 85 113
69 89 119
68 87 115
70 90 119
70 90 120
70 91 121
70 89 118
70 90 121
67 87 116
65 85 115
70 89 119
68 88 118
69 89 119
69 90 121
66 86 116
70 91 122
70 91 121
69 89 119
71 91 122
70 90 121
69 89 120
68 88 118
71 91 121
70 90 120
70 90 120
73 93 124
70 90 121
73 95 127
73 93 123
72 93 124
71 92 123
69 89 119
71 91 121
72 93 124
72 93 124
70 89 119
70 90 121
72 92 122
71 92 123
69 89 119
71 91 122
72 93 125
69 90 122
72 93 125
74 95 126
71 93 125
72 93 124
71 92 123
71 92 123
72 92 123
73 93 123
71 92 123
71 92 124
73 93 123
72 93 124
70 91 123
73 94 127
72 93 125
73 94 127
71 92 124
70 91 121
72 92 122
73 93 124
74 94 125
73 94 125
73 94 127
72 94 127
71 92 122
71 92 123
72 93 124
72 92 123
71 93 125
74 95 127
71 92 125
73 94 125
71 92 124
74 94 125
70 91 123
73 94 125
74 95 126
72 93 124
75 95 126
72 93 124
72 93 124
71 92 123
72 93 126
73 94 127
72 93 124
72 93 125
73 94 126
74 94 125
73 94 126
73 94 125
71 93 125
72 93 125
73 94 127
74 95 126
73 94 125
72 93 125
74 95 127
74 95 127
73 94 126
74 94 126
72 94 126
73 94 126
73 94 125
74 96 128
72 93 124
72 93 125
71 93 125
74 95 125
73 94 126
72 94 126
74 95 127
72 93 126
72 93 124
71 92 124
73 94 126
71 92 124
71 92 123
73 94 126
72 93 125
72 93 125
73 94 125
72 93 126
72 93 126
73 94 126
71 91 123
73 93 124
73 94 126
73 94 124
73 94 125
72 93 125
73 94 126
72 92 123
70 91 122
72 93 124
72 94 127
74 95 126
70 91 121
72 93 125
72 93 123
73 94 127
70 91 122
73 94 125
74 95 126
71 92 124
72 93 125
71 91 122
72 92 123
73 94 126
69 89 119
71 93 125
68 89 120
70 90 121
72 93 124
68 88 118
72 93 124
70 91 121
73 93 124
71 92 123
72 92 123
68 88 120
69 89 119
69 90 120
70 90 120
72 93 126
71 92 123
68 89 119
73 94 126
71 91 122
69 89 118
70 90 121
72 93 123
69 89 119
71 92 123
69 90 120
67 87 116
72 93 125
68 87 116
69 90 121
71 91 122
71 91 121
69 89 119
68 88 118
69 88 116
69 89 119
68 88 118
68 88 117
68 88 117
68 87 116
71 91 121
68 88 117
66 85 114
69 90 120
69 89 118
67 86 114
64 84 114
67 86 114
69 89 119
68 88 117
68 88 118
68 87 116
66 85 113
64 83 111
62 80 106
68 87 115
63 82 110
64 84 113
64 82 110
66 86 114
67 86 114
68 88 117
67 85 113
65 83 111
63 81 108
63 81 107
64 82 110
68 87 116
61 80 108
67 86 115
60 77 102
62 80 106
63 80 107
61 78 104
63 81 108
66 83 110
59 75 99
59 77 103
59 75 99
59 75 99
60 78 105
57 73 98
64 82 108
59 77 102
57 72 95
58 74 99
59 74 97
54 70 93
54 68 90
58 74 97
54 70 94
61 77 102
52 65 86
50 63 83
52 67 88
54 68 89
50 62 81
43 54 71
50 64 84
48 60 78
54 68 89
47 59 78
49 62 80
47 59 77
51 64 84
50 63 83
49 62 81
45 57 74
40 50 65
39 49 64
43 54 71
38 47 62
38 48 63
35 44 57
35 43 55
40 50 64
38 47 60
35 43 55
39 48 62
32 39 49
28 34 43
35 43 55
29 35 46
29 36 46
20 25 32
22 27 34
24 29 37
25 31 40
27 33 43
36 44 56
34 42 53
31 39 51
33 40 52
39 47 59
37 45 58
37 45 59
37 45 58
38 47 60
37 46 60
36 44 56
38 47 60
41 50 63
43 53 68
41 51 65
37 46 59
40 49 62
38 48 61
39 48 61
39 48 62
35 43 55
37 46 59
40 49 63
37 45 58
38 47 61
41 50 64
38 47 61
39 49 63
40 49 63
39 48 62
40 49 63
37 46 60
37 46 58
40 50 64
39 48 62
38 47 60
35 43 55
33 41 53
36 45 58
37 45 58
35 44 57
31 39 49
33 40 51
33 39 49
20 25 32
28 34 44
32 38 48
29 36 46
33 41 52
35 43 55
33 41 53
33 41 53
26 32 42
42 51 66
33 41 52
41 51 66
41 50 64
48 60 78
36 45 57
47 58 76
43 53 69
45 56 72
46 57 74
40 50 66
47 59 77
47 59 78
45 57 75
42 53 69
49 61 79
51 64 85
47 59 77
50 64 84
52 65 86
46 58 75
58 73 95
52 66 86
52 67 89
56 72 95
50 63 83
56 70 92
58 72 94
54 70 93
62 80 106
58 74 97
61 79 105
55 71 95
58 74 98
59 76 101
60 76 99
59 76 102
59 75 99
62 78 102
64 82 109
64 81 107
62 80 106
59 76 102
63 81 108
64 82 109
61 78 103
62 80 106
64 81 108
65 82 109
62 80 106
65 84 112
61 78 104
67 86 115
66 85 113
63 82 109
62 81 109
66 85 114
68 88 119
65 84 113
67 85 113
67 86 114
62 80 108
68 87 115
62 80 108
69 88 118
68 88 118
67 86 115
69 88 118
69 89 119
68 87 116
69 90 121
67 87 116
65 85 114
69 89 120
69 89 120
68 88 117
68 87 116
68 88 117
71 91 121
69 89 118
70 90 120
67 87 116
67 86 115
73 94 125
71 90 120
71 91 121
68 88 118
67 87 116
69 87 116
70 91 122
70 90 120
71 92 123
69 89 119
68 88 117
70 91 121
71 92 124
71 91 121
69 90 120
71 91 121
71 92 123
70 90 120
71 92 124
71 92 123
70 91 123
73 94 126
70 90 120
70 90 120
69 90 122
68 89 120
72 93 125
73 94 125
69 89 120
73 93 124
70 91 121
71 91 121
72 92 123
71 92 123
74 94 123
73 93 125
73 94 125
71 91 122
72 91 121
70 90 121
72 93 125
71 92 123
73 93 124
73 94 127
71 92 123
72 93 125
72 93 125
73 94 125
71 92 122
73 95 127
71 92 123
71 91 121
69 90 121
73 93 124
72 93 124
71 92 124
73 94 125
74 94 125
72 93 124
71 92 124
70 91 123
72 93 125
73 93 124
73 93 124
72 92 123
71 93 127
72 93 125
73 95 126
72 92 122
74 95 127
72 93 124
71 91 122
74 94 125
73 94 126
72 93 126
73 94 125
73 94 126
72 93 125
74 95 126
74 95 128
74 95 128
72 93 125
75 96 128
73 94 126
75 95 126
71 93 126
74 95 127
71 92 124
74 95 127
73 95 127
74 94 125
73 94 126
72 94 126
74 95 126
73 93 123
74 95 128
72 93 125
75 96 128
73 95 127
74 95 126
74 95 128
73 94 124
73 94 126
71 92 124
74 95 126
74 95 127
73 94 126
71 92 124
73 94 124
73 94 125
73 94 126
72 93 125
72 92 123
73 93 124
72 92 124
73 94 126
70 92 124
70 92 124
71 92 123
74 94 125
72 92 123
72 92 122
72 93 123
73 94 125
72 93 124
74 95 126
73 94 127
72 93 126
70 90 120
72 93 124
72 93 126
73 94 124
73 94 126
71 91 122
70 90 120
68 89 120
71 92 123
71 93 125
70 91 122
67 88 118
72 93 123
71 91 122
71 91 122
71 91 122
73 93 123
72 92 123
71 92 122
70 91 121
69 90 121
71 91 122
68 88 118
70 90 120
69 90 120
71 91 122
72 94 127
69 89 119
72 93 124
72 93 123
73 93 124
72 92 123
68 88 117
71 92 122
68 88 118
72 92 122
70 91 121
69 89 118
70 91 121
65 84 112
70 90 120
66 86 115
70 90 121
70 89 118
68 88 117
67 88 118
68 87 116
70 90 120
66 85 114
72 92 123
65 84 112
67 86 115
69 89 119
66 86 115
67 87 116
65 84 112
66 85 114
66 85 113
69 87 115
66 86 115
65 84 113
66 84 112
60 78 105
64 82 109
65 84 112
70 89 119
63 82 110
66 84 112
64 82 110
67 85 113
62 79 105
64 82 109
66 84 113
64 83 110
64 83 112
59 76 101
61 79 105
65 84 112
58 75 100
65 83 110
63 80 105
67 86 114
62 79 105
62 78 104
60 77 102
60 78 104
62 78 103
59 74 98
61 78 104
58 73 96
63 81 106
56 72 96
56 71 95
56 71 93
55 70 93
59 75 100
56 71 94
54 69 91
50 64 84
55 69 91
57 72 95
50 64 84
57 72 95
49 63 84
53 67 87
50 64 85
50 63 83
49 63 83
52 64 83
50 63 82
49 62 81
58 72 93
44 56 74
48 61 81
51 64 83
41 51 67
45 56 73
40 50 65
40 50 64
45 55 71
45 56 72
34 42 54
29 36 46
36 45 58
34 43 55
32 39 50
35 43 55
29 35 45
35 43 55
28 35 44
35 43 54
26 31 40
27 33 43
26 32 42
25 31 39
18 22 28
18 22 27
29 35 44
31 38 48
32 39 51
37 46 58
33 41 52
37 46 60
37 45 57
39 48 62
34 42 54
38 46 59
39 48 62
37 45 58
39 47 60
37 46 59
33 41 53
35 43 56
41 50 64
43 52 67
36 45 58
37 46 59
36 45 57
38 47 60
33 40 52
45 55 70
35 43 56
38 47 60
33 40 51
34 42 54
34 42 54
35 44 57
30 37 48
33 40 52
36 45 57
38 47 60
32 40 52
35 43 56
35 43 55
35 43 54
26 32 41
24 29 38
20 24 31
18 22 28
26 31 40
26 32 41
27 33 41
24 30 38
30 36 46
27 33 42
25 31 40
34 42 53
40 50 64
36 44 57
36 45 58
33 41 54
37 46 60
44 55 71
43 53 69
42 53 68
38 46 60
40 50 65
40 49 64
41 51 67
37 47 61
49 60 77
49 61 80
45 57 75
48 61 79
48 61 79
53 67 87
51 64 85
52 66 87
46 58 76
53 68 90
56 72 96
56 71 95
54 68 91
55 69 90
50 64 85
57 72 95
55 70 93
57 73 97
52 67 88
59 75 100
59 76 101
61 78 104
57 72 95
57 73 95
57 73 97
61 79 104
57 73 97
61 79 105
61 78 103
60 76 101
59 76 101
62 79 104
66 86 115
63 81 107
61 79 105
62 80 106
67 84 111
62 80 107
64 82 109
65 83 111
62 80 107
61 77 103
64 81 108
64 82 110
65 84 113
65 84 112
64 83 110
64 83 111
66 86 116
62 80 106
65 83 110
60 78 105
66 85 114
64 83 110
65 83 111
65 85 114
66 84 112
69 88 117
65 83 111
65 84 112
69 90 120
69 89 120
65 84 113
70 90 121
69 89 120
66 86 115
69 89 119
68 88 118
69 90 120
71 91 121
69 89 119
68 87 116
68 88 119
70 90 119
68 88 118
69 90 121
69 90 121
71 92 123
65 84 113
70 89 119
70 90 119
72 92 122
70 91 121
71 92 123
68 88 118
72 93 123
67 87 117
68 87 116
71 91 121
72 92 122
72 92 122
71 92 123
71 91 121
71 91 122
72 93 124
71 92 124
70 90 120
72 93 124
71 92 123
72 92 123
73 94 125
72 93 125
68 87 116
70 90 120
72 93 125
72 92 122
73 94 125
72 93 124
70 91 123
70 90 120
71 91 121
73 95 127
73 95 128
69 89 120
73 93 123
73 93 124
72 93 125
73 95 127
72 93 124
70 91 121
73 94 125
72 92 123
70 91 122
71 92 123
73 94 126
73 94 125
71 92 122
73 93 124
74 95 126
73 94 126
72 93 123
72 93 125
71 93 127
71 93 126
72 93 125
71 91 122
73 94 126
72 93 124
71 91 121
74 95 127
73 95 127
71 92 123
72 93 126
72 93 125
73 94 125
73 94 126
75 96 127
72 93 125
74 95 126
74 95 127
74 95 126
73 94 126
74 96 128
74 95 128
72 93 125
73 95 126
73 94 126
71 93 125
74 95 126
74 95 126
73 93 124
74 94 125
71 92 123
73 94 127
73 94 126
73 93 124
72 94 127
72 93 124
72 93 124
72 93 125
74 95 127
73 95 127
73 94 124
72 92 124
72 93 126
69 89 118
74 96 128
72 93 125
73 94 126
71 92 124
70 91 121
73 93 124
70 91 122
73 94 126
74 95 128
72 92 123
70 91 122
71 91 121
67 88 120
73 94 125
72 93 125
73 94 126
72 94 127
73 94 126
72 92 123
73 93 124
73 95 127
72 92 123
73 94 125
71 92 123
72 93 125
72 93 125
73 93 124
73 94 125
68 88 119
72 93 124
73 94 125
71 91 121
71 91 121
67 88 119
72 92 123
70 90 120
71 91 123
71 92 123
71 92 124
70 91 122
72 93 125
71 92 122
70 91 122
70 91 122
70 91 122
72 92 123
69 91 122
70 91 122
69 90 120
71 91 120
70 89 117
71 92 124
72 91 121
70 90 120
69 89 119
70 90 121
67 86 116
71 92 124
67 87 117
69 89 120
69 90 120
70 90 120
70 90 120
72 93 124
71 91 121
70 90 120
69 89 119
68 89 120
71 90 120
68 88 118
70 90 120
69 89 119
67 87 116
68 88 119
69 89 118
69 88 117
68 89 119
67 86 114
66 86 115
68 88 117
67 86 114
66 85 113
69 89 118
67 86 114
68 88 118
67 87 116
65 84 113
66 85 114
67 85 113
70 90 119
65 84 112
66 85 114
66 85 114
63 81 108
60 77 102
58 76 102
65 83 109
63 82 109
62 80 107
65 83 109
59 76 101
57 74 98
63 81 107
63 80 107
60 78 104
59 76 101
61 78 103
59 75 99
57 73 97
60 78 105
59 75 100
52 67 88
58 73 97
58 73 96
52 66 88
52 67 88
56 72 96
59 75 99
55 70 92
55 69 91
57 72 96
57 72 96
54 69 91
59 73 95
48 61 81
56 71 93
46 59 78
51 63 81
50 63 82
48 62 82
46 58 76
50 63 83
48 60 78
49 62 81
47 59 78
44 56 74
47 60 78
44 55 71
48 60 79
48 59 76
36 45 59
39 49 64
42 52 68
38 47 60
33 41 53
42 52 66
41 51 66
34 42 55
34 42 54
32 39 51
34 42 54
28 35 44
35 43 55
27 33 42
31 38 49
29 35 44
27 33 42
24 29 37
25 31 39
19 23 29
26 31 40
22 27 35
24 29 37
21 26 32
24 29 37
20 25 32
25 31 39
28 36 46
33 41 52
35 44 56
34 42 54
36 44 57
35 43 55
35 43 56
35 43 55
37 46 59
36 44 56
39 47 60
36 45 58
36 44 56
41 49 63
34 42 54
36 43 54
35 43 56
33 40 52
36 44 57
41 49 63
36 44 55
38 47 60
34 41 52
32 39 50
37 45 57
34 42 53
34 42 54
35 43 54
27 33 43
26 32 41
16 20 26
24 30 38
24 29 37
16 20 25
20 24 30
25 31 40
22 26 33
26 32 40
24 30 38
26 32 41
26 31 40
24 29 38
30 38 49
35 43 56
35 44 57
33 41 52
31 38 49
36 45 59
37 46 60
28 35 45
41 51 66
40 49 64
46 57 75
39 48 62
45 57 74
45 57 74
45 56 72
40 50 65
46 57 73
55 68 89
50 64 84
50 63 83
45 57 73
49 63 84
51 64 84
52 65 85
54 69 92
55 69 90
53 66 87
53 67 88
52 66 86
56 71 94
56 70 93
53 68 89
58 74 99
61 78 102
55 70 92
58 74 98
56 72 96
57 71 93
59 75 100
59 75 100
59 76 100
55 71 94
61 77 102
59 75 101
62 80 106
60 78 106
68 88 117
61 78 104
62 80 109
61 78 104
63 81 108
63 82 110
63 81 108
60 77 101
61 78 104
64 83 111
66 84 112
65 85 114
65 84 112
64 82 110
63 82 110
63 81 108
62 80 106
67 86 114
67 86 114
68 88 117
66 85 112
69 88 118
68 88 117
70 89 118
66 84 112
67 87 116
68 87 115
68 88 117
67 87 116
68 87 116
68 88 117
71 90 118
68 87 117
67 86 114
65 84 113
66 86 115
68 88 118
68 88 117
71 91 121
71 92 123
69 88 118
70 91 122
69 89 119
68 88 118
68 89 120
70 90 120
70 90 121
68 88 119
70 90 120
67 88 118
68 88 117
68 88 118
68 87 116
69 90 121
71 92 122
72 93 124
69 89 120
71 92 123
73 93 122
69 90 120
70 90 120
71 91 122
74 94 125
70 91 122
71 92 124
71 92 123
72 93 124
73 94 125
68 88 116
70 90 120
71 91 122
70 91 123
72 92 123
71 91 122
71 91 121
73 94 126
70 91 123
69 90 121
72 92 123
69 90 121
74 95 127
72 92 122
72 94 126
72 92 123
72 93 124
74 94 125
72 93 125
73 94 126
72 93 125
72 93 123
71 92 123
72 94 126
72 93 125
72 94 126
72 93 125
72 93 125
71 92 124
73 93 125
72 93 124
72 92 123
72 93 124
74 96 128
73 94 126
73 94 125
74 95 125
73 94 126
72 93 124
73 94 126
72 93 125
73 94 125
73 94 127
73 94 126
72 93 124
72 94 127
72 94 126
71 92 123
73 94 125
73 94 126
72 92 124
73 94 126
73 94 127
73 94 125
74 95 127
73 94 125
72 93 124
73 95 127
72 94 126
70 91 122
72 93 125
73 94 125
70 91 123
70 90 121
72 94 126
73 94 126
73 94 126
73 94 126
74 95 128
73 94 126
72 92 123
74 94 125
74 94 125
73 94 126
75 95 125
73 94 126
73 94 125
74 94 125
72 93 125
71 93 125
72 94 126
72 93 124
73 94 126
72 94 126
72 93 123
71 91 121
73 94 126
73 93 124
74 95 126
73 94 126
72 93 124
72 93 125
71 92 123
69 90 120
74 95 127
70 92 123
72 92 123
72 94 127
74 95 127
72 94 126
69 90 120
71 93 125
73 94 125
72 92 124
71 92 123
73 94 125
73 94 126
71 92 124
73 94 125
71 91 122
73 94 125
70 91 121
71 92 122
69 90 120
72 93 123
72 93 125
69 89 119
72 93 124
72 93 123
70 92 124
72 92 122
71 92 124
69 89 119
72 92 123
71 92 124
71 91 121
71 92 122
67 87 117
65 84 113
70 90 120
70 91 122
68 89 119
67 87 116
67 87 118
70 90 120
69 90 120
66 85 114
67 87 116
68 88 117
69 89 119
69 89 120
67 88 118
74 94 123
69 89 119
67 86 114
69 89 119
68 88 118
67 87 117
68 87 117
68 88 118
70 90 121
66 86 115
67 87 117
69 89 119
66 85 113
66 86 116
66 85 113
66 85 114
65 84 113
64 84 113
65 83 111
64 83 111
66 85 113
67 86 115
63 80 107
67 86 115
67 87 117
68 87 116
64 81 108
66 85 113
63 82 109
67 86 114
63 81 109
63 81 107
64 82 109
65 83 110
64 83 110
62 79 105
64 81 108
62 80 106
62 80 107
63 80 107
61 78 104
60 76 101
58 75 100
55 70 92
60 77 102
57 74 99
62 79 105
60 77 102
61 79 107
59 75 99
55 70 94
51 65 86
57 72 96
60 76 100
56 71 93
52 66 86
54 68 89
58 73 97
52 66 88
54 69 91
55 71 93
48 62 82
47 59 77
51 65 85
55 69 90
53 66 87
48 61 80
47 59 77
48 61 80
46 58 76
42 53 70
43 55 72
40 50 65
44 56 73
44 55 71
47 58 75
42 53 70
42 53 69
42 52 66
41 51 67
33 41 52
42 51 66
40 50 65
35 43 56
42 52 67
35 44 56
32 40 51
26 33 42
23 29 37
33 40 52
27 34 43
22 27 34
25 31 40
24 30 38
30 37 47
25 30 37
23 28 35
21 25 32
19 23 29
15 18 23
21 26 32
23 27 34
15 18 23
16 20 25
24 29 37
23 28 35
28 35 44
26 33 42
30 37 47
29 35 45
30 38 48
31 38 48
35 43 55
29 35 46
28 35 45
33 40 51
30 37 48
33 41 52
30 37 47
34 41 51
28 35 45
28 35 45
36 43 55
29 37 47
29 36 45
28 34 44
19 23 30
23 28 35
20 24 31
13 16 20
17 21 26
24 28 36
19 23 29
19 23 29
20 24 31
23 27 35
24 29 37
22 27 34
22 27 35
27 34 43
28 34 43
32 40 51
33 40 51
27 33 43
32 39 49
31 39 49
33 40 51
33 40 52
34 42 54
35 44 57
36 45 58
38 47 62
37 46 59
41 52 67
40 50 65
37 46 60
42 53 69
40 50 65
44 55 71
42 53 69
44 56 74
46 58 75
49 61 80
45 57 75
51 65 85
50 62 82
49 62 82
48 61 80
54 68 89
51 65 86
48 62 81
56 70 92
49 62 82
57 72 94
54 69 92
56 70 93
51 65 86
51 65 87
59 75 98
57 73 98
57 72 96
56 72 95
59 76 101
64 82 109
61 78 104
60 76 101
60 77 103
63 82 109
58 74 97
63 81 108
61 78 104
57 74 99
57 73 97
65 83 109
60 77 101
60 77 103
62 79 105
62 79 106
60 77 103
64 82 110
59 75 99
64 82 110
61 79 106
66 85 112
64 82 111
67 85 113
66 85 114
69 89 118
66 85 113
64 83 112
65 83 111
65 85 114
69 88 117
64 82 110
67 87 117
69 88 117
66 86 115
64 83 111
67 86 116
66 86 115
67 87 116
68 88 118
65 84 112
69 89 118
64 82 109
66 85 114
68 88 118
70 89 117
66 85 114
69 89 119
66 86 115
68 87 115
67 86 114
70 90 121
68 88 119
67 87 116
67 87 118
71 91 122
68 88 119
69 89 119
70 90 120
68 88 118
70 91 121
73 94 126
69 89 118
70 90 121
69 90 120
70 91 121
70 89 118
71 91 122
69 89 119
72 92 124
69 89 119
72 93 125
73 93 124
70 91 122
71 92 123
69 89 119
70 90 121
71 92 122
69 90 121
71 93 124
71 91 122
72 93 125
75 95 126
72 93 124
73 94 125
72 93 125
72 92 124
73 94 126
72 92 124
72 92 124
71 92 122
72 93 124
70 91 122
71 92 124
71 91 122
72 93 124
71 91 122
70 90 121
73 94 125
69 90 121
72 92 123
72 93 124
73 94 126
71 92 123
71 90 120
71 92 125
70 91 123
74 94 126
72 94 125
71 92 123
73 94 125
72 92 124
71 92 125
70 92 125
73 93 124
72 93 125
72 93 124
73 94 126
74 94 125
73 94 125
72 92 123
73 94 124
72 92 122
73 94 124
72 93 125
73 94 127
72 92 123
74 95 127
72 93 123
71 92 124
73 95 126
73 94 125
73 94 126
73 94 126
73 94 125
72 93 125
72 93 124
70 90 120
73 94 125
73 94 126
74 95 126
71 92 123
72 94 127
72 93 124
75 95 127
74 95 127
72 93 124
73 94 126
71 92 124
71 91 123
70 91 123
73 94 126
71 92 122
72 94 126
72 93 124
72 93 125
71 92 123
73 94 126
73 94 125
75 95 127
71 92 124
71 92 123
72 92 123
70 90 120
72 92 123
71 92 122
72 93 124
69 90 122
70 91 123
72 93 124
72 93 125
73 94 126
73 94 125
71 92 123
70 90 122
72 92 122
72 93 124
70 90 121
72 93 124
74 94 124
71 92 124
72 93 124
72 93 125
71 93 125
71 92 123
71 92 122
70 91 122
72 93 125
69 90 120
72 93 125
73 94 125
73 94 125
71 92 122
71 91 121
70 89 118
72 93 124
71 91 121
72 93 125
71 91 121
71 90 120
71 92 123
71 92 123
70 90 121
71 92 123
68 88 119
68 88 118
70 91 122
70 92 124
70 91 121
70 89 119
69 89 120
72 92 121
67 87 116
67 86 114
71 91 122
71 91 121
68 88 117
70 91 121
71 90 120
70 91 121
65 84 112
68 88 117
68 89 121
69 89 120
65 84 112
70 90 120
66 85 114
66 85 114
66 85 113
67 85 112
67 87 117
68 88 117
64 83 112
68 87 116
65 82 109
64 83 110
68 87 117
67 86 114
68 86 115
67 87 115
67 87 116
64 83 110
63 80 107
67 86 115
60 78 103
63 82 111
65 84 112
63 80 107
61 78 104
63 80 107
63 81 108
66 84 112
65 82 109
63 81 107
60 77 102
59 76 102
61 78 103
58 75 99
61 78 105
59 75 99
59 76 101
60 77 101
62 79 105
60 77 103
59 74 97
59 75 99
56 72 96
56 72 95
54 69 92
62 79 105
56 71 94
56 71 93
55 70 92
53 68 90
58 74 97
54 69 91
54 69 91
52 66 87
50 64 85
55 71 93
54 69 91
50 63 83
50 63 83
51 64 83
49 61 80
57 71 92
50 62 81
51 64 84
44 56 73
43 53 70
48 61 79
40 50 65
38 48 63
45 56 73
39 49 64
43 54 70
43 54 70
41 50 64
37 46 59
38 47 61
37 45 58
39 49 63
35 43 55
33 41 53
28 34 43
32 39 49
38 46 59
29 36 47
32 39 50
23 28 36
30 36 46
28 34 44
25 31 39
26 31 39
19 23 29
20 25 32
18 21 27
24 29 36
18 22 28
18 22 28
21 25 31
26 31 39
14 17 22
16 19 24
11 13 17
10 12 15
17 20 26
16 20 24
17 20 26
21 25 32
18 22 28
25 30 38
20 24 30
20 24 30
18 22 27
26 32 40
17 21 26
21 25 32
18 21 27
21 25 32
16 19 24
22 26 32
15 18 23
15 18 23
13 16 20
16 19 25
24 29 37
20 25 31
24 29 36
21 26 33
16 20 25
24 29 37
22 27 34
19 23 29
26 32 41
27 33 41
26 32 41
26 32 41
38 47 60
25 31 39
32 40 51
26 32 41
30 37 47
34 42 55
32 40 51
37 46 59
33 41 53
34 42 54
39 48 63
41 51 66
38 47 61
39 49 64
40 50 65
41 51 66
46 58 76
41 51 68
47 58 76
44 55 72
47 58 75
51 64 83
43 55 72
43 55 72
46 58 77
48 61 81
49 62 82
47 60 79
54 67 87
51 64 84
50 63 82
59 75 98
51 65 87
53 68 89
55 70 92
54 69 91
56 71 94
59 75 99
57 73 96
62 78 101
63 79 104
60 77 102
56 71 95
57 74 98
58 75 99
57 73 96
56 72 95
58 75 99
59 76 102
61 78 104
60 78 104
58 74 98
58 74 98
65 84 112
59 76 102
60 77 103
61 78 103
62 80 107
61 80 108
61 78 104
62 79 105
65 84 113
58 74 98
62 79 105
60 78 105
60 78 105
63 81 107
69 88 117
65 84 112
66 84 112
64 81 108
68 87 117
66 84 112
61 79 106
68 88 118
67 88 118
69 88 117
67 87 117
67 87 117
65 85 114
69 88 118
71 92 123
67 86 115
65 84 112
66 86 116
69 88 116
69 88 116
67 87 118
69 89 119
69 89 119
67 87 117
64 84 113
65 84 112
68 88 118
70 91 121
71 91 122
70 90 121
67 87 117
71 91 121
71 91 121
68 89 120
70 90 120
70 89 118
68 88 119
71 92 124
69 88 116
71 92 124
71 92 122
71 91 122
69 89 120
70 91 122
73 93 124
72 94 126
67 86 115
71 91 122
69 89 120
67 88 118
70 91 122
69 89 119
69 89 120
72 92 122
71 91 121
68 88 118
72 93 124
69 89 120
68 88 118
70 91 122
71 91 122
71 91 122
70 90 122
71 92 123
70 90 121
74 95 128
72 93 124
71 92 124
71 92 123
73 93 123
70 91 122
70 91 123
73 94 125
71 93 125
71 92 123
73 94 125
69 90 121
71 92 124
71 93 125
72 93 126
73 93 124
72 93 126
73 95 126
74 95 127
70 90 120
73 94 125
72 93 125
71 92 124
72 94 126
72 93 125
72 93 125
73 93 124
71 92 122
71 92 123
72 93 125
72 94 127
72 94 126
70 92 124
72 93 125
76 96 128
72 93 124
73 94 125
74 95 126
74 95 128
73 94 127
72 93 125
73 94 126
73 94 127
74 95 126
71 91 123
73 94 125
73 94 126
73 93 125
72 94 125
73 94 126
72 94 126
72 92 123
73 95 128
73 94 127
73 94 125
74 95 127
72 94 127
72 93 126
72 93 126
73 95 127
73 93 123
72 92 123
74 95 126
72 93 123
69 90 121
73 94 127
72 92 123
73 94 126
71 93 125
71 92 124
71 93 125
70 92 124
73 94 126
70 90 120
69 90 120
71 91 121
72 92 123
71 91 121
73 93 124
73 93 124
71 91 122
72 92 122
72 93 125
75 96 127
71 91 122
72 93 125
71 92 123
71 91 123
70 91 122
69 90 120
71 92 124
70 90 120
69 89 120
71 92 123
72 92 123
72 92 123
70 91 122
69 90 121
69 89 119
68 88 117
73 93 123
71 91 121
69 90 120
69 90 120
72 92 123
71 92 123
70 91 121
69 90 120
69 89 119
69 89 120
68 88 118
69 90 120
71 91 120
70 90 120
70 91 122
70 90 120
69 88 117
70 90 120
71 91 121
67 87 117
71 92 123
68 88 118
69 89 119
65 85 114
68 88 118
69 88 117
67 87 116
67 86 116
68 86 114
70 90 121
70 91 121
72 93 123
68 86 115
65 84 113
69 88 118
62 79 105
66 86 116
68 87 117
70 90 120
66 86 115
67 86 114
68 86 115
65 84 113
67 87 116
68 88 118
65 85 114
65 83 110
66 84 112
66 86 115
66 84 112
68 86 113
65 84 111
62 80 107
60 76 101
66 85 114
65 85 114
66 85 114
62 80 108
62 80 107
62 79 106
61 77 102
60 76 100
65 83 110
60 77 104
63 81 108
57 73 98
64 82 110
63 81 109
62 79 104
57 73 96
62 79 104
59 75 100
59 75 98
58 74 99
55 70 93
59 74 98
60 75 99
59 75 101
61 77 101
57 72 96
55 70 92
59 75 99
59 76 101
53 68 91
56 70 92
49 62 82
54 68 89
49 62 81
54 69 91
53 68 90
52 66 87
50 63 83
48 60 78
53 67 87
49 62 81
54 68 89
45 57 74
48 61 80
49 62 81
50 63 82
43 55 73
47 59 77
46 58 75
40 50 65
41 51 66
38 48 63
37 46 60
33 42 54
35 43 55
41 51 66
33 42 54
35 44 56
40 50 64
31 38 48
38 47 60
34 42 54
33 40 52
27 34 43
27 34 44
34 42 53
30 37 48
32 39 49
28 34 43
26 31 39
27 32 41
28 34 43
20 24 30
21 26 33
21 26 32
22 27 34
16 20 25
14 17 21
15 18 23
18 22 27
25 31 39
15 18 23
24 28 36
16 19 24
15 18 23
17 20 26
19 23 29
15 19 23
15 18 23
13 15 19
10 12 15
17 21 26
17 21 26
12 15 19
15 18 22
20 24 30
12 15 18
15 18 23
18 21 27
16 20 25
18 22 27
17 20 26
21 25 32
24 29 37
18 22 27
23 28 35
24 29 37
23 27 34
24 29 36
28 35 44
29 35 45
23 29 37
30 37 47
30 38 49
36 45 58
32 39 49
29 36 46
29 36 46
37 45 58
30 37 48
44 54 68
38 48 61
36 44 56
33 41 52
37 45 58
41 51 66
43 54 70
40 50 64
40 50 65
44 55 71
39 49 64
45 55 72
45 57 75
46 59 78
44 55 72
42 53 69
49 62 80
51 64 83
55 69 90
46 58 76
51 65 87
49 62 82
50 64 84
55 69 91
48 62 82
49 64 85
57 73 98
52 66 88
52 66 87
54 69 91
56 71 94
59 74 98
48 62 83
56 72 95
60 77 101
58 74 98
60 77 101
55 70 92
61 77 101
61 77 102
62 80 106
61 78 103
58 73 97
61 78 103
64 81 108
59 77 103
58 75 100
61 78 105
61 79 105
63 80 107
61 79 106
62 80 106
65 83 110
64 82 109
58 75 100
64 83 112
64 83 111
65 84 112
63 81 107
62 80 108
64 82 110
64 83 110
63 82 110
64 82 108
67 86 115
65 83 111
63 81 108
63 81 109
64 82 110
66 85 114
70 88 117
68 88 116
67 86 116
68 87 117
65 84 112
66 85 114
66 85 114
67 87 117
66 86 115
65 83 109
69 88 118
67 86 116
70 90 119
67 86 115
68 87 115
66 86 116
72 93 124
66 85 114
69 89 120
69 90 120
68 87 117
68 89 120
70 89 119
67 86 115
69 89 119
70 90 121
70 91 122
68 87 117
69 90 121
68 87 117
66 86 115
69 89 119
71 91 121
70 90 121
70 90 120
71 91 122
69 90 122
72 93 124
71 91 122
70 91 122
70 91 121
71 92 123
73 94 126
70 90 121
70 90 119
71 92 122
74 94 125
71 92 123
72 92 122
71 92 123
71 92 124
72 92 123
72 93 124
72 93 124
71 92 123
72 94 125
71 92 123
69 90 121
72 92 122
73 94 125
71 91 122
72 93 124
72 92 123
72 92 123
69 90 121
71 92 124
72 92 122
71 91 121
72 92 123
73 94 124
72 93 124
70 92 123
72 93 124
71 92 124
71 93 125
71 93 127
72 94 127
72 93 125
74 95 127
72 92 122
72 93 124
73 94 125
69 89 120
71 92 122
73 94 126
72 93 124
75 95 126
74 95 126
71 92 123
74 95 127
72 94 126
74 95 127
72 94 126
73 94 125
72 93 125
72 93 126
74 95 127
73 94 125
73 94 126
73 95 127
72 92 122
72 93 124
73 94 124
72 94 127
72 93 123
73 93 125
73 94 125
72 93 124
73 94 126
73 95 127
74 95 127
74 96 128
72 93 125
73 94 125
73 93 124
72 93 125
71 93 125
74 95 128
73 94 125
71 92 123
73 93 123
71 92 123
72 93 124
70 91 122
70 90 119
71 91 123
72 93 125
72 93 124
73 95 127
73 94 125
71 92 124
70 91 121
71 93 125
73 94 126
72 93 124
72 92 123
70 91 122
70 90 119
72 93 125
72 93 125
71 92 124
71 93 124
68 87 116
71 91 121
72 93 124
72 92 122
73 94 125
73 94 126
73 93 124
71 91 123
71 92 124
72 92 123
70 91 123
71 91 122
70 90 119
71 92 122
71 91 122
73 94 125
70 91 122
68 88 119
69 90 120
71 92 124
70 90 121
73 94 125
72 92 123
71 91 121
69 90 120
70 90 121
69 88 116
67 87 116
70 91 122
68 89 120
70 90 120
70 91 121
70 91 122
71 92 123
72 93 123
68 89 120
69 89 118
70 90 119
66 85 114
69 89 119
70 89 118
66 85 114
67 86 116
70 90 120
67 86 115
69 89 120
68 86 114
67 86 114
70 89 118
67 86 114
69 89 119
68 86 114
68 88 119
65 84 113
64 82 109
69 88 116
66 85 113
65 84 114
63 81 108
65 84 112
64 83 110
65 84 113
67 86 114
63 81 108
64 82 110
68 87 116
68 88 117
65 83 110
62 79 106
64 82 109
65 84 114
64 82 108
64 82 109
60 77 103
61 79 107
59 76 101
61 77 102
64 81 107
61 78 103
57 73 98
54 69 92
60 77 103
64 83 110
58 74 99
58 74 99
57 73 96
59 76 100
60 76 101
62 79 104
61 78 104
53 68 90
60 76 101
57 73 96
52 66 88
57 72 95
55 71 94
56 70 92
59 75 98
55 70 92
52 66 87
55 69 91
55 69 91
51 64 83
48 61 80
53 67 87
52 65 85
51 65 85
54 68 88
50 63 82
45 56 73
55 70 92
45 57 74
48 60 78
48 60 77
45 57 74
41 51 67
44 55 71
47 60 79
41 52 67
39 48 63
43 54 70
42 52 67
36 44 57
38 48 61
34 43 56
39 49 64
40 50 63
37 46 59
32 40 52
32 39 50
30 37 47
35 43 55
34 42 53
30 38 49
37 45 58
25 30 38
25 31 39
27 33 42
29 36 46
22 27 34
23 29 36
24 29 37
21 25 32
21 26 33
21 25 32
19 23 29
14 17 21
19 23 29
18 21 27
15 18 23
14 17 21
20 24 31
15 18 23
18 22 28
23 27 34
17 21 26
17 20 25
19 23 29
18 21 26
20 24 30
21 25 32
21 25 31
15 18 22
20 24 30
17 20 25
15 18 23
19 23 30
21 25 32
15 18 23
23 28 36
22 27 34
17 21 26
24 30 38
20 25 31
17 21 26
26 31 40
25 31 39
25 31 39
24 30 38
31 37 47
24 30 38
29 35 44
27 32 41
27 34 43
30 37 49
31 39 50
35 43 55
30 37 47
33 41 53
38 47 61
35 43 55
39 49 62
39 48 61
41 52 67
39 48 62
44 54 71
36 46 60
45 56 73
48 60 77
42 52 68
43 54 71
48 59 77
43 54 71
51 64 84
42 52 67
50 64 83
52 65 85
49 62 81
47 60 79
48 60 78
52 64 83
52 65 86
49 63 84
51 64 84
55 69 91
55 69 92
53 67 89
52 66 88
58 74 97
57 72 94
58 74 98
56 72 95
60 76 99
51 65 86
56 72 96
57 72 96
59 74 98
59 77 103
57 72 96
58 75 100
60 77 103
59 76 101
63 80 106
59 75 100
60 77 102
60 77 102
60 77 103
59 76 101
64 82 110
61 78 104
63 80 106
61 78 104
66 85 113
63 80 107
59 76 101
63 81 109
65 83 110
64 82 109
66 84 112
67 86 114
66 86 115
62 79 106
65 84 112
65 84 113
67 86 113
60 78 104
64 83 112
66 85 113
68 88 117
67 85 113
66 84 112
64 83 111
66 84 111
67 87 116
67 86 115
67 86 116
69 88 118
67 87 117
70 89 118
71 90 119
68 87 116
68 87 117
69 89 120
68 87 115
66 86 115
69 88 117
68 87 117
69 89 119
68 88 118
67 86 115
68 87 117
71 91 120
69 88 118
68 88 118
70 90 121
69 89 119
70 90 120
68 88 117
69 88 118
68 88 118
70 89 119
69 91 122
70 91 122
69 88 117
68 88 118
71 91 122
73 93 124
71 91 122
69 90 121
69 90 121
73 93 124
71 91 123
73 93 124
69 89 120
73 93 124
71 91 123
70 89 119
70 91 122
71 92 124
70 90 121
71 91 122
70 90 121
71 92 123
72 93 124
68 89 120
70 90 122
70 91 122
72 92 124
69 89 120
71 91 122
71 92 123
71 92 123
71 92 125
73 94 125
74 94 125
71 92 122
74 95 126
72 94 126
73 93 125
72 94 126
73 95 127
75 95 124
72 93 123
72 93 125
74 94 125
74 95 127
73 93 123
72 93 124
70 91 122
72 93 125
72 93 124
72 94 126
72 93 124
73 94 125
74 95 125
72 93 125
71 92 123
74 94 126
74 95 128
73 95 127
75 95 126
72 93 125
72 93 125
72 93 124
74 96 128
71 92 124
73 94 126
72 92 123
72 93 125
72 93 124
73 93 125
72 93 125
70 91 121
74 94 125
71 92 124
74 95 126
72 93 124
75 95 127
73 94 125
71 92 123
73 93 124
75 96 127
72 93 124
72 94 126
72 94 126
71 92 123
71 93 126
72 93 125
71 92 123
70 91 121
72 93 124
71 93 126
73 94 126
72 93 126
70 91 122
73 94 125
69 90 122
73 94 125
70 91 122
73 94 127
72 93 125
70 91 123
72 93 124
71 93 125
70 90 121
69 90 121
72 93 124
72 93 124
71 91 122
69 90 121
72 94 126
71 91 121
74 95 127
73 94 125
72 93 125
69 89 118
70 91 122
71 92 124
72 93 125
71 92 123
71 92 122
72 93 124
71 92 122
70 90 120
71 91 122
70 90 120
70 90 119
71 91 122
70 90 120
70 89 118
72 92 122
71 92 122
71 91 122
71 90 120
68 88 118
70 91 122
71 91 121
71 91 122
68 89 119
70 90 120
70 91 122
70 90 120
68 88 117
70 91 121
70 90 119
72 93 125
72 93 124
67 87 117
68 87 116
71 90 120
68 87 116
64 82 108
67 86 116
69 89 119
68 87 117
65 84 113
67 86 116
67 86 115
67 86 115
67 86 115
64 82 110
65 85 115
66 85 114
67 86 115
66 85 113
68 88 119
67 85 112
66 85 114
63 83 111
64 82 110
72 91 120
63 81 109
64 83 111
67 85 113
65 83 110
65 84 113
68 86 113
64 83 111
62 80 106
65 84 112
65 85 113
65 83 110
65 83 111
58 75 100
58 75 100
63 81 108
63 80 106
62 80 105
63 80 105
63 80 106
59 76 102
61 78 103
64 83 110
60 77 103
57 73 96
55 70 93
60 77 101
58 75 99
63 80 105
56 72 96
59 75 99
61 78 103
59 75 99
52 66 88
53 67 89
60 77 101
59 75 100
54 69 91
56 71 93
53 68 89
56 71 95
48 61 81
55 69 90
52 65 85
54 68 89
48 60 78
54 68 89
48 60 78
49 62 82
48 61 79
48 61 80
46 58 76
52 64 84
48 60 78
45 57 75
41 52 68
44 55 71
46 57 75
48 61 79
43 53 69
40 50 64
38 48 62
40 50 64
39 49 64
37 45 59
42 52 67
34 43 56
38 48 62
35 42 54
34 42 54
32 39 50
34 42 54
35 43 55
31 38 49
25 31 40
31 38 49
31 38 48
32 40 51
29 36 45
26 32 41
22 27 34
24 29 38
30 36 46
28 34 44
24 29 37
22 27 34
23 28 35
23 28 35
22 27 34
23 28 35
18 21 27
18 22 28
21 26 32
22 26 33
19 23 29
19 22 28
17 20 26
18 22 27
18 22 27
18 22 27
22 27 34
16 20 25
19 23 29
18 22 27
21 26 32
23 27 34
26 32 40
19 24 30
20 25 32
22 27 33
24 28 36
21 26 33
24 29 37
23 28 35
28 34 43
29 35 45
29 35 45
36 44 56
22 27 34
28 34 44
30 36 46
36 44 56
31 38 49
36 44 56
32 39 51
35 43 56
33 41 52
33 40 52
37 45 58
41 50 65
42 52 66
38 47 60
39 48 62
38 47 60
44 55 70
42 52 67
49 61 80
44 55 71
40 50 65
42 52 67
51 64 83
42 53 69
46 58 76
45 56 73
48 61 79
49 62 80
51 64 83
47 59 77
47 59 77
50 64 84
54 69 90
56 72 94
52 66 87
53 68 90
50 63 81
52 66 86
53 67 87
57 72 94
51 64 85
55 69 91
57 73 96
54 69 91
60 76 102
54 69 91
59 75 98
58 73 97
62 78 101
58 75 99
54 68 91
53 69 92
63 80 106
60 77 103
60 77 104
57 72 95
57 75 100
57 74 99
59 76 102
61 78 103
64 82 110
63 80 107
59 76 102
62 81 109
63 81 108
67 86 114
59 75 100
65 84 112
66 85 114
66 86 115
63 81 108
66 84 113
61 79 106
65 84 111
68 87 114
64 82 110
68 87 116
65 84 113
66 84 110
66 84 112
67 86 114
65 85 113
65 84 112
67 86 114
66 85 113
66 85 114
66 85 114
64 83 111
64 82 111
70 89 119
64 83 111
67 87 117
65 84 112
65 84 113
70 90 120
68 87 117
67 86 114
69 90 121
70 90 119
68 88 118
67 86 116
69 89 120
68 87 115
70 90 120
69 90 121
70 91 123
69 89 118
66 86 115
69 90 120
71 91 122
69 89 119
70 90 120
69 88 118
69 89 118
69 90 122
71 91 122
70 91 123
71 91 121
74 95 127
70 89 118
69 89 120
71 92 123
68 88 118
72 93 124
73 93 124
71 92 123
72 93 124
73 93 123
71 92 123
71 92 122
72 92 123
71 91 120
74 95 126
71 91 121
73 93 124
72 92 122
70 90 122
74 95 126
73 94 125
70 92 123
71 91 122
73 94 125
73 93 124
72 93 125
72 94 126
72 93 124
73 93 124
73 93 123
71 92 125
70 91 122
73 93 125
69 90 121
72 93 125
72 94 127
72 93 124
72 92 123
73 93 124
73 94 126
72 93 124
72 92 124
73 94 126
72 93 125
71 92 122
73 94 126
71 92 123
73 94 127
72 94 127
72 92 122
71 92 122
71 92 123
72 93 124
72 93 125
74 94 125
72 93 124
73 94 125
71 91 122
72 93 124
74 95 128
72 92 123
75 95 126
73 94 126
72 93 124
71 92 122
72 93 125
72 93 125
73 94 126
72 94 126
73 94 125
72 93 125
71 93 125
73 94 125
74 95 126
71 92 123
71 92 123
72 92 121
73 94 125
73 94 125
74 95 126
73 93 124
74 95 127
73 95 127
74 95 127
71 93 124
72 94 126
74 95 126
71 93 125
73 94 124
71 92 124
71 92 123
71 92 124
69 90 120
71 92 123
71 93 125
72 93 125
70 91 121
70 91 122
72 93 125
71 92 123
70 91 122
71 92 123
74 94 124
73 94 125
71 93 125
72 92 123
69 89 120
72 92 123
72 93 125
70 91 123
68 88 118
69 89 119
71 91 122
68 88 118
71 92 123
73 94 125
66 85 115
71 91 122
72 93 124
72 92 122
69 90 121
69 89 119
71 91 122
71 92 123
68 88 118
70 90 121
68 88 119
70 91 122
67 86 115
70 89 118
69 89 119
71 91 122
71 91 122
70 90 121
69 89 119
69 90 121
70 90 119
67 86 116
68 88 118
68 88 118
66 86 115
71 91 121
67 87 116
68 87 116
65 84 113
70 90 120
69 89 119
71 92 123
68 88 117
71 90 120
68 87 116
65 84 113
68 88 118
65 83 111
68 87 115
69 88 117
70 90 120
67 85 114
66 85 114
69 88 117
66 85 114
68 88 118
69 89 118
60 78 104
65 84 112
66 85 113
66 85 113
65 84 114
65 83 110
63 81 107
63 80 105
64 82 109
64 82 109
66 84 110
65 83 111
65 83 110
59 77 103
66 85 113
62 80 108
61 77 102
61 80 108
66 83 110
59 77 103
62 79 104
59 75 99
60 77 102
62 80 107
60 77 103
61 78 104
56 72 96
64 81 106
62 79 103
57 73 97
56 72 96
59 75 99
59 74 98
58 74 98
55 69 91
53 68 90
54 69 91
54 68 90
51 64 84
49 63 83
51 66 88
47 59 78
54 67 88
54 68 90
51 65 85
53 67 88
53 67 88
52 66 86
45 57 75
49 62 80
48 61 80
45 56 73
47 59 77
46 58 76
41 51 66
47 59 78
53 67 87
46 57 75
46 58 77
44 55 71
42 53 69
44 55 72
38 47 61
36 45 58
37 46 59
45 55 70
41 51 65
34 42 55
34 42 54
43 53 69
36 45 58
38 47 60
32 40 52
36 44 57
31 38 49
22 27 36
38 47 60
31 38 49
34 42 54
31 39 50
35 42 54
29 36 46
29 35 45
22 27 34
25 30 37
27 33 42
22 27 35
24 29 37
23 28 36
24 30 37
20 24 30
23 28 35
18 22 28
24 29 37
19 23 29
17 21 26
22 27 34
21 26 32
17 21 26
18 22 28
19 23 29
22 27 34
21 25 32
20 24 31
19 24 30
16 19 25
25 31 40
22 26 33
25 31 39
20 24 30
27 32 41
20 24 31
28 33 42
27 33 43
24 29 37
24 29 37
27 33 42
26 32 41
27 33 41
24 30 39
25 31 39
33 40 51
32 40 51
36 44 56
28 34 44
36 45 57
33 41 52
37 45 58
39 48 62
37 46 59
35 43 56
42 52 67
36 45 58
37 47 61
41 51 67
46 58 75
43 55 71
40 50 64
42 53 69
40 50 64
43 54 71
41 51 66
49 61 80
47 60 78
43 54 70
48 61 79
48 61 81
50 63 83
49 62 82
44 56 74
55 70 92
53 67 87
57 72 94
48 61 80
53 68 89
54 69 92
53 68 90
55 70 92
52 67 89
59 75 100
55 70 92
52 66 87
58 73 97
59 75 99
48 62 82
60 77 102
57 72 95
54 68 90
54 69 92
60 76 101
60 77 102
56 71 94
54 68 89
60 77 102
62 79 105
62 79 104
60 77 102
58 73 97
60 77 102
64 82 109
64 82 110
59 76 102
59 77 103
67 85 113
62 80 107
59 76 102
62 80 107
60 78 105
65 83 110
61 80 107
65 84 113
65 84 112
66 85 114
64 82 110
63 82 110
64 83 110
65 84 112
64 82 110
64 83 111
62 80 107
65 83 109
69 88 118
66 85 113
63 81 107
66 85 114
69 89 119
67 87 118
66 85 114
68 88 117
69 87 115
66 86 116
69 89 120
67 86 115
66 85 113
70 89 119
67 87 116
70 90 119
69 89 119
68 87 117
69 89 119
68 87 116
71 92 123
70 89 119
66 86 114
69 87 116
69 89 120
67 86 114
68 87 116
70 91 122
68 87 117
66 87 117
71 91 120
68 88 118
69 88 118
68 89 119
67 87 116
70 91 123
69 89 119
70 90 120
70 90 120
69 89 120
71 91 122
70 91 121
71 91 121
69 89 120
71 92 123
69 91 122
70 91 121
69 89 120
70 91 122
71 92 124
71 92 123
72 93 124
71 92 123
71 92 123
72 93 125
70 90 121
71 92 125
72 93 125
70 91 122
68 88 117
69 88 117
72 93 124
68 89 119
71 92 122
72 93 125
70 90 120
73 93 124
73 94 125
72 93 125
73 95 126
72 93 125
71 92 123
71 92 122
70 91 123
71 93 124
71 91 121
71 91 121
70 91 122
73 94 125
72 93 125
71 92 124
71 92 124
73 94 126
73 94 125
72 93 124
71 92 123
72 93 124
73 94 125
73 94 126
71 92 123
71 92 124
73 94 126
72 94 126
74 94 125
73 93 123
71 92 124
72 94 127
74 94 125
72 94 125
74 95 127
73 95 128
75 96 127
73 94 125
70 91 122
72 94 126
73 93 124
72 93 125
73 94 124
71 92 123
72 94 128
72 93 125
72 92 123
74 95 126
71 92 124
71 92 123
72 92 122
74 94 124
73 94 125
70 91 122
72 93 124
73 94 125
70 91 122
69 88 117
73 94 125
71 92 124
71 91 122
71 92 123
72 93 124
71 91 122
72 93 125
72 93 125
72 92 122
71 91 122
70 90 121
73 93 124
71 91 122
73 93 123
73 94 125
72 92 123
71 91 122
72 93 124
69 89 119
70 90 120
69 89 119
70 90 121
73 94 125
71 92 124
70 91 122
72 93 125
72 92 122
72 91 121
70 91 123
72 93 124
69 89 120
69 89 120
70 90 119
70 91 121
71 93 125
73 94 125
71 91 121
70 90 120
68 89 119
70 90 120
68 88 117
67 87 117
65 85 114
68 88 118
70 90 120
71 91 122
69 89 120
66 85 113
68 88 116
69 89 118
71 91 121
69 89 119
68 88 119
69 89 119
69 90 120
67 86 114
71 91 122
65 83 110
67 86 114
69 89 119
70 90 119
67 86 114
67 87 117
63 81 108
67 86 115
63 82 110
67 87 116
67 87 116
65 83 111
67 85 114
65 84 113
68 87 117
69 88 116
67 86 116
63 82 109
66 84 112
67 86 114
69 89 118
65 83 110
61 78 105
64 83 111
66 85 114
70 90 121
61 79 106
64 83 111
63 80 107
61 78 104
61 78 103
65 84 113
65 83 110
62 80 107
61 79 105
58 74 98
62 79 105
65 84 113
60 76 101
62 79 104
59 75 100
54 70 94
61 77 101
58 74 97
63 80 105
59 74 98
56 72 96
56 71 94
59 76 101
58 74 98
62 78 102
55 71 95
58 73 97
58 74 98
53 68 90
55 70 92
60 77 102
58 73 96
54 69 91
55 70 92
52 66 87
55 70 92
53 67 89
55 69 90
52 65 85
52 66 87
53 67 87
50 64 85
43 54 71
49 61 80
44 55 71
50 63 82
53 67 88
50 63 82
46 58 75
48 61 79
50 63 83
47 60 78
44 56 73
38 48 62
40 50 65
41 51 66
42 52 66
42 53 69
38 47 61
32 40 52
36 45 59
42 52 67
34 43 55
31 38 49
35 43 56
35 43 55
36 45 57
36 44 57
33 41 54
23 28 36
26 32 41
29 36 46
32 40 51
30 37 48
26 32 40
24 30 38
21 26 33
29 36 45
26 32 41
27 33 41
23 28 35
26 31 39
24 29 37
22 27 34
21 26 33
22 27 34
25 31 39
23 29 36
26 31 39
23 28 35
24 29 37
22 27 34
20 24 31
23 28 35
23 28 35
22 27 34
20 25 31
23 27 35
26 32 40
21 25 32
25 31 39
25 31 39
29 35 44
31 38 48
30 37 47
27 33 42
29 36 45
31 38 48
27 33 41
37 46 59
28 35 44
31 38 49
32 39 49
31 38 49
31 38 48
32 40 51
30 37 47
34 42 54
38 47 61
36 44 57
33 40 52
31 39 51
33 41 53
35 44 56
32 40 52
40 50 64
39 48 61
39 49 63
43 53 69
45 56 73
45 56 72
45 56 72
43 54 70
42 53 69
44 55 72
44 54 71
44 56 74
48 61 80
49 62 81
45 56 74
53 68 90
47 60 78
46 58 76
55 70 91
48 60 79
50 64 84
47 59 77
56 70 92
50 63 83
53 67 87
56 71 94
54 69 91
59 75 100
50 63 84
61 76 100
59 75 99
54 67 88
53 68 90
57 73 95
60 77 102
56 71 94
57 72 96
63 81 108
56 71 94
59 76 103
62 80 106
58 75 100
58 74 97
59 75 99
65 83 109
61 78 104
61 78 104
61 79 105
58 74 99
58 74 97
62 79 105
65 83 110
59 76 102
60 78 104
62 79 103
64 83 112
66 85 113
62 79 106
67 86 114
64 82 110
64 83 111
61 79 106
65 83 111
66 84 112
65 83 110
64 83 111
66 85 113
67 86 115
64 82 109
67 86 115
69 88 118
64 82 110
68 88 119
68 87 116
65 84 113
65 83 110
63 81 109
71 91 121
66 86 115
66 84 112
68 86 114
68 88 117
68 89 119
66 85 114
67 87 116
71 91 121
69 89 118
68 87 117
70 89 119
67 86 116
69 89 120
69 90 121
68 88 119
67 87 116
68 87 116
64 84 112
68 88 119
69 88 118
68 88 117
68 88 119
69 88 116
69 90 121
68 88 118
69 90 120
68 88 119
70 90 120
72 92 122
71 92 123
69 89 119
72 92 123
69 89 120
71 92 124
69 89 120
70 91 122
72 92 123
70 90 121
68 88 118
72 92 122
71 92 123
71 92 122
69 90 121
73 93 125
71 91 122
72 92 123
72 92 122
70 90 121
71 92 123
72 92 122
70 90 120
70 91 122
72 92 123
73 93 124
73 94 125
70 91 122
72 93 124
71 92 123
73 94 125
73 94 125
70 92 123
71 92 123
72 93 123
73 93 123
73 94 125
71 91 122
72 94 126
72 93 124
73 93 124
73 94 125
74 94 125
72 92 123
73 95 127
71 92 123
73 94 125
72 93 125
74 95 128
70 91 123
72 93 124
72 93 125
74 95 126
74 94 125
70 91 122
71 91 121
70 90 121
72 94 126
74 95 127
72 93 125
73 94 125
71 92 124
72 93 125
73 94 126
72 93 124
72 93 125
71 93 125
72 93 124
71 91 122
73 95 127
71 91 122
71 91 122
72 93 124
72 93 123
72 92 123
75 96 127
74 95 126
73 94 127
74 95 126
73 94 125
72 93 125
71 91 121
72 93 124
72 93 123
73 94 125
69 89 119
73 94 126
71 92 123
71 92 122
72 93 124
72 93 123
72 93 126
71 92 122
70 91 123
71 91 120
70 92 124
70 91 121
71 91 121
72 92 123
70 90 120
71 93 126
72 92 122
73 93 124
70 90 120
71 92 123
71 92 122
68 88 117
70 90 119
72 92 123
70 91 123
73 93 125
69 89 119
69 90 122
71 91 120
72 93 124
74 94 125
69 88 118
71 92 124
71 91 123
71 92 123
71 90 119
70 90 121
74 95 126
67 87 116
70 90 120
69 89 119
70 89 118
69 89 120
68 89 119
70 91 122
70 91 122
69 89 120
70 89 119
68 88 118
69 88 117
67 87 117
70 91 122
69 88 118
70 90 119
66 86 115
70 90 120
69 88 118
70 90 120
69 90 120
70 90 120
66 85 113
66 85 114
61 79 107
66 85 115
66 86 115
69 90 120
66 86 116
67 87 116
66 84 111
70 90 120
66 85 113
67 87 116
64 83 111
68 88 117
64 82 110
64 82 108
68 87 116
64 83 110
62 79 105
65 84 112
66 84 111
64 83 111
68 88 118
67 86 115
61 78 103
55 71 95
64 81 107
62 79 104
65 83 111
61 77 103
64 84 112
60 77 102
62 78 104
59 76 101
61 78 103
62 79 104
64 82 109
62 79 106
54 71 95
62 79 105
62 80 106
61 77 101
57 74 99
61 79 106
58 73 96
60 78 104
58 74 98
60 77 102
59 75 100
58 74 97
58 74 97
58 74 98
57 72 95
52 66 87
60 76 101
54 69 90
47 59 77
55 69 91
52 66 87
52 66 88
54 68 89
53 67 87
53 67 88
51 65 85
52 66 87
54 68 90
52 65 85
46 59 77
48 61 80
52 65 85
43 53 70
44 55 72
50 64 84
49 61 80
41 52 69
46 57 75
41 51 66
40 51 66
45 56 72
43 53 69
43 54 70
42 52 68
41 50 64
39 49 63
35 43 56
35 43 54
38 48 62
39 49 62
40 50 65
34 42 54
30 37 48
35 42 54
31 38 48
31 39 50
32 39 50
35 43 54
35 42 54
31 38 48
24 30 38
34 41 52
25 31 39
30 37 48
31 38 48
29 35 45
34 41 52
27 33 42
23 29 37
24 30 38
28 35 44
29 35 45
30 36 46
22 26 33
23 29 37
24 29 37
26 32 41
26 32 41
20 24 31
27 33 42
27 32 41
21 26 34
25 31 39
26 32 40
21 25 32
21 26 33
31 38 49
25 31 39
29 35 45
32 39 49
23 29 36
27 33 43
31 37 47
24 29 38
30 37 47
27 33 42
34 41 53
30 37 48
31 39 50
37 46 58
35 43 55
34 42 53
32 40 51
38 48 62
30 38 49
33 40 52
38 47 61
32 40 52
39 49 63
37 47 61
36 45 58
43 53 69
45 56 73
42 53 68
37 46 60
44 56 73
50 62 80
44 55 72
41 52 67
43 54 69
46 57 73
50 63 82
46 58 76
47 58 76
47 60 78
43 55 72
50 62 82
47 58 75
54 67 87
53 66 87
51 65 86
57 72 95
46 59 78
50 63 84
51 65 86
55 70 94
56 71 93
53 68 89
61 78 104
58 74 97
55 69 91
55 69 91
58 73 97
59 76 100
57 72 94
55 70 92
59 75 99
60 76 100
57 73 97
62 79 105
61 78 104
64 82 108
59 76 101
59 76 101
62 79 104
64 83 110
62 78 103
63 81 107
58 74 98
62 79 105
56 72 96
61 79 105
64 82 109
60 77 103
59 76 102
63 81 107
62 80 107
62 79 106
61 79 106
65 83 109
64 82 109
62 80 106
65 83 110
64 83 111
68 86 113
62 81 109
66 85 113
64 82 109
68 88 119
64 82 109
69 88 118
66 85 114
69 89 119
65 84 111
64 82 109
68 88 118
68 87 116
65 83 110
71 90 120
66 85 113
66 86 115
67 87 117
68 87 117
70 90 120
66 85 114
67 87 116
65 84 112
68 88 118
68 88 117
67 87 116
67 87 117
72 92 122
69 90 122
68 88 118
70 89 119
69 89 120
69 90 120
69 89 119
67 86 116
68 88 119
70 89 119
70 91 122
67 88 118
70 91 122
70 91 121
67 87 117
67 88 118
71 92 122
71 91 122
71 92 122
70 91 122
67 87 117
70 90 120
69 90 120
73 94 125
71 92 123
72 93 125
70 91 121
73 94 126
69 89 119
71 91 121
70 90 120
71 92 122
69 88 118
72 94 126
72 93 124
70 91 123
74 94 125
74 95 127
70 90 122
73 94 126
72 93 124
72 91 120
71 93 125
69 89 120
71 91 122
73 94 126
71 91 121
72 92 123
70 91 122
73 94 125
71 92 124
69 89 120
69 90 120
73 93 124
71 92 123
69 90 120
69 89 119
71 91 121
73 95 127
71 91 122
72 93 123
70 90 120
74 95 126
71 92 124
71 92 123
70 90 121
72 93 124
71 92 123
70 91 122
74 95 126
72 93 125
71 93 126
74 94 125
72 93 124
73 94 125
74 95 127
73 94 125
70 91 121
73 94 125
72 93 125
72 93 125
71 92 124
72 92 123
72 94 126
72 93 123
73 94 125
72 93 124
71 92 124
69 89 119
74 95 127
74 95 127
70 91 121
73 94 126
71 92 123
71 92 123
72 93 125
72 93 125
73 94 124
71 92 124
73 94 125
72 94 127
73 94 126
69 90 121
72 93 124
70 91 124
72 94 125
71 92 124
74 94 124
67 87 117
73 94 125
72 93 123
69 89 119
70 91 122
69 89 118
69 89 118
71 92 124
71 93 125
72 94 126
71 91 121
72 92 123
69 90 120
70 90 121
69 89 118
71 91 121
70 90 121
69 89 119
67 86 115
72 93 124
69 89 120
70 91 122
71 91 122
73 93 123
71 91 122
72 93 124
70 91 121
66 85 114
71 92 124
72 92 123
69 89 120
69 89 119
70 89 118
70 91 122
67 86 116
71 92 123
70 91 122
68 87 117
68 88 118
71 91 121
68 88 118
69 89 119
69 89 119
67 87 116
67 86 113
67 86 115
70 90 121
69 88 117
70 89 118
69 89 119
65 84 113
67 86 115
67 86 115
69 89 120
67 87 116
66 85 114
66 86 116
65 84 111
69 88 118
67 86 114
68 89 119
64 83 110
68 88 119
65 84 112
67 87 116
70 89 119
60 77 103
63 82 109
63 82 111
63 82 109
66 85 114
68 87 116
65 84 111
63 81 108
62 79 105
63 82 109
67 85 112
61 79 105
66 84 110
61 78 103
60 77 102
61 78 104
65 84 112
63 81 108
61 78 104
59 76 102
58 75 99
61 78 103
60 78 104
63 81 107
64 82 109
60 77 103
62 80 106
64 82 108
61 78 104
59 76 101
58 74 98
60 77 102
59 76 100
57 73 96
53 68 91
58 74 98
56 72 96
50 64 84
58 74 98
60 76 100
59 75 99
58 73 97
54 69 90
56 71 94
51 65 86
52 67 88
55 70 92
49 63 83
45 58 76
54 69 90
57 72 95
56 70 91
45 57 74
48 60 78
52 65 84
45 57 75
46 58 76
45 57 75
47 60 79
51 65 85
39 49 64
55 68 89
50 62 80
42 53 69
50 62 81
43 54 70
42 52 67
38 48 63
36 46 59
46 58 75
37 47 61
34 42 55
44 55 71
34 43 56
36 45 57
36 44 57
37 45 58
36 44 57
39 48 62
30 36 47
32 39 51
35 43 54
33 41 53
36 44 57
29 35 45
29 35 45
28 34 44
31 38 48
27 33 42
31 38 49
32 39 49
27 34 44
32 39 50
29 35 44
33 40 50
30 36 46
24 29 37
25 31 39
27 33 41
29 35 44
29 36 47
26 31 40
29 36 45
32 39 50
32 39 49
24 29 37
21 26 33
30 37 47
37 46 58
32 38 49
30 36 46
26 31 40
26 32 40
28 34 44
31 38 48
28 35 45
29 36 46
34 41 52
28 35 44
28 35 45
36 45 57
32 40 52
34 42 53
34 42 54
33 41 52
31 39 50
38 47 60
32 40 52
38 47 61
43 53 69
38 48 62
33 41 53
38 48 62
42 52 67
39 48 62
41 51 66
44 55 71
40 51 66
43 54 70
41 51 65
42 54 71
41 52 67
45 56 73
51 63 82
49 61 80
47 58 74
44 56 74
46 57 74
47 59 77
46 58 76
52 65 85
49 62 80
52 66 87
52 66 86
47 59 78
53 67 87
52 66 86
57 72 95
54 67 88
54 67 88
53 67 89
56 72 95
57 72 95
58 73 96
55 69 91
57 73 97
58 74 97
56 70 92
57 73 96
59 75 99
55 69 91
61 78 105
57 73 97
61 78 103
60 76 100
59 75 99
58 75 99
61 78 104
58 74 99
59 76 101
60 77 102
63 80 106
65 83 110
62 80 106
58 75 100
62 79 104
63 81 107
66 84 112
66 84 110
62 79 104
60 77 104
62 80 106
64 81 107
65 84 113
66 85 113
63 81 107
63 81 109
65 84 111
66 84 112
65 84 112
67 86 114
61 80 107
64 82 110
64 83 110
69 89 118
65 83 111
67 86 115
69 89 118
64 83 111
68 88 118
68 87 116
60 77 104
65 84 112
67 86 113
67 86 114
65 84 113
68 88 118
65 83 110
69 89 119
64 83 110
69 89 118
67 86 114
65 85 115
68 88 117
68 87 116
69 89 120
69 89 119
68 88 119
68 88 119
70 90 120
68 88 118
70 90 119
69 88 117
66 86 115
67 88 119
68 87 116
71 91 121
70 89 118
67 87 117
70 90 120
70 90 120
69 90 120
71 92 123
69 89 119
71 92 124
70 90 121
70 90 120
69 89 117
68 88 118
71 92 123
70 90 120
73 94 125
71 92 123
70 91 122
69 89 119
69 88 118
70 90 120
70 91 121
72 93 124
72 92 122
71 91 121
72 93 125
71 92 123
71 93 125
72 92 122
72 92 123
70 91 122
71 91 122
70 92 124
72 93 125
73 94 125
71 92 124
72 93 124
72 92 124
68 88 118
70 90 121
72 92 122
71 91 122
71 93 126
70 90 121
74 95 126
72 92 123
71 91 122
71 92 124
72 93 124
70 92 124
70 91 122
73 94 126
73 94 125
72 94 126
72 92 123
72 93 124
72 92 123
72 93 124
71 92 123
71 92 124
73 94 125
74 95 127
71 91 122
72 92 123
73 94 126
72 93 124
75 96 127
71 92 124
73 95 128
74 95 126
71 93 124
75 96 128
73 94 127
70 91 123
71 92 123
73 95 127
70 92 124
71 92 125
71 92 122
72 92 122
71 92 124
71 92 123
71 92 123
71 92 122
69 90 121
71 92 123
71 90 120
73 93 122
71 92 124
73 93 124
72 93 123
71 92 123
70 90 120
71 91 122
72 92 123
70 91 122
73 93 125
71 92 123
71 91 120
73 94 126
73 94 126
72 92 123
71 91 122
73 94 125
70 90 121
71 91 122
71 92 122
73 93 124
71 91 122
70 90 120
72 92 123
71 92 123
72 93 125
72 92 123
72 93 124
72 93 124
72 92 123
66 87 117
72 92 122
71 91 120
71 92 124
72 92 122
71 93 125
70 90 119
69 89 119
67 87 116
67 87 115
70 90 120
71 91 122
69 90 120
70 91 122
69 89 118
68 88 118
68 88 119
68 88 117
70 89 119
69 89 119
66 86 115
64 84 112
68 87 115
66 86 116
66 86 114
69 88 117
73 92 122
67 87 118
70 90 122
65 84 113
68 88 117
66 86 116
68 87 116
66 85 114
69 88 117
68 87 116
71 91 122
67 86 113
67 86 114
65 84 113
65 84 112
65 84 113
69 89 119
69 89 119
63 81 109
64 83 110
69 89 118
66 84 112
68 88 119
64 82 110
58 75 99
66 85 113
61 79 107
63 81 108
62 79 104
64 82 109
65 84 113
63 81 108
67 86 114
62 79 104
64 81 108
60 77 102
65 83 111
59 75 99
62 79 104
57 74 99
61 78 103
65 84 111
59 76 101
64 82 110
60 76 101
58 73 97
58 75 100
56 71 93
61 78 104
59 76 102
59 76 102
55 70 92
61 77 102
58 74 98
56 72 95
59 75 98
61 77 103
57 73 97
59 75 100
61 78 103
53 68 90
53 67 89
59 75 98
55 70 91
58 74 97
53 68 89
54 69 92
56 70 91
53 68 90
51 65 86
50 63 83
50 63 83
53 67 88
52 66 87
50 63 83
49 61 80
49 63 83
52 66 87
45 57 75
47 59 78
42 52 68
51 64 83
43 54 71
50 62 79
45 57 74
41 51 66
40 50 66
46 58 76
43 54 70
47 58 76
40 50 65
34 43 56
39 48 63
41 51 65
40 49 63
38 48 62
33 41 53
39 48 62
33 40 50
41 51 65
37 46 59
33 40 51
39 47 60
33 40 52
45 55 71
34 42 54
35 43 55
37 45 58
33 41 51
31 38 49
28 34 43
24 30 38
34 42 54
26 32 41
23 28 36
32 39 50
28 34 44
36 45 57
34 42 53
24 29 37
29 35 45
25 30 39
20 24 31
32 39 50
30 37 47
24 29 37
32 38 49
35 43 54
29 35 45
26 32 40
28 34 44
27 33 42
29 36 45
33 40 52
31 38 48
34 42 54
34 41 53
33 41 52
35 43 55
32 39 50
29 35 46
30 37 48
35 43 56
28 34 43
36 44 57
40 49 63
36 44 57
34 43 55
40 49 63
38 47 60
37 46 60
48 59 75
33 41 53
42 52 68
41 51 67
42 52 67
42 52 67
43 54 70
41 51 66
38 48 62
45 57 74
42 53 69
49 61 79
42 53 70
42 53 69
44 55 73
48 61 80
48 60 79
50 64 83
44 56 73
45 58 76
47 59 78
47 58 75
49 62 81
44 56 73
54 68 90
48 61 80
50 64 86
48 61 81
55 69 91
53 67 89
56 71 93
52 66 87
59 75 98
58 73 96
57 72 96
58 74 98
56 71 92
55 69 91
62 79 104
54 69 92
53 67 88
51 65 86
60 77 102
57 73 97
58 75 100
63 81 107
58 74 100
52 67 89
60 76 100
66 84 111
57 73 96
60 77 102
59 76 100
57 73 97
64 82 108
64 82 108
61 78 104
64 81 107
64 82 109
67 86 114
63 80 106
60 78 103
63 81 108
60 77 102
62 79 106
62 79 105
65 83 110
64 83 111
63 81 109
63 81 107
69 89 118
66 84 112
68 87 117
62 80 107
63 81 108
68 87 116
66 85 113
67 86 113
64 83 112
69 89 118
67 87 117
68 88 118
68 88 118
68 86 115
67 86 114
66 85 112
68 88 118
70 89 118
67 87 115
66 85 113
65 84 113
67 86 115
65 83 110
65 84 113
68 88 118
67 87 116
69 89 119
70 91 122
66 84 113
70 90 120
68 88 116
66 85 114
69 89 119
71 91 120
70 90 120
70 90 120
69 89 119
70 90 120
68 88 118
69 89 120
64 84 112
71 92 123
69 89 119
69 89 118
72 93 125
71 91 121
70 90 120
67 87 117
70 90 120
70 90 120
67 87 117
69 90 120
71 91 121
72 92 123
71 92 123
67 87 118
71 92 123
68 88 119
68 88 117
69 90 121
71 93 125
71 91 121
72 92 123
73 94 126
73 94 125
73 94 125
70 90 121
73 94 126
73 93 125
72 93 125
71 92 123
71 91 122
71 91 122
73 94 125
74 95 127
74 95 126
71 92 122
71 92 123
71 91 122
71 93 125
72 93 124
73 94 125
71 91 121
72 93 123
72 93 125
71 92 122
72 93 124
71 92 123
73 95 127
72 93 124
72 93 124
71 91 122
71 92 124
70 90 120
72 92 123
72 92 123
71 92 124
72 92 122
71 91 121
72 93 124
71 92 123
71 92 124
71 93 126
71 93 125
75 96 128
74 94 125
72 92 123
73 94 126
74 94 125
71 92 123
71 92 123
72 93 125
74 95 127
71 91 122
72 93 124
73 93 125
72 94 126
70 90 121
73 94 125
71 92 124
72 94 125
72 92 122
72 93 124
71 92 123
71 92 124
71 92 123
72 93 125
69 90 121
69 90 121
71 92 124
71 92 122
72 92 121
72 94 126
71 92 124
68 88 118
69 90 121
72 92 123
73 93 124
71 92 123
72 92 123
72 93 125
73 93 125
73 94 125
72 93 124
70 90 120
70 90 120
71 92 124
71 92 123
70 91 122
70 90 120
71 91 121
71 91 122
69 89 120
67 87 117
69 89 118
70 91 121
70 91 122
69 90 120
70 91 123
72 92 123
70 90 120
68 89 120
69 89 119
68 88 118
68 88 117
71 92 124
73 94 125
69 90 120
69 89 118
69 88 118
70 90 121
69 89 120
69 88 117
69 88 116
69 88 118
66 86 115
67 86 115
71 90 120
69 90 120
69 88 118
69 89 119
68 89 119
69 89 118
67 87 116
68 87 115
65 84 111
68 86 115
68 88 118
67 87 117
69 89 118
66 85 114
68 89 119
67 86 115
66 85 114
68 88 116
70 90 119
64 82 108
67 86 116
66 86 114
65 84 113
65 84 114
68 89 119
65 84 113
66 86 115
58 75 100
65 85 113
60 77 103
61 79 106
67 86 114
66 84 112
60 77 103
61 79 106
68 88 117
63 80 107
66 86 115
62 79 104
63 81 108
62 79 106
67 85 112
62 79 104
61 79 105
62 79 106
60 78 104
64 82 108
57 73 97
57 73 97
62 79 105
58 74 98
58 74 97
60 76 101
61 78 103
64 81 107
60 77 102
55 70 92
60 77 102
57 72 95
55 70 92
56 72 95
61 78 104
56 71 94
54 69 92
54 68 90
62 79 105
55 70 92
54 68 90
58 74 97
48 61 81
49 62 81
50 64 84
42 54 71
51 66 87
46 59 77
49 62 82
44 55 72
50 63 82
51 64 84
51 63 83
49 61 79
45 56 73
47 59 78
52 65 85
48 60 78
45 55 71
46 58 76
47 60 79
45 56 72
40 51 66
47 59 77
44 56 73
39 48 62
48 60 78
39 49 64
42 53 69
38 48 62
41 51 67
40 49 64
39 49 63
34 42 55
35 43 56
40 49 63
37 46 60
35 43 57
35 44 56
33 40 52
37 46 60
29 36 46
35 43 55
37 46 60
30 37 48
31 38 49
31 37 48
31 38 49
30 37 47
31 38 48
27 33 42
34 42 53
30 37 47
27 33 42
36 44 56
28 35 46
30 36 46
31 38 49
28 34 44
27 34 43
30 37 48
32 40 51
29 35 45
27 33 42
28 34 43
34 43 55
28 35 45
33 41 53
33 41 51
31 38 49
33 41 52
37 46 59
34 42 54
32 40 51
31 38 50
40 49 64
33 40 52
26 32 42
38 47 62
40 49 64
33 41 53
36 44 57
35 43 56
36 45 59
41 52 67
38 47 60
31 39 51
40 50 65
41 51 65
40 49 64
38 48 62
37 46 60
37 46 60
41 51 67
42 52 68
46 58 75
44 55 71
45 56 74
49 61 78
41 52 68
53 66 85
47 59 77
50 63 83
55 69 91
51 63 81
52 65 84
45 56 74
53 67 88
51 65 85
53 66 87
52 66 86
53 67 88
50 63 82
51 65 85
53 67 89
53 67 88
48 60 78
57 73 97
53 68 90
50 65 86
59 76 101
53 67 88
57 73 96
53 67 89
52 65 85
57 73 96
61 77 102
57 73 96
62 80 106
62 80 107
57 73 97
58 75 100
59 75 100
59 74 98
58 75 101
63 80 106
65 82 109
57 73 97
61 79 104
64 82 108
59 75 99
63 81 109
61 79 105
63 81 109
64 82 109
63 81 108
56 73 99
68 87 117
60 77 103
61 78 104
65 83 111
66 85 114
66 84 112
63 82 110
64 82 110
67 85 112
67 85 113
70 89 117
68 87 116
65 85 114
63 81 107
67 86 114
66 85 114
69 89 119
64 84 114
65 84 111
65 84 111
64 82 110
67 86 115
69 88 117
69 88 117
68 87 116
64 82 110
65 85 114
65 84 112
70 90 120
65 84 111
67 87 117
70 90 120
70 90 120
67 87 117
68 87 116
71 91 122
70 89 119
69 89 120
69 89 118
69 89 119
68 88 119
68 88 119
69 89 119
69 88 117
68 88 118
69 89 118
68 87 117
70 89 118
69 89 120
67 87 117
68 88 118
71 91 121
68 87 116
72 92 123
68 88 117
68 89 119
69 90 120
72 92 123
70 91 121
69 88 117
73 93 124
69 90 121
71 90 120
68 88 118
71 91 122
69 89 120
70 90 121
71 91 122
69 89 119
72 93 123
72 93 125
69 90 121
72 93 124
71 92 124
71 92 124
70 91 123
71 92 123
72 92 123
73 93 124
73 93 124
73 94 125
72 93 124
71 91 122
69 90 120
70 90 121
70 91 122
71 92 124
72 93 123
72 93 125
71 92 124
70 91 123
68 87 117
71 91 122
71 92 124
73 94 127
73 94 126
72 92 123
73 94 125
71 92 123
72 94 126
72 93 125
72 93 125
72 93 124
73 94 126
71 91 122
71 91 122
72 93 125
70 91 122
73 94 126
72 92 123
71 92 125
71 93 124
71 92 124
71 92 125
72 92 122
72 94 126
75 95 127
70 91 121
74 95 127
72 93 126
72 93 126
71 92 122
71 92 123
73 94 126
70 91 122
73 94 126
71 92 124
71 91 120
72 92 123
73 94 126
72 94 126
73 93 124
73 93 123
72 93 123
69 90 120
73 94 125
70 91 121
72 93 124
72 92 121
73 94 125
70 91 123
69 89 119
71 92 123
73 93 122
71 91 122
72 92 122
73 94 125
67 88 119
71 91 122
73 93 124
71 91 121
68 87 116
72 93 124
67 87 115
73 94 125
70 91 122
71 91 122
70 91 122
71 91 120
74 95 126
69 89 119
69 89 120
69 89 119
69 90 120
71 91 121
70 91 121
67 88 119
69 88 116
68 89 119
67 87 117
71 92 124
70 91 122
70 90 120
71 92 123
70 90 120
71 91 120
70 90 121
69 89 120
70 90 120
68 87 116
70 90 120
71 91 122
70 90 120
69 89 119
69 89 120
69 90 120
66 85 114
68 89 120
67 86 114
67 88 118
67 86 115
64 83 111
70 90 121
66 84 111
69 88 117
66 84 112
67 86 114
67 85 114
67 87 116
68 87 117
68 88 117
67 86 115
66 85 115
62 80 107
69 89 119
61 80 108
65 84 112
61 78 104
67 87 116
62 80 108
62 80 107
66 85 113
63 81 109
67 87 115
66 85 113
66 84 111
64 82 108
62 79 105
62 79 106
65 83 111
62 80 106
65 83 110
64 82 110
64 83 110
63 81 109
59 75 100
63 81 108
60 77 102
63 81 108
56 72 96
61 77 102
57 73 97
61 78 103
60 77 103
62 78 103
59 76 101
60 76 101
61 77 102
57 73 97
57 73 97
54 69 91
57 73 96
55 71 94
56 71 94
56 72 95
59 75 99
54 69 91
58 73 97
53 68 89
54 69 92
53 67 88
49 62 81
55 70 91
58 74 97
53 66 87
53 67 89
50 65 86
48 61 81
53 67 88
49 62 81
50 63 82
50 64 84
50 64 84
48 61 80
48 60 79
48 60 78
45 57 74
44 55 72
49 62 81
44 56 72
48 60 80
45 57 74
46 58 76
49 62 81
43 54 70
41 52 69
42 52 68
44 55 72
42 53 69
44 54 69
41 52 68
44 55 71
40 50 65
36 45 60
41 51 67
38 47 61
34 42 55
40 50 65
40 49 62
38 46 59
39 49 63
35 44 57
29 36 46
34 42 54
38 47 61
36 44 57
33 40 52
33 40 51
34 42 54
33 41 53
29 35 45
39 47 60
33 40 52
33 41 53
43 53 68
34 42 54
36 44 56
32 40 52
28 35 44
30 36 47
33 41 53
25 30 39
29 36 46
37 46 58
36 44 57
27 33 42
37 45 58
34 42 54
30 37 47
28 34 43
33 41 54
41 51 66
32 39 50
35 42 54
30 37 47
29 36 46
36 44 56
34 41 52
31 38 49
34 41 53
40 50 65
37 46 59
39 49 64
41 51 65
36 45 59
41 50 65
43 53 68
40 50 65
44 54 69
42 53 69
44 55 71
35 43 56
42 52 66
40 50 65
48 61 80
37 46 60
45 57 74
44 55 71
48 59 77
37 47 61
42 52 68
51 63 82
48 61 80
47 60 79
44 56 73
52 65 85
47 59 77
50 63 83
50 62 80
50 62 80
45 57 76
53 67 88
52 66 87
50 63 82
51 65 86
46 58 77
51 64 84
51 65 86
54 69 92
55 70 93
50 63 84
60 76 101
53 67 88
53 68 90
54 70 93
57 71 94
51 66 88
57 73 96
59 75 100
55 70 93
61 77 101
60 76 100
60 77 103
55 70 92
56 72 95
60 77 102
56 71 95
55 70 93
60 78 105
64 82 108
61 78 104
60 77 102
61 77 103
63 81 107
61 77 102
63 80 105
60 77 102
66 85 113
62 81 108
63 81 108
61 77 101
62 79 106
65 85 114
62 79 105
62 80 106
66 86 114
68 86 114
62 79 105
67 86 116
63 80 107
66 85 114
67 84 111
62 80 106
64 83 111
68 87 115
70 90 121
65 83 110
64 83 110
65 84 112
65 83 109
67 85 113
63 80 106
63 81 108
67 86 116
65 83 110
67 86 115
68 88 118
68 87 116
64 83 112
68 88 117
68 87 116
65 84 112
66 85 113
68 89 119
69 88 117
69 88 118
66 86 115
68 88 116
69 90 120
69 89 119
68 88 118
66 85 115
70 90 120
70 90 120
71 90 120
69 89 119
67 86 116
69 91 123
69 88 116
72 92 122
64 83 111
71 91 122
71 91 121
70 92 123
67 87 116
70 90 121
68 90 121
69 89 119
69 90 121
70 90 121
71 91 121
70 90 119
71 91 122
73 94 126
73 94 125
71 91 121
70 90 121
70 91 122
71 92 123
72 93 125
73 93 125
71 92 123
71 91 121
70 90 121
69 90 121
71 92 123
72 92 123
70 90 121
71 92 123
70 90 120
72 93 124
71 92 123
69 90 120
71 92 123
72 93 123
72 94 125
73 94 126
72 93 125
72 93 125
73 94 125
71 91 122
70 91 123
68 89 119
71 92 124
70 90 121
72 93 124
72 93 123
72 93 125
73 93 124
74 95 126
72 93 125
73 95 128
74 94 125
73 94 125
72 93 124
71 92 124
72 93 125
71 92 122
73 95 126
73 94 126
71 91 121
70 91 121
73 94 125
74 95 126
70 92 124
73 93 124
73 93 123
73 93 125
71 92 124
71 93 125
72 92 123
74 95 126
70 90 120
74 95 127
70 91 122
72 93 126
72 93 123
74 94 125
72 93 124
71 91 122
69 89 120
72 93 125
73 94 126
71 93 125
72 93 124
71 91 121
72 92 123
73 94 126
72 93 125
73 95 127
70 90 121
70 91 122
73 93 125
71 91 122
72 93 125
71 93 125
72 93 126
70 90 121
71 92 122
71 92 123
72 92 122
68 87 116
70 89 119
71 92 124
69 89 120
71 92 123
69 89 120
71 92 123
70 91 123
71 92 124
72 92 122
69 89 120
71 91 122
71 91 122
68 88 118
69 89 120
71 91 122
70 90 121
71 91 120
70 90 121
69 89 118
67 86 116
69 89 119
66 86 115
71 91 121
67 86 116
65 84 113
68 88 117
69 89 118
67 87 116
70 90 120
71 92 123
67 87 117
68 88 117
70 90 120
69 88 118
68 88 118
68 87 116
68 88 118
67 87 116
66 85 114
65 84 113
70 90 120
68 88 117
70 89 118
67 86 114
67 87 116
67 86 116
64 82 111
69 88 117
61 79 106
65 84 113
66 85 113
61 79 106
70 90 121
65 83 111
68 87 115
63 80 106
65 84 112
66 85 114
67 86 115
63 81 109
68 87 115
69 89 118
62 80 106
63 80 106
62 81 108
62 79 104
63 81 109
63 81 107
65 83 111
62 80 107
64 82 109
65 84 112
66 84 112
62 79 105
63 80 107
66 85 113
60 78 105
60 77 102
63 79 104
63 80 105
63 80 107
62 79 105
63 79 104
62 79 104
58 73 97
58 75 100
59 75 100
62 78 102
56 71 94
57 72 95
59 76 101
53 68 91
54 68 91
56 71 95
57 73 98
57 72 96
54 68 90
55 70 92
55 70 92
54 68 90
52 65 86
53 68 89
51 64 85
54 69 90
54 68 90
53 67 88
51 64 84
47 59 78
53 67 88
47 59 78
47 59 78
48 60 79
51 65 86
49 62 81
50 63 82
47 59 78
47 59 78
49 62 82
47 59 77
46 58 76
43 53 70
40 50 65
43 54 70
48 61 80
46 58 75
43 53 68
41 52 68
38 47 61
41 52 67
41 51 66
41 51 67
36 45 57
41 51 66
38 48 62
36 45 58
41 51 66
34 42 54
34 43 57
36 45 58
39 49 63
45 56 72
41 51 66
33 40 51
40 49 64
30 38 49
33 41 53
34 43 55
33 41 53
31 38 49
30 38 49
34 42 54
32 39 49
35 43 56
26 33 42
30 37 47
35 43 56
35 43 56
30 38 49
29 36 46
35 44 57
32 39 50
32 40 51
35 43 55
32 39 50
32 40 52
35 44 56
39 48 61
31 39 50
26 32 42
36 45 59
35 44 56
36 45 58
37 46 59
34 43 55
35 43 55
43 53 69
37 46 58
39 49 62
36 45 57
30 37 48
35 43 55
31 39 50
38 47 60
38 47 62
35 44 56
41 52 68
40 50 65
40 49 63
39 49 63
41 52 68
43 53 69
37 46 60
45 57 74
43 53 69
40 50 65
43 54 70
44 55 72
42 53 68
43 55 72
40 50 65
43 54 71
47 59 77
42 53 70
51 65 85
55 69 89
47 60 79
45 57 75
46 59 77
52 65 85
46 59 78
49 61 80
53 67 87
55 69 90
50 63 82
58 73 96
49 63 84
55 69 90
54 68 90
50 64 84
51 65 86
54 68 89
52 66 86
57 72 94
54 69 91
58 74 98
55 70 92
61 77 102
60 76 101
61 77 102
58 74 98
56 72 97
58 74 98
63 80 106
54 69 91
60 76 101
59 76 100
57 73 97
58 75 100
59 75 100
59 77 103
61 78 103
65 83 109
62 78 104
65 83 109
60 77 103
63 82 109
64 83 111
63 81 108
63 82 109
60 78 103
64 82 108
62 80 107
65 84 112
66 84 112
61 77 102
63 81 107
64 82 109
64 83 110
64 83 111
61 78 104
62 80 108
68 89 119
66 85 115
63 81 108
67 87 115
63 81 108
64 81 108
69 89 119
63 79 104
63 82 111
67 87 115
66 85 113
65 82 108
70 90 118
66 85 113
67 88 118
64 82 109
68 87 115
68 88 117
69 88 116
69 89 120
67 87 117
69 88 117
66 85 113
69 88 118
68 88 118
66 86 115
68 88 118
65 85 114
69 89 120
70 89 119
73 93 123
71 91 121
70 89 119
69 89 120
69 89 119
68 88 119
66 85 114
70 90 121
70 91 122
70 89 119
69 90 120
66 86 116
70 91 122
71 91 122
69 90 120
68 88 119
68 88 118
72 92 123
71 92 122
71 91 122
70 90 120
69 88 118
72 92 122
72 92 122
71 91 122
70 90 121
69 91 122
70 91 122
74 94 125
72 93 124
71 92 123
72 93 124
71 91 122
70 91 122
71 91 122
70 90 120
71 91 122
72 93 123
70 90 121
70 91 122
71 92 123
72 94 125
73 94 125
73 94 126
71 92 122
73 94 125
72 93 125
72 92 123
71 92 123
72 93 125
69 89 118
69 89 120
72 93 124
72 93 123
72 92 123
73 94 125
72 92 123
71 92 123
72 92 123
71 92 123
73 95 128
73 94 126
73 94 125
70 91 122
73 94 126
71 92 124
72 93 125
73 93 124
70 90 120
73 94 125
71 93 125
73 95 127
72 93 125
72 93 124
73 94 125
72 93 125
72 93 125
73 94 126
72 92 123
70 90 120
72 92 122
72 93 125
71 91 121
71 92 124
71 92 122
72 93 125
70 91 123
72 93 125
72 93 123
72 93 124
73 93 125
68 88 118
75 96 127
71 91 122
72 92 121
71 92 123
71 93 126
70 91 121
69 89 119
72 93 124
71 91 122
70 91 122
71 92 122
72 93 124
69 89 118
70 90 119
70 91 123
70 90 121
72 93 124
71 91 122
69 89 119
70 90 121
70 90 120
71 91 122
71 91 121
71 92 122
71 91 121
71 91 122
69 90 121
71 92 123
70 90 120
72 93 124
71 91 122
72 92 122
69 90 121
68 87 116
69 89 118
71 91 121
70 90 121
71 91 122
70 90 120
71 91 122
70 91 122
67 88 118
68 89 120
69 89 119
70 90 120
71 92 123
68 88 118
68 88 117
69 90 121
70 91 122
67 87 116
67 86 115
71 91 120
70 89 119
69 90 120
66 84 112
66 84 111
63 82 110
66 85 114
65 84 113
67 85 113
68 88 118
66 84 112
69 89 119
65 83 112
66 86 116
69 88 118
68 87 117
64 83 111
63 80 106
60 77 102
65 83 111
66 84 110
64 82 110
63 80 106
63 81 108
68 87 115
62 79 106
60 77 104
64 82 108
62 79 105
65 83 110
62 80 108
65 83 110
61 78 105
64 82 109
60 77 102
64 82 110
62 79 105
55 71 94
61 78 104
60 77 103
60 77 103
62 80 106
63 81 107
56 72 96
56 72 95
63 81 108
55 70 94
60 77 103
60 77 102
59 75 98
59 76 101
65 82 108
63 79 104
58 74 97
57 73 96
56 71 94
54 69 92
55 70 92
55 71 94
54 69 91
54 68 90
60 76 100
61 78 102
56 71 93
56 71 93
53 67 88
53 68 91
55 70 92
56 71 94
54 68 90
50 63 83
57 71 94
50 63 83
52 66 86
50 62 82
49 62 82
54 67 87
48 61 80
47 59 76
53 66 86
49 61 80
46 59 77
54 68 89
49 62 82
39 49 65
45 57 74
45 57 75
44 56 73
43 54 71
42 53 69
42 53 69
42 53 68
41 51 67
43 53 68
46 57 73
45 56 72
42 53 69
39 48 62
42 53 68
43 54 69
33 41 52
45 56 72
36 45 58
38 47 61
41 51 66
43 54 69
36 45 57
29 36 48
36 45 58
38 48 61
38 47 61
40 49 63
33 42 54
37 46 59
30 37 48
39 49 63
35 43 56
36 45 58
41 50 64
31 38 49
31 38 49
34 42 54
34 43 55
35 44 56
33 41 53
37 46 58
31 39 50
36 44 57
31 38 49
34 41 53
29 36 46
35 43 56
34 42 54
37 46 59
34 42 54
33 42 54
29 36 46
37 46 59
32 39 50
36 45 58
42 52 68
34 42 55
35 43 56
38 47 60
38 48 61
36 44 57
37 46 59
41 52 67
45 55 72
34 42 55
42 52 68
39 48 62
42 53 68
40 49 62
40 50 65
42 52 68
45 56 73
45 56 74
49 61 80
45 56 72
48 61 79
47 58 76
46 57 74
46 58 75
44 55 72
43 54 71
45 57 75
48 60 79
54 67 87
53 66 86
51 64 84
50 63 82
50 63 82
48 61 79
47 58 76
53 66 87
53 67 88
50 63 82
55 70 92
56 71 94
52 66 87
51 65 86
52 66 87
54 68 89
57 72 94
57 72 94
55 69 92
53 68 89
57 73 96
58 74 98
51 66 88
61 77 102
61 78 102
56 72 95
58 75 100
56 71 94
59 76 101
58 74 98
58 74 98
61 78 103
66 84 112
61 78 104
62 79 105
60 77 103
63 81 107
61 79 106
57 72 96
59 76 101
61 78 104
58 74 98
60 77 101
65 82 108
62 79 106
61 78 104
63 81 107
59 76 101
61 79 105
63 81 108
64 81 108
67 84 111
62 80 106
66 85 114
64 82 109
67 86 115
66 84 112
65 83 111
65 84 112
64 81 108
69 89 119
65 84 113
63 81 108
66 86 116
63 81 108
67 86 115
66 85 112
68 88 117
63 82 109
68 87 116
68 87 116
66 85 114
69 89 119
66 85 114
67 86 116
67 87 117
68 89 119
67 86 114
68 89 119
68 88 117
66 86 116
70 89 118
68 87 117
72 92 122
71 91 121
69 89 119
69 89 119
66 85 112
71 91 120
66 85 114
73 93 124
66 85 112
68 87 116
67 86 116
71 91 121
67 86 115
68 88 119
69 90 120
67 87 117
69 89 119
70 90 120
68 88 117
69 90 121
74 95 126
72 92 122
71 92 123
68 88 117
70 90 121
72 92 122
69 90 120
70 91 123
72 92 122
72 92 122
71 92 123
73 94 126
71 91 122
71 92 123
72 92 123
69 90 120
70 90 120
70 91 123
69 89 120
69 89 120
70 89 119
68 88 119
71 91 122
70 90 121
70 92 123
74 95 127
72 93 125
72 92 122
69 89 120
68 88 118
69 90 121
70 91 123
72 92 123
71 91 122
69 90 121
70 90 119
73 94 126
72 93 124
73 94 127
72 92 123
71 92 122
70 91 122
72 93 124
71 91 122
71 92 124
73 93 125
71 92 123
72 92 123
70 91 121
71 92 124
72 93 124
72 93 125
71 92 124
73 94 125
73 94 125
70 90 120
73 94 126
73 93 124
72 92 123
72 93 125
71 92 123
73 93 124
70 91 123
74 94 125
72 93 125
70 90 120
71 92 123
70 91 123
71 92 123
72 92 123
71 92 124
70 91 122
73 94 124
72 93 125
69 90 120
71 92 122
70 91 121
72 92 123
69 88 118
69 90 120
70 90 121
71 92 122
69 89 120
71 92 122
69 89 120
69 89 120
71 91 122
71 92 124
70 90 120
72 93 124
68 88 117
71 91 122
72 94 126
70 90 120
71 92 124
69 89 119
72 92 122
73 94 126
69 89 119
71 91 122
69 90 120
71 91 122
68 88 117
70 91 123
69 89 119
69 88 118
71 92 124
68 87 117
69 89 120
71 91 121
71 91 122
71 91 120
71 91 121
68 88 118
64 83 112
69 90 121
68 87 116
69 89 119
68 87 116
66 86 115
70 90 121
67 87 116
71 90 119
69 89 119
69 88 118
70 90 119
69 89 118
65 84 113
66 86 116
65 84 111
67 87 116
66 85 115
67 86 115
66 85 113
69 88 118
67 86 115
66 85 113
66 86 115
66 85 113
67 87 117
66 85 113
64 83 112
66 84 111
66 84 112
66 86 115
65 84 113
61 80 108
63 81 108
66 86 115
70 89 119
68 87 116
68 88 117
65 84 113
69 89 119
61 79 106
67 85 113
63 80 106
64 82 109
61 79 105
61 78 104
61 79 105
66 85 112
62 79 105
64 82 109
64 82 108
59 77 102
65 83 111
66 85 112
63 81 108
60 77 102
63 82 109
64 82 109
60 77 102
60 77 102
60 77 101
58 76 101
57 73 96
60 76 100
58 74 98
60 76 100
57 73 96
55 71 94
57 73 97
58 74 98
59 75 99
59 75 98
61 76 100
56 70 92
56 72 95
54 69 92
58 74 98
55 71 94
54 70 94
56 72 94
53 68 90
54 68 91
49 62 81
56 70 92
54 69 91
53 67 88
57 71 92
54 69 91
48 61 79
49 62 81
50 63 82
49 62 81
49 63 83
48 60 79
55 69 89
43 55 72
47 60 79
45 57 75
50 62 81
47 58 75
44 54 70
50 62 80
41 52 68
48 60 77
41 51 67
42 53 69
43 54 71
44 55 72
43 54 70
42 53 69
40 50 64
39 49 63
37 46 60
42 52 67
41 51 67
42 53 69
44 55 71
42 52 68
38 47 61
30 38 49
41 51 65
46 57 74
34 43 55
36 45 59
40 50 64
37 46 58
35 43 55
40 50 64
38 47 61
33 42 54
33 41 53
37 47 61
31 39 50
39 48 61
39 49 63
34 43 55
37 45 58
39 48 62
35 44 56
36 45 58
38 47 61
36 45 57
33 40 52
38 47 61
38 47 61
38 47 60
36 45 59
36 44 57
40 50 64
38 47 60
39 49 64
38 47 60
41 50 64
37 46 60
38 47 61
34 42 54
39 48 63
38 48 62
38 47 60
37 46 60
45 55 72
45 56 73
37 46 61
41 51 66
44 54 69
45 56 72
42 52 68
37 46 60
46 57 75
44 55 72
44 55 72
47 59 77
48 61 80
41 52 67
46 57 74
46 57 74
42 53 69
45 56 74
45 57 75
40 50 66
47 59 76
47 59 77
41 52 68
55 69 91
42 54 72
50 63 82
50 63 83
48 60 79
54 68 89
51 64 84
47 60 79
51 64 84
53 67 88
54 68 89
51 65 87
49 62 81
54 68 90
54 69 92
60 76 100
53 67 88
51 66 87
58 74 98
57 72 95
53 68 90
56 71 94
57 73 97
55 71 94
55 70 93
55 71 94
59 75 99
60 75 99
52 67 90
62 79 104
57 74 98
58 74 99
61 78 104
56 72 96
59 76 100
58 73 97
57 73 97
57 72 95
62 80 107
59 76 101
60 78 104
57 73 96
62 78 104
64 83 111
62 79 106
64 82 110
62 81 108
60 77 103
63 81 108
66 85 113
65 83 111
60 77 102
65 84 113
65 84 112
61 79 105
63 80 106
67 85 113
67 86 114
63 81 109
64 81 107
64 83 111
64 82 109
64 83 111
67 85 113
66 85 114
61 79 106
59 76 101
64 81 108
67 86 114
69 89 118
69 90 120
70 90 121
66 85 114
66 85 114
67 87 118
61 79 104
67 86 115
67 87 115
71 91 121
67 86 115
70 90 121
64 84 113
69 89 119
67 87 119
70 90 120
66 85 113
69 88 117
69 90 120
66 85 114
71 91 121
67 87 117
71 91 122
70 90 120
70 91 121
67 86 115
70 90 120
71 91 121
70 90 121
71 91 122
69 89 119
66 85 113
73 93 123
68 89 120
68 89 120
71 92 123
68 87 117
71 91 121
73 94 125
69 89 120
71 92 122
72 92 123
68 88 118
68 88 118
70 91 121
69 89 118
71 90 120
69 89 120
69 89 119
70 90 120
70 91 122
73 94 125
72 92 122
69 90 121
68 88 119
70 90 121
69 89 119
71 92 123
70 91 123
70 90 120
72 92 123
72 92 121
71 91 122
72 93 125
72 93 125
70 91 122
72 92 122
69 89 120
71 92 123
71 91 121
71 91 122
74 95 126
72 92 123
71 92 123
71 92 123
72 93 124
73 93 125
72 93 125
71 92 124
73 94 126
73 94 126
72 92 122
72 93 125
73 94 124
71 91 121
71 92 123
72 93 125
73 94 126
71 92 124
71 91 121
73 94 125
71 91 122
72 93 125
73 94 126
74 94 125
73 93 124
71 92 123
71 92 123
70 90 121
71 92 124
71 91 121
71 92 122
69 89 119
70 89 119
72 93 124
69 90 121
71 92 123
71 93 125
72 92 122
72 93 123
73 94 124
71 92 123
72 93 124
71 91 122
71 91 121
70 91 122
72 93 126
70 90 121
71 91 122
68 89 120
72 93 125
67 87 117
71 92 122
72 92 123
69 89 120
71 91 121
71 91 120
72 92 123
71 91 120
67 87 116
71 92 122
72 92 121
70 90 120
70 90 120
69 89 119
69 90 121
69 90 120
69 88 118
72 93 123
70 90 120
69 89 120
68 88 118
71 91 121
66 86 116
70 90 120
69 89 120
70 91 122
69 89 119
67 86 115
69 89 119
66 86 115
70 90 119
70 90 120
68 88 117
70 90 120
73 93 123
68 87 116
66 86 117
70 90 120
69 89 118
69 89 118
68 88 118
70 90 119
66 85 112
67 87 116
71 91 121
65 84 112
65 84 113
67 87 116
69 90 120
66 85 113
65 84 113
66 85 114
69 90 121
65 83 111
64 82 109
65 84 113
65 84 112
66 85 112
68 87 115
65 83 111
64 82 109
65 82 108
66 84 113
68 88 117
67 86 115
62 80 107
63 81 109
65 84 112
62 79 105
66 86 116
65 83 111
64 82 109
64 82 109
64 82 109
61 77 103
66 85 112
66 85 113
67 86 115
63 82 109
60 78 104
61 78 103
63 81 108
67 85 111
65 82 109
61 78 104
59 75 99
63 80 107
64 81 107
58 75 99
62 79 104
61 79 104
59 76 101
59 75 100
64 81 106
58 74 99
57 74 99
58 74 99
58 75 100
56 72 96
57 72 96
57 73 96
58 74 98
55 71 95
54 69 91
50 63 82
55 69 91
59 75 99
57 72 95
53 68 90
51 64 84
57 72 94
57 73 96
53 67 88
53 68 90
54 68 90
52 65 85
53 67 87
50 62 81
47 59 78
50 63 83
52 66 87
43 55 73
47 59 77
50 63 83
47 59 77
52 65 85
43 55 72
44 56 74
46 59 78
46 58 76
47 59 76
46 58 76
43 54 70
41 52 68
46 58 75
37 47 61
46 57 74
48 60 78
42 53 69
51 63 82
42 53 69
41 51 67
43 52 67
40 49 64
44 55 72
41 52 67
38 48 62
40 50 65
39 49 64
40 50 65
40 50 66
39 48 62
37 46 60
43 53 67
37 47 60
42 52 67
41 51 66
31 38 49
42 52 67
37 46 60
34 41 53
36 46 60
40 49 62
36 44 57
41 51 65
39 49 63
37 45 58
36 45 58
35 44 57
38 47 60
34 43 56
35 43 56
38 47 60
39 49 63
32 40 52
37 46 59
36 45 59
38 47 61
37 46 60
34 42 55
42 51 66
37 45 59
37 46 60
35 44 58
36 45 58
43 54 70
45 56 73
42 52 67
40 50 65
47 59 76
40 50 65
40 50 66
48 60 78
43 54 70
42 53 69
49 60 78
44 55 72
40 50 65
41 51 65
45 57 74
44 55 71
41 52 67
44 55 72
47 59 78
42 53 70
45 56 73
45 57 74
49 63 83
48 61 80
46 58 76
52 66 87
49 62 83
51 66 87
47 59 77
51 65 85
50 63 82
49 63 83
57 72 93
47 59 78
56 70 92
53 68 91
55 70 93
52 66 87
59 74 97
53 67 88
52 66 87
52 67 88
51 65 86
55 70 92
56 73 98
58 75 100
54 69 91
53 67 88
56 72 94
55 70 92
54 70 93
57 72 95
63 80 107
59 75 100
59 74 98
63 79 104
59 76 102
60 76 101
57 72 96
63 82 109
58 74 99
61 78 103
60 77 102
61 78 104
63 81 107
59 76 102
63 81 109
58 74 97
62 80 107
62 80 107
64 81 107
61 78 103
65 82 109
65 84 112
65 82 108
63 80 107
64 82 109
62 80 107
64 82 110
62 80 108
63 81 109
64 82 108
67 86 115
65 83 110
63 81 109
67 85 113
66 85 114
64 82 109
65 83 111
66 84 112
67 86 115
65 84 112
66 85 114
69 89 118
64 83 111
66 84 111
63 81 108
69 88 118
67 86 115
66 85 113
67 87 116
70 90 120
65 84 112
67 87 116
64 83 111
70 89 117
68 88 117
66 86 116
71 91 121
69 89 118
68 88 117
71 91 122
70 90 120
67 87 116
68 88 119
68 88 118
71 90 120
69 89 119
69 90 121
68 87 117
71 92 123
69 90 121
69 89 118
68 88 117
70 89 118
71 91 122
70 90 119
68 88 117
68 88 119
71 91 121
69 88 117
71 91 122
67 88 118
71 92 125
68 87 117
69 90 121
70 89 119
68 89 120
69 89 120
70 90 120
70 89 118
71 91 122
71 91 120
74 94 125
72 93 125
69 89 120
70 90 121
73 93 124
68 88 117
68 88 117
71 92 124
72 92 122
73 94 126
72 94 125
69 90 120
72 93 125
71 91 122
72 93 124
69 88 118
71 92 124
71 91 122
71 91 121
70 92 125
70 90 120
72 93 125
71 92 123
69 90 121
71 91 122
71 92 122
70 90 121
75 96 126
72 93 125
71 92 123
72 93 125
72 93 123
70 91 122
74 94 126
72 92 122
73 94 124
73 94 126
72 94 127
70 90 121
72 93 125
71 91 122
70 90 120
70 91 122
72 93 124
72 92 123
73 94 125
70 91 122
71 92 124
68 88 118
71 92 124
71 92 125
69 90 120
72 92 123
72 92 124
73 95 127
71 92 124
68 88 117
71 92 123
70 91 122
71 92 124
69 89 119
69 90 120
71 91 122
72 93 125
72 93 124
71 91 122
74 95 127
71 92 125
71 92 125
72 93 125
71 92 124
71 91 122
72 93 123
69 90 121
71 91 121
73 94 125
69 90 120
70 91 123
70 91 122
68 89 121
69 90 121
70 91 121
72 92 122
72 92 122
69 90 120
71 91 122
72 93 124
71 92 123
72 92 123
68 87 116
69 88 116
69 90 121
67 86 115
70 91 122
68 87 116
72 93 124
73 93 124
68 88 117
67 88 119
70 90 121
67 87 117
67 87 116
71 92 124
71 91 122
68 88 118
69 89 120
68 88 118
68 88 116
67 85 113
69 90 121
66 85 114
66 85 113
64 83 111
71 91 121
71 91 121
70 91 123
66 86 114
65 84 112
69 89 120
67 86 114
66 84 111
71 91 123
69 89 118
68 87 116
67 85 113
64 83 112
64 83 110
66 85 114
71 91 122
67 85 113
61 79 105
66 85 113
70 90 120
62 81 108
66 85 112
62 78 104
62 81 109
60 78 104
62 80 107
66 84 111
63 81 107
65 84 113
64 82 109
65 82 109
63 80 107
63 82 109
60 77 103
62 80 107
63 81 108
62 80 106
64 81 107
62 79 106
62 79 106
56 71 93
60 78 105
62 79 105
61 79 106
62 80 106
61 78 104
63 81 107
64 81 107
62 80 106
59 76 101
58 74 97
63 80 107
56 71 93
59 75 100
59 74 98
58 73 96
59 74 98
59 75 99
62 79 105
60 76 99
55 70 93
58 73 96
58 74 97
55 71 94
54 68 89
57 72 96
53 67 88
53 66 87
56 71 93
55 70 93
51 66 88
57 71 93
54 68 90
51 65 85
51 65 85
47 59 78
50 64 84
54 68 89
51 64 83
52 65 86
45 56 74
50 64 84
53 67 87
44 54 70
47 59 77
43 54 71
52 66 86
48 60 78
45 56 73
49 61 79
44 55 72
43 54 70
39 49 63
47 59 77
44 55 73
39 48 63
42 53 69
45 56 72
46 58 75
44 56 73
42 52 68
41 52 68
40 50 65
44 55 72
45 56 74
41 51 66
43 54 69
43 54 70
40 50 66
42 53 69
35 43 56
38 47 61
37 45 58
42 52 67
45 56 72
35 44 58
37 46 60
35 43 55
45 56 72
39 49 63
37 45 58
40 50 65
36 44 57
38 48 62
34 43 55
35 43 56
36 44 57
38 47 61
40 50 65
42 53 68
38 47 60
41 51 67
37 47 62
35 43 57
39 48 61
43 54 70
39 48 63
42 52 68
45 56 73
41 51 66
41 51 66
39 49 64
44 54 70
40 50 65
41 51 66
38 47 61
39 49 64
38 47 60
40 50 64
43 53 69
40 50 66
44 56 72
44 55 71
49 61 79
41 52 68
48 61 80
49 62 81
46 57 73
47 59 77
46 59 78
47 59 77
49 61 80
43 54 71
47 59 77
49 61 80
46 58 76
49 62 81
55 70 91
47 59 77
47 60 79
45 57 74
51 64 84
50 63 83
51 65 86
49 62 82
51 64 84
50 63 83
56 70 92
53 67 89
51 65 86
57 73 96
60 76 100
54 68 89
53 67 87
53 68 90
55 70 93
59 75 100
58 73 96
59 75 100
60 75 99
54 69 92
56 72 96
53 68 90
55 70 94
56 71 94
59 75 100
62 79 105
57 74 100
58 75 100
59 76 102
60 76 100
59 74 98
58 75 100
63 80 105
60 77 103
60 76 101
58 74 100
61 77 103
62 79 104
63 81 107
61 77 103
58 75 100
61 77 102
62 79 104
65 83 109
58 75 101
66 84 111
63 81 108
66 84 113
65 83 109
62 80 107
66 84 112
65 82 109
64 82 110
64 83 111
63 81 108
65 83 111
65 84 112
66 84 113
67 86 115
65 84 112
63 82 111
58 74 99
65 83 112
62 80 107
67 85 112
67 86 116
67 86 116
65 85 115
67 86 114
69 88 117
66 84 112
68 87 116
65 84 112
69 88 118
65 83 111
66 85 113
68 87 116
69 88 117
65 84 112
66 85 115
70 89 117
67 86 115
69 89 118
70 90 121
67 86 115
65 84 112
69 88 118
69 88 117
69 89 120
72 92 122
68 87 116
69 89 119
71 92 123
69 89 119
67 86 116
70 91 122
71 92 122
65 85 114
69 88 118
69 89 119
69 89 120
68 88 119
71 91 123
72 92 123
71 92 122
69 90 120
69 89 118
69 89 119
69 89 120
72 93 123
70 91 123
71 92 123
71 92 123
73 93 124
70 89 119
70 91 121
71 91 121
71 91 121
69 88 117
68 88 117
68 89 120
70 90 121
73 94 125
70 91 122
72 93 123
68 88 119
73 94 124
70 91 122
70 91 121
70 91 122
68 88 119
70 90 120
70 89 118
74 94 126
73 94 125
71 92 123
70 90 120
70 91 122
70 90 121
70 90 121
69 90 120
72 93 125
71 92 123
72 92 123
72 92 121
73 94 126
73 93 124
73 95 127
73 95 127
71 91 122
72 92 123
71 92 123
71 92 123
71 92 123
72 93 125
71 92 123
71 92 124
70 91 121
72 93 125
70 91 122
70 90 121
71 91 122
71 92 123
73 93 123
72 93 125
73 94 125
71 92 123
72 93 124
72 93 124
71 91 122
70 90 122
71 91 122
72 92 123
73 94 125
70 91 122
71 93 124
72 92 122
70 90 120
71 91 121
72 92 123
69 90 121
73 93 124
72 93 124
72 92 123
71 91 121
71 92 123
71 91 122
71 91 121
70 90 120
71 91 122
72 93 124
70 91 122
68 88 118
72 92 123
69 88 118
70 89 118
69 89 120
68 87 116
73 94 126
69 89 120
70 90 121
68 87 117
72 92 122
71 92 123
69 90 121
68 89 119
70 89 117
69 89 119
69 89 120
70 90 120
67 87 117
67 87 116
69 88 117
71 92 122
69 88 118
70 90 121
67 87 115
67 86 115
69 88 118
71 91 121
66 85 113
70 91 123
67 86 116
70 90 120
72 92 121
69 89 118
67 87 116
69 88 117
66 85 113
67 87 117
68 88 117
63 81 110
66 85 113
67 86 115
68 88 117
64 83 112
68 88 117
66 85 113
68 88 118
71 90 120
68 87 117
67 87 116
68 87 117
62 80 108
66 86 115
68 88 118
68 88 118
67 86 113
66 85 112
64 81 107
63 81 107
63 81 107
63 81 108
64 83 111
65 83 110
67 86 114
66 83 109
64 83 110
65 83 110
66 84 110
63 81 108
63 81 109
57 73 97
64 83 111
62 80 106
65 84 111
62 79 106
62 78 103
61 79 106
60 76 100
61 79 106
63 81 108
65 83 110
60 78 103
59 76 102
59 75 100
64 81 107
60 78 104
59 76 101
57 73 98
58 74 98
58 73 97
58 75 100
62 80 106
61 78 103
56 72 96
60 76 100
60 77 103
57 73 97
59 75 100
53 68 91
55 69 91
51 66 88
52 67 89
49 62 82
58 75 100
55 69 91
51 65 85
50 64 84
52 66 87
53 68 90
55 69 90
55 70 93
51 64 85
51 65 86
53 67 88
51 64 83
54 69 91
51 64 83
54 68 90
58 72 93
48 60 79
53 67 88
47 59 77
42 53 69
50 62 81
47 59 77
49 63 83
43 54 71
48 61 81
47 58 76
49 63 82
43 55 73
45 56 73
44 55 73
43 53 69
39 48 63
41 51 68
43 54 70
46 58 76
47 59 76
48 60 78
45 56 73
40 51 67
40 49 64
35 44 57
37 48 63
43 53 69
41 52 67
33 40 52
38 48 62
36 45 58
37 46 60
43 53 69
36 45 57
43 53 69
39 49 64
35 44 58
41 51 67
46 57 73
35 43 56
42 52 67
48 60 78
39 48 63
34 42 55
42 53 68
37 46 60
42 52 68
40 50 65
43 53 67
37 47 60
38 47 61
42 52 67
36 45 58
45 56 72
41 51 66
36 45 59
37 46 59
46 57 74
37 46 59
44 55 71
44 55 72
41 51 66
36 45 58
38 47 61
44 56 73
43 54 70
44 54 70
50 63 81
47 59 77
42 53 69
41 52 67
44 56 73
42 53 69
46 57 75
42 53 70
47 59 78
42 53 70
42 53 69
48 60 79
45 57 74
49 62 82
53 66 86
48 61 80
42 53 69
44 56 73
52 65 85
47 59 78
47 58 76
50 64 84
50 63 83
49 61 80
54 68 90
46 58 76
53 68 89
46 59 78
49 62 82
54 68 90
49 63 84
51 65 86
51 65 87
51 65 87
51 65 86
54 67 88
58 73 96
53 67 89
50 63 84
54 68 90
62 79 104
60 76 101
62 79 104
54 68 90
57 72 95
60 76 99
58 74 98
56 72 95
57 74 99
54 69 91
61 78 103
59 74 97
58 75 100
61 78 104
54 69 92
62 79 105
62 79 104
61 77 101
62 79 105
59 75 99
55 71 94
58 76 102
61 78 105
59 76 101
62 79 106
65 82 109
58 75 101
65 84 112
57 74 98
64 81 108
65 83 111
64 82 109
63 82 110
64 82 109
65 84 111
60 76 101
64 81 108
62 79 106
65 83 111
65 84 112
66 85 113
62 80 106
65 83 111
66 84 112
62 80 107
65 84 112
69 88 118
68 88 118
63 81 108
66 86 117
68 87 116
67 86 114
63 82 110
66 84 112
69 89 118
67 87 116
67 87 117
64 83 111
63 82 110
67 85 114
70 89 118
67 86 114
71 92 124
68 87 116
67 87 116
66 85 113
70 89 119
67 86 115
68 87 117
69 89 119
69 90 120
71 91 122
70 90 120
69 89 119
67 87 116
66 85 113
70 90 120
68 88 118
69 89 119
70 88 116
68 89 120
69 88 117
68 87 116
70 90 120
67 87 117
67 87 117
69 89 120
67 86 115
73 93 124
71 91 121
73 94 126
71 91 122
71 91 122
68 88 117
67 86 116
71 91 121
70 90 121
72 92 123
67 86 116
72 93 125
66 86 114
71 92 123
71 91 122
70 90 120
70 90 119
72 92 122
69 89 118
73 95 127
68 88 117
72 93 124
70 90 120
69 89 120
73 93 124
72 93 124
69 89 119
69 89 119
70 91 122
71 92 122
69 90 121
72 93 124
70 90 120
72 93 125
72 92 122
72 93 124
72 92 123
70 91 122
70 91 122
73 93 124
70 91 122
73 93 124
73 94 125
72 92 124
72 94 126
73 94 126
73 94 126
73 94 125
72 92 123
70 90 121
72 93 125
71 92 124
70 91 123
72 93 124
72 92 124
73 94 124
73 94 125
70 91 122
72 93 123
70 91 122
73 94 124
71 93 125
69 90 121
70 90 121
72 94 126
72 91 121
73 94 125
71 92 122
70 91 122
70 91 121
71 92 123
71 91 121
71 91 122
70 90 120
72 93 124
72 92 122
71 91 121
71 93 124
68 88 117
72 93 124
70 91 122
71 92 123
70 90 120
69 89 120
72 92 122
69 91 122
66 86 115
70 91 121
69 89 118
71 91 122
71 92 123
69 89 120
69 89 119
70 91 122
71 92 123
70 91 123
69 90 121
67 86 115
71 91 121
67 87 117
72 93 124
70 90 120
67 87 116
69 90 120
70 89 119
66 85 115
68 87 116
72 91 121
68 88 118
69 89 120
71 91 121
67 87 117
70 91 121
66 85 114
69 88 117
66 86 115
68 87 116
69 88 117
70 90 120
65 85 114
68 87 117
68 88 118
66 84 112
70 90 120
69 89 118
67 86 114
69 89 118
65 84 112
66 86 114
63 81 108
64 83 111
67 87 116
67 86 113
66 84 112
69 88 118
65 84 112
67 86 116
62 80 107
67 86 114
63 80 106
67 87 116
69 88 116
67 86 115
65 83 110
67 87 117
64 84 112
65 85 114
67 86 114
62 80 105
64 82 109
64 81 108
63 81 107
60 78 104
61 79 106
64 82 109
60 77 102
64 82 108
65 83 110
64 82 109
58 76 102
68 86 113
58 76 102
60 76 100
62 79 106
58 73 97
60 77 102
60 77 102
60 77 102
58 75 100
56 72 96
61 78 104
56 73 97
63 81 108
59 76 102
60 77 103
58 75 100
58 74 98
57 72 95
58 74 98
55 70 93
56 72 95
57 72 95
61 78 103
53 68 91
52 66 88
58 74 97
55 71 94
54 68 90
57 73 97
57 73 97
50 63 84
59 74 98
52 67 89
54 69 91
55 70 91
54 68 90
50 63 83
51 65 86
52 66 87
51 64 84
51 64 84
50 62 80
46 59 77
47 60 78
47 60 80
51 64 85
46 59 78
43 54 69
53 67 88
47 59 77
47 59 77
49 62 82
49 62 81
47 59 78
46 58 76
46 58 76
42 53 70
49 62 82
44 55 71
45 56 73
47 59 76
41 52 68
43 54 70
45 58 76
42 53 70
41 51 66
45 56 72
42 52 68
45 55 71
48 61 79
40 49 64
42 53 69
46 57 73
38 47 62
34 43 57
43 53 69
39 49 63
40 50 65
38 47 61
36 46 59
38 48 62
35 44 57
39 48 62
39 48 63
39 49 65
44 55 71
39 48 62
41 50 64
35 43 55
39 49 63
44 54 70
41 51 66
41 51 67
37 45 59
38 47 60
37 47 61
38 47 61
41 51 65
45 56 72
41 50 64
37 47 61
37 46 59
40 50 65
38 46 60
45 57 74
36 45 59
38 48 62
41 50 65
41 51 66
38 48 63
43 53 68
45 57 74
46 57 74
44 56 73
43 54 70
42 53 69
44 56 74
44 55 72
41 52 68
43 54 71
49 61 81
48 60 79
48 60 78
42 54 71
46 58 76
43 55 72
49 62 81
53 67 89
43 54 72
55 69 91
49 63 82
50 63 83
48 60 78
48 61 81
49 62 82
44 56 73
47 60 79
46 59 77
46 59 79
53 67 88
52 66 86
53 67 88
53 67 88
53 67 89
55 70 93
55 70 93
53 66 87
54 69 91
57 72 95
55 70 93
53 67 88
55 70 92
60 77 101
51 65 86
56 71 94
54 68 91
57 72 95
60 76 101
54 69 91
57 73 96
60 76 101
61 77 102
58 74 98
64 82 109
64 81 108
58 74 99
61 77 101
57 73 97
63 80 106
64 82 109
61 79 107
61 79 106
56 72 96
59 75 99
62 80 106
60 77 103
60 78 103
61 79 105
63 80 105
62 78 103
61 78 104
59 75 100
65 83 110
62 80 107
63 81 108
64 82 110
57 74 99
67 85 113
64 82 108
63 81 108
63 83 112
63 81 108
67 86 114
65 84 112
67 86 114
65 84 112
64 83 111
65 85 115
64 83 110
65 84 113
64 82 110
68 87 116
64 83 112
67 86 115
68 88 117
66 85 114
64 83 112
64 82 110
67 86 115
62 81 110
68 88 117
68 87 116
69 88 118
68 88 118
67 88 119
67 88 118
69 89 119
67 86 114
67 86 114
71 91 121
69 89 119
66 85 114
68 87 117
65 84 113
69 89 120
67 86 115
70 90 121
69 89 119
72 92 122
70 89 117
67 86 114
70 90 120
67 86 116
71 92 123
66 86 117
71 92 123
70 90 120
66 86 115
70 90 120
68 89 119
73 93 123
71 91 122
72 93 124
70 91 121
69 89 120
70 90 121
72 93 123
69 90 121
68 87 116
68 88 118
72 94 126
70 90 120
70 91 122
69 89 119
71 91 123
72 93 123
70 91 121
69 88 118
71 91 121
70 91 121
70 90 121
71 91 122
71 92 123
70 91 123
68 88 118
73 93 125
69 90 120
73 94 126
72 93 124
72 92 122
72 93 124
72 92 123
69 90 120
72 93 123
71 91 123
71 91 120
70 91 122
70 91 122
70 90 121
72 92 123
68 88 118
72 93 123
73 93 124
72 93 124
71 93 125
73 94 126
71 92 123
71 91 121
72 93 125
73 94 126
72 93 125
71 92 124
71 92 123
72 92 122
70 91 122
73 93 122
72 93 124
73 93 125
70 91 122
70 91 122
73 94 126
72 92 123
70 91 123
71 91 121
72 93 124
70 90 121
70 90 120
70 92 124
70 90 122
72 93 124
70 91 121
70 89 119
71 91 122
71 92 124
68 88 118
71 91 122
70 90 121
71 92 124
68 88 118
72 93 124
72 92 123
71 91 120
70 91 122
68 88 119
70 90 121
71 91 120
70 91 122
72 93 124
71 91 122
69 90 121
68 89 120
72 93 125
69 90 120
73 94 126
69 90 121
67 86 115
67 87 117
66 86 115
69 89 120
68 88 117
71 91 120
69 89 120
70 90 120
69 90 121
69 89 118
70 89 119
66 86 117
71 92 123
68 88 118
67 87 117
66 85 115
66 85 114
67 87 117
69 89 119
72 91 121
69 89 118
66 85 113
68 86 114
63 81 108
71 92 124
66 85 115
68 87 116
69 89 119
67 86 115
68 87 116
66 86 115
69 89 119
67 86 116
65 84 112
64 83 110
69 89 119
67 87 116
70 90 119
67 87 116
66 85 113
66 85 114
67 86 114
63 81 108
64 83 112
65 84 113
67 86 114
64 82 109
66 85 114
63 81 108
66 84 112
62 79 105
67 86 115
66 85 113
62 79 105
61 79 105
64 82 110
65 83 111
68 86 115
65 83 111
63 80 106
66 84 111
62 81 109
62 81 108
68 86 114
65 83 111
62 79 105
59 75 99
62 79 105
65 84 111
60 76 101
59 76 101
60 77 103
65 83 110
63 80 105
60 77 101
59 76 101
59 75 99
58 73 96
57 73 96
60 77 102
59 75 99
57 73 96
58 73 97
57 73 97
60 76 100
58 73 96
58 74 99
60 77 102
51 66 88
55 69 92
55 71 93
54 69 90
58 74 98
54 69 90
57 73 96
54 69 91
55 71 94
54 68 90
55 69 91
47 59 78
46 58 77
55 70 92
51 66 87
53 66 86
53 67 89
54 69 91
50 64 85
55 69 90
55 70 93
59 76 101
54 68 90
50 64 84
52 65 85
52 66 86
47 60 79
49 62 82
49 62 81
51 64 83
47 59 77
44 55 72
44 56 73
47 59 77
51 65 85
42 52 68
49 61 80
42 52 68
50 63 83
42 53 70
42 53 70
44 55 72
47 58 75
45 56 72
44 55 72
46 58 77
44 55 72
37 47 61
45 56 74
44 55 71
43 53 69
40 49 64
39 48 63
37 46 61
36 45 58
43 53 69
46 58 75
45 56 72
46 57 74
39 49 64
40 49 63
45 56 73
43 53 69
40 49 64
45 56 72
43 54 70
38 47 61
42 53 69
39 49 64
45 56 72
38 47 61
40 51 66
40 51 67
39 48 62
37 46 60
38 47 61
40 51 66
40 50 64
44 54 71
44 54 70
36 45 59
31 38 50
46 58 76
40 50 65
39 49 64
44 54 70
49 62 80
40 51 66
45 55 71
41 51 66
48 61 79
48 60 79
47 59 76
48 61 81
53 66 86
51 63 83
44 56 73
47 58 74
52 64 84
49 62 80
47 60 78
51 64 82
44 56 73
44 56 73
45 57 74
51 63 83
46 59 77
46 58 77
54 69 90
50 64 85
54 70 92
48 61 81
48 62 82
52 65 85
52 66 87
51 64 85
54 69 90
48 60 79
54 69 91
59 73 95
54 67 88
47 60 78
48 61 80
55 69 92
52 66 87
56 71 92
54 68 90
55 70 91
53 68 89
53 68 90
58 74 98
57 73 96
56 71 94
59 75 99
56 72 97
56 71 93
58 74 98
50 63 83
59 76 101
53 67 90
62 79 105
60 76 101
60 77 103
60 76 101
57 73 96
64 81 108
57 72 96
57 73 97
58 75 101
63 80 106
62 80 107
60 76 100
54 70 94
62 81 109
61 79 105
64 81 107
64 82 109
62 81 108
56 73 98
65 83 111
64 83 111
62 80 106
63 81 108
65 84 113
63 81 109
65 84 112
63 82 110
65 84 111
67 86 115
63 81 108
63 81 109
67 87 116
69 88 117
65 84 111
67 86 115
62 79 106
66 86 115
67 86 115
64 82 110
68 86 114
69 88 117
67 86 114
66 86 115
64 83 111
65 85 115
68 88 118
64 82 111
65 83 112
67 86 114
66 86 115
66 85 114
68 87 115
66 85 114
67 87 116
68 87 116
71 91 122
65 83 112
67 87 116
71 93 124
70 90 119
71 91 122
70 90 120
66 85 115
69 89 120
70 89 119
67 87 117
68 88 117
71 92 123
69 89 119
67 85 112
70 90 121
70 90 120
70 91 122
71 91 122
66 85 113
68 88 119
69 89 119
69 89 120
71 91 122
70 89 119
71 91 122
69 90 122
71 92 123
68 88 118
70 90 119
70 92 124
70 90 120
69 90 121
72 92 122
71 91 121
71 91 122
69 90 120
71 92 124
70 90 120
69 89 118
69 90 120
71 91 122
71 91 122
71 92 124
70 89 119
73 93 124
70 90 121
70 91 122
72 93 123
69 90 120
70 91 122
72 92 123
69 90 122
69 89 120
72 92 123
69 89 119
72 92 124
70 90 120
71 91 122
73 94 126
73 93 124
70 91 121
71 92 125
71 91 122
72 93 125
72 93 124
72 93 124
71 91 122
70 90 120
69 89 119
73 94 125
72 92 123
72 94 125
73 94 126
71 90 120
71 92 124
72 92 123
73 95 126
71 93 125
71 91 122
71 91 123
72 92 122
72 93 124
71 93 125
71 91 121
69 89 120
72 93 124
70 91 123
71 91 121
71 91 122
71 92 123
68 89 119
71 91 122
70 90 120
71 92 122
69 89 119
71 91 122
68 88 118
72 93 126
72 92 123
72 92 122
69 88 117
71 91 123
72 92 123
70 90 121
69 89 119
68 88 117
73 94 125
70 91 121
72 93 124
71 91 121
70 90 121
73 94 126
69 89 118
72 92 122
68 88 118
67 87 117
70 90 120
67 86 115
69 89 119
67 87 116
69 88 117
69 89 118
70 89 119
66 86 115
70 90 120
68 88 118
69 89 120
69 89 118
69 89 120
68 88 118
70 91 122
68 89 119
70 90 120
69 89 118
70 89 118
65 84 112
67 87 116
66 85 115
66 86 115
68 87 116
67 86 115
66 85 115
69 89 118
68 87 116
71 90 119
66 84 112
68 88 118
70 90 121
68 88 118
66 85 114
67 86 116
65 83 111
66 84 113
70 89 119
66 85 113
67 86 115
66 85 114
67 87 116
65 83 110
65 84 112
67 86 114
68 87 116
65 83 111
68 88 117
63 81 107
64 82 109
63 82 109
62 79 106
67 86 115
66 85 113
65 83 110
63 81 109
64 82 109
59 77 102
68 87 115
64 82 108
64 82 109
58 75 100
63 81 108
60 77 101
63 80 106
67 86 115
59 76 101
63 80 107
60 77 102
63 81 107
61 78 104
62 80 107
53 67 88
63 81 108
60 77 102
57 74 100
56 73 97
60 77 101
62 80 106
60 77 103
56 72 96
61 78 102
61 77 102
56 71 94
56 70 93
56 72 96
54 69 91
56 72 95
60 75 99
57 72 96
56 72 95
55 70 93
56 71 95
53 67 89
57 73 96
57 72 95
52 66 87
52 66 86
53 67 88
47 60 79
54 69 91
60 75 98
54 68 88
53 67 88
50 64 85
55 70 92
57 73 96
48 61 81
52 66 87
50 64 84
53 67 88
50 63 83
51 65 85
54 68 90
46 58 77
54 68 89
55 69 90
52 66 87
50 63 83
51 64 83
49 62 81
49 62 81
49 62 81
43 53 70
41 52 69
46 57 75
42 53 70
47 60 78
46 58 75
45 57 73
50 63 82
41 52 69
44 55 71
47 58 75
39 49 64
47 59 76
44 55 71
46 57 74
46 57 74
41 51 66
49 61 79
47 58 75
44 55 72
40 50 66
45 56 73
36 45 58
45 56 73
44 55 71
42 53 69
39 48 62
37 47 61
38 47 60
46 57 73
39 49 64
44 55 71
41 51 67
39 49 64
39 48 63
43 54 70
37 46 59
42 52 68
42 52 68
46 58 75
46 57 75
37 46 60
42 52 68
48 59 76
38 48 63
42 53 70
44 55 71
40 50 65
51 64 82
46 57 75
43 55 73
45 57 73
44 56 74
47 59 77
36 46 62
43 55 71
54 67 88
44 56 74
46 58 75
45 57 74
39 49 64
40 51 66
48 61 79
46 59 78
45 57 74
47 59 77
49 61 80
49 62 81
44 55 72
50 62 82
50 64 84
48 61 81
52 66 87
52 67 88
57 72 94
52 65 85
50 64 84
46 59 78
53 67 88
47 60 79
49 62 81
51 65 86
51 65 86
56 71 93
55 70 92
52 66 87
53 68 91
55 70 93
54 69 92
52 65 85
59 74 97
55 71 94
54 68 90
52 66 86
60 76 100
58 74 98
57 73 96
58 73 95
58 74 97
60 76 101
62 79 104
59 75 99
54 70 94
58 74 98
54 69 91
57 72 96
61 77 101
62 79 105
60 76 101
57 72 96
61 77 101
59 76 101
62 79 105
60 77 104
62 80 106
60 77 102
62 79 105
61 79 105
63 80 106
64 82 109
62 80 107
62 80 107
63 80 107
62 79 106
61 79 105
64 82 109
61 78 105
62 79 105
64 83 111
66 85 113
60 77 103
63 81 108
66 84 112
63 81 110
67 85 113
63 81 108
69 88 117
63 81 109
65 85 114
68 88 118
67 86 115
69 90 120
64 82 110
70 90 120
60 78 105
66 85 114
64 83 110
66 85 114
68 87 116
67 86 116
64 83 111
67 86 116
65 83 111
64 83 112
69 89 119
67 87 116
67 87 116
69 89 118
69 89 119
65 85 115
65 84 111
69 89 120
68 87 116
66 86 114
64 83 110
66 86 115
68 88 117
66 85 114
68 87 115
67 87 117
67 86 116
68 88 118
69 89 120
70 90 119
68 88 118
68 88 117
70 90 120
67 86 115
69 89 117
71 92 123
65 84 112
71 91 120
70 90 121
72 93 125
70 90 121
72 92 123
68 88 118
70 90 119
72 91 121
71 91 121
71 92 123
70 91 122
67 87 117
70 90 122
69 88 117
69 90 121
67 88 119
72 91 121
69 89 120
69 89 119
73 93 125
71 91 122
71 91 122
70 90 121
71 91 123
70 90 121
70 91 122
73 94 125
71 92 123
70 90 121
72 92 123
73 94 125
69 90 120
70 90 120
69 90 122
71 91 122
74 95 126
71 92 123
70 91 123
70 91 122
71 92 123
71 92 124
70 91 122
72 92 123
71 92 123
72 93 123
72 93 124
71 92 122
71 91 122
71 92 124
71 91 121
73 93 124
73 94 125
74 94 125
73 94 126
73 94 124
73 93 122
73 94 126
70 91 122
72 92 123
71 91 122
71 91 121
72 93 124
72 92 123
72 92 123
72 93 124
70 89 118
71 92 123
71 93 125
72 93 124
72 92 123
72 93 123
69 89 120
72 94 125
70 91 122
71 92 123
70 91 123
70 90 120
71 91 122
69 89 120
71 92 123
71 90 120
70 90 121
68 88 118
73 93 123
72 93 124
70 90 121
72 92 123
69 90 120
70 90 120
72 92 121
69 90 120
71 91 121
70 90 120
67 87 116
70 90 120
70 89 119
67 87 117
70 90 121
70 89 119
68 87 117
70 90 120
68 88 118
67 88 119
70 90 120
71 92 123
63 83 112
70 90 120
73 94 125
64 84 113
68 87 115
66 85 114
70 90 120
69 89 120
67 87 117
63 81 108
68 88 117
69 89 119
66 85 114
69 89 119
69 88 116
67 87 118
68 87 115
69 89 119
70 89 119
69 90 121
70 91 122
67 86 114
64 82 110
66 85 113
70 90 120
68 87 115
65 85 114
65 84 113
67 86 116
71 92 122
68 87 115
63 81 110
67 86 114
67 86 115
64 82 110
66 84 113
69 88 117
69 89 119
66 84 112
65 84 113
63 81 107
65 83 110
63 81 109
66 85 114
61 79 106
65 84 111
61 78 103
67 86 115
65 83 110
64 82 109
65 82 107
64 82 110
60 77 103
68 87 116
64 82 108
61 79 106
62 79 106
60 77 103
60 77 102
58 74 100
57 72 96
62 80 106
59 75 99
58 75 99
62 79 105
62 79 105
62 79 104
58 75 100
59 75 100
60 77 102
56 71 94
60 77 102
60 76 99
56 72 97
59 76 100
55 70 94
57 73 96
55 71 94
59 75 100
53 67 88
55 70 91
55 70 94
53 68 90
50 64 85
58 75 100
57 71 93
57 71 94
56 71 94
55 71 94
57 72 95
52 66 87
55 69 91
55 70 92
50 63 83
53 67 89
50 64 84
50 63 82
51 65 86
52 66 87
48 61 81
54 68 89
52 65 85
55 70 91
51 64 84
51 66 87
50 63 83
50 63 83
51 64 83
52 66 87
46 58 75
50 63 82
49 63 83
51 64 83
47 59 77
46 59 78
48 60 78
49 62 81
49 61 79
46 58 76
53 67 88
52 66 86
46 58 75
43 54 71
51 64 83
50 63 81
43 54 70
41 51 67
39 49 63
39 49 64
44 54 69
48 59 77
51 64 83
48 61 79
44 56 72
41 52 68
41 50 65
44 54 70
46 57 73
50 61 79
44 55 71
42 52 67
44 55 71
42 53 69
49 61 79
36 46 59
41 52 68
48 60 78
41 51 66
37 46 59
45 56 73
44 55 72
47 59 75
46 57 74
46 57 74
39 50 65
42 54 71
49 61 79
38 47 61
43 54 70
46 58 75
44 55 72
44 56 73
44 54 70
40 51 66
47 59 77
42 53 70
46 58 75
48 59 76
44 55 72
44 55 72
46 58 75
54 68 88
43 55 73
47 60 79
50 64 85
52 64 83
49 61 79
51 64 84
48 60 78
51 64 84
47 59 78
52 65 86
46 57 74
46 57 74
53 66 87
51 65 86
51 64 84
50 64 85
49 61 80
53 67 89
51 64 84
54 69 91
47 59 78
51 65 85
48 61 81
50 64 85
49 62 82
56 72 95
53 67 89
59 74 97
48 62 81
50 63 82
54 68 90
58 73 95
58 74 98
59 74 96
52 66 87
55 70 92
54 68 90
54 70 93
59 75 99
58 75 101
60 77 102
56 71 94
53 68 89
59 75 99
60 76 101
59 75 100
58 73 97
60 77 102
61 79 104
61 78 105
60 77 102
53 68 90
64 83 111
61 77 101
63 81 107
64 82 108
58 75 101
63 81 108
68 87 115
61 76 100
62 79 105
63 81 108
66 84 110
62 79 104
60 76 101
63 81 108
64 83 112
68 88 119
67 87 116
64 82 108
65 84 113
62 79 105
61 78 103
63 80 107
66 85 112
65 84 111
66 84 111
63 81 108
64 83 112
70 89 119
64 82 110
67 85 112
64 82 110
62 80 106
67 86 114
65 84 112
66 85 113
66 85 114
69 89 119
66 86 116
67 85 114
62 80 107
64 83 111
66 85 114
66 85 114
69 89 119
67 87 116
67 86 113
67 87 116
69 88 117
66 85 114
69 88 118
70 90 121
71 91 120
65 85 114
68 88 118
64 84 113
66 86 116
68 89 119
67 86 115
65 84 113
69 88 118
68 88 118
70 91 121
67 87 117
70 91 121
71 91 120
68 88 117
70 90 120
69 88 116
69 90 121
68 87 117
70 89 119
71 92 123
69 89 118
69 89 120
70 90 121
72 92 122
71 91 122
69 89 120
70 90 120
71 91 121
70 91 121
68 88 118
69 89 120
70 90 121
70 90 120
70 90 120
69 90 121
72 92 122
69 90 120
68 87 117
69 90 122
70 90 120
69 89 120
70 90 121
74 95 127
70 91 122
73 93 125
70 90 120
70 91 123
70 90 120
72 92 124
72 93 124
71 91 122
70 91 122
71 91 122
70 91 122
72 92 123
70 90 120
72 92 123
71 91 121
71 91 122
69 90 121
73 93 124
71 93 125
71 92 123
71 92 124
71 92 124
71 92 123
70 91 121
73 93 123
73 95 127
70 91 123
72 93 123
72 93 125
70 90 120
69 90 121
69 89 120
71 92 123
71 91 122
72 93 125
70 90 121
71 92 123
70 91 122
71 91 121
69 90 122
71 91 122
73 93 124
71 91 121
71 91 121
74 94 125
72 92 122
74 94 125
71 92 123
71 92 123
71 92 123
72 93 124
72 92 122
71 91 122
69 89 120
74 95 126
70 91 123
70 90 121
69 90 120
71 92 124
71 91 121
70 90 121
68 88 118
69 89 119
71 91 122
69 89 118
70 89 119
70 90 121
69 88 117
71 91 122
70 90 120
70 90 121
69 89 118
70 91 122
70 91 122
71 92 123
69 89 120
69 91 122
66 86 115
67 87 118
68 88 118
69 89 119
69 88 117
73 93 123
66 84 113
67 85 113
66 84 113
68 87 116
67 86 114
69 89 120
69 89 118
70 90 120
68 87 116
69 89 119
71 91 121
68 88 119
68 87 116
67 86 116
69 89 120
69 88 118
67 85 113
69 89 118
66 85 114
68 87 116
65 84 113
70 89 118
63 81 108
68 87 114
67 86 115
67 87 117
68 87 116
68 87 117
66 86 115
66 85 114
67 86 113
64 82 109
63 82 111
66 84 111
65 82 109
68 88 117
64 83 110
65 84 112
60 78 103
66 84 112
66 85 114
65 84 113
68 87 116
65 83 112
61 78 105
65 83 110
59 76 102
66 85 113
63 81 109
67 86 114
62 80 106
63 82 109
66 85 112
65 83 111
63 81 108
62 79 104
62 78 102
60 77 101
60 77 102
61 78 104
63 81 109
63 81 108
61 78 103
61 77 101
55 71 94
53 68 90
59 75 100
57 73 97
56 73 97
59 76 101
57 72 96
61 77 100
57 72 96
60 76 101
60 76 101
51 65 86
60 77 102
55 70 93
60 76 100
55 70 92
53 68 89
59 75 98
54 70 93
56 72 96
57 72 94
59 75 99
53 66 87
55 70 93
57 72 94
50 64 85
53 68 90
54 69 91
52 66 87
49 62 82
58 74 97
49 62 81
54 69 90
51 64 84
50 64 84
52 66 86
50 63 83
53 67 89
49 61 80
54 68 89
53 67 87
50 63 84
43 55 72
50 63 83
52 66 86
53 66 85
46 59 77
46 57 75
50 63 82
47 59 77
46 58 76
41 51 67
47 60 79
51 64 84
52 64 84
49 62 81
48 61 79
49 62 82
49 62 81
49 62 81
46 57 75
38 48 62
44 54 70
44 55 72
43 54 70
44 54 71
38 48 62
38 47 62
45 56 72
44 55 72
38 48 63
43 53 69
42 52 69
41 52 69
42 52 68
42 53 69
43 55 72
46 57 75
45 56 73
42 53 69
45 57 74
49 62 81
45 57 74
37 47 61
40 51 66
45 57 74
47 59 77
49 61 79
43 54 71
44 54 70
46 58 75
44 55 72
43 53 68
49 62 80
49 62 81
44 55 71
46 58 75
47 59 76
44 55 71
42 53 69
42 54 70
44 55 71
55 69 90
43 54 71
49 62 81
46 58 76
48 60 79
50 63 83
46 57 75
48 61 79
46 58 76
45 57 74
49 62 81
48 60 77
39 49 65
50 62 82
50 64 84
50 62 82
51 64 84
49 62 81
47 59 78
49 61 79
53 66 86
54 69 90
54 68 90
59 74 97
51 65 85
55 70 93
55 70 93
53 67 87
57 72 95
51 65 84
52 66 88
51 64 85
54 68 89
53 68 90
51 64 85
59 75 98
58 72 94
55 69 92
56 71 94
56 71 93
56 72 96
55 70 94
55 71 94
58 73 96
53 68 90
55 70 92
58 75 99
59 76 102
61 78 103
55 70 92
59 75 99
53 68 91
57 72 95
56 72 95
55 71 95
60 76 100
58 74 99
62 79 104
60 77 102
58 75 100
62 79 105
63 80 106
63 80 104
62 80 107
64 82 109
63 80 106
62 79 105
62 80 106
60 77 101
64 82 109
64 83 110
61 78 104
67 87 117
65 84 111
59 76 103
63 81 109
67 87 116
67 86 114
62 79 105
66 85 114
65 83 111
62 80 107
61 79 106
64 83 111
66 85 113
65 83 111
70 89 117
66 85 114
66 86 114
63 82 110
67 86 116
69 89 119
69 88 116
68 88 118
65 84 111
67 86 114
67 86 115
64 82 108
64 82 109
67 87 117
65 85 113
68 88 118
65 83 112
68 87 117
65 84 113
67 86 114
67 87 117
68 87 116
68 88 118
67 87 117
64 83 112
66 85 113
68 86 115
68 89 119
67 86 115
67 86 114
67 87 116
68 88 117
69 89 119
68 88 118
66 85 113
69 89 118
68 87 115
71 91 121
70 90 120
68 88 118
68 88 118
70 89 119
70 89 119
71 91 120
73 93 123
72 93 124
70 91 121
71 91 121
70 90 120
72 93 125
71 92 122
70 91 122
70 90 121
71 91 121
67 87 117
71 91 121
69 88 117
70 91 122
68 88 118
70 90 120
71 92 123
68 89 119
73 92 122
70 92 124
72 93 123
69 90 121
67 87 117
69 90 120
69 90 121
72 93 124
71 91 121
72 93 124
72 93 125
73 93 125
71 92 124
72 93 124
68 89 120
72 92 123
72 93 124
71 91 121
72 93 125
68 88 117
72 93 124
69 89 120
70 90 120
72 92 123
73 94 125
71 92 123
71 92 125
69 90 121
72 92 123
73 94 124
72 93 123
71 92 123
69 89 120
71 92 123
70 91 123
70 89 119
70 90 122
71 92 122
70 91 122
69 89 119
72 93 124
68 88 118
71 91 121
71 91 121
72 93 123
70 90 120
71 91 122
68 88 118
72 93 124
69 90 122
69 89 119
72 92 123
68 89 120
68 88 119
72 93 125
71 91 121
69 88 118
69 90 120
70 90 121
69 89 118
70 90 120
67 85 114
71 91 122
70 91 122
70 91 121
68 87 116
69 89 118
69 89 120
68 88 117
70 90 120
68 89 119
69 90 120
70 90 120
69 89 119
69 89 120
70 90 121
72 93 125
70 90 120
67 88 118
71 91 120
68 87 116
68 87 115
68 88 118
66 86 116
66 85 114
68 87 116
69 88 116
69 89 119
65 84 112
69 88 118
69 89 119
66 86 117
68 88 117
64 82 110
69 89 118
68 87 115
68 88 117
69 88 117
66 85 114
68 87 116
66 85 114
69 88 118
72 91 121
67 86 114
64 82 110
68 88 118
65 85 114
64 83 112
65 84 112
70 89 118
67 86 116
68 87 116
64 83 111
67 85 113
67 86 116
65 82 109
68 87 116
63 81 108
67 85 113
69 88 117
62 80 106
59 77 103
63 81 108
65 83 110
64 83 110
63 81 110
63 82 110
65 83 110
64 82 109
66 86 115
65 83 110
60 78 104
67 86 114
62 79 105
57 73 98
60 76 101
60 77 103
62 80 107
67 85 112
59 76 101
60 77 101
62 79 103
61 78 104
62 79 105
58 75 100
60 77 102
65 82 109
64 82 108
62 79 104
54 69 92
56 73 97
60 77 103
58 74 99
54 68 90
55 71 94
59 76 100
60 76 101
62 78 103
56 72 95
58 73 97
59 74 98
60 77 102
62 78 103
56 71 94
60 76 100
55 70 94
55 71 94
54 69 91
55 70 92
64 81 107
56 71 93
54 68 88
56 71 94
50 63 83
49 62 82
57 73 96
55 69 91
54 69 91
60 75 98
55 70 93
57 72 94
57 72 94
55 70 93
49 63 83
52 65 85
50 62 81
53 67 87
51 65 85
52 66 88
46 58 75
53 67 88
47 59 77
43 56 75
52 65 85
47 60 79
42 53 70
46 58 76
45 57 75
46 58 75
43 54 71
49 62 81
45 57 75
44 55 72
47 59 76
46 58 76
51 64 83
44 55 72
44 55 72
42 53 69
43 55 72
44 55 71
44 55 71
41 52 69
48 60 79
49 61 79
46 58 75
48 60 79
41 51 67
50 62 81
42 53 69
44 55 71
46 57 75
47 59 76
44 55 72
45 57 75
47 58 76
47 59 77
41 52 69
43 54 70
48 59 76
44 55 72
47 59 76
49 61 80
37 46 60
36 46 60
51 64 82
47 59 76
48 61 80
45 56 73
46 58 75
44 55 72
41 52 68
42 53 68
41 52 68
50 63 82
48 60 78
45 57 74
46 58 75
52 66 87
45 57 74
47 58 76
53 65 85
44 55 73
46 58 76
44 56 73
54 68 89
50 63 82
50 63 82
51 63 82
41 52 68
53 67 88
49 62 82
49 62 81
53 66 87
46 58 76
51 65 86
52 65 85
52 66 87
52 66 86
50 64 84
55 69 90
48 61 81
54 68 89
58 73 96
57 71 93
57 73 96
51 64 83
59 75 99
48 62 81
52 67 89
57 72 95
56 70 92
53 68 91
52 66 86
49 63 82
51 66 87
53 67 89
56 71 94
55 70 91
56 73 97
52 66 88
59 75 99
55 71 94
58 74 100
56 71 94
56 72 97
55 70 94
56 72 94
59 75 100
58 74 98
58 74 98
61 78 103
57 73 98
61 78 103
57 73 97
52 66 87
63 80 105
54 69 92
62 79 104
64 82 109
62 79 104
58 74 98
60 77 102
56 71 94
61 78 103
59 75 100
59 76 102
63 81 108
63 80 106
63 81 109
63 81 108
64 83 111
63 80 107
64 83 111
60 76 102
65 83 111
63 81 108
65 83 110
65 84 112
62 80 106
65 83 111
64 82 109
61 79 106
66 86 115
61 77 102
60 77 103
65 84 112
62 80 107
64 83 111
65 85 115
62 81 108
65 83 111
67 86 116
62 81 108
67 87 117
66 84 112
66 86 115
66 85 114
65 83 111
66 85 112
66 86 116
66 84 112
67 86 114
63 81 108
65 83 111
67 86 115
65 83 111
66 86 115
69 89 119
67 87 116
69 90 121
66 85 114
68 87 117
68 88 118
67 87 116
68 87 116
67 86 116
65 84 113
68 87 117
68 87 116
66 86 117
68 87 117
67 86 116
67 87 117
68 86 114
67 86 114
68 87 117
67 87 116
68 88 118
71 90 118
70 89 119
70 91 122
70 89 118
70 90 120
71 91 122
69 90 120
69 89 118
71 91 121
71 91 122
72 91 121
70 90 121
68 88 119
72 93 124
70 91 123
71 92 124
69 90 121
70 90 121
71 91 121
71 92 123
69 89 120
69 90 122
68 89 120
70 91 123
71 91 122
70 90 120
69 90 120
71 92 122
69 89 119
72 93 123
70 91 123
70 91 123
72 92 123
70 91 121
73 93 123
71 92 123
70 90 122
69 89 119
72 92 123
72 92 123
70 91 122
71 92 122
72 93 124
73 94 125
73 93 123
71 92 122
72 93 124
72 93 123
72 93 124
71 92 124
71 92 123
70 91 122
69 89 120
70 90 120
73 94 125
74 95 126
71 92 123
72 93 124
73 94 126
72 93 124
71 92 123
70 91 122
73 92 121
73 93 124
71 91 121
70 90 120
71 91 121
71 90 120
70 91 122
70 92 124
73 93 124
71 91 122
69 90 122
72 93 123
71 92 122
70 91 122
71 92 123
71 92 124
68 87 117
68 87 116
69 90 121
70 90 121
69 88 117
70 90 120
72 92 123
69 89 119
70 90 121
68 88 118
69 89 120
70 90 121
69 89 119
70 90 121
69 89 119
67 87 117
67 86 115
69 89 118
68 89 119
69 89 119
71 92 123
70 91 122
71 91 122
68 87 117
69 89 119
68 88 118
69 89 118
69 89 120
68 89 119
66 86 116
69 88 118
67 86 116
67 87 117
67 85 114
70 90 120
70 91 121
67 88 118
69 89 119
64 83 111
68 88 118
67 86 115
70 90 120
68 88 118
71 90 120
68 88 117
65 85 114
68 87 117
66 85 114
67 87 116
65 83 110
64 82 109
66 85 113
65 82 108
68 88 118
66 85 114
66 86 115
71 91 120
64 83 110
68 88 118
66 86 116
68 88 118
64 82 109
66 86 115
70 90 119
67 86 114
60 78 105
63 81 109
65 84 111
67 85 112
67 85 112
61 78 105
67 86 115
64 83 111
65 83 111
62 79 105
65 83 109
60 77 103
64 82 109
63 81 108
64 82 110
59 76 101
63 80 107
63 81 108
61 79 105
61 77 102
63 80 106
58 74 100
59 75 100
62 79 106
59 77 104
58 75 100
61 78 104
60 77 102
59 75 100
57 73 97
59 76 100
58 74 98
58 74 98
60 77 102
55 71 94
56 72 96
60 78 104
56 71 94
59 74 98
55 70 92
61 77 102
59 75 99
54 69 92
56 72 96
59 76 101
62 79 104
54 69 90
61 76 100
54 68 89
49 62 82
53 68 90
51 65 87
55 69 91
56 71 94
53 67 88
53 68 89
61 78 102
49 62 82
54 69 91
52 67 88
58 73 95
48 61 80
49 61 80
51 65 86
50 64 83
51 65 85
49 62 81
46 58 76
49 62 82
52 66 86
52 66 86
51 64 83
48 60 78
48 61 81
51 64 84
43 53 70
49 62 81
54 68 89
50 63 82
53 67 87
47 59 78
43 55 72
46 58 76
40 51 67
47 59 76
50 63 82
43 54 71
47 60 78
49 61 80
40 51 66
52 65 84
51 64 82
44 55 72
47 59 77
49 62 80
41 51 66
42 53 69
41 52 68
47 59 77
48 60 78
40 51 66
49 62 80
49 61 79
37 47 62
44 55 72
48 60 79
40 51 67
48 61 79
44 55 71
45 56 73
46 57 74
48 60 78
52 65 85
49 62 81
44 55 72
39 49 64
51 64 85
47 59 77
47 59 76
44 55 72
48 60 78
44 55 72
42 52 68
45 57 74
50 63 82
50 63 82
48 61 80
48 60 79
52 65 85
47 59 78
48 60 78
52 65 85
48 61 79
47 59 77
46 57 75
50 63 83
51 65 85
44 56 74
55 69 91
52 66 87
50 63 83
47 60 79
52 67 88
53 67 88
49 61 80
54 69 91
53 67 88
57 72 94
50 63 83
55 69 90
50 63 83
50 64 85
57 72 94
53 67 88
51 64 84
50 64 84
49 63 84
54 67 88
46 58 76
50 64 84
54 69 92
63 79 102
56 71 93
56 71 93
52 67 90
55 70 93
52 66 86
53 68 90
55 70 93
62 79 104
56 72 96
60 76 100
57 73 97
54 70 92
57 73 97
60 76 100
54 70 92
58 74 98
57 73 97
63 81 107
59 76 100
59 76 100
60 76 101
60 77 103
63 81 108
61 78 104
60 78 105
61 79 105
62 80 107
60 77 102
60 77 103
59 75 99
62 80 106
63 81 108
61 78 105
61 78 104
58 75 101
63 80 106
63 81 108
64 83 111
62 80 106
60 78 104
63 81 108
67 85 113
63 81 108
64 81 108
67 86 113
65 84 112
66 85 114
64 83 110
70 90 121
65 84 111
67 86 116
62 80 106
63 81 109
62 79 104
62 80 108
65 83 112
58 75 100
68 87 117
64 82 108
65 85 113
67 87 116
67 85 114
66 85 114
64 83 111
68 88 117
67 87 116
65 83 110
67 86 115
67 86 115
70 90 119
65 84 112
67 86 115
67 86 115
67 88 118
65 83 110
65 84 113
66 86 115
67 87 115
68 88 118
71 91 121
69 88 117
66 85 115
66 85 114
70 89 117
68 87 117
65 84 113
66 85 113
70 91 121
66 86 116
68 88 118
70 90 120
66 85 115
69 90 122
70 90 119
70 91 122
68 87 116
69 89 120
71 91 121
71 91 122
66 85 114
68 88 119
69 89 118
70 91 122
69 88 117
69 90 120
71 92 123
71 92 123
65 85 115
72 92 123
72 92 121
70 90 121
71 92 123
69 90 121
72 92 124
71 92 124
71 91 122
71 92 122
72 92 122
70 91 121
70 90 119
74 94 125
71 92 124
69 89 121
70 90 120
72 93 124
70 90 120
69 89 120
71 92 123
71 92 123
70 90 120
68 88 118
69 89 119
70 90 120
70 90 121
71 91 121
71 92 123
73 93 123
70 90 121
70 92 123
70 90 121
71 92 123
70 90 122
69 89 120
70 91 123
73 94 124
73 93 123
71 92 122
71 91 121
70 90 121
71 92 123
71 93 125
71 91 122
71 91 122
70 90 121
71 92 123
70 90 121
70 90 119
70 90 121
72 92 122
72 93 124
69 90 120
67 87 116
73 94 126
72 93 124
70 90 120
69 89 118
70 90 121
69 90 122
71 91 122
71 92 123
71 92 124
69 89 118
71 91 121
69 89 119
72 93 124
71 91 122
71 91 121
69 89 119
70 90 120
68 88 119
71 91 122
72 92 123
71 91 121
71 91 121
70 91 122
70 90 121
71 91 121
73 94 125
65 84 113
69 90 120
68 88 119
69 89 118
68 88 117
68 89 119
68 88 118
67 87 115
69 89 119
73 93 122
69 89 118
70 90 121
66 85 114
67 87 116
68 88 117
67 86 114
68 88 118
67 87 116
70 91 122
64 83 111
63 83 111
65 85 114
69 88 118
69 87 116
68 87 116
67 86 114
69 89 119
63 82 110
67 87 116
67 86 115
66 85 113
64 84 112
66 85 113
63 81 109
64 83 111
68 88 118
65 83 110
64 82 110
65 84 113
67 86 114
64 82 110
67 86 115
68 88 117
66 85 115
64 82 109
63 82 110
62 81 109
63 82 109
61 79 106
64 82 110
65 83 110
69 88 117
66 86 115
64 83 112
63 81 109
68 87 116
64 82 109
63 80 107
63 81 109
68 88 117
59 76 101
64 82 110
64 82 110
61 79 105
60 77 102
63 81 107
64 81 106
62 79 104
63 81 107
62 79 106
62 79 104
60 76 101
63 81 108
61 78 103
54 70 94
61 78 104
61 79 105
57 74 100
56 72 96
59 76 100
61 78 104
59 75 98
64 81 108
59 75 100
58 74 99
62 80 105
56 72 95
63 79 105
58 75 100
56 71 95
59 75 99
51 65 86
53 68 89
56 70 92
58 74 99
56 72 95
55 70 93
56 71 95
53 67 88
60 77 101
55 69 91
57 72 95
55 70 92
54 69 91
53 67 89
50 63 82
56 72 94
45 57 75
53 67 89
52 65 86
50 63 83
55 69 91
44 56 75
54 69 91
49 62 81
58 74 97
56 71 93
50 63 83
57 71 92
54 68 89
50 63 83
53 66 86
46 59 78
54 68 90
54 68 89
45 57 75
51 65 85
49 61 80
50 63 82
47 59 77
49 61 79
44 55 73
48 60 79
48 61 80
48 60 78
48 60 79
49 61 80
54 68 88
38 49 64
47 59 77
44 55 73
45 56 74
46 58 76
46 58 76
44 55 72
48 60 79
46 58 76
48 60 78
45 56 73
46 58 76
47 59 77
49 61 79
51 64 84
45 57 74
49 60 78
44 55 72
49 61 80
40 51 67
45 56 73
45 57 74
46 58 76
45 56 72
45 57 74
43 54 70
46 57 75
45 57 73
43 54 70
42 52 68
42 53 68
44 56 72
44 55 71
50 63 82
47 58 76
46 58 76
53 66 85
45 57 75
49 61 80
42 53 69
50 63 82
44 56 74
53 67 87
49 62 81
49 61 81
43 54 71
49 62 82
49 62 81
49 62 80
51 65 85
52 66 86
43 54 71
51 64 83
52 66 86
46 59 78
51 64 84
53 67 87
51 65 85
48 61 81
50 63 82
45 57 75
53 68 90
52 65 85
51 64 84
54 69 91
49 62 81
54 69 92
54 69 91
54 67 88
53 67 88
55 70 93
54 69 92
58 74 97
56 72 96
59 75 101
59 75 99
60 76 100
53 68 89
54 69 91
57 73 97
56 71 94
54 69 91
56 72 95
58 74 97
62 78 104
54 69 91
58 74 97
54 69 92
61 78 103
60 77 103
61 77 102
62 79 103
58 74 98
57 73 97
63 82 109
58 74 99
61 79 106
61 78 103
62 80 107
55 71 95
60 76 100
61 78 103
63 80 106
59 76 100
64 82 109
63 81 108
58 74 99
58 74 98
60 76 101
63 82 110
64 81 107
61 78 104
62 79 105
66 84 111
59 76 101
63 81 107
68 88 117
65 83 111
63 81 108
60 77 103
64 83 111
64 82 109
64 83 110
64 82 110
64 83 111
63 80 106
65 83 111
65 83 110
69 87 116
64 82 110
64 82 110
64 82 109
69 88 117
62 81 109
65 83 111
65 85 114
66 85 113
67 86 115
64 83 111
67 86 115
67 85 113
66 84 112
68 87 117
67 86 115
68 87 116
68 88 118
66 85 114
70 89 118
68 89 119
64 82 109
68 87 116
64 82 110
67 86 115
71 92 122
66 84 111
67 87 116
69 88 118
67 86 114
71 91 121
69 90 121
66 86 116
68 88 117
65 83 111
66 85 114
68 88 118
67 86 114
69 89 119
67 87 116
67 86 115
67 87 117
67 88 118
70 90 120
68 88 118
70 90 120
69 90 121
68 88 119
71 92 123
66 86 115
71 91 121
73 94 125
71 91 122
69 89 120
68 88 119
69 90 121
73 94 126
69 90 121
68 88 119
70 89 118
71 91 121
71 91 120
70 91 123
73 93 124
71 92 122
71 92 122
68 88 117
71 92 124
70 91 121
70 91 122
72 93 124
71 91 122
71 92 124
69 90 120
71 92 122
71 92 123
68 87 117
73 94 125
71 91 122
71 91 120
67 87 117
70 91 122
69 89 120
72 93 124
71 91 120
71 92 123
72 93 125
73 95 127
70 90 120
70 90 120
73 94 124
67 88 119
74 95 126
69 90 121
71 91 122
71 91 122
71 91 122
69 90 121
70 90 121
71 91 121
71 92 124
70 90 120
71 91 122
71 92 123
71 91 121
74 94 125
70 90 121
71 91 121
69 89 120
72 92 123
71 92 123
69 89 120
71 91 122
70 89 119
69 88 118
71 91 121
70 90 121
70 90 121
72 93 124
68 88 118
70 90 120
67 87 117
71 91 122
66 85 114
73 94 125
68 89 119
69 90 121
71 91 122
68 88 119
67 87 116
69 90 121
70 89 118
69 89 120
65 84 113
68 87 116
66 85 114
69 89 118
67 87 117
68 88 119
70 90 119
67 87 117
68 89 120
70 90 120
67 87 117
68 86 114
70 89 119
68 88 119
67 86 115
70 90 120
69 89 120
67 87 117
68 87 116
70 89 119
69 89 119
71 91 122
63 81 108
70 91 122
66 85 114
71 91 122
68 88 116
69 88 117
67 87 116
67 86 115
70 89 117
65 84 113
65 84 112
67 87 116
63 82 110
64 82 109
68 88 118
66 85 114
66 85 114
70 90 121
65 85 114
66 85 113
65 84 112
66 86 117
61 80 108
63 82 109
62 79 105
63 82 109
66 85 114
69 88 117
66 85 113
65 84 111
63 81 107
67 86 115
62 78 103
66 84 112
64 82 109
62 80 106
65 84 111
63 81 109
63 81 107
63 82 109
67 86 115
66 85 113
59 77 102
63 80 106
64 81 107
60 76 101
62 78 103
62 78 104
59 76 101
62 79 105
60 77 101
64 82 110
55 71 95
59 76 102
59 76 102
61 79 105
64 82 109
61 79 105
59 75 99
62 80 105
59 77 103
60 77 103
57 73 97
59 75 100
56 71 93
62 79 104
60 77 102
63 80 106
55 70 93
55 71 95
56 72 95
57 73 96
60 76 99
56 71 94
55 70 92
55 70 93
53 67 89
60 76 100
56 71 93
55 70 93
55 70 92
50 63 83
54 69 92
55 69 89
59 74 97
53 68 90
49 62 82
54 70 92
53 66 86
47 60 79
59 74 97
57 72 94
53 67 88
54 68 88
53 66 85
56 70 92
52 67 89
51 64 84
53 67 88
49 62 82
50 64 84
49 62 81
49 62 80
53 66 87
48 60 79
47 59 78
55 70 92
51 65 85
46 59 77
53 67 88
58 72 94
46 58 77
40 51 66
52 65 86
43 54 71
46 58 76
47 59 78
49 62 81
47 60 79
42 52 69
46 58 76
54 68 88
44 54 71
52 65 84
48 61 80
48 61 79
45 57 75
45 57 74
45 57 75
47 59 77
49 62 82
41 53 70
44 55 72
39 49 64
50 63 82
51 64 85
48 60 79
45 57 75
47 59 78
50 63 83
49 62 82
43 54 71
48 60 77
45 56 73
52 65 85
46 58 75
47 59 77
53 66 86
44 55 73
55 69 89
43 54 71
43 54 71
49 61 79
46 58 76
44 56 73
53 66 86
47 60 79
45 57 75
46 58 77
49 62 81
45 56 74
44 55 72
49 62 81
51 64 82
51 64 83
48 60 79
49 61 80
48 60 78
51 64 85
54 68 89
52 65 85
59 74 96
51 65 86
55 70 91
51 65 86
50 64 85
46 57 75
56 71 94
50 63 82
49 62 81
53 67 88
54 68 91
49 62 81
49 63 83
56 71 93
49 63 83
50 63 83
49 63 83
49 63 83
57 72 95
56 71 94
53 68 90
54 70 92
59 75 98
50 64 85
55 70 91
58 73 97
55 71 93
50 64 84
63 80 106
60 76 101
59 75 99
58 75 99
51 64 85
59 76 101
56 72 95
57 72 96
57 72 95
61 78 102
63 80 105
57 73 98
59 75 100
55 70 92
61 78 104
62 79 105
61 77 101
60 76 99
61 78 103
63 82 110
58 74 98
63 81 107
64 82 110
60 77 102
60 77 102
58 74 99
63 81 107
59 75 99
60 77 103
59 76 100
61 78 104
60 76 100
58 75 101
62 79 106
66 84 112
64 83 110
64 83 111
64 81 107
63 80 106
67 86 114
65 83 110
63 81 108
61 79 105
66 84 111
61 78 103
64 83 112
67 86 114
67 86 114
68 86 113
64 82 109
67 87 116
64 82 109
66 85 114
62 80 107
65 84 111
65 84 112
68 88 118
68 88 117
64 83 110
65 84 112
68 88 117
65 83 111
66 84 112
69 90 120
69 88 118
68 87 116
64 83 112
64 83 110
69 88 117
67 87 118
65 84 112
68 87 116
68 87 115
64 82 110
68 88 117
65 84 111
67 86 115
67 86 115
70 89 118
69 89 119
68 87 117
69 89 119
66 84 113
68 87 116
69 89 118
68 87 115
68 88 118
70 89 117
67 87 117
68 89 119
69 88 117
70 91 121
70 91 121
69 89 119
71 91 121
68 88 117
70 90 121
69 89 120
69 90 120
71 92 123
70 90 121
72 94 126
69 89 119
70 91 121
73 93 124
69 89 118
71 92 122
72 92 123
69 89 120
69 89 120
72 94 125
70 89 119
69 89 118
69 90 120
72 92 122
70 90 121
65 85 114
71 91 122
72 93 124
71 91 122
70 90 121
71 91 122
71 92 124
70 91 123
71 92 123
71 91 122
72 92 122
72 92 124
74 94 125
69 90 121
71 91 122
72 92 122
70 91 122
72 92 122
72 92 123
71 92 123
71 92 123
70 90 121
71 92 123
71 92 123
70 91 123
70 91 121
71 91 122
69 90 121
72 93 123
72 93 124
72 93 124
72 92 123
70 91 121
72 92 123
68 88 118
72 93 124
70 91 122
69 89 120
73 94 125
70 91 121
71 91 121
70 90 121
69 89 120
69 89 120
71 91 122
69 89 120
68 87 116
70 90 120
71 92 123
69 89 120
71 92 123
70 90 122
72 92 121
71 90 120
66 87 117
70 90 121
70 90 121
70 90 121
71 91 121
70 91 122
68 87 116
68 88 117
67 87 116
68 87 115
71 92 122
69 89 119
70 90 121
72 92 122
69 90 121
70 89 119
64 83 112
70 88 116
69 89 119
69 89 118
67 86 115
68 88 118
69 89 120
64 83 112
69 89 119
68 89 120
70 90 120
67 87 116
68 88 118
65 84 113
67 87 116
68 87 116
68 88 118
69 88 117
69 88 118
68 88 117
66 86 116
69 89 120
67 87 116
66 86 115
67 86 115
67 86 115
69 89 119
60 77 103
69 89 120
69 89 118
67 87 116
67 87 116
66 85 113
66 86 115
61 79 106
65 84 111
66 85 114
68 88 119
67 85 113
64 83 111
66 84 110
63 81 108
63 82 110
67 86 115
62 81 110
61 78 104
64 82 110
62 80 107
65 83 111
64 83 111
62 80 107
61 78 105
62 80 106
65 83 110
62 79 104
62 80 105
63 80 105
67 85 113
59 76 101
61 79 106
66 85 113
64 82 109
63 80 105
62 80 107
62 80 106
62 79 104
62 80 107
58 73 97
61 78 104
59 76 102
63 80 106
61 79 105
63 81 107
59 76 102
60 77 101
61 77 102
56 71 94
55 70 93
60 76 100
58 74 98
57 73 96
59 76 100
59 75 100
54 69 92
60 76 100
61 78 104
61 78 103
55 70 93
56 72 94
58 74 98
52 67 90
50 64 85
59 76 100
56 72 96
58 73 97
56 72 95
54 68 89
60 77 102
51 64 84
54 69 91
54 69 92
60 77 101
54 67 88
54 68 89
56 72 95
54 69 92
54 68 89
55 70 91
58 72 94
52 66 86
58 73 97
50 63 83
50 63 83
56 72 95
50 63 84
51 65 86
53 67 89
54 68 88
53 67 87
53 67 88
46 58 76
50 63 83
52 66 86
51 64 84
46 59 77
47 59 76
47 60 78
47 59 77
47 59 78
51 64 84
47 60 79
47 60 80
47 59 77
49 62 81
48 60 77
44 55 73
50 63 82
51 64 83
51 64 83
52 65 85
52 66 86
48 60 78
52 66 87
50 63 82
44 55 71
48 61 80
51 64 83
49 61 79
42 53 70
47 59 77
44 55 72
47 59 77
53 66 86
47 59 77
42 52 67
50 64 84
48 60 79
51 64 85
45 57 74
46 58 77
41 52 68
51 64 83
51 64 85
52 65 84
46 59 77
49 62 82
41 51 68
44 56 73
48 60 79
45 56 73
49 61 80
49 62 81
49 61 80
44 56 74
45 57 75
52 65 84
48 61 81
56 70 92
41 52 69
51 64 84
54 69 91
52 66 87
52 65 85
49 61 79
55 70 92
54 67 88
45 57 76
52 65 85
50 63 83
51 64 83
49 61 80
47 60 80
47 60 79
53 67 89
54 68 89
50 64 85
50 64 84
58 74 97
51 65 86
56 72 95
56 71 94
56 71 94
53 67 89
53 67 87
52 66 87
57 72 94
55 71 94
54 69 92
56 70 92
55 70 94
58 73 97
56 72 96
63 80 106
55 70 93
58 75 99
56 71 94
54 68 90
57 72 96
54 69 92
62 79 105
60 77 102
58 74 98
58 74 99
62 79 104
59 76 101
58 73 97
57 74 98
60 76 100
57 73 97
62 80 106
61 79 105
60 77 103
61 79 105
61 78 103
63 80 106
62 79 105
64 82 109
58 74 98
61 78 103
59 76 101
58 74 98
61 80 108
61 78 103
60 77 102
64 82 109
63 82 110
64 82 109
64 82 109
62 80 107
65 83 110
66 85 113
65 83 110
56 72 97
65 84 111
65 84 112
62 80 107
63 81 109
65 84 112
67 85 112
67 87 117
66 84 111
64 84 112
64 83 110
62 80 107
62 80 106
68 87 116
67 86 115
64 81 108
66 85 113
67 87 116
65 83 112
63 82 111
68 87 115
66 86 115
68 87 116
66 85 113
67 85 113
69 89 118
65 83 110
65 85 115
67 86 116
66 85 114
67 86 116
68 87 116
67 86 115
68 87 117
68 88 117
71 91 122
70 91 121
66 85 115
68 88 118
67 87 116
68 87 116
68 88 117
65 84 114
70 91 121
68 87 116
64 83 112
69 88 118
72 91 120
69 89 118
72 93 123
67 86 115
68 86 114
69 90 121
69 90 121
70 90 119
68 88 118
69 89 120
69 88 118
67 88 119
68 88 119
70 90 119
68 88 117
67 87 117
69 90 121
66 84 112
70 91 122
68 88 117
70 92 124
68 87 116
70 90 120
69 88 116
70 91 121
69 90 121
72 91 120
68 88 119
72 93 125
69 89 120
70 91 122
70 91 121
70 91 122
72 93 125
70 90 120
73 94 125
73 94 126
72 93 124
70 91 122
71 92 123
71 92 124
69 89 120
70 90 121
72 92 123
70 90 121
68 88 118
71 91 122
71 91 122
73 94 126
71 92 124
72 92 123
73 94 125
70 90 120
69 89 120
71 91 122
70 90 120
73 94 125
69 90 120
73 93 123
72 93 125
72 92 124
73 94 125
72 93 125
72 93 123
68 88 119
71 92 123
70 91 123
71 91 122
69 89 120
70 90 121
69 89 120
70 92 124
71 91 123
72 93 124
72 91 120
70 91 121
69 89 119
69 89 120
70 90 120
71 90 120
73 93 124
70 91 121
72 93 125
68 88 118
68 89 120
69 89 118
69 90 121
71 91 122
69 89 119
70 90 121
68 89 119
72 93 124
72 92 122
71 92 124
69 88 118
71 91 120
68 87 117
68 88 118
68 87 116
70 89 118
69 89 119
69 89 119
71 90 119
66 84 113
69 89 120
68 87 117
68 87 116
68 88 117
67 86 115
71 91 122
71 91 121
68 88 118
66 87 117
67 87 116
67 85 113
68 88 117
68 88 117
68 88 116
66 84 112
67 86 114
66 85 113
71 90 118
69 88 117
66 86 115
67 85 113
66 86 116
64 83 111
66 85 113
63 82 109
65 84 113
65 85 114
63 81 108
66 85 113
68 88 116
66 85 113
63 81 108
67 86 115
68 87 115
65 84 112
64 83 112
68 88 117
63 81 108
62 79 104
64 83 111
66 84 110
64 82 109
65 84 111
63 80 107
64 82 110
63 81 107
62 79 106
61 78 103
64 82 109
63 82 109
65 83 111
63 81 108
65 84 111
63 81 108
61 78 103
63 80 106
63 80 105
62 79 104
64 82 109
61 79 106
62 79 105
62 79 105
59 76 102
60 76 101
61 78 103
64 82 110
57 73 98
62 78 103
60 77 102
61 78 105
61 78 104
60 77 103
59 75 100
62 79 105
58 74 98
58 74 97
66 84 111
61 78 103
59 76 101
57 74 99
58 75 100
55 71 94
56 72 95
59 75 99
56 71 94
56 71 94
61 77 102
58 73 97
60 77 102
54 69 92
57 73 96
57 73 96
54 69 92
55 69 90
56 72 95
52 67 89
58 73 96
54 68 89
55 69 92
58 73 97
52 65 86
54 69 91
58 73 96
51 65 86
52 65 85
58 74 98
56 71 93
54 68 90
50 63 84
52 66 86
54 67 88
50 63 83
51 64 84
52 66 87
53 67 88
47 59 78
51 65 85
53 67 88
53 66 86
54 68 89
47 60 80
51 64 84
47 59 76
48 61 79
46 58 76
48 60 79
51 64 84
52 66 87
48 61 79
49 62 81
49 62 81
53 66 86
52 65 85
51 64 83
52 65 85
46 58 75
57 71 93
53 66 86
53 66 86
47 58 76
48 60 78
48 60 79
47 60 78
47 59 76
47 60 78
49 62 81
47 58 76
42 53 69
50 62 80
47 58 76
48 61 80
46 58 76
47 60 78
46 58 76
48 61 79
51 65 85
49 62 81
50 63 82
43 54 72
54 67 87
45 56 73
47 59 77
55 69 90
47 59 76
52 66 88
50 62 82
50 64 84
51 64 84
47 60 78
48 61 79
50 62 81
47 60 78
50 63 82
48 61 81
53 67 88
45 57 74
43 54 71
56 70 92
51 65 86
49 62 82
52 66 86
55 70 92
58 73 96
49 62 81
47 60 78
54 68 89
49 62 81
52 65 85
50 64 84
46 59 77
52 66 87
55 70 92
53 68 90
54 68 90
50 64 84
58 74 98
55 69 91
51 65 86
52 66 89
51 65 86
62 78 104
50 62 82
57 73 97
53 67 87
54 69 90
60 75 99
56 72 95
59 76 100
60 76 99
58 74 98
61 78 103
62 79 104
56 72 96
58 75 99
58 73 97
59 75 99
62 79 105
61 76 100
62 79 104
57 73 96
61 77 101
59 74 98
56 72 95
55 71 95
57 74 98
61 79 106
59 76 101
61 79 104
58 74 99
59 76 102
59 76 102
61 78 104
61 79 105
61 78 105
61 78 104
62 80 106
62 80 107
63 80 107
57 74 98
60 77 102
57 73 98
61 79 106
61 77 102
62 79 105
67 85 113
61 80 107
63 80 107
61 79 104
63 81 108
67 87 116
62 81 108
61 77 102
65 84 113
67 85 113
64 83 111
64 84 113
63 82 110
64 83 110
63 81 108
66 85 114
65 84 112
67 86 116
69 88 117
68 87 117
66 85 113
67 86 114
64 82 111
68 88 117
66 86 114
68 87 116
66 85 113
65 84 113
67 86 116
68 88 118
68 87 116
63 81 110
68 87 115
68 89 119
70 90 119
68 87 116
65 84 113
68 88 117
68 87 115
69 89 119
69 88 117
68 89 119
66 85 114
69 90 120
67 87 117
67 87 116
66 84 113
71 91 121
68 88 117
69 90 121
66 85 113
70 91 121
65 84 114
71 91 122
66 85 115
69 89 120
71 91 123
69 88 118
68 88 119
70 90 121
68 87 116
72 93 125
68 88 118
72 92 122
70 90 121
69 88 117
68 88 119
70 90 120
70 90 120
70 90 120
67 86 116
69 90 121
69 89 120
70 90 121
69 88 117
71 91 120
72 93 123
68 89 120
70 91 122
71 91 121
70 90 122
72 92 123
71 92 124
69 90 121
70 90 121
68 89 119
71 91 121
69 90 120
71 92 122
72 93 124
69 90 122
71 91 122
72 93 124
70 91 122
74 96 128
70 90 120
70 90 121
71 91 122
72 93 124
69 90 121
72 92 123
70 90 121
72 93 124
73 94 124
72 93 124
70 90 120
71 92 123
72 93 123
67 86 116
70 90 121
70 91 122
70 91 122
71 91 122
75 95 126
73 94 125
72 92 122
71 92 123
71 92 123
72 93 124
72 92 122
73 94 125
69 88 118
71 91 122
70 89 119
70 91 121
70 90 120
72 92 122
69 90 121
69 90 121
72 93 124
69 89 120
69 88 117
72 92 123
71 91 120
70 90 120
70 90 120
70 89 119
70 90 121
69 88 118
71 90 120
69 89 119
71 91 122
69 89 119
68 88 118
68 87 115
69 89 119
72 93 125
71 91 120
71 91 121
69 90 121
70 91 121
67 87 116
70 90 120
69 89 120
69 89 120
69 89 118
70 90 121
69 89 119
69 89 120
67 87 116
66 84 113
67 87 118
66 86 114
66 86 115
68 87 117
68 88 117
67 87 117
70 90 120
68 88 117
70 90 120
67 87 115
67 86 115
70 89 118
67 86 113
65 84 112
67 85 113
69 88 118
65 83 111
64 83 111
69 88 115
68 88 118
67 86 116
69 89 118
63 81 107
68 88 117
65 84 112
63 81 107
67 86 114
65 83 110
66 85 113
67 86 115
63 82 109
67 85 114
67 85 112
64 82 110
62 79 106
64 83 110
61 79 107
63 81 109
65 82 107
61 78 105
65 85 113
63 81 108
64 82 108
62 79 104
64 82 109
61 78 105
62 79 105
64 81 108
67 86 115
59 75 100
65 83 110
63 81 108
62 80 107
59 76 102
64 82 109
62 80 106
59 77 102
62 80 106
64 82 110
61 78 103
61 79 106
60 77 103
60 78 106
60 77 101
58 74 99
60 77 101
54 69 91
62 79 105
56 71 95
64 81 106
60 76 100
62 79 104
56 72 96
62 79 104
58 74 97
54 69 92
53 68 91
56 71 94
56 72 96
60 76 101
54 69 93
52 66 87
56 71 95
57 74 98
55 70 93
51 65 87
56 71 93
53 67 89
57 73 97
53 67 88
56 71 94
56 71 94
53 67 89
49 62 81
53 67 88
57 72 94
51 66 87
57 73 97
51 65 86
51 65 85
53 67 88
56 71 94
51 64 84
51 65 87
55 69 90
53 67 88
53 67 88
54 68 89
52 65 85
46 59 78
49 62 82
55 70 91
47 60 79
54 68 89
48 60 79
50 64 83
55 68 89
52 65 85
51 65 85
47 59 78
49 61 80
54 68 89
55 70 92
52 66 86
53 68 89
50 62 80
53 66 87
46 59 78
46 59 78
47 59 78
50 63 83
50 63 83
52 65 86
49 62 81
45 57 76
54 67 86
51 64 84
49 62 82
52 65 85
49 62 81
46 59 77
43 54 72
44 56 73
52 65 85
47 60 78
48 59 77
49 62 82
46 58 76
47 60 78
50 64 84
47 58 76
47 59 77
49 62 81
54 67 87
47 59 78
51 64 84
50 64 85
45 57 75
48 60 78
50 64 84
49 61 80
48 60 78
53 67 88
48 61 80
52 65 85
54 67 88
51 65 86
52 64 84
46 57 75
49 62 81
51 64 85
53 66 86
50 63 84
53 68 89
47 59 79
46 59 78
48 61 80
49 62 82
49 62 82
45 58 77
53 67 89
50 63 83
49 62 82
53 67 89
55 70 92
54 68 90
56 71 94
57 72 95
58 74 97
60 77 101
54 70 93
51 65 86
53 66 87
53 68 90
57 73 97
57 72 95
55 71 93
51 65 85
56 71 93
62 80 105
58 75 100
53 68 90
59 75 100
58 74 98
57 72 96
61 77 102
55 70 92
55 70 94
52 67 89
60 77 103
58 74 98
56 72 95
54 69 92
60 77 101
61 77 102
59 75 99
60 77 102
57 73 97
61 78 104
62 78 104
56 72 97
58 74 98
58 74 99
60 76 101
61 78 105
63 81 107
58 73 97
62 79 106
64 82 108
61 79 105
60 78 105
62 80 106
65 82 109
61 78 104
58 75 99
60 77 103
63 82 109
59 76 101
62 80 106
62 80 105
67 86 115
64 82 109
60 77 103
65 84 112
65 83 111
60 77 103
61 79 105
65 83 110
63 81 109
66 84 110
63 81 108
63 80 107
62 80 107
62 79 106
67 87 117
63 82 109
65 84 111
66 85 113
67 85 113
60 77 103
70 89 119
64 83 111
66 84 112
65 84 112
65 84 113
67 88 119
65 84 113
67 85 113
64 82 110
65 83 112
64 83 112
66 84 112
68 87 117
72 91 121
64 82 109
67 86 116
68 87 117
67 87 117
67 87 116
66 84 112
68 89 119
72 92 122
68 88 118
72 92 123
67 86 116
68 88 119
69 88 118
69 89 118
67 86 115
65 85 114
66 86 116
67 87 117
66 86 115
69 90 120
66 85 114
69 88 118
69 89 119
70 90 121
71 90 120
68 87 116
66 85 112
72 93 124
69 88 117
68 87 116
69 89 120
70 90 120
66 86 115
68 88 118
69 90 121
71 91 121
68 88 119
73 93 124
70 89 119
72 93 124
71 91 121
70 91 122
70 91 122
69 90 120
68 87 116
70 91 122
72 92 123
70 90 121
70 90 121
71 93 125
66 84 113
71 91 120
69 90 120
70 92 124
70 91 122
69 88 117
72 93 124
73 94 124
70 91 123
71 92 124
73 93 123
72 93 125
71 91 121
72 92 122
70 90 121
74 94 125
73 93 124
70 90 120
72 93 126
73 93 123
69 89 119
72 92 123
69 89 120
69 89 119
72 93 125
73 94 125
70 91 121
69 89 119
70 91 123
72 93 124
71 92 123
72 92 123
71 91 123
72 93 125
70 91 122
71 92 123
72 93 123
70 91 121
69 90 120
71 93 125
72 93 123
67 87 117
70 90 121
71 91 122
68 89 120
70 90 119
68 87 117
70 91 122
69 90 120
71 91 122
71 91 121
69 89 119
67 88 118
67 87 118
72 93 124
70 90 120
71 91 122
69 89 120
70 91 122
68 88 119
70 91 122
70 90 120
70 90 120
69 88 118
68 88 118
65 84 113
70 90 121
69 90 120
68 87 117
72 93 125
68 88 118
69 89 117
70 90 119
71 91 121
68 87 114
70 90 121
71 90 119
68 87 117
68 88 117
67 87 117
67 86 116
69 89 118
66 85 114
67 86 116
70 90 119
68 88 119
65 85 114
68 88 117
67 86 115
64 83 110
69 88 116
67 86 115
67 86 116
66 86 116
65 83 111
67 86 115
64 82 108
67 87 116
65 83 111
66 85 114
63 81 108
67 86 114
66 85 112
63 81 108
62 80 107
64 82 109
67 86 116
62 79 106
65 83 110
65 83 110
65 84 113
66 85 113
64 83 111
65 83 112
66 85 113
66 85 113
63 82 110
64 82 109
69 88 116
64 82 110
64 82 110
62 79 105
63 81 107
65 83 110
63 80 106
66 84 111
59 76 100
63 81 107
62 80 108
59 75 100
62 80 106
62 79 104
62 79 104
61 79 105
62 79 104
64 81 108
60 76 101
61 78 104
61 78 103
61 78 104
60 77 102
61 78 103
58 75 100
61 79 104
58 74 98
56 72 95
62 78 104
57 73 97
57 73 96
58 74 98
56 71 95
60 76 101
63 80 104
53 69 92
55 70 92
59 75 100
56 71 93
57 73 97
60 76 100
55 70 92
56 71 93
56 72 95
57 72 95
58 75 99
55 70 91
52 66 88
54 69 92
54 69 91
56 71 94
59 74 97
51 65 85
61 77 101
53 67 88
54 69 92
47 61 82
49 63 84
57 71 94
56 72 96
53 68 91
55 70 93
55 69 91
54 69 91
55 69 90
58 73 95
52 66 87
54 69 91
52 65 86
45 57 75
51 65 86
52 65 86
54 68 90
49 63 83
49 63 82
51 64 84
51 64 84
51 64 84
50 63 84
51 65 86
50 63 83
47 60 78
52 66 87
48 61 80
45 57 75
49 62 81
52 65 85
47 59 78
48 61 79
52 65 86
50 63 82
49 62 83
48 61 80
52 66 86
46 58 76
53 67 88
44 56 74
46 58 76
52 65 85
49 62 81
48 61 80
50 63 82
53 67 88
49 62 81
52 66 87
49 63 83
52 65 85
49 62 82
42 52 68
50 64 84
45 58 77
51 64 84
54 68 89
53 67 88
44 55 71
51 65 86
54 68 89
49 62 82
50 63 83
52 65 85
53 67 88
44 55 71
46 59 78
50 63 83
48 61 81
52 66 87
52 66 87
53 67 88
47 59 78
55 68 89
56 70 92
49 62 83
52 66 87
53 67 88
52 66 87
53 68 90
51 66 87
53 67 89
47 60 79
55 68 89
48 61 81
56 71 92
54 68 89
49 62 82
58 73 96
52 66 87
56 72 95
51 65 86
54 68 90
54 69 91
49 63 83
55 69 91
57 72 94
56 71 94
55 71 94
57 73 96
60 75 99
55 71 94
55 69 91
53 68 90
57 73 98
60 76 100
56 72 95
62 79 105
57 74 98
59 75 100
57 73 98
58 75 101
61 78 103
54 68 90
59 75 100
60 77 102
61 78 104
61 78 104
60 76 100
60 76 101
61 78 103
60 76 102
62 79 105
59 75 99
61 78 104
59 76 101
66 84 110
64 81 108
61 77 102
62 78 104
61 78 103
60 77 103
63 81 109
63 82 110
60 77 103
67 86 114
62 80 106
60 77 102
65 83 111
60 76 101
65 84 113
60 78 105
65 84 112
67 85 113
65 83 110
65 83 111
62 80 107
61 78 104
64 82 110
65 84 112
60 78 106
62 81 108
64 82 111
67 85 112
66 85 113
68 88 117
65 83 110
70 89 119
66 85 113
63 82 111
63 82 110
67 85 112
67 86 114
66 84 112
64 82 109
65 82 109
66 86 114
66 84 112
68 87 116
66 85 113
66 85 114
69 89 120
67 86 115
63 81 109
68 89 119
68 88 117
67 87 116
66 86 115
66 85 114
66 85 113
67 86 115
64 83 113
69 89 119
65 83 111
68 87 117
70 89 119
70 89 118
68 87 116
67 86 114
69 88 117
67 86 115
69 88 118
70 90 120
70 90 119
68 87 115
71 92 122
70 90 119
69 89 119
69 88 118
66 86 116
69 90 121
70 89 119
69 88 117
70 89 117
70 91 122
68 87 116
67 87 117
70 91 122
71 90 120
66 85 114
69 89 119
71 90 120
69 88 117
70 90 120
71 92 122
70 90 121
68 88 118
67 87 117
69 89 119
70 91 122
70 91 122
69 89 118
71 92 123
70 90 119
67 87 118
74 94 125
70 90 120
70 90 121
72 92 123
71 91 122
71 92 122
70 90 122
70 90 121
73 94 125
69 89 120
69 89 119
70 90 120
69 89 120
71 92 124
70 90 121
69 88 116
70 91 121
71 92 123
70 91 121
73 94 126
72 93 123
71 91 122
68 89 120
72 94 126
73 92 122
72 92 123
71 91 121
71 92 123
70 91 123
69 90 121
72 92 123
73 93 124
72 94 126
67 87 117
67 87 116
70 89 118
72 93 124
72 94 126
72 92 123
70 90 121
71 92 123
70 91 122
68 88 117
69 89 119
71 92 123
69 89 118
68 87 116
72 93 124
70 91 122
70 90 120
72 92 124
70 91 121
74 95 126
71 92 123
69 89 119
69 89 118
71 91 121
70 90 121
68 87 116
72 92 122
70 90 121
68 88 118
68 88 117
71 91 122
68 87 116
70 91 121
71 91 122
67 87 117
67 86 114
68 88 119
65 85 115
68 88 118
70 90 120
70 89 118
72 92 122
68 88 118
68 89 120
66 85 114
67 87 116
67 87 117
67 88 118
67 86 116
65 83 111
68 87 115
69 88 115
66 85 113
68 88 118
65 84 112
66 85 114
66 86 115
66 85 113
65 84 112
68 87 115
64 83 110
67 86 115
68 87 116
65 84 112
66 86 116
64 84 113
68 86 114
66 85 113
65 83 109
66 85 113
64 82 109
65 84 112
66 85 112
68 88 116
64 83 111
63 81 109
65 83 110
63 82 110
68 87 114
62 80 107
62 80 108
64 82 109
61 78 104
61 79 104
60 78 104
64 82 110
64 83 110
62 80 107
64 82 109
64 81 108
58 74 98
63 80 106
63 80 107
67 86 114
60 78 104
64 82 109
61 78 104
64 83 110
63 80 107
66 84 112
63 81 107
65 83 109
62 78 103
63 80 106
63 80 105
58 75 99
64 82 109
62 79 105
58 75 99
59 76 102
62 79 104
63 81 108
59 76 101
60 77 102
59 75 99
63 81 108
60 76 99
55 70 93
59 76 100
54 69 91
57 73 97
59 74 97
59 75 100
64 82 108
59 74 97
60 76 100
54 69 92
57 72 96
54 69 92
57 72 95
54 69 92
59 76 101
55 70 92
56 72 97
58 73 96
59 75 100
59 75 100
57 73 97
55 70 93
55 71 94
56 72 96
60 76 100
52 66 88
54 69 92
58 73 97
51 65 85
51 65 86
57 72 94
51 65 86
52 66 86
52 67 89
56 71 93
58 73 96
56 71 94
54 68 90
55 69 90
49 62 83
58 73 95
51 65 86
46 58 75
52 65 86
57 72 95
53 67 89
47 60 80
51 65 85
55 70 93
50 63 84
48 60 79
47 58 76
52 66 86
49 62 81
50 62 81
49 62 82
51 64 83
48 60 79
48 61 80
46 58 76
51 64 84
51 65 85
45 57 74
57 72 94
54 69 90
49 61 79
53 67 87
54 68 89
54 68 89
52 66 87
57 72 95
49 62 81
50 63 82
50 63 82
51 65 85
52 66 86
52 67 88
45 56 73
46 59 78
51 64 84
51 65 85
47 60 80
51 64 84
49 63 83
51 65 86
43 55 72
51 65 86
49 62 81
46 58 76
47 59 78
47 60 78
52 66 88
48 60 79
55 70 92
53 68 90
46 59 77
57 72 93
54 68 89
50 63 83
53 66 87
51 65 86
52 67 89
52 66 88
53 67 88
54 69 92
53 67 88
52 66 86
58 74 98
55 70 94
49 62 81
57 72 95
48 62 82
53 67 88
51 64 84
51 64 85
54 69 91
54 68 90
58 73 95
51 65 86
56 72 96
60 75 99
56 72 94
52 65 86
56 71 94
56 71 95
58 73 95
54 69 92
60 75 99
53 68 91
57 73 97
56 72 96
57 74 99
58 74 97
55 70 92
54 69 93
57 73 97
58 75 99
57 73 98
55 69 91
59 76 102
58 74 98
60 77 102
59 75 99
64 81 108
62 79 105
59 75 99
58 74 99
55 71 96
55 71 94
63 80 106
60 76 99
55 70 93
63 82 109
59 77 104
61 77 102
61 79 106
63 81 108
61 77 103
64 82 110
64 82 109
65 83 110
66 84 112
66 84 111
61 78 104
59 77 103
66 84 111
67 86 116
62 81 108
64 82 110
64 83 111
60 76 101
63 81 107
60 77 103
63 80 106
63 81 109
62 80 106
63 81 107
62 80 107
62 79 105
66 86 115
65 83 112
65 84 113
62 79 106
67 86 114
67 86 115
66 85 113
66 84 111
66 86 115
66 84 112
68 87 115
66 86 116
66 84 110
66 84 112
68 87 116
64 83 111
66 85 114
67 86 114
66 86 114
66 85 114
67 87 116
69 89 118
69 88 117
64 83 110
66 85 113
67 86 115
68 87 116
67 86 114
68 89 119
66 86 115
69 89 118
64 84 113
68 87 116
69 89 119
68 88 117
68 89 119
69 88 118
67 86 116
70 89 117
68 89 119
65 84 112
69 89 120
71 91 121
70 89 119
71 93 125
70 90 120
68 88 118
71 90 120
69 88 116
67 87 116
69 90 120
70 91 122
70 91 123
68 88 118
70 90 120
70 90 120
69 90 120
69 89 120
67 87 117
72 92 123
69 90 121
69 89 118
69 89 120
73 94 127
67 87 117
71 91 121
65 84 113
67 88 118
73 93 123
69 90 120
69 90 120
69 90 121
70 91 122
70 90 120
72 92 123
70 91 122
71 92 123
69 90 121
71 91 120
70 90 119
72 93 124
69 89 119
71 92 123
70 91 121
71 91 123
72 93 124
69 89 120
71 92 124
72 92 123
69 89 120
71 92 123
72 92 123
70 90 121
71 92 123
70 90 120
71 91 122
71 91 122
70 90 120
70 90 121
70 90 121
71 91 122
70 91 123
69 90 120
70 91 123
70 90 120
69 89 119
69 89 119
67 88 118
71 90 120
70 91 122
69 90 120
69 90 121
71 92 124
70 90 120
70 90 121
70 90 122
70 90 122
72 91 121
71 92 123
69 90 120
68 87 117
68 88 118
67 87 116
69 89 119
71 92 123
70 90 120
70 91 122
66 86 117
69 89 119
69 89 120
71 91 121
68 87 115
66 85 114
69 88 117
69 88 116
69 89 120
69 89 119
67 87 116
69 89 118
68 88 118
71 90 120
68 88 117
70 90 120
69 89 119
64 84 112
68 88 118
65 85 116
71 91 122
68 87 116
68 89 120
70 90 121
71 90 120
70 90 120
66 85 112
68 88 117
66 85 113
70 90 121
69 89 119
67 86 114
66 85 113
67 87 117
63 81 109
66 85 114
68 87 115
66 84 113
68 87 116
68 87 116
62 79 106
65 84 111
67 86 116
66 85 112
65 84 113
72 92 122
69 89 119
68 88 119
65 84 113
62 81 109
66 85 113
66 84 112
67 86 116
62 80 108
67 86 115
62 81 108
65 83 111
65 83 111
66 84 112
65 83 111
67 86 114
62 79 105
65 84 111
64 82 107
62 79 104
58 75 101
60 78 104
63 80 106
65 83 110
61 78 104
65 84 113
61 78 104
60 76 100
63 81 107
64 82 109
60 77 103
59 76 101
63 81 107
61 80 107
67 86 114
61 77 102
66 84 111
59 76 102
61 78 104
64 83 111
57 73 97
57 73 97
60 77 102
60 77 102
57 73 96
55 71 95
62 80 106
60 76 101
58 73 96
58 74 98
60 76 100
62 80 106
56 72 96
61 79 105
55 70 92
58 74 98
62 79 104
55 70 93
55 70 92
57 73 97
57 72 95
62 79 104
60 77 102
59 75 98
60 76 99
58 74 98
60 75 99
55 70 93
58 75 99
59 76 100
50 64 84
52 65 86
56 71 94
58 73 95
50 64 84
55 70 92
50 63 83
58 73 96
56 71 94
56 71 94
50 64 85
57 72 96
54 68 90
54 68 90
52 65 85
47 59 78
51 65 85
50 63 84
54 68 90
54 68 90
54 68 91
53 67 88
49 63 83
51 65 86
46 59 77
53 67 87
57 72 94
46 59 77
47 58 76
54 68 89
53 68 90
53 67 88
50 63 83
46 58 75
54 68 90
53 67 87
48 61 81
48 60 78
50 63 83
48 61 81
52 66 87
50 63 83
50 63 81
52 65 86
48 61 80
51 64 85
55 69 91
49 62 82
53 67 88
48 61 81
52 66 86
50 62 81
46 57 74
51 65 85
54 68 89
56 71 93
50 63 81
48 61 80
50 62 81
48 61 80
53 67 88
56 70 92
50 64 84
51 64 85
55 69 90
53 67 88
51 65 86
52 66 87
57 72 95
51 64 84
51 64 84
52 65 84
48 61 81
52 66 88
50 64 83
47 59 77
44 56 73
50 63 83
52 66 87
51 65 86
53 67 88
55 69 91
48 60 78
58 74 96
55 70 92
51 65 86
54 69 91
48 61 80
52 66 86
54 68 90
58 74 98
53 67 89
53 67 88
53 67 88
50 64 85
56 71 94
54 68 88
52 66 87
57 73 97
55 70 92
55 71 93
57 73 97
56 72 97
56 72 95
57 73 96
53 69 92
55 70 92
55 71 94
56 70 92
55 70 93
56 71 93
58 74 99
60 77 102
55 71 95
58 73 97
56 71 95
59 75 99
51 65 86
60 77 103
59 75 99
58 74 97
57 73 96
59 75 100
59 75 100
59 75 99
63 81 107
59 76 102
60 76 100
57 73 97
60 77 103
64 81 107
61 78 103
62 79 104
60 77 103
59 77 103
59 76 101
57 74 98
62 81 108
65 83 110
58 75 100
62 80 107
62 79 103
62 79 104
61 78 104
60 78 104
60 77 102
63 80 106
67 86 114
61 80 107
63 80 106
65 83 110
63 80 107
68 88 119
66 85 113
64 82 108
64 83 111
67 86 115
63 82 109
68 87 116
70 90 119
65 84 112
67 86 114
66 84 112
68 86 114
67 86 113
65 83 110
66 85 113
64 82 109
64 82 109
67 85 113
66 85 114
64 81 108
65 83 109
66 85 114
63 81 108
66 84 111
65 84 112
66 86 116
65 84 112
68 89 119
63 81 109
69 89 119
69 89 118
64 81 108
66 85 113
70 88 117
64 82 109
67 86 115
66 84 111
67 87 115
66 86 115
69 88 118
66 85 114
66 86 115
67 85 113
70 89 119
67 85 114
67 87 117
65 85 114
70 90 120
71 92 124
68 88 118
66 85 114
68 89 119
68 88 119
70 89 119
70 91 122
72 93 123
67 87 117
69 89 119
69 89 118
70 89 119
69 89 120
66 86 115
71 92 123
71 92 123
68 88 117
70 91 121
69 89 119
69 90 120
71 92 122
71 92 122
72 93 124
70 90 120
68 87 117
67 87 117
71 92 123
68 89 119
70 91 122
71 91 121
70 91 122
68 87 115
70 90 120
70 89 119
72 93 125
72 92 121
71 92 122
72 93 124
73 94 125
71 91 122
70 91 122
73 94 125
70 90 120
67 87 117
70 89 119
71 91 121
70 90 119
66 86 116
71 92 124
72 92 123
68 88 118
73 93 124
69 90 121
71 91 122
70 89 119
69 89 120
70 91 121
72 92 123
69 89 119
70 90 120
69 90 120
70 91 122
71 91 121
67 87 117
71 91 121
71 91 120
71 91 121
70 90 120
73 93 124
70 88 117
70 90 121
71 91 121
70 90 119
70 90 120
71 91 120
68 89 120
71 92 123
69 90 122
70 91 122
72 93 124
68 88 118
71 92 123
67 86 115
70 89 119
72 92 123
67 86 114
68 88 118
71 92 124
72 91 121
68 87 116
65 84 113
70 90 119
70 90 120
70 90 120
67 86 114
69 89 118
70 90 120
69 88 117
69 90 121
69 89 119
66 85 113
68 89 119
70 91 121
70 90 120
69 89 119
65 84 113
69 88 118
67 87 118
69 89 119
68 88 117
65 84 111
66 85 114
67 86 115
68 87 117
65 84 111
68 86 115
66 85 114
67 87 117
66 85 113
68 87 116
68 88 118
65 84 112
67 85 113
67 86 115
69 88 118
68 88 117
68 87 114
63 81 108
65 83 110
63 82 109
66 85 114
66 85 113
66 85 113
64 82 109
66 85 114
65 84 113
66 85 113
64 82 110
65 83 111
63 82 110
65 83 110
65 84 112
64 82 109
62 81 110
62 79 106
64 83 110
68 87 116
67 86 114
65 84 112
64 81 106
65 82 109
67 85 113
62 78 103
65 84 112
66 85 114
63 81 108
65 84 112
64 82 108
62 80 107
63 81 107
61 79 105
66 84 111
68 86 114
61 79 106
63 80 105
61 79 105
63 81 107
63 81 107
57 74 98
55 70 94
61 78 103
59 76 102
61 78 103
58 74 97
63 79 104
58 74 97
59 77 103
57 74 98
57 72 96
62 79 106
57 73 97
61 79 105
59 76 101
47 60 80
56 71 93
61 77 101
60 77 102
57 72 95
60 76 100
56 71 94
59 75 99
56 71 94
57 73 97
56 72 95
56 71 94
55 70 92
56 71 93
55 70 93
51 65 86
64 81 107
57 73 96
56 71 93
52 66 87
55 70 92
56 72 96
51 65 86
56 71 93
56 71 93
60 76 100
59 76 101
57 71 94
53 68 89
47 59 77
52 66 88
48 60 78
55 69 90
55 70 91
56 72 95
54 68 89
54 68 90
57 72 94
51 65 86
56 71 93
56 70 92
48 61 80
53 67 88
49 64 86
52 66 87
54 68 89
53 67 88
57 72 95
53 67 88
50 63 83
50 63 81
49 62 82
51 65 86
52 66 86
48 60 79
46 58 76
50 63 81
55 70 91
50 63 82
51 65 85
49 63 82
48 60 79
45 57 75
47 60 79
46 58 77
52 64 83
52 66 87
46 58 77
57 72 94
51 65 86
45 57 75
47 60 79
51 66 88
52 65 86
49 61 79
49 62 81
50 62 81
45 57 75
47 60 78
49 61 81
47 60 78
54 69 91
49 62 82
51 65 85
51 65 85
45 57 76
50 64 85
49 63 83
47 59 78
54 69 91
50 64 84
50 64 84
55 70 92
50 63 83
53 68 89
53 67 88
51 65 86
56 71 93
51 65 86
50 64 85
53 67 89
58 74 98
52 65 84
50 64 84
49 63 84
52 67 88
53 66 87
56 71 93
55 70 92
54 68 88
54 69 91
49 63 83
56 71 93
58 74 98
54 69 92
49 63 84
55 70 93
56 72 95
58 74 97
56 72 95
54 68 90
54 69 92
60 77 101
61 78 103
55 70 92
60 77 102
49 62 81
60 77 102
56 71 93
58 74 98
63 80 107
54 69 92
57 73 97
61 79 104
58 74 98
55 71 95
60 77 101
60 77 103
62 78 103
59 75 100
61 79 105
63 80 107
64 81 108
64 81 107
61 77 103
60 78 105
59 76 101
56 73 97
65 82 109
61 79 106
62 80 107
62 79 105
65 83 110
62 79 106
63 81 108
64 82 109
61 78 104
61 78 103
63 80 106
65 83 110
64 82 110
60 78 104
61 80 107
62 80 106
62 80 106
61 79 105
64 82 110
67 86 114
63 81 108
63 81 108
66 85 113
64 82 108
63 81 107
62 79 105
66 84 112
65 83 110
63 81 109
67 85 113
62 80 108
62 80 108
66 85 113
62 80 107
64 82 110
67 86 115
67 85 113
66 85 114
66 84 112
66 86 115
66 86 115
66 85 112
68 88 117
68 87 116
66 86 116
69 88 117
67 85 113
63 82 110
66 85 115
68 88 118
70 90 120
68 87 116
65 84 112
65 83 110
69 89 118
67 86 115
66 85 114
67 86 116
67 86 115
70 90 120
66 85 114
70 89 118
68 87 116
66 85 113
68 88 117
68 87 117
71 91 122
66 86 117
72 93 123
69 89 119
67 86 116
67 88 119
68 89 119
67 87 116
67 87 117
71 91 122
68 88 117
69 89 118
70 89 119
70 91 122
69 90 122
70 91 122
69 90 121
69 88 118
69 89 118
70 91 123
69 90 120
68 88 119
70 91 123
68 88 119
67 88 118
70 91 122
70 90 121
67 87 117
71 91 121
69 88 118
72 92 122
71 91 121
70 90 121
71 91 121
72 93 125
69 90 122
71 93 125
72 93 124
71 92 123
70 91 122
73 94 124
73 93 124
69 90 121
71 91 121
70 89 119
71 91 121
71 91 120
72 93 125
71 91 121
69 89 120
71 91 123
70 90 121
68 88 117
72 93 125
70 91 122
71 92 125
71 92 123
72 92 122
71 92 123
68 89 120
71 91 120
71 91 121
70 90 121
69 90 121
69 89 119
69 89 119
68 87 116
70 91 121
69 89 120
70 92 123
69 90 121
70 91 122
70 90 120
69 90 120
69 90 120
72 93 124
66 85 114
71 92 124
70 90 120
68 88 118
71 90 120
68 88 119
68 89 119
68 88 118
70 90 120
69 89 119
69 89 120
70 90 120
70 89 118
68 88 117
70 91 121
71 91 121
70 89 119
67 86 115
70 89 119
71 90 120
69 89 118
71 91 121
68 87 117
70 90 121
68 88 118
64 84 114
69 89 120
68 88 118
69 89 120
69 88 116
66 85 114
64 83 110
69 89 118
67 87 116
68 88 117
69 89 118
65 83 111
68 88 119
69 89 119
70 90 120
65 84 112
68 86 114
65 84 112
68 87 116
63 81 110
66 85 112
69 88 118
68 87 115
66 86 115
68 89 119
64 83 111
66 85 113
66 85 114
65 84 112
67 88 118
64 83 111
66 85 114
66 84 111
66 85 113
67 86 114
65 84 113
64 83 111
65 84 112
66 84 111
64 83 111
65 84 113
63 82 111
61 79 106
65 83 111
66 84 111
63 80 107
66 84 112
67 85 113
64 82 109
60 78 106
67 87 116
62 80 106
65 83 111
63 81 107
67 85 111
64 81 105
64 83 110
64 81 107
67 86 115
63 82 110
63 80 105
60 78 104
64 81 107
59 76 102
58 75 100
60 76 100
62 80 108
58 74 98
63 82 110
63 81 108
60 76 101
60 77 104
62 79 105
62 78 103
61 78 103
61 78 104
60 77 103
59 76 102
62 79 105
59 75 100
55 70 93
59 75 98
59 75 99
56 72 96
59 75 100
55 71 94
59 76 100
59 75 99
55 70 93
58 74 99
55 70 93
52 67 89
58 74 98
58 74 99
57 73 97
55 70 92
57 73 96
53 68 90
56 72 95
55 70 91
58 75 99
52 65 85
58 75 101
54 69 92
54 69 90
54 68 90
52 66 86
52 66 88
59 75 100
49 62 83
52 67 89
54 69 91
55 70 91
51 65 87
62 78 103
54 69 91
58 73 95
51 65 85
48 62 82
51 66 87
53 67 88
57 73 96
52 65 85
54 69 91
53 68 90
55 68 88
52 64 84
48 62 83
51 64 84
51 65 85
47 60 79
51 64 84
56 70 91
48 61 80
48 60 79
48 61 80
52 66 88
50 64 85
56 71 93
47 59 77
51 64 85
49 62 81
55 70 92
52 66 86
52 66 88
54 69 91
54 68 90
44 56 75
51 64 85
58 73 95
51 64 85
49 62 82
48 61 80
51 64 84
52 66 87
49 62 82
54 68 88
50 63 84
54 68 91
49 63 83
49 63 84
53 67 88
51 65 86
46 58 77
50 63 83
50 63 83
58 73 96
56 70 92
49 62 81
53 68 89
57 72 94
49 62 81
53 67 89
52 66 87
53 67 89
57 73 96
57 72 94
53 67 87
51 64 84
50 63 83
55 70 93
56 72 95
50 64 84
51 66 87
60 76 100
52 65 85
51 65 87
54 69 90
59 75 99
57 72 95
55 70 92
58 74 97
50 64 84
51 65 86
52 66 87
54 69 91
56 71 94
55 70 92
53 67 88
53 68 90
55 70 93
57 73 96
55 70 93
59 75 99
57 71 92
62 79 104
57 72 95
56 71 94
58 74 98
55 70 93
58 73 96
58 74 97
58 74 98
59 75 99
59 76 101
57 73 96
55 71 94
59 76 103
64 81 108
61 78 103
60 76 101
63 80 106
58 75 99
58 75 100
61 78 103
58 74 98
57 73 96
58 74 99
61 78 103
60 77 102
64 83 111
61 77 102
62 79 105
63 80 106
62 79 105
58 75 99
61 78 104
62 79 103
61 79 104
58 75 100
63 82 110
60 77 102
61 78 105
66 84 112
59 75 99
63 81 108
63 81 107
65 84 112
65 83 110
63 80 107
63 81 109
65 84 112
61 78 104
59 76 102
63 81 108
65 83 109
66 85 113
66 83 110
66 85 112
64 83 112
70 89 118
63 82 109
62 80 107
68 87 115
68 87 115
64 83 110
65 83 111
69 88 117
66 85 113
66 86 114
68 87 116
65 84 113
63 81 108
68 88 117
64 82 109
63 82 110
68 86 114
62 80 106
68 88 117
63 82 109
65 84 113
66 86 116
65 84 112
65 85 113
69 88 117
63 81 108
67 85 114
69 89 119
70 89 118
64 82 110
67 86 115
67 86 114
69 90 122
64 83 112
68 87 116
67 86 116
69 88 117
66 85 114
72 92 123
72 92 122
68 89 120
69 89 118
68 88 118
67 86 116
69 89 120
69 89 120
67 87 116
67 87 117
66 85 114
67 86 114
69 90 120
70 90 120
69 89 119
69 89 119
65 84 112
70 91 123
71 91 122
67 87 117
70 90 120
70 90 120
71 91 122
69 88 116
70 90 120
71 91 122
69 88 118
67 87 117
70 90 120
70 90 121
70 91 122
67 86 116
70 90 121
69 89 120
73 93 124
71 91 120
72 92 122
70 89 118
68 88 118
70 90 121
68 87 116
70 90 120
72 92 123
69 89 120
72 93 124
70 90 120
71 91 122
72 93 124
72 92 123
71 92 123
69 90 120
70 90 121
71 92 123
71 92 123
70 91 122
70 91 124
71 92 122
69 89 119
72 93 123
72 93 125
70 91 121
71 91 122
71 92 124
72 92 123
71 90 120
73 93 124
69 90 122
73 93 124
70 91 122
71 91 122
71 92 123
70 90 119
70 90 120
68 88 119
70 90 119
72 93 124
70 91 121
71 92 123
70 90 121
69 90 121
71 91 122
72 93 124
69 89 119
68 88 117
69 89 119
74 93 123
68 88 118
67 87 117
68 87 116
67 87 116
71 91 122
68 87 116
66 85 114
70 90 121
70 91 121
67 86 113
66 84 113
67 87 116
72 92 123
70 89 119
69 89 117
69 88 115
66 86 116
67 87 117
65 84 113
66 85 114
70 90 120
66 86 115
68 88 119
68 87 117
67 87 116
67 87 116
69 88 118
64 83 110
65 84 112
66 85 115
69 89 118
65 84 112
67 87 117
66 85 114
69 90 120
65 83 111
66 85 113
69 89 119
69 88 118
64 84 113
66 85 113
68 87 115
65 84 113
66 86 116
67 86 114
64 82 109
69 89 119
65 84 112
65 83 110
63 81 108
66 84 111
67 86 116
60 78 104
65 83 111
65 84 113
67 86 114
64 82 109
64 83 111
61 78 104
60 77 102
65 82 109
67 85 113
62 80 106
62 80 107
65 83 110
65 83 110
63 80 106
66 84 112
63 82 109
60 78 104
66 84 111
63 80 107
59 76 102
63 80 106
59 76 100
60 78 104
64 82 109
65 83 111
64 81 108
63 81 108
65 83 110
63 79 105
65 83 110
61 79 105
63 81 108
65 84 111
58 74 98
65 83 110
63 80 106
66 83 109
61 77 103
62 79 103
62 80 106
59 75 99
59 75 101
58 74 99
60 77 101
59 76 100
57 73 96
57 72 96
59 76 101
58 75 99
60 76 101
58 74 98
53 68 91
55 71 95
58 72 95
62 79 103
58 73 96
59 75 98
55 70 94
58 74 98
57 72 94
56 72 95
55 71 94
52 65 85
53 67 89
59 75 99
52 66 89
54 69 91
58 74 98
52 66 88
52 67 88
57 72 96
56 71 93
56 72 96
59 75 100
47 59 78
49 62 82
52 67 88
53 68 91
56 71 94
54 69 91
56 71 95
59 75 99
49 62 82
58 73 96
55 70 92
54 67 88
50 64 85
56 71 93
55 69 90
57 72 95
51 64 84
53 68 90
52 66 87
54 67 88
47 60 80
47 59 77
48 61 80
54 68 89
55 70 92
51 64 85
54 67 88
59 75 99
51 64 84
48 61 80
52 66 88
55 70 92
53 67 89
52 65 85
53 67 87
45 57 75
51 64 83
52 66 85
54 68 90
50 64 84
53 66 86
53 67 88
53 67 87
55 69 91
48 62 83
55 69 91
48 61 80
53 68 89
52 66 86
50 62 81
51 64 83
54 68 89
53 67 88
52 66 86
50 64 85
53 67 87
56 71 94
55 70 92
49 63 83
53 67 88
50 63 81
54 69 91
54 69 91
53 68 89
51 65 85
49 62 82
57 73 96
51 65 85
58 73 95
58 73 96
48 60 80
49 63 84
53 68 89
52 66 87
52 66 87
51 66 88
48 62 82
52 65 86
60 77 103
57 72 95
54 68 89
55 70 93
57 73 96
60 77 103
56 72 95
60 76 100
51 65 87
50 63 82
54 69 92
60 75 99
58 74 97
57 72 96
60 76 99
54 68 90
57 73 97
57 73 96
60 77 102
63 79 104
56 71 95
58 75 99
55 70 93
61 76 100
56 72 95
54 70 93
59 75 100
56 72 95
58 74 98
58 73 97
61 78 104
58 74 98
62 80 106
59 75 99
61 79 104
58 73 97
57 74 98
55 72 96
60 77 102
61 78 103
63 80 107
60 76 101
65 83 111
61 78 103
59 75 101
63 81 108
58 76 102
62 79 105
60 76 101
59 75 100
62 79 105
62 79 105
59 76 101
63 81 107
61 79 105
64 82 109
59 76 103
66 84 111
60 77 102
61 79 106
64 82 110
64 83 111
65 84 112
66 86 114
65 83 110
64 81 108
62 80 107
66 85 114
64 82 109
64 82 109
60 77 103
67 85 112
65 84 112
65 83 111
61 79 106
62 80 107
65 84 111
69 88 117
68 87 116
65 84 112
64 82 108
66 84 112
64 83 111
68 87 117
64 82 110
65 84 112
65 83 110
69 88 118
65 84 112
67 87 116
63 81 108
68 88 118
64 83 112
65 83 110
70 91 123
68 88 117
67 87 116
64 82 109
66 86 115
65 84 113
65 84 112
67 86 114
70 89 118
66 84 113
68 86 115
69 89 117
68 87 116
65 84 112
65 84 113
70 89 119
66 85 114
69 89 120
69 89 119
66 85 114
68 88 118
70 90 120
68 88 118
66 85 114
70 91 122
70 90 120
71 91 122
68 89 119
71 90 120
69 89 120
69 88 117
69 90 120
68 87 116
67 87 117
67 86 113
67 86 114
69 89 119
69 89 119
70 90 121
68 88 118
70 89 118
70 89 119
69 88 118
68 88 119
66 85 114
70 90 120
69 89 119
72 92 122
69 89 118
71 91 122
70 89 117
72 93 123
68 87 117
70 90 121
67 87 116
70 90 120
70 90 120
69 89 120
72 92 123
71 91 122
70 89 118
69 90 121
70 90 121
70 91 122
71 90 120
71 92 123
69 89 120
71 92 124
73 93 124
71 91 122
70 91 121
72 93 124
69 89 118
70 90 120
72 92 123
70 90 121
70 91 122
70 91 122
71 91 121
74 95 125
72 92 123
72 92 123
69 90 121
69 88 117
68 90 121
70 90 120
70 90 120
72 92 123
69 89 120
68 88 118
71 92 122
73 93 125
69 89 120
68 87 115
66 85 113
65 84 113
70 90 121
69 89 119
70 91 122
70 90 120
70 91 121
70 90 120
69 89 120
70 90 120
70 90 121
68 89 119
69 89 119
67 87 118
67 86 115
69 88 118
69 90 120
69 90 120
66 85 114
69 90 120
69 89 119
67 87 116
68 88 118
69 88 117
69 90 120
69 88 117
69 89 118
66 85 114
69 89 120
70 90 120
69 90 121
70 89 118
67 87 116
67 86 115
67 86 114
66 85 114
63 81 108
67 87 116
67 87 116
66 85 114
65 85 114
67 87 116
70 91 122
63 81 109
64 83 111
64 84 113
65 83 112
65 84 113
63 82 110
64 82 109
65 83 110
68 88 118
65 84 112
65 84 112
67 85 113
65 84 113
63 81 107
68 87 116
70 89 118
62 80 107
63 81 108
64 83 111
69 89 118
66 84 111
64 84 113
62 80 107
61 79 105
63 81 109
65 83 110
64 82 109
65 83 111
64 82 110
63 81 107
63 80 107
60 77 102
70 89 118
68 87 116
65 84 112
65 83 111
65 83 111
61 78 103
63 81 108
60 77 103
64 82 110
67 86 115
58 75 99
62 80 107
61 79 105
64 82 110
59 77 103
63 80 106
60 77 102
60 77 101
62 79 105
61 77 102
61 78 103
60 76 100
62 79 106
64 82 110
63 80 106
58 75 99
58 74 99
62 78 104
58 73 97
62 80 107
58 73 97
59 75 99
59 76 101
59 76 101
60 76 101
57 72 94
61 78 103
59 75 99
55 71 95
54 68 89
55 72 96
61 78 104
57 72 95
58 74 98
59 75 100
59 76 101
54 69 90
59 75 100
58 74 98
55 70 92
59 75 99
56 71 94
55 69 90
52 67 88
53 68 90
57 71 94
55 69 91
51 66 88
51 65 86
53 68 89
55 70 93
57 73 96
53 68 89
56 71 94
55 70 92
51 65 87
50 64 85
57 72 95
51 65 85
56 72 95
60 76 100
47 59 78
51 65 85
61 78 103
49 63 84
54 69 91
57 72 95
58 74 97
58 73 95
58 73 96
49 61 80
49 62 82
50 63 83
56 71 94
49 63 83
50 63 82
50 64 84
56 72 96
48 61 80
52 66 87
55 69 90
51 64 83
58 73 96
55 69 90
52 65 84
53 68 90
45 57 75
55 69 91
55 70 92
53 66 87
49 62 82
50 63 84
51 64 84
55 70 91
53 67 89
48 61 80
51 64 84
52 66 88
54 68 89
50 63 82
49 61 80
52 66 87
54 68 90
51 65 85
53 67 88
51 65 85
47 59 79
54 68 88
53 67 89
51 66 87
50 64 85
54 69 91
59 74 97
52 65 84
52 66 86
56 71 94
54 69 91
53 67 88
56 71 94
49 63 84
57 72 94
55 70 92
53 68 90
51 65 86
60 76 99
56 72 95
57 73 96
52 67 89
49 63 84
57 72 95
53 67 89
58 73 95
53 68 89
56 71 93
58 74 97
55 70 92
63 81 107
61 78 103
57 72 95
55 71 93
53 67 87
62 78 104
56 71 95
58 74 98
55 69 92
49 64 85
61 76 99
56 71 94
59 75 98
62 79 104
55 71 94
63 80 104
56 71 95
59 76 101
56 72 96
60 76 100
59 76 100
62 79 105
56 72 97
64 82 109
63 80 105
60 77 102
63 81 108
58 73 97
61 77 102
65 83 110
57 74 100
53 69 93
62 79 106
60 78 105
64 83 111
57 73 98
62 79 104
59 76 101
58 74 99
59 75 100
61 79 106
61 79 105
63 82 111
59 76 101
58 75 101
59 76 102
65 83 110
62 80 106
64 82 109
62 81 108
65 84 112
65 84 112
66 85 113
64 81 108
63 81 108
65 82 109
62 80 106
64 83 110
63 82 111
63 80 106
64 82 109
68 88 118
64 81 107
65 83 110
67 86 116
67 86 115
63 81 109
67 87 116
63 82 110
69 88 117
64 82 108
65 83 111
66 85 114
67 86 115
61 79 105
63 81 109
65 85 115
63 81 109
64 82 110
67 86 115
70 89 119
69 88 118
68 86 115
65 85 114
66 87 117
66 86 115
67 86 115
65 83 111
70 90 120
69 88 117
69 89 120
67 86 115
65 83 110
71 90 120
67 85 112
69 89 118
67 86 114
66 85 114
70 90 120
67 86 115
65 84 112
68 89 120
68 88 117
66 86 116
71 92 122
66 85 113
65 83 111
66 85 113
70 90 120
68 87 116
66 85 114
69 89 118
67 86 115
69 88 117
68 88 118
67 87 117
68 88 118
68 88 118
66 86 115
67 86 115
71 91 120
67 87 116
69 89 119
68 88 118
72 93 123
70 91 122
69 89 119
72 92 122
69 89 119
68 88 119
67 88 118
70 91 123
67 86 116
72 93 124
69 89 120
69 89 118
70 91 122
69 90 121
70 90 120
72 92 123
69 90 121
69 90 120
72 94 126
70 90 120
70 90 120
69 88 117
69 90 120
70 90 121
72 93 124
72 93 124
69 88 118
70 91 122
71 91 120
70 90 121
73 93 124
71 91 122
72 92 122
70 91 121
73 94 126
71 92 124
71 91 122
71 92 122
72 93 125
68 88 118
69 91 122
70 91 121
72 92 123
71 90 119
70 90 121
73 93 124
69 89 118
69 90 121
73 93 124
70 91 123
71 91 121
71 92 122
71 92 122
68 88 117
66 85 114
69 89 120
70 90 121
68 88 119
70 90 120
68 88 119
67 87 116
71 91 121
72 92 122
69 88 118
68 87 116
68 87 117
70 90 121
68 87 116
66 86 114
68 88 119
67 86 114
68 89 120
68 88 120
67 87 116
69 89 119
70 90 120
69 88 116
70 89 117
68 88 118
71 92 123
69 89 120
62 82 111
68 88 118
67 86 116
67 86 116
67 86 114
68 88 118
71 91 122
70 90 120
66 85 113
65 84 111
68 88 117
69 89 119
69 90 120
68 88 118
67 86 115
63 81 108
69 89 119
63 81 109
67 86 115
62 79 106
68 88 119
66 85 114
69 89 120
67 86 114
67 86 115
62 80 105
66 84 112
68 87 116
66 84 112
66 85 114
65 82 109
63 81 108
66 84 112
62 81 109
66 86 115
63 81 107
64 83 111
68 87 116
65 84 112
65 83 110
61 79 107
66 85 114
67 86 114
66 84 111
64 82 109
59 76 102
62 80 107
65 83 111
61 78 104
67 87 116
66 84 112
59 75 99
63 81 108
65 84 112
64 82 108
67 86 114
66 85 113
62 78 104
64 83 110
60 78 104
59 76 102
63 81 108
61 78 104
66 84 112
57 74 98
61 79 105
64 82 109
62 79 105
60 76 101
61 78 104
59 76 101
63 81 108
60 77 103
58 75 100
55 70 94
59 76 102
59 75 98
61 77 103
59 75 100
57 73 96
63 80 105
60 77 103
62 80 107
57 74 98
58 73 97
54 68 88
57 73 98
60 76 99
55 70 92
55 70 92
61 78 103
52 66 87
56 71 94
53 69 91
60 75 99
57 72 95
53 67 88
60 77 102
59 75 99
60 77 101
58 73 95
55 69 89
54 69 90
56 72 95
50 64 84
50 64 85
55 70 93
54 68 90
56 72 95
57 73 96
54 68 90
55 69 90
54 68 90
54 68 90
55 69 91
56 71 95
54 68 89
50 62 80
53 66 87
49 62 82
55 69 91
57 73 97
55 70 92
49 62 82
52 66 86
51 65 85
48 61 81
51 65 85
57 72 96
54 69 90
51 64 84
58 74 97
50 64 84
52 66 86
57 72 96
49 62 81
52 66 87
50 63 82
50 64 85
50 64 83
54 68 89
53 66 87
52 66 87
56 70 92
50 63 83
50 63 83
51 65 86
54 69 92
52 67 88
52 67 88
50 63 83
46 59 77
53 68 89
55 69 91
53 67 87
51 66 87
47 59 78
50 63 83
53 67 89
51 65 86
51 65 87
52 65 86
51 64 84
52 66 87
54 69 91
53 66 87
54 68 89
55 70 92
56 72 95
55 70 92
49 62 82
54 69 91
51 65 86
52 66 87
55 70 92
54 68 89
51 66 89
54 69 91
54 68 89
51 65 86
60 77 102
51 64 84
52 66 87
52 66 87
53 67 87
55 70 92
52 65 85
60 77 102
59 75 98
60 77 102
52 65 85
62 79 104
54 69 90
55 70 92
57 72 95
55 70 92
59 75 99
55 71 94
54 69 92
63 79 103
54 69 92
56 71 95
60 77 102
57 72 95
58 74 98
56 71 94
59 74 97
55 70 92
61 78 104
58 74 99
60 76 100
58 74 98
52 66 87
58 74 98
60 76 100
58 75 100
58 74 97
61 77 102
61 79 105
63 80 107
64 81 107
61 78 103
59 75 99
59 75 99
65 83 110
61 79 105
61 78 103
64 81 107
61 79 105
62 79 104
63 81 107
64 83 110
65 83 110
65 82 109
64 81 108
62 79 106
66 85 114
64 81 106
65 83 111
63 80 106
62 79 104
63 80 107
63 82 110
65 84 111
64 82 110
60 78 104
63 81 108
67 85 113
60 77 102
65 84 111
64 82 108
60 78 104
64 82 109
62 80 107
62 81 109
60 78 106
63 82 109
67 86 115
68 88 117
65 83 110
68 87 116
63 80 106
64 82 110
68 88 117
66 85 113
65 84 113
63 81 108
66 85 112
68 87 116
69 88 118
67 86 114
62 80 107
67 85 113
66 85 114
65 85 113
70 91 121
64 83 110
64 82 110
66 86 115
69 88 117
69 88 116
66 85 115
65 84 111
63 82 111
64 84 113
64 83 112
67 87 117
64 83 112
68 88 117
68 87 115
69 89 119
70 90 119
67 88 118
68 88 118
67 87 117
67 86 115
68 88 118
67 86 114
68 87 116
69 89 119
65 84 112
68 87 116
67 87 116
64 83 111
66 86 116
67 85 114
65 85 113
70 91 122
67 86 115
72 92 122
68 89 119
68 88 119
68 89 120
70 91 122
66 85 113
70 90 119
67 86 114
69 89 119
69 90 120
70 91 122
70 90 120
69 89 119
70 90 120
69 90 121
72 93 124
71 91 122
70 91 121
68 88 118
72 93 124
68 87 117
70 91 121
70 90 120
71 91 122
70 90 120
67 87 118
69 89 118
68 88 118
69 89 119
70 91 122
70 91 122
70 90 121
71 92 123
71 91 120
68 89 119
68 87 117
71 92 123
72 93 124
70 91 122
68 87 116
70 90 121
72 92 122
71 92 124
72 93 124
72 92 123
71 92 123
69 89 118
73 92 122
72 93 123
71 92 124
70 90 120
73 92 122
70 91 123
68 88 117
70 91 123
69 89 120
69 89 120
70 90 120
70 90 120
67 86 115
71 91 121
67 87 116
69 89 118
68 88 118
66 86 115
67 86 115
71 92 122
68 88 117
67 87 116
69 89 118
69 89 117
69 88 118
66 85 114
67 87 116
69 89 119
70 89 117
71 91 121
69 90 121
67 87 116
69 90 121
66 86 116
64 83 110
68 89 119
69 89 119
71 92 124
66 85 113
68 88 118
69 89 119
67 87 117
62 80 107
69 89 118
70 90 121
66 86 115
67 87 115
67 87 116
71 92 122
65 85 114
66 85 113
70 91 121
67 86 114
67 87 116
67 86 115
64 83 112
65 84 112
68 87 115
66 83 109
67 86 115
67 87 117
67 86 114
67 86 116
65 84 113
64 82 110
65 84 113
65 82 109
66 85 113
65 84 112
69 88 116
67 87 116
64 82 110
67 86 115
66 85 113
66 84 111
63 81 107
66 85 113
65 84 113
64 82 110
63 82 109
64 83 110
64 83 111
62 79 104
69 88 117
66 84 111
67 87 116
61 79 106
63 82 109
63 81 109
64 83 110
66 85 113
63 80 107
61 79 106
64 83 110
61 78 104
63 80 106
64 81 108
64 82 110
64 82 108
61 79 105
59 76 101
63 80 107
62 80 106
64 81 107
62 80 106
59 75 100
57 74 100
60 77 101
57 73 98
64 82 109
64 82 109
60 77 103
59 75 100
65 83 110
59 76 100
54 68 91
60 76 101
58 75 100
61 78 103
62 79 104
56 73 98
58 75 100
58 74 97
59 75 99
61 78 103
60 77 101
56 72 96
59 76 101
58 74 98
59 75 99
59 75 99
56 72 97
54 68 91
60 76 100
57 73 96
54 70 94
55 70 93
61 77 102
51 66 87
58 74 98
57 73 97
60 77 102
57 72 95
55 70 92
58 74 97
57 74 98
58 73 95
55 71 94
57 73 96
57 72 95
59 76 101
55 70 92
57 73 97
58 73 96
54 69 92
56 71 94
55 69 90
59 74 96
54 69 91
55 70 92
56 72 95
54 69 92
57 72 95
54 69 90
55 69 91
53 68 90
50 63 83
56 71 94
55 70 92
53 68 90
55 70 93
47 60 80
56 71 93
56 71 93
53 68 90
54 69 91
48 61 81
55 70 92
55 70 92
55 69 90
51 65 86
51 66 87
54 68 89
55 69 90
49 62 82
49 62 81
52 66 88
55 70 92
58 74 97
55 70 92
53 67 89
55 70 93
47 60 78
52 66 86
48 61 81
54 69 91
54 68 89
48 62 82
53 68 90
51 66 87
52 66 86
49 62 82
57 73 96
55 70 92
55 69 90
49 62 82
51 65 86
59 74 98
59 76 101
52 66 86
53 67 88
52 65 85
53 67 89
53 67 88
51 65 86
56 71 94
57 72 94
57 72 96
54 68 89
56 71 93
57 72 95
55 70 93
57 74 99
56 71 93
52 66 88
54 69 91
56 72 95
53 67 90
59 74 97
56 71 94
53 68 90
57 72 94
55 71 94
53 67 89
54 69 90
57 73 97
58 73 96
55 70 93
58 74 97
51 65 86
57 71 94
59 76 102
61 78 103
53 68 90
53 69 91
57 72 95
56 71 95
54 69 92
56 71 95
50 63 84
63 80 106
57 73 98
59 75 99
64 82 108
61 79 106
57 74 98
59 75 99
62 79 106
57 72 95
58 74 98
59 76 102
63 80 106
61 79 105
60 77 102
59 76 101
60 77 102
63 81 107
61 77 102
59 76 101
61 79 105
61 79 105
65 83 110
62 79 105
63 79 103
61 79 104
59 76 101
57 73 95
65 83 110
66 84 112
58 74 99
62 79 105
66 85 113
60 76 100
61 78 104
61 79 106
64 82 109
63 81 109
61 78 105
63 82 110
61 79 106
61 77 102
64 81 108
64 83 110
62 80 107
65 83 111
66 86 115
64 82 109
64 83 111
67 85 112
65 83 110
62 80 109
62 79 105
67 86 113
64 82 109
65 84 112
66 84 111
63 82 109
64 82 110
65 85 114
61 79 105
66 85 114
66 86 115
64 83 112
67 86 114
64 82 108
67 86 115
65 82 109
69 89 119
62 80 106
65 82 109
64 82 110
68 88 118
69 89 118
67 85 113
70 89 118
61 79 106
68 88 118
66 85 113
64 83 111
69 88 116
68 88 117
69 88 116
68 87 116
63 81 108
64 83 112
67 86 115
68 88 118
67 87 118
67 86 115
68 89 119
68 88 118
67 86 115
70 90 120
67 87 117
67 87 117
68 88 117
70 90 119
71 91 122
68 88 118
67 86 114
67 86 116
70 89 119
64 84 113
69 90 120
69 89 119
70 89 119
67 86 115
69 89 119
70 91 121
69 89 119
69 90 120
67 86 115
67 87 116
69 88 118
71 91 121
69 89 119
70 89 119
69 89 120
69 89 119
68 89 120
71 92 123
69 89 120
72 92 124
69 89 120
71 91 121
69 90 121
68 88 118
70 90 120
68 88 119
67 86 115
72 93 124
69 90 121
70 89 118
71 91 121
67 87 118
68 88 118
70 90 120
70 91 121
71 91 121
73 94 125
68 89 119
71 91 121
67 87 117
70 91 122
72 92 123
71 91 122
69 89 119
70 91 121
70 91 122
69 89 119
69 88 117
70 91 122
71 91 122
68 88 117
70 91 122
71 91 121
72 93 123
72 93 124
70 89 117
69 89 119
69 90 120
70 91 121
70 91 123
71 92 124
66 85 115
72 92 123
65 83 111
69 88 118
69 90 122
68 88 119
67 87 116
69 88 118
69 88 118
71 91 121
67 86 114
68 87 117
68 88 117
71 91 120
67 87 116
68 88 117
67 86 115
68 88 118
69 90 120
70 90 120
68 88 117
69 89 119
67 86 114
68 88 119
70 90 120
68 87 117
65 85 115
68 87 116
64 83 111
68 87 116
66 85 114
69 90 120
65 85 114
67 86 115
66 86 116
69 89 118
69 88 118
66 86 115
69 88 117
66 86 115
66 85 113
66 86 115
68 87 116
70 90 121
67 86 114
65 85 114
67 86 115
66 85 112
64 82 109
65 84 114
69 89 119
64 84 113
67 86 114
66 84 113
66 84 112
66 84 112
64 82 109
62 80 106
67 86 115
65 82 109
65 83 111
64 83 110
63 80 107
67 85 113
66 84 111
67 86 114
65 84 113
63 82 109
63 82 110
66 85 113
67 86 115
65 83 110
67 86 116
62 80 106
66 85 113
61 79 106
63 82 109
63 82 110
60 78 104
60 77 102
58 74 100
64 82 109
62 79 105
56 73 97
65 82 109
68 87 116
60 76 102
57 73 98
64 82 110
61 79 105
61 79 104
63 81 108
59 77 103
63 82 109
66 85 113
62 79 106
58 75 100
61 78 104
61 78 104
62 80 106
59 76 101
59 75 100
61 79 105
64 82 109
59 76 102
60 76 101
59 75 99
60 76 100
59 75 100
60 77 102
59 76 100
58 74 98
60 78 104
61 77 101
59 76 100
55 71 95
61 77 103
59 76 101
53 68 90
58 75 99
62 79 104
61 77 102
60 76 101
65 81 106
57 73 97
59 74 97
63 80 106
61 78 103
55 70 92
56 72 96
58 73 96
58 74 98
54 69 91
58 73 96
56 71 94
51 65 87
57 73 97
60 75 98
59 75 99
60 76 101
55 70 92
58 73 97
59 75 99
55 70 92
59 74 98
56 71 94
59 75 99
53 67 88
52 67 88
60 76 101
52 66 87
55 70 91
54 68 90
57 72 95
53 67 89
52 65 86
53 67 87
50 63 84
56 71 94
51 64 85
57 73 95
52 67 88
51 65 85
51 65 86
55 69 91
53 67 88
53 68 89
57 72 94
51 64 85
52 66 87
55 69 90
55 69 89
51 65 87
53 67 88
57 72 95
57 73 96
54 68 89
51 65 86
52 66 87
53 68 89
48 60 79
50 63 83
55 69 90
53 68 90
52 67 88
59 74 98
50 63 82
51 65 86
53 68 90
50 63 83
57 71 93
51 64 85
55 70 93
54 69 91
56 72 95
54 69 91
59 74 98
58 74 97
53 67 89
53 67 88
52 66 88
55 70 93
56 71 93
51 64 84
57 72 94
61 77 101
56 71 93
57 72 95
52 67 90
58 73 96
54 68 90
51 64 84
55 69 92
60 76 101
56 73 97
56 71 93
55 70 92
55 70 92
55 70 92
52 66 87
52 67 88
59 74 97
52 67 88
52 67 89
54 68 90
58 73 96
60 76 100
57 71 94
59 74 98
57 72 94
58 74 97
57 73 95
58 73 97
59 75 99
58 74 97
58 76 101
62 79 104
57 72 96
59 75 99
59 75 100
60 75 99
61 78 103
55 70 93
60 76 101
57 73 96
57 74 98
60 77 102
59 75 100
59 75 99
62 79 105
65 82 108
61 77 102
60 77 103
57 73 97
62 79 104
56 71 93
58 74 99
60 77 103
61 78 104
58 75 100
62 79 103
64 81 108
62 79 104
62 79 105
62 80 107
64 81 107
59 77 103
61 78 104
61 79 106
60 77 102
62 79 103
63 81 108
67 85 113
65 83 110
64 81 108
61 79 106
63 80 106
60 76 100
62 80 107
63 82 110
64 82 109
69 87 116
66 84 112
65 83 110
64 82 110
66 85 114
64 83 111
64 83 112
65 83 109
65 84 112
65 84 113
65 84 111
66 85 114
61 79 106
63 82 109
67 87 116
65 84 113
68 88 117
63 80 106
66 84 112
66 85 113
65 84 111
66 84 113
67 86 115
63 81 108
66 85 115
68 88 117
63 81 108
64 84 114
67 85 112
67 86 115
66 84 112
65 84 112
66 87 117
68 87 116
71 92 122
71 91 122
65 84 112
67 86 116
64 83 111
67 87 117
65 85 114
68 87 115
72 92 122
68 88 118
68 86 114
65 85 115
70 89 118
66 84 113
67 86 115
70 90 120
69 89 119
65 83 111
68 88 118
70 90 121
70 89 119
70 90 120
69 89 118
70 88 116
70 89 119
67 87 116
70 90 121
67 87 117
64 83 111
65 85 114
66 86 116
68 88 118
71 91 121
68 88 118
69 89 119
67 87 117
70 90 121
68 88 118
69 90 121
69 89 118
69 89 118
70 90 120
71 91 122
67 87 115
70 90 120
70 90 120
68 87 117
74 94 125
69 88 118
71 92 123
70 89 119
69 89 119
70 91 122
70 90 121
68 87 117
69 90 120
69 89 118
72 93 125
69 89 120
70 90 121
71 92 124
69 89 119
70 90 121
68 88 117
71 92 122
69 88 118
70 90 120
71 90 120
71 92 123
70 91 122
73 93 123
71 91 121
72 92 123
71 91 122
68 88 118
71 91 121
68 88 118
70 90 120
66 86 115
70 90 121
69 89 119
69 90 120
69 89 119
70 90 122
68 89 120
70 90 120
68 89 120
70 90 120
67 86 114
68 88 118
68 88 117
70 91 121
68 88 119
69 89 120
66 85 114
69 88 118
69 90 121
67 87 116
66 86 115
68 87 116
68 87 116
68 88 118
65 85 114
69 89 119
71 91 123
65 84 113
70 90 121
67 86 114
70 90 120
69 89 118
69 89 118
68 87 116
68 88 116
68 88 118
65 85 115
70 90 120
66 86 115
68 88 118
70 89 119
68 88 116
66 85 113
65 85 114
71 91 122
69 89 120
67 85 114
66 85 114
69 89 119
64 82 110
65 85 113
67 86 115
67 85 114
63 81 109
69 88 117
71 90 118
61 80 107
67 87 117
64 83 112
67 86 116
68 87 116
65 83 111
66 85 113
64 82 110
65 85 113
65 82 107
67 86 116
64 84 112
70 90 120
64 83 111
63 81 109
63 81 108
66 85 113
62 80 107
68 88 117
66 83 110
61 79 105
62 80 107
63 81 108
61 80 107
62 79 105
70 90 120
62 79 105
69 87 115
65 84 111
58 74 98
66 84 112
64 83 110
59 76 102
66 84 112
63 80 106
64 81 108
60 77 102
62 80 106
64 82 109
66 83 109
61 78 104
63 80 106
64 82 108
63 81 109
62 79 106
60 78 103
61 78 104
57 72 94
64 81 106
60 78 105
62 80 106
62 79 104
60 77 102
60 78 104
59 76 102
59 75 99
59 75 99
58 74 97
58 74 99
59 75 98
53 68 90
57 72 94
57 73 98
59 76 102
59 75 100
56 72 96
59 75 100
56 72 95
55 70 93
52 66 86
58 74 98
62 78 104
59 74 98
58 75 100
57 73 97
59 76 100
53 68 90
62 79 105
60 77 102
64 82 108
56 71 93
57 72 95
56 71 95
59 74 98
58 74 98
56 71 94
57 72 95
53 67 88
62 78 103
51 65 87
59 75 98
57 72 95
53 68 91
55 71 95
55 69 91
59 75 98
55 69 91
57 72 94
52 66 87
51 65 86
56 71 94
51 65 86
59 76 100
50 64 84
54 69 91
49 62 82
52 67 88
55 69 90
53 67 89
57 72 95
59 75 99
51 64 84
56 72 95
51 66 87
51 65 86
55 69 90
57 72 95
53 67 89
60 76 100
52 66 86
51 66 87
54 68 89
53 67 88
56 71 94
53 67 89
62 78 102
54 68 90
49 63 84
53 67 88
51 65 85
51 66 88
55 69 91
60 77 103
52 65 86
57 72 94
57 72 94
57 70 91
56 70 91
55 69 91
55 70 93
48 61 82
53 67 88
52 65 86
58 73 96
55 68 89
50 63 83
53 68 90
56 70 92
57 71 92
52 66 87
57 71 93
54 69 92
51 65 87
57 72 94
56 71 93
52 67 88
49 63 84
53 68 90
56 71 95
52 67 89
51 65 87
58 75 101
54 68 91
54 69 92
55 69 91
56 72 96
60 77 101
61 78 103
52 67 88
51 65 86
53 68 90
55 71 94
53 68 90
55 70 92
59 75 99
56 70 93
56 72 95
57 73 97
53 68 90
58 73 97
56 72 95
52 68 90
56 72 95
52 66 88
55 69 91
60 77 102
55 71 94
54 69 92
62 78 104
56 72 95
55 70 93
59 75 99
55 70 93
57 73 96
60 76 101
63 80 105
60 76 100
63 80 106
62 80 108
62 78 104
58 74 100
61 77 102
54 69 92
65 83 109
54 69 92
61 77 102
57 74 99
61 79 105
64 82 109
60 76 101
61 79 105
64 82 109
61 79 107
58 74 98
61 79 105
62 79 104
64 82 108
65 83 110
61 79 106
65 84 111
63 80 107
65 83 111
64 82 110
59 75 99
62 80 106
60 77 103
63 81 108
65 84 112
61 79 106
66 84 112
67 86 115
66 85 113
64 83 111
66 85 113
62 80 107
64 83 111
63 81 109
63 81 109
63 81 107
64 82 110
64 82 108
62 79 106
63 81 108
66 85 113
63 80 106
67 86 115
62 80 107
67 86 114
66 84 112
68 87 116
65 83 111
69 89 119
68 89 120
64 83 111
63 81 108
62 80 108
67 86 114
64 83 111
68 87 116
65 83 111
63 82 110
70 91 121
66 85 114
68 88 117
69 88 118
68 88 117
69 89 118
66 85 114
67 86 114
70 90 119
70 89 119
65 84 113
67 87 117
67 86 116
66 85 114
65 83 111
67 86 114
68 88 118
71 92 123
66 85 113
71 90 120
68 88 117
69 90 120
68 88 118
68 87 115
66 86 115
69 89 120
70 90 120
67 86 114
66 86 115
66 85 114
67 87 116
67 87 117
68 88 117
67 86 114
68 88 118
71 91 122
68 88 118
67 87 117
68 88 117
70 90 119
71 92 123
71 92 122
69 90 120
68 87 116
72 92 122
67 87 117
70 90 119
70 90 120
70 90 121
70 90 121
71 90 120
70 90 121
74 94 125
71 92 123
68 88 118
70 90 121
67 86 116
70 90 120
69 89 119
72 92 123
70 90 120
71 92 122
72 92 123
70 90 122
69 90 121
71 91 122
70 90 120
70 92 124
69 89 119
70 91 123
70 90 121
72 93 124
69 89 118
70 90 121
71 91 122
71 93 125
72 92 123
70 90 120
68 88 118
71 92 122
72 92 123
72 92 122
70 90 121
70 90 120
66 86 115
69 89 119
68 88 117
65 84 112
70 91 121
70 91 121
69 89 120
70 90 119
67 86 116
68 88 119
67 87 117
69 89 119
69 88 118
73 93 124
68 87 117
68 87 117
69 88 118
69 89 118
71 91 121
72 92 123
71 91 122
71 92 123
69 89 119
69 88 117
66 86 115
69 89 119
66 85 114
65 83 110
66 84 112
64 83 112
71 91 121
70 91 122
68 87 116
72 91 119
68 89 121
67 85 114
72 93 123
64 83 111
69 89 119
68 88 117
66 86 115
66 86 116
67 87 116
63 81 107
70 91 121
71 92 122
65 84 112
62 80 106
67 87 116
64 81 108
66 85 113
68 87 116
65 83 111
67 86 115
67 86 115
65 83 110
65 84 112
65 84 112
68 87 115
68 88 118
69 88 118
66 86 115
66 85 113
68 88 118
67 87 115
66 85 113
68 87 115
62 81 108
65 83 110
65 84 111
64 81 108
66 86 116
66 86 116
62 80 108
65 85 114
64 83 110
66 84 111
67 86 115
61 79 107
62 80 106
64 83 112
64 83 111
60 77 103
63 80 107
63 82 109
59 76 101
62 80 107
64 82 109
60 78 106
63 81 109
62 80 108
61 79 106
65 82 108
61 78 104
62 80 106
60 77 101
62 79 105
63 81 108
63 81 108
55 70 93
60 76 101
58 74 98
58 75 100
64 81 106
58 75 101
60 78 106
59 76 101
60 77 101
58 76 101
58 74 97
57 73 98
60 77 103
64 81 107
58 73 96
62 79 106
56 71 95
61 77 102
58 74 99
61 77 101
56 72 95
57 74 98
61 77 102
59 76 100
54 70 93
61 77 102
58 74 98
57 72 96
57 72 95
57 72 96
57 74 98
58 75 100
58 74 99
60 75 99
61 79 105
53 68 90
56 72 95
57 73 96
60 77 101
54 69 90
59 75 99
57 73 96
61 78 103
55 70 93
59 75 100
54 69 92
57 73 96
57 72 95
53 67 89
56 70 92
56 72 96
54 68 90
57 72 94
56 70 91
57 72 96
58 74 97
56 70 92
52 66 88
51 64 85
54 69 92
58 74 97
52 67 88
60 75 99
54 69 92
52 65 84
51 64 84
55 70 93
50 63 83
49 63 83
55 70 91
59 75 100
51 65 87
54 68 88
52 66 87
58 73 95
52 67 88
54 68 90
52 66 86
51 65 84
53 68 91
57 72 95
56 71 94
51 64 84
53 67 89
51 64 85
53 67 88
53 67 88
55 70 92
55 69 91
50 64 85
56 70 92
55 70 93
56 70 93
53 68 90
54 69 91
52 66 86
56 70 92
52 67 89
56 71 93
57 73 96
52 67 88
56 71 94
53 68 90
54 68 90
55 69 91
58 74 97
56 71 92
58 74 98
57 72 95
56 71 93
51 65 87
57 72 94
53 68 90
61 77 101
53 68 90
55 71 93
55 70 93
62 79 104
55 69 91
51 65 88
55 70 92
53 67 88
55 71 93
55 70 92
54 69 91
48 62 82
55 69 91
60 76 101
58 73 96
55 70 92
53 67 88
58 75 99
56 71 94
58 74 99
58 75 100
63 82 109
60 77 103
57 73 98
57 73 97
55 70 93
58 74 97
59 76 100
57 72 96
60 77 101
59 75 100
66 85 113
60 77 101
55 71 95
62 80 107
60 75 99
60 77 101
61 78 103
61 78 104
61 78 104
63 81 108
62 80 106
59 76 101
67 85 113
62 79 105
58 75 100
61 79 105
59 75 99
61 78 104
64 82 110
62 79 106
59 76 102
60 76 101
58 75 102
62 79 105
60 77 103
60 76 99
59 76 101
63 81 108
61 80 107
60 77 103
66 84 112
60 78 104
59 76 102
63 81 107
65 83 111
64 81 106
68 87 117
58 74 98
61 79 106
64 83 112
66 84 113
59 76 102
64 82 110
65 82 109
62 79 105
69 87 114
63 80 105
63 80 107
58 75 100
72 91 120
64 81 107
66 85 114
66 85 114
65 85 115
64 83 111
61 79 105
65 83 111
64 82 109
67 86 115
69 88 118
66 85 114
63 81 108
66 85 113
63 81 108
67 86 115
66 85 113
68 87 116
68 87 115
64 82 109
68 87 116
66 85 114
67 86 114
66 85 113
68 88 118
64 82 109
65 83 112
67 87 116
66 86 116
67 86 116
66 85 114
69 89 119
69 88 118
66 86 115
69 89 120
70 90 120
71 91 122
68 88 118
69 89 118
68 87 116
67 87 117
70 91 122
69 89 120
68 87 116
67 87 118
66 85 112
68 88 118
67 87 117
66 85 113
71 90 120
67 87 117
70 90 120
70 91 121
71 91 120
71 92 123
70 90 120
72 92 123
68 88 119
68 88 117
69 88 117
66 86 116
67 87 116
68 87 117
66 86 115
71 91 121
67 87 117
68 89 120
71 92 122
69 88 117
73 93 123
68 88 117
72 93 125
69 90 122
69 89 119
66 86 115
69 91 122
71 91 120
69 88 117
72 92 123
71 91 121
67 86 115
68 88 117
70 90 120
69 90 120
71 91 122
70 91 123
71 92 124
68 88 118
71 93 125
72 92 122
69 89 120
68 88 117
72 93 125
70 89 119
67 87 117
70 90 120
69 89 120
72 92 123
70 90 120
72 92 123
71 92 123
68 88 117
70 91 123
67 87 116
71 91 121
67 87 117
71 91 122
71 92 124
73 93 123
69 89 120
71 91 121
68 88 118
70 91 121
69 89 119
68 88 118
70 90 121
70 90 121
68 87 116
68 88 117
69 89 119
68 88 118
71 91 120
70 90 120
67 86 115
65 83 110
69 90 121
70 89 118
64 83 111
68 89 119
68 88 118
69 89 119
64 84 113
70 89 117
70 90 120
70 91 121
69 89 119
70 91 122
64 83 112
66 86 115
71 91 122
70 90 121
65 83 111
66 85 113
71 91 121
69 88 117
65 84 112
67 87 117
68 88 117
70 90 120
66 86 115
67 86 115
66 85 113
64 84 113
66 84 112
64 83 110
65 84 112
66 85 114
67 88 118
62 81 109
66 86 115
65 84 112
65 84 113
69 88 117
64 82 109
66 85 114
66 85 115
68 88 118
70 89 118
64 83 111
63 81 108
64 83 110
64 83 111
64 83 110
63 81 109
65 84 112
66 84 111
64 82 109
65 84 112
68 86 114
66 85 113
69 87 116
67 85 113
67 85 112
63 81 108
63 81 108
64 83 111
67 87 116
63 81 107
63 80 106
64 83 110
61 78 104
61 78 104
60 76 101
61 79 106
64 81 107
59 76 102
59 76 102
66 84 112
61 77 102
65 84 112
64 82 108
62 79 104
62 80 107
64 81 107
62 80 108
61 79 106
60 77 103
61 78 104
62 80 107
66 84 112
66 85 113
64 81 107
62 79 105
60 78 106
60 77 102
64 81 107
58 75 100
59 76 100
61 77 101
63 81 108
55 71 93
63 80 106
62 80 107
62 79 104
59 75 99
59 76 100
58 75 100
58 74 98
54 70 92
62 80 106
60 77 102
59 76 101
60 77 102
54 69 91
56 72 96
62 78 103
53 67 89
57 73 96
54 70 93
56 72 95
61 77 102
57 74 98
55 69 92
59 74 97
59 75 100
54 69 92
54 69 91
59 76 100
53 67 87
58 74 97
58 74 99
58 75 99
58 74 97
59 75 99
55 70 93
59 74 97
57 73 97
55 70 93
55 71 94
56 71 95
55 70 93
55 71 95
58 73 96
54 68 89
57 72 94
57 72 94
55 70 92
51 65 86
54 69 92
55 70 93
55 70 92
55 70 92
56 70 92
50 64 86
51 64 84
56 71 93
53 67 89
56 71 94
53 67 89
54 70 92
52 66 86
57 72 95
55 69 91
54 69 91
52 66 87
57 72 95
52 66 87
53 67 89
58 74 97
53 67 88
52 67 89
49 63 83
56 70 92
56 72 94
54 69 91
58 74 99
54 68 90
56 70 93
60 76 99
54 68 89
51 64 85
56 71 93
55 70 92
55 70 93
54 69 92
57 72 95
53 67 87
52 65 86
53 68 90
59 76 100
57 74 98
58 74 99
55 70 93
54 68 89
51 65 86
59 75 100
53 68 90
54 69 92
52 67 89
55 69 91
53 69 92
55 70 93
52 66 88
56 71 95
50 63 83
54 69 92
58 74 97
51 65 85
51 65 86
54 68 89
61 77 101
56 71 95
52 65 85
60 76 100
57 73 97
52 66 88
59 75 98
59 74 98
60 76 99
56 71 94
60 77 102
51 66 88
58 74 98
59 75 100
61 79 104
61 78 103
55 71 94
57 73 97
55 70 94
62 80 106
62 79 104
59 75 100
56 72 95
55 72 96
58 74 100
59 75 99
64 81 107
63 80 106
58 73 96
63 80 105
58 74 98
61 77 102
60 78 104
62 79 105
61 77 102
59 75 100
59 76 102
63 79 104
56 72 95
63 80 107
60 77 101
63 81 109
63 81 107
64 81 107
64 83 110
62 80 106
61 78 104
63 80 106
59 77 103
61 79 105
62 80 106
62 80 107
59 76 101
63 80 105
62 78 104
64 82 110
65 83 109
62 80 107
62 80 108
63 80 107
60 77 104
67 86 114
62 80 108
63 82 110
65 83 111
66 85 114
64 82 108
64 82 110
67 86 116
66 84 113
62 81 109
61 78 103
64 83 111
66 86 115
65 83 111
68 88 116
63 81 109
64 82 109
67 85 112
66 85 114
65 83 111
68 87 116
66 85 113
66 85 112
63 81 107
67 86 113
65 84 112
66 85 114
64 83 111
63 82 110
66 85 114
63 81 109
69 88 116
67 85 112
69 89 119
66 84 112
63 82 111
72 91 120
62 80 108
67 87 117
64 83 112
68 87 117
65 84 112
70 91 123
67 86 114
69 89 119
65 83 111
68 89 119
70 90 120
68 88 117
71 90 120
68 86 114
62 80 107
71 92 122
70 89 119
66 87 117
69 88 118
70 89 119
68 87 116
69 89 120
65 85 114
71 92 123
67 88 118
68 87 116
68 88 117
71 92 123
70 91 122
68 89 119
68 88 118
70 91 121
69 88 118
70 89 119
68 88 117
67 86 115
72 93 124
68 88 117
69 89 119
73 94 125
70 90 120
72 92 124
66 85 113
70 89 118
72 93 123
69 89 120
71 92 124
72 92 121
68 87 117
70 90 119
72 93 123
70 90 121
68 87 117
71 91 122
70 90 120
68 88 118
71 92 123
72 93 124
72 92 122
69 89 120
72 92 123
71 92 124
70 90 122
71 91 122
71 92 123
70 91 122
69 90 120
72 94 126
71 92 123
72 93 126
68 88 117
71 91 122
70 91 122
70 89 119
69 89 119
69 89 119
73 93 122
69 89 120
70 90 120
71 91 121
71 92 123
71 91 122
70 91 122
70 90 121
69 89 119
69 89 119
70 90 120
69 88 117
70 90 122
68 88 119
72 93 123
68 87 116
67 87 116
70 89 119
69 89 118
68 88 117
67 87 116
67 87 118
66 86 114
71 91 121
66 86 116
68 87 116
64 84 112
67 86 116
69 89 119
66 85 113
69 89 119
68 88 118
69 88 117
69 89 118
67 85 113
66 85 113
67 86 115
70 89 119
66 86 114
69 87 115
70 90 119
67 87 117
67 85 113
65 84 111
70 90 119
65 85 114
66 84 111
67 87 117
67 86 116
65 84 112
60 77 104
69 87 115
68 87 117
66 86 115
68 88 117
71 90 119
66 85 114
65 83 111
64 82 107
65 85 114
65 85 114
64 84 112
65 83 111
62 79 105
67 86 114
62 81 109
68 88 117
66 84 112
68 88 118
65 83 112
63 80 106
64 82 108
68 87 116
62 80 107
66 84 112
59 76 102
59 76 102
66 84 112
65 84 113
63 81 107
61 79 106
64 83 111
64 82 109
61 79 106
60 78 103
64 83 112
66 85 114
66 83 110
62 79 105
68 86 114
62 79 105
62 78 102
64 83 110
64 82 109
64 83 111
62 80 106
60 77 102
61 77 102
66 84 111
65 82 109
61 79 105
62 80 107
58 76 101
61 79 106
61 78 103
62 80 106
57 73 97
60 76 102
63 81 106
57 72 95
58 74 98
61 79 106
61 78 104
62 80 107
64 82 110
63 81 108
62 80 106
55 71 95
56 71 94
61 78 102
60 76 99
58 75 100
60 76 100
60 77 104
61 78 104
56 72 96
59 76 100
58 74 98
64 81 106
62 80 108
54 69 92
59 76 100
58 74 98
52 66 87
61 77 102
59 74 97
61 78 104
56 71 95
60 77 102
60 77 103
57 72 95
60 77 103
56 72 96
61 78 104
53 68 89
54 68 89
54 69 91
55 70 93
57 71 93
59 75 98
57 74 98
56 71 94
56 72 95
54 69 90
56 72 95
56 73 97
51 64 84
55 70 92
50 64 84
57 72 94
56 72 95
55 70 93
55 70 92
55 70 93
56 71 93
55 70 92
54 68 90
56 71 94
52 66 88
53 67 89
53 68 90
52 67 88
51 65 86
55 70 92
49 62 81
53 67 88
51 65 87
52 67 89
52 67 88
44 56 73
57 72 95
51 65 86
56 70 92
56 71 94
53 67 89
54 68 90
54 69 90
52 66 88
57 72 95
54 69 92
56 73 97
54 69 91
51 65 86
55 70 92
51 65 86
53 67 88
59 75 99
54 68 90
59 74 98
54 68 89
54 68 89
52 66 88
54 69 90
52 67 88
50 64 85
60 75 97
53 68 91
55 69 90
52 67 89
56 71 93
55 71 94
55 70 94
57 72 94
52 67 88
55 70 92
59 75 100
55 71 94
58 73 96
58 74 98
50 64 84
52 66 88
55 71 95
56 71 95
56 72 95
57 72 95
60 76 101
54 68 89
55 70 92
60 77 102
53 67 89
56 71 94
60 76 101
60 77 101
61 78 104
58 74 98
61 78 103
60 77 101
55 71 93
56 71 94
56 71 93
60 76 100
64 81 107
62 79 106
64 81 106
63 81 107
58 73 97
63 80 106
58 74 98
56 71 95
61 78 103
54 68 90
62 79 105
61 78 104
59 74 98
52 68 90
58 74 98
65 83 110
65 82 109
60 77 101
61 79 105
63 80 106
59 76 102
64 82 108
61 78 104
62 79 105
62 79 105
61 78 105
63 80 107
64 80 105
61 78 103
63 81 108
61 79 106
60 77 103
62 78 103
62 80 107
62 79 104
63 81 107
63 81 108
60 77 103
64 82 109
63 81 108
64 84 112
62 79 105
60 77 102
66 86 115
65 82 109
63 80 107
64 82 108
62 79 106
65 83 111
64 82 109
63 81 108
64 82 109
63 81 108
63 81 108
68 86 113
64 82 110
63 81 108
64 82 109
64 82 109
67 84 111
66 83 110
63 80 106
66 86 115
66 86 114
66 84 113
68 88 117
66 85 114
62 79 105
64 83 112
68 88 117
67 86 115
68 88 118
68 87 115
68 86 113
64 84 113
68 87 116
66 85 113
67 85 112
66 85 113
67 86 115
70 89 119
64 83 111
69 89 120
65 84 112
66 85 114
65 85 114
69 90 121
65 84 112
67 86 115
67 86 115
70 91 123
67 86 115
68 88 119
65 85 114
67 86 114
66 84 112
67 86 114
70 90 121
67 87 115
69 88 118
66 85 114
67 86 115
66 85 113
69 89 118
71 91 121
66 87 117
65 84 112
72 93 125
68 89 119
69 90 120
71 91 120
65 84 114
70 90 120
68 88 118
67 87 116
68 88 117
69 88 118
70 90 120
67 87 118
70 91 121
69 90 122
69 89 119
70 90 121
66 86 116
68 88 118
67 87 118
71 92 122
71 92 124
71 91 122
71 91 122
67 87 117
67 86 116
70 90 119
71 91 121
71 92 124
73 94 125
73 94 126
69 89 119
68 88 118
70 91 121
71 92 122
71 91 121
68 88 117
71 91 121
69 89 119
70 91 122
70 89 119
68 88 118
69 89 119
70 89 118
71 92 123
69 89 119
69 88 117
66 86 116
70 90 120
71 91 122
72 92 122
70 90 121
72 93 123
69 89 119
68 88 117
72 93 124
71 92 122
69 90 121
67 87 116
70 90 121
67 86 115
66 85 113
70 91 122
68 87 116
67 86 115
70 90 119
69 89 120
65 85 114
67 87 116
72 93 124
68 89 120
68 88 117
69 89 119
68 87 117
70 90 119
71 91 121
67 86 115
68 88 118
66 86 116
66 86 116
67 86 114
70 91 121
69 89 119
70 89 119
67 87 117
66 86 116
67 87 118
69 89 118
68 88 118
70 89 118
67 86 115
70 90 121
67 86 114
69 89 118
67 87 117
65 84 112
66 86 115
68 87 116
67 86 114
70 90 119
67 86 115
69 89 118
68 88 118
69 89 119
68 87 115
65 84 112
66 85 114
65 84 112
64 82 110
66 85 113
68 87 116
66 86 115
68 87 117
64 83 110
64 83 111
63 82 109
62 81 108
68 87 116
62 81 109
65 83 110
67 85 113
63 80 106
62 80 108
70 89 117
67 85 111
64 83 111
67 85 113
62 81 108
68 87 116
68 87 116
66 85 113
65 82 108
66 84 112
65 83 110
64 82 109
64 84 113
65 82 108
66 84 111
64 81 107
63 81 109
61 79 106
67 86 115
62 79 105
63 81 108
67 86 115
62 80 106
66 83 110
62 80 108
61 78 105
60 77 102
63 81 108
65 83 110
63 81 107
68 87 116
63 81 107
57 74 98
63 80 107
61 79 104
59 75 100
59 76 101
59 76 100
60 77 102
61 78 104
57 73 97
62 79 106
63 80 107
63 80 105
60 77 102
59 77 103
59 76 100
64 82 109
58 74 98
58 75 100
60 77 103
61 78 103
60 78 104
63 79 105
57 73 97
63 80 105
62 78 103
57 73 96
61 78 103
60 76 100
64 81 108
54 70 93
56 71 95
62 80 107
58 75 99
61 78 103
56 72 95
52 66 87
58 74 97
57 71 93
62 78 104
56 71 95
59 75 100
51 64 84
59 75 100
60 76 100
55 70 93
59 75 100
55 71 95
47 60 79
56 70 92
59 75 99
58 74 98
63 80 105
53 67 88
56 72 95
60 76 101
56 71 94
56 70 91
58 74 97
53 67 89
54 68 91
55 70 91
52 66 87
53 67 88
51 67 90
58 74 98
55 71 94
58 73 95
53 68 89
56 71 94
57 72 95
59 75 98
55 71 94
55 70 91
58 74 99
53 68 91
58 73 96
51 64 85
56 71 93
56 71 94
53 68 91
52 66 86
52 66 87
53 68 90
56 72 96
54 70 92
55 70 91
53 67 89
57 72 95
55 70 92
56 71 94
58 74 98
57 73 95
49 62 82
59 75 99
54 69 92
56 71 94
57 73 96
54 69 92
52 66 87
58 74 98
52 65 85
55 71 94
52 67 88
53 67 87
54 69 92
55 70 92
57 72 95
50 63 84
58 73 95
58 74 97
53 68 91
58 75 100
61 78 103
55 70 92
53 69 92
50 64 85
58 74 98
54 69 91
52 66 88
58 74 98
57 73 97
58 73 96
59 75 100
56 72 96
63 79 104
56 71 94
56 72 95
55 70 93
57 72 94
57 73 98
59 75 100
61 77 101
55 71 95
61 78 103
55 70 93
57 73 98
59 75 98
57 73 97
55 71 94
57 73 97
64 81 106
62 79 105
62 80 105
55 71 95
62 78 102
60 77 103
60 77 103
64 81 107
59 76 101
59 75 99
61 79 106
63 81 107
62 79 105
60 76 101
60 76 101
62 79 106
61 78 104
63 79 104
63 80 105
63 80 107
61 78 104
57 73 96
64 82 109
59 75 99
62 80 107
64 82 109
63 81 108
65 83 109
57 73 97
62 79 105
59 75 99
62 80 108
65 82 109
63 81 108
63 80 106
61 79 106
65 84 113
64 81 106
62 79 105
63 80 106
61 78 104
62 80 108
62 80 108
66 84 112
66 84 111
62 78 103
64 82 110
62 79 105
63 81 107
65 83 110
66 85 112
64 82 109
67 86 114
61 78 104
65 84 111
64 82 108
65 83 110
65 84 112
67 86 114
68 87 115
62 80 107
66 86 116
66 85 112
68 87 116
62 80 107
66 85 114
63 81 109
68 87 116
66 85 113
68 87 117
66 84 111
66 85 114
66 85 112
63 80 107
68 88 117
66 85 114
67 87 116
67 86 114
66 83 110
68 88 118
69 89 118
69 90 120
66 87 117
68 87 116
66 86 114
66 85 114
70 89 118
68 88 118
70 90 120
71 91 120
69 88 117
69 88 116
65 85 114
69 88 118
66 85 113
70 89 117
70 91 122
67 87 118
70 90 120
67 86 114
69 89 119
68 88 117
69 90 120
66 86 116
67 87 117
66 85 114
70 90 121
71 91 121
68 87 115
71 91 121
67 87 117
67 87 116
68 88 119
66 85 114
67 87 117
68 88 118
71 91 120
67 86 114
67 87 117
67 88 118
71 90 119
70 90 120
71 92 123
71 91 121
69 89 120
71 91 122
67 87 116
66 85 114
69 88 118
69 90 121
71 92 123
71 91 121
70 90 120
71 91 122
66 86 115
67 88 120
68 88 118
70 90 121
67 86 115
68 88 117
67 86 115
69 89 119
69 90 120
72 92 121
68 87 116
73 93 124
68 88 118
72 93 123
69 89 120
66 86 115
68 89 120
71 91 122
71 92 123
69 90 121
68 88 118
68 87 116
71 91 120
71 91 121
70 91 122
68 88 119
70 90 119
69 89 118
72 92 121
68 89 120
69 89 120
70 90 121
69 89 120
68 87 117
69 89 118
70 90 121
71 91 121
68 88 119
70 90 120
69 89 118
68 87 117
67 86 114
70 90 119
69 89 120
68 88 118
69 89 118
69 90 121
69 89 119
68 88 117
66 86 115
70 89 118
68 87 116
67 87 117
69 88 117
68 88 119
71 91 121
69 88 116
68 88 118
65 84 112
67 87 116
66 86 116
69 88 117
64 82 109
71 92 122
69 90 120
65 84 113
66 85 114
67 87 116
70 89 119
68 87 117
65 83 111
67 86 115
66 86 115
69 88 116
66 86 115
67 86 115
65 85 114
64 82 110
64 83 111
67 86 116
64 83 111
65 83 112
68 88 117
65 83 109
67 85 113
65 83 111
64 83 110
68 87 117
63 82 109
64 82 110
65 84 112
67 87 117
65 84 112
69 88 116
67 86 115
64 83 111
66 86 116
62 80 108
69 88 117
65 84 112
66 85 115
63 82 111
65 83 110
58 75 100
66 85 114
61 79 106
61 78 105
61 78 104
63 81 108
65 83 111
64 82 109
61 78 104
63 81 108
65 83 109
63 81 108
60 79 107
62 79 105
60 77 102
63 80 107
66 84 110
62 80 108
64 83 110
65 82 109
64 82 108
57 74 98
60 77 102
63 81 107
60 77 103
62 79 106
63 81 108
61 78 103
63 82 110
61 79 105
62 78 103
61 78 104
60 76 100
58 74 99
53 68 90
60 78 104
59 76 101
62 80 107
56 71 95
58 75 99
65 83 110
59 76 101
63 79 105
61 78 104
57 72 95
61 79 105
54 68 90
62 79 104
62 78 104
58 73 97
56 71 94
58 73 97
59 76 101
55 71 94
58 75 99
58 74 98
59 75 99
61 79 105
60 76 101
59 75 99
64 81 107
60 76 102
54 69 92
57 72 96
58 75 99
56 71 94
53 69 92
57 73 97
61 78 103
60 76 100
59 76 101
58 75 99
55 71 94
56 71 95
57 72 94
62 79 103
58 73 97
56 71 94
61 77 102
54 69 91
51 65 87
52 67 88
54 69 92
55 70 92
56 71 95
53 67 88
57 73 98
57 72 95
54 69 91
54 68 91
56 72 96
53 68 91
58 74 97
48 61 81
57 73 96
53 67 88
59 74 97
57 73 97
57 72 95
55 71 93
53 68 90
56 72 95
49 63 83
53 67 88
54 69 92
57 72 95
58 74 96
51 66 87
53 68 89
45 58 76
52 66 87
53 67 87
54 69 91
51 64 84
55 70 92
55 69 91
53 67 87
57 73 96
56 71 94
55 70 93
52 66 88
56 70 92
51 65 85
58 74 97
50 65 86
52 66 87
52 66 86
57 72 96
60 76 100
56 71 92
61 77 101
52 67 88
56 71 94
56 70 93
57 72 95
57 72 95
59 75 100
58 75 99
58 74 98
56 71 94
57 73 96
57 73 98
62 79 104
57 73 96
59 75 98
57 72 95
55 71 95
54 69 92
61 78 104
55 70 93
56 71 94
58 73 97
53 68 91
61 76 100
58 73 97
58 74 98
55 69 90
59 75 99
57 73 97
59 75 98
60 76 101
58 75 100
55 70 92
56 71 95
57 74 98
56 72 96
62 80 107
56 71 94
62 80 106
61 78 103
61 79 106
60 77 103
60 77 101
60 76 101
64 81 106
61 78 104
62 79 104
63 80 106
60 76 100
59 76 101
59 75 100
63 80 107
61 77 102
62 78 103
62 79 105
60 76 100
63 80 106
61 78 103
63 81 108
59 75 100
65 83 110
67 86 114
58 74 98
58 75 99
62 80 106
60 76 102
64 81 108
60 77 102
61 78 104
61 79 106
63 80 107
62 80 108
59 76 102
64 82 108
63 82 109
69 89 119
62 79 105
64 83 111
65 83 111
62 79 104
63 82 109
65 83 110
65 84 111
65 84 112
68 87 115
57 74 99
63 81 107
65 84 112
66 85 113
68 86 115
68 87 115
68 87 116
62 80 107
63 81 107
63 81 108
68 88 118
67 86 114
62 79 104
62 81 108
67 87 116
64 83 112
64 83 110
67 86 115
65 84 112
68 87 117
63 82 111
68 87 117
61 79 106
65 84 113
68 86 114
66 85 114
67 87 116
64 82 109
66 85 113
65 84 112
67 86 114
65 84 113
66 84 111
66 85 114
68 87 115
69 88 116
69 88 117
66 84 112
68 88 119
68 87 116
66 86 115
66 86 115
67 87 117
65 85 114
69 90 121
68 88 118
70 89 118
71 92 124
69 88 118
69 88 118
67 87 116
68 88 117
69 89 118
68 87 117
67 86 114
67 86 115
67 86 116
70 91 121
70 91 122
69 89 118
66 86 116
69 88 118
69 89 118
69 90 120
70 90 120
66 85 114
66 86 115
68 87 117
69 89 119
68 88 118
70 90 120
69 89 121
69 89 119
69 88 117
71 91 122
68 88 118
66 85 114
70 90 120
70 90 121
70 91 121
68 88 118
72 92 123
69 89 120
71 91 122
73 93 124
69 89 120
69 89 119
71 91 123
70 90 120
68 88 118
68 88 119
69 90 122
69 89 119
71 91 121
70 90 121
69 89 119
69 89 120
68 88 117
73 94 125
71 92 123
69 90 121
69 89 120
70 91 121
72 92 121
69 88 118
71 91 122
70 91 121
68 87 117
70 91 123
70 89 119
71 92 124
70 90 120
70 91 122
67 86 116
71 92 122
69 89 121
68 88 117
69 89 120
68 88 118
68 88 118
70 90 121
66 85 113
69 89 119
70 91 121
65 84 112
68 88 118
68 88 119
69 88 118
69 89 119
70 91 122
70 89 118
68 89 120
68 88 118
70 90 120
68 88 119
69 88 117
70 90 120
67 86 114
68 88 117
68 87 115
68 87 116
69 88 117
67 87 116
64 83 111
69 89 118
68 87 116
66 84 112
66 85 114
68 87 117
68 88 116
64 83 111
64 82 110
69 88 118
66 85 114
65 84 112
68 88 119
67 87 116
68 88 117
64 84 113
67 86 115
64 83 111
69 89 118
65 84 113
66 84 112
65 83 110
67 86 114
65 83 111
65 84 112
64 82 110
65 83 111
65 84 111
63 81 109
64 82 109
68 87 114
68 86 114
67 86 114
67 86 115
66 85 113
68 87 116
62 79 105
65 83 110
61 78 104
67 86 114
65 84 112
62 80 107
62 80 108
66 85 114
62 79 106
60 78 104
63 82 109
63 81 109
64 83 111
65 84 111
63 82 109
64 83 110
62 79 105
69 87 116
64 81 108
65 83 112
66 85 113
61 79 105
63 81 109
57 73 97
63 81 108
57 74 99
62 79 106
61 78 105
63 81 109
64 81 108
64 83 111
61 78 103
63 80 106
60 77 102
61 78 103
60 77 102
58 74 98
59 76 101
59 76 101
62 80 106
59 75 100
58 74 98
63 80 106
58 74 99
62 78 103
62 80 106
63 81 107
61 79 106
60 76 102
62 79 105
62 79 104
62 79 106
57 73 97
57 73 97
60 77 103
57 74 98
60 78 104
59 76 102
61 77 101
59 75 100
58 74 97
60 77 103
57 72 96
59 75 100
56 72 96
62 80 107
58 73 97
56 72 94
57 73 97
60 76 99
51 66 87
58 74 98
57 73 97
61 77 100
58 74 98
56 71 94
60 77 102
56 71 94
63 81 107
60 76 102
56 72 96
59 76 100
63 80 104
59 75 98
56 71 93
51 64 84
58 75 99
60 76 101
59 75 100
51 65 86
58 74 98
56 71 93
57 73 97
53 68 89
59 75 98
55 71 93
56 71 94
55 69 91
63 80 105
55 71 94
56 72 96
54 68 89
52 67 89
53 67 89
55 71 94
54 69 91
53 67 89
54 69 92
57 72 95
53 68 91
57 72 95
52 67 88
54 68 90
57 73 98
52 67 89
57 72 94
53 67 88
54 68 89
54 68 91
58 73 96
57 72 94
54 69 90
57 73 96
59 75 98
56 71 93
57 72 96
58 73 97
54 68 90
50 64 85
55 69 91
59 74 98
61 77 101
52 66 86
59 75 99
54 68 89
59 75 98
59 76 101
56 70 93
56 71 94
62 78 103
54 67 88
56 70 92
50 65 86
57 72 95
58 75 99
60 77 102
59 74 98
59 76 100
56 71 92
58 74 98
59 75 100
56 71 94
59 75 99
55 71 94
59 75 99
56 72 96
60 76 100
54 69 90
55 70 92
58 74 97
59 76 101
61 78 104
55 70 93
58 73 96
63 80 105
60 77 102
58 74 99
60 77 102
55 70 93
58 75 99
57 73 98
58 75 100
60 76 101
56 72 97
58 73 97
58 74 98
61 77 101
59 75 99
60 77 102
59 76 101
59 76 101
59 76 101
57 73 98
56 72 97
62 79 104
60 78 104
61 78 104
65 82 107
56 72 97
61 79 105
65 82 108
60 78 104
64 82 108
61 79 105
60 78 104
64 81 108
62 79 103
60 76 100
64 81 107
66 84 111
64 83 110
59 76 102
61 79 104
60 77 103
63 80 107
63 81 108
62 80 106
64 82 108
63 82 111
63 82 110
65 83 110
59 75 100
61 78 104
65 83 111
62 79 106
65 84 112
65 83 110
67 86 114
60 77 103
65 84 113
65 83 111
68 87 116
65 84 112
64 83 112
62 80 107
64 81 107
65 84 112
67 86 115
64 83 111
65 83 110
64 83 110
63 80 107
67 87 116
65 83 111
65 84 112
66 85 113
69 89 118
63 82 109
67 85 113
61 78 104
67 86 114
66 85 114
66 85 112
67 87 116
63 81 108
66 86 116
64 82 110
66 84 112
68 88 117
65 85 114
65 85 113
63 81 110
67 87 117
67 87 117
68 87 116
64 83 112
70 90 120
68 87 115
66 86 115
67 86 114
68 89 120
69 90 120
66 85 114
68 88 117
67 86 115
66 85 114
69 89 119
67 86 116
67 87 116
67 85 114
64 82 110
69 90 120
67 87 117
68 88 117
68 88 118
67 86 115
68 86 115
68 88 119
66 86 115
67 86 116
69 89 118
70 90 120
69 88 117
65 85 114
69 89 120
70 89 119
67 86 116
65 85 114
70 90 121
69 89 118
70 91 121
66 86 116
68 88 119
67 87 118
71 92 124
69 89 119
68 88 117
71 92 123
67 87 117
70 89 119
71 91 122
71 91 121
72 92 124
69 90 121
69 89 118
68 88 119
72 93 124
68 87 117
74 94 125
70 90 120
69 90 120
71 92 122
69 90 122
69 90 121
70 89 119
71 92 123
68 89 119
71 91 122
67 87 117
68 88 118
71 91 122
70 90 120
68 88 119
70 89 119
68 88 118
67 87 118
71 91 121
71 90 120
70 91 121
67 88 119
68 87 117
68 88 118
68 87 117
70 90 121
67 88 118
67 87 117
70 90 121
68 87 116
72 91 121
69 89 120
69 89 118
71 91 120
70 91 122
70 91 121
68 87 117
66 86 115
69 89 120
67 88 118
69 88 117
71 91 121
69 89 118
68 87 116
67 87 117
65 84 114
68 88 118
70 90 119
70 90 119
69 88 118
64 83 112
68 88 117
66 86 115
65 84 111
64 83 111
65 84 112
68 87 116
67 86 115
66 85 112
69 88 118
67 87 117
67 86 115
65 84 112
69 88 118
67 85 113
65 84 113
64 83 111
68 86 114
64 83 111
65 85 113
63 81 108
66 86 116
67 86 116
66 85 113
70 89 118
63 80 106
65 84 112
66 84 112
65 84 111
67 86 116
67 86 115
69 89 119
61 80 107
66 86 115
65 83 110
65 83 110
66 85 114
64 82 109
65 83 110
65 83 110
67 85 113
64 81 107
66 85 114
65 84 111
66 86 115
61 80 108
65 83 110
67 86 114
66 84 113
66 85 114
65 83 110
66 86 114
62 79 104
68 86 115
61 79 106
67 85 113
65 84 112
59 77 104
64 81 108
64 82 110
61 78 104
59 76 102
63 81 109
64 81 108
63 80 107
64 81 108
67 85 112
62 79 106
64 81 108
63 80 107
64 81 108
64 81 107
65 84 113
63 80 107
58 75 101
61 77 102
59 76 101
65 82 108
63 80 107
59 77 103
59 76 101
62 80 106
62 80 106
56 72 96
61 78 103
59 76 102
57 73 97
61 77 102
64 82 108
61 78 104
57 73 97
62 79 104
60 76 101
56 72 95
63 81 108
60 76 101
61 78 103
64 82 108
58 74 98
62 79 104
60 76 100
55 70 92
59 76 100
57 74 98
57 73 97
59 75 100
62 78 103
54 68 89
58 74 99
56 72 94
59 75 99
59 75 98
55 71 94
58 74 97
56 72 96
54 69 91
59 75 98
59 74 98
56 71 93
56 72 95
54 69 91
57 72 94
55 69 91
51 65 86
58 74 99
53 68 90
55 71 94
62 79 104
60 77 102
54 68 90
54 68 90
59 75 99
52 66 87
52 66 87
55 70 92
56 72 96
55 70 93
55 69 91
55 69 90
59 75 98
59 75 100
57 72 96
58 73 97
51 64 85
56 73 97
57 73 97
54 69 92
59 76 100
52 67 88
60 76 101
55 69 91
54 69 91
56 71 94
56 72 95
51 64 84
57 73 96
54 69 91
59 74 97
52 67 89
53 67 89
61 77 100
60 76 101
54 69 91
58 73 97
53 67 89
52 66 87
53 67 88
59 76 101
53 67 88
57 72 94
55 71 95
60 75 99
55 70 93
56 71 95
55 70 92
60 76 101
59 75 98
56 71 94
58 74 98
52 67 89
51 65 87
56 72 96
55 71 95
58 74 97
50 64 85
54 68 88
50 64 85
53 67 87
57 73 97
59 74 97
54 69 92
52 66 87
51 65 86
57 73 97
57 73 97
60 76 101
59 75 99
52 66 88
59 75 100
62 79 104
56 72 94
57 74 98
60 77 103
56 72 95
53 67 88
60 77 102
58 74 98
58 74 98
62 79 104
59 76 102
59 76 101
60 76 101
62 78 103
58 74 98
57 73 97
64 81 107
60 77 103
62 78 102
64 82 108
59 75 100
57 72 96
54 69 91
65 83 110
59 76 101
61 78 102
60 77 102
61 78 103
57 74 98
66 83 110
64 81 106
61 79 105
60 77 104
59 77 103
63 81 107
65 82 108
59 75 100
65 83 110
60 77 103
64 82 110
61 78 104
63 82 109
61 78 105
63 81 108
64 82 108
63 81 109
61 78 104
60 77 103
64 82 111
66 85 113
60 77 102
65 83 110
61 78 103
63 80 107
60 78 105
61 78 104
64 82 109
62 79 104
65 83 110
64 82 108
63 82 110
65 82 109
63 81 108
67 85 112
66 84 111
65 83 111
68 87 114
64 82 109
65 84 113
65 83 111
64 81 107
67 87 116
63 82 111
65 84 113
67 87 118
63 81 108
67 87 116
65 83 110
62 80 107
67 86 115
67 87 116
62 80 107
67 86 115
67 86 114
65 84 113
65 83 111
67 86 115
66 83 110
67 87 116
63 81 108
64 84 113
69 89 119
65 84 112
70 90 120
68 87 116
68 87 115
65 83 111
67 86 115
68 87 115
66 86 115
67 85 114
67 87 117
68 87 116
67 87 116
70 90 119
68 88 118
67 87 117
68 88 119
69 90 121
67 87 117
69 88 118
69 89 119
70 91 122
68 88 117
66 86 115
69 89 119
71 91 122
68 88 117
69 90 122
70 90 121
66 86 115
67 88 118
69 88 118
71 91 121
71 91 121
69 89 118
69 89 118
66 86 115
70 90 119
71 90 119
67 86 114
68 88 117
72 92 124
66 86 116
69 89 118
67 88 118
70 91 121
70 91 122
70 90 121
72 93 123
71 91 122
70 90 121
71 92 123
69 88 118
69 90 120
70 91 121
67 86 116
70 90 121
68 87 117
69 89 119
67 87 116
71 91 122
69 89 118
70 90 120
70 90 120
72 93 125
71 92 124
70 90 121
73 94 126
69 89 118
70 90 120
68 88 119
71 91 121
70 90 119
71 92 123
71 91 121
70 91 121
71 90 119
69 88 118
69 90 120
69 89 119
70 90 120
71 92 123
70 91 121
70 90 120
69 89 120
68 89 121
69 89 119
71 91 121
68 88 117
70 90 121
69 89 119
66 86 115
69 89 119
70 91 122
68 89 120
69 89 119
68 86 114
68 88 118
67 87 116
70 91 123
69 88 117
68 88 117
71 91 121
70 89 119
66 86 114
66 86 115
68 87 117
69 89 119
69 89 119
70 91 121
69 88 117
68 88 117
71 91 121
67 86 116
65 84 112
63 82 110
68 88 118
67 87 117
67 88 118
67 86 114
65 84 111
66 85 113
66 84 111
68 87 115
67 86 114
68 87 116
67 86 114
64 83 112
64 82 109
66 85 113
66 85 112
69 88 116
69 88 117
66 85 114
64 82 109
66 85 112
68 88 117
68 88 117
61 78 104
65 85 114
70 90 120
64 84 112
65 84 111
66 86 115
67 87 117
63 81 109
65 84 112
65 84 112
65 84 112
66 85 112
64 84 113
63 80 106
64 83 111
66 86 115
66 85 114
65 84 113
68 87 115
64 83 110
65 83 112
64 83 112
64 83 111
63 82 109
63 81 109
64 82 109
66 84 113
63 81 109
63 82 109
66 85 112
61 79 105
62 79 104
62 80 107
61 78 104
64 82 109
62 79 106
65 83 110
59 76 102
59 77 102
60 77 103
63 81 107
62 80 108
64 83 110
63 81 107
61 78 105
57 73 97
58 76 102
65 83 111
66 84 111
61 78 104
57 73 98
66 84 110
61 78 103
61 78 104
59 76 101
57 72 95
59 75 100
59 75 100
58 74 98
60 76 101
59 76 102
61 78 103
67 85 112
62 78 102
56 71 95
62 79 104
60 77 103
61 77 101
58 75 100
60 77 102
57 73 97
63 80 106
56 71 94
59 76 101
60 77 103
61 78 104
61 78 104
56 73 97
63 80 107
56 72 95
58 74 100
54 68 89
58 73 96
59 75 99
56 71 94
56 71 93
50 64 84
56 71 94
60 76 99
60 76 101
60 75 98
55 70 93
60 76 100
60 76 100
54 69 92
58 74 98
54 69 92
62 79 105
58 74 98
61 77 102
54 69 92
56 71 94
53 68 90
52 66 87
57 73 97
50 63 83
56 70 92
59 74 98
59 76 102
54 68 89
51 65 87
56 72 96
48 62 83
63 80 106
59 76 102
55 70 93
55 70 93
54 68 90
59 75 99
58 73 97
51 65 86
55 71 95
58 73 97
56 72 97
55 71 94
55 71 95
57 72 94
55 70 92
58 74 97
56 71 94
55 71 94
56 70 92
53 67 89
56 72 95
56 71 94
54 68 90
58 73 96
60 76 100
54 69 93
55 69 92
55 71 94
56 73 98
56 72 95
55 70 92
57 73 97
60 77 101
56 71 94
58 73 97
54 69 91
55 70 93
65 84 111
55 70 92
57 73 96
56 72 95
58 74 98
58 75 99
59 75 99
56 71 94
56 72 96
56 71 94
60 77 102
57 74 98
53 68 89
62 78 103
55 70 93
51 66 87
56 71 94
55 70 92
57 73 98
59 76 102
65 82 108
54 69 91
51 66 88
60 77 103
58 74 98
60 77 102
59 76 102
56 71 94
59 75 100
61 77 102
61 78 103
59 76 101
56 72 95
61 78 103
56 72 96
61 77 101
60 77 101
57 73 98
60 78 104
53 69 92
58 75 100
60 76 102
62 79 106
64 82 110
63 81 107
62 79 105
61 77 102
59 76 101
56 72 96
59 76 101
62 77 101
64 81 107
60 77 102
61 78 104
59 75 99
65 83 110
60 78 104
61 78 103
59 75 99
60 76 102
63 80 106
63 81 108
61 78 103
60 77 103
59 76 102
63 80 107
60 78 104
62 80 105
66 85 113
65 83 110
60 78 105
63 82 110
63 81 109
63 81 108
64 82 110
63 80 107
60 77 103
64 82 110
63 81 107
61 79 106
63 81 107
63 80 107
63 81 108
66 85 113
59 76 102
64 82 109
63 81 107
64 82 108
63 81 108
66 86 115
67 87 116
64 83 110
63 80 107
58 75 101
62 81 108
66 86 115
65 85 114
63 80 106
66 84 112
63 82 110
65 85 114
65 84 113
63 81 108
66 84 111
67 86 116
65 83 110
67 86 113
65 84 112
67 86 114
69 89 119
68 88 118
70 91 122
68 89 119
65 85 114
63 82 111
67 86 115
65 84 113
67 87 117
71 90 120
69 88 117
66 85 114
68 87 117
68 89 120
68 88 117
69 88 117
66 86 114
62 81 108
69 88 116
67 87 116
66 84 112
68 87 115
67 87 118
70 89 119
66 86 115
70 90 121
69 88 116
69 89 119
68 87 117
70 91 121
66 86 115
68 90 121
69 89 119
67 86 115
71 91 121
67 86 116
68 88 116
68 87 117
69 89 119
69 89 120
66 86 116
67 87 117
72 93 123
67 87 117
70 90 120
70 90 119
69 89 119
70 90 120
67 87 117
71 91 121
68 88 117
69 89 119
72 93 123
67 88 118
70 90 120
69 89 119
71 91 122
70 90 120
70 89 119
69 89 119
69 88 118
68 86 114
70 90 120
71 92 124
69 90 120
68 88 119
71 91 121
72 94 126
70 90 121
